Log/Arri Alexa LogC.3dl
#25pt 3DLUT created by 3D LUT Creator Pro (c) Oleg Sharonov
#Copyright Oleg Sharonov
#IMAGEPROFILE sRGB
#INPUTGAMMA LogC
#OUTPUTGAMMA sRGB
0 43 86 128 171 214 256 299 341 384 427 469 512 555 597 640 682 725 768 810 853 896 938 981 1023 
0 0 0
0 0 0
0 0 0
0 0 263
0 0 476
0 0 698
0 0 952
3 3 1255
5 5 1629
10 10 2070
18 18 2542
36 36 3006
63 63 3457
94 94 3918
640 640 4085
1230 1230 4095
1833 1833 4077
2414 2414 4000
2881 2881 3944
3230 3230 3928
3481 3481 3941
3655 3655 3965
3775 3775 3990
3857 3857 4012
3916 3916 4029
0 0 0
0 0 0
0 0 0
0 0 263
0 0 476
0 0 698
0 0 952
3 3 1255
5 5 1629
10 10 2070
18 18 2542
36 36 3006
63 63 3457
94 94 3918
640 640 4085
1230 1230 4095
1833 1833 4077
2414 2414 4000
2881 2881 3944
3230 3230 3928
3481 3481 3941
3655 3655 3965
3775 3775 3990
3857 3857 4012
3916 3916 4029
0 0 0
0 0 0
0 0 0
0 0 263
0 0 476
0 0 698
0 0 952
3 3 1255
5 5 1629
10 10 2070
18 18 2542
36 36 3006
63 63 3457
94 94 3918
640 640 4085
1230 1230 4095
1833 1833 4077
2414 2414 4000
2881 2881 3944
3230 3230 3928
3481 3481 3941
3655 3655 3965
3775 3775 3990
3857 3857 4012
3916 3916 4029
0 283 0
0 283 0
0 283 0
0 239 231
0 172 457
0 55 673
0 0 932
3 3 1246
5 5 1622
10 10 2065
18 18 2535
34 34 3001
63 63 3454
94 94 3916
638 638 4085
1228 1228 4095
1832 1832 4076
2413 2413 4000
2881 2881 3944
3230 3230 3928
3481 3481 3941
3655 3655 3965
3774 3774 3990
3857 3857 4012
3916 3916 4029
0 504 0
0 504 0
0 504 0
0 476 172
0 437 423
0 379 651
3 276 910
3 57 1226
5 5 1608
10 10 2054
18 18 2528
34 34 2996
63 63 3450
94 94 3914
636 636 4085
1227 1227 4095
1831 1831 4077
2413 2413 4000
2880 2880 3944
3230 3230 3928
3481 3481 3941
3655 3655 3965
3774 3774 3990
3857 3857 4012
3916 3916 4029
3 727 3
3 727 3
3 727 3
3 706 73
3 677 373
3 634 616
3 569 883
5 460 1202
5 254 1587
10 10 2038
18 18 2517
34 34 2989
63 63 3447
94 94 3910
633 633 4084
1225 1225 4095
1830 1830 4077
2412 2412 4000
2880 2880 3944
3230 3230 3929
3481 3481 3941
3655 3655 3965
3774 3774 3990
3857 3857 4012
3916 3916 4029
5 990 5
5 990 5
5 990 5
5 972 5
5 949 288
5 915 558
5 864 840
5 786 1168
10 660 1564
13 436 2020
18 18 2502
34 34 2979
63 63 3439
94 94 3906
629 629 4084
1222 1222 4095
1828 1828 4077
2411 2411 4001
2880 2880 3944
3229 3229 3928
3480 3480 3941
3655 3655 3965
3774 3774 3990
3857 3857 4012
3916 3916 4029
10 1313 10
10 1313 10
10 1313 10
10 1299 10
10 1280 113
8 1251 468
8 1210 772
8 1147 1114
13 1049 1521
18 896 1992
26 633 2486
34 34 2964
63 63 3429
94 94 3898
623 623 4084
1218 1218 4095
1825 1825 4077
2409 2409 4001
2878 2878 3944
3229 3229 3929
3480 3480 3941
3655 3655 3965
3774 3774 3990
3857 3857 4012
3916 3916 4029
5 1710 5
5 1710 5
5 1710 5
5 1698 5
8 1682 8
8 1660 298
8 1626 664
8 1575 1030
8 1497 1455
13 1377 1945
26 1186 2461
44 864 2954
60 60 3415
94 94 3888
614 614 4084
1212 1212 4095
1821 1821 4078
2407 2407 4001
2877 2877 3944
3228 3228 3929
3480 3480 3941
3655 3655 3965
3774 3774 3990
3857 3857 4012
3916 3916 4029
0 2167 0
0 2167 0
0 2167 0
0 2158 0
0 2146 0
0 2129 0
0 2104 472
0 2067 896
0 2009 1350
0 1919 1868
0 1778 2414
8 1545 2936
31 1144 3421
92 242 3876
601 601 4083
1203 1203 4095
1815 1815 4079
2403 2403 4002
2875 2875 3944
3227 3227 3928
3479 3479 3941
3654 3654 3965
3774 3774 3990
3857 3857 4012
3916 3916 4029
44 2617 44
44 2617 44
44 2617 44
42 2612 42
39 2604 39
34 2594 34
29 2579 29
23 2555 671
18 2518 1174
10 2461 1728
3 2371 2316
0 2225 2875
0 1971 3393
0 1491 3889
607 729 4088
1190 1190 4095
1806 1806 4079
2398 2398 4002
2873 2873 3945
3226 3226 3928
3479 3479 3941
3654 3654 3965
3774 3774 3990
3857 3857 4012
3916 3916 4029
422 3020 422
422 3020 422
422 3020 422
418 3017 418
413 3013 413
405 3007 405
395 2998 395
380 2984 445
365 2962 986
343 2928 1543
311 2876 2148
264 2793 2738
297 2651 3275
280 2403 3787
900 1964 4083
1251 1349 4095
1792 1792 4081
2390 2390 4004
2868 2868 3945
3224 3224 3928
3478 3478 3941
3653 3653 3965
3774 3774 3990
3857 3857 4011
3916 3916 4029
932 3360 932
932 3360 932
932 3360 932
929 3358 929
924 3356 924
918 3352 918
909 3347 909
896 3340 896
877 3328 965
856 3309 1447
826 3280 1996
782 3234 2566
715 3161 3110
838 3029 3607
1310 2799 3978
1922 2481 4006
1898 1969 4063
2378 2378 4005
2862 2862 3946
3221 3221 3928
3477 3477 3941
3653 3653 3965
3773 3773 3990
3857 3857 4011
3916 3916 4029
1524 3628 1524
1524 3628 1524
1524 3628 1524
1522 3627 1522
1519 3626 1519
1515 3624 1515
1508 3621 1508
1498 3618 1498
1484 3612 1484
1464 3603 1562
1440 3587 1976
1404 3562 2443
1350 3523 2926
1268 3460 3413
1498 3339 3870
2470 3131 3935
2641 2913 3946
2496 2536 3985
2853 2853 3946
3216 3216 3928
3474 3474 3941
3652 3652 3965
3773 3773 3990
3857 3857 4011
3916 3916 4029
2064 3825 2064
2064 3825 2064
2064 3825 2064
2063 3825 2063
2061 3824 2061
2059 3823 2059
2055 3822 2055
2050 3820 2050
2042 3818 2042
2031 3814 2031
2014 3807 2105
1992 3793 2429
1959 3772 2799
1908 3740 3203
1828 3687 3643
2608 3543 3934
3059 3396 3931
3104 3247 3928
2957 2978 3937
3210 3210 3928
3471 3471 3940
3650 3650 3964
3772 3772 3990
3856 3856 4011
3916 3916 4029
2453 3963 2453
2453 3963 2453
2453 3963 2453
2452 3963 2452
2452 3963 2452
2451 3962 2451
2449 3962 2449
2447 3961 2447
2443 3960 2443
2438 3958 2438
2430 3955 2430
2419 3949 2495
2402 3938 2749
2375 3921 3052
2334 3893 3402
2268 3848 3807
3185 3689 3955
3397 3592 3949
3409 3491 3940
3291 3303 3930
3466 3466 3940
3648 3648 3964
3771 3771 3989
3856 3856 4011
3915 3915 4029
3119 3992 3119
3119 3992 3119
3119 3992 3119
3118 3992 3118
3117 3992 3117
3117 3992 3117
3115 3992 3115
3113 3991 3113
3110 3991 3110
3105 3991 3105
3097 3991 3097
3086 3990 3086
3063 3989 3099
3011 3989 3190
2919 3988 3330
2736 3986 3555
2568 3960 3921
3484 3796 3980
3607 3730 3974
3610 3662 3964
3526 3533 3947
3645 3645 3964
3770 3770 3989
3855 3855 4011
3915 3915 4029
3442 4013 3442
3442 4013 3442
3442 4013 3442
3442 4013 3442
3442 4013 3442
3442 4013 3442
3441 4013 3441
3440 4013 3440
3439 4013 3439
3437 4013 3437
3434 4012 3434
3430 4012 3430
3425 4012 3425
3412 4011 3433
3384 4010 3484
3337 4010 3567
3248 4008 3710
3045 4006 3975
3663 3872 4003
3743 3826 3998
3745 3779 3989
3687 3691 3972
3768 3768 3988
3854 3854 4011
3915 3915 4029
3632 4030 3632
3632 4030 3632
3632 4030 3632
3632 4030 3632
3632 4030 3632
3632 4030 3632
3631 4030 3631
3631 4030 3631
3630 4030 3630
3630 4030 3630
3629 4030 3629
3627 4030 3627
3624 4030 3624
3621 4029 3621
3613 4029 3626
3595 4028 3660
3566 4028 3715
3512 4027 3812
3396 4025 4002
3780 3927 4022
3836 3894 4018
3837 3861 4011
3797 3800 3996
3853 3853 4010
3914 3914 4028
3756 4044 3756
3756 4044 3756
3756 4044 3756
3756 4044 3756
3756 4044 3756
3756 4044 3756
3756 4044 3756
3756 4044 3756
3756 4044 3756
3755 4044 3755
3755 4044 3755
3754 4044 3754
3753 4044 3753
3751 4044 3751
3749 4043 3749
3743 4043 3753
3731 4043 3776
3712 4042 3814
3675 4041 3883
3600 4040 4022
3860 3967 4038
3901 3943 4035
3902 3919 4029
3873 3875 4017
3913 3913 4028
3844 4055 3844
3844 4055 3844
3844 4055 3844
3844 4055 3844
3844 4055 3844
3844 4055 3844
3844 4055 3844
3844 4055 3844
3844 4055 3844
3843 4055 3843
3843 4055 3843
3843 4055 3843
3842 4055 3842
3841 4055 3841
3840 4055 3840
3838 4055 3838
3835 4054 3841
3826 4054 3858
3812 4054 3885
3786 4053 3936
3734 4052 4039
3919 3997 4050
3948 3979 4048
3949 3961 4043
3927 3929 4033
3908 4064 3908
3908 4064 3908
3908 4064 3908
3908 4064 3908
3908 4064 3908
3908 4064 3908
3908 4064 3908
3908 4064 3908
3908 4064 3908
3908 4064 3908
3908 4064 3908
3907 4064 3907
3907 4064 3907
3907 4064 3907
3906 4064 3906
3905 4064 3905
3904 4064 3904
3901 4063 3906
3895 4063 3918
3885 4063 3938
3866 4062 3975
3829 4061 4052
3962 4020 4060
3983 4007 4058
3984 3993 4054
3956 4071 3956
3956 4071 3956
3956 4071 3956
3956 4071 3956
3956 4071 3956
3956 4071 3956
3956 4071 3956
3956 4071 3956
3956 4071 3956
3956 4071 3956
3956 4071 3956
3956 4071 3956
3956 4071 3956
3955 4071 3955
3955 4071 3955
3955 4071 3955
3954 4071 3954
3953 4071 3953
3951 4071 3954
3946 4071 3963
3939 4070 3978
3925 4070 4005
3898 4069 4062
3995 4038 4068
4011 4028 4067
3992 4077 3992
3992 4077 3992
3992 4077 3992
3992 4077 3992
3992 4077 3992
3992 4077 3992
3992 4077 3992
3992 4077 3992
3992 4077 3992
3992 4077 3992
3992 4077 3992
3992 4077 3992
3992 4077 3992
3992 4077 3992
3992 4077 3992
3992 4077 3992
3991 4077 3991
3991 4077 3991
3990 4077 3990
3988 4077 3991
3985 4077 3997
3980 4076 4008
3970 4076 4028
3950 4075 4070
4020 4052 4075
4020 4082 4020
4020 4082 4020
4020 4082 4020
4020 4082 4020
4020 4082 4020
4020 4082 4020
4020 4082 4020
4020 4082 4020
4020 4082 4020
4020 4082 4020
4020 4082 4020
4020 4082 4020
4020 4082 4020
4020 4082 4020
4020 4082 4020
4020 4082 4020
4020 4082 4020
4019 4082 4019
4019 4082 4019
4018 4082 4018
4017 4081 4019
4015 4081 4024
4011 4081 4031
4004 4081 4045
3989 4080 4076
0 0 0
0 0 0
0 0 0
0 0 263
0 0 476
0 0 698
0 0 952
3 3 1255
5 5 1629
10 10 2070
18 18 2542
36 36 3006
63 63 3457
94 94 3918
640 640 4085
1230 1230 4095
1833 1833 4077
2414 2414 4000
2881 2881 3944
3230 3230 3928
3481 3481 3941
3655 3655 3965
3775 3775 3990
3857 3857 4012
3916 3916 4029
0 0 0
0 0 0
0 0 0
0 0 263
0 0 476
0 0 698
0 0 952
3 3 1255
5 5 1629
10 10 2070
18 18 2542
36 36 3006
63 63 3457
94 94 3918
640 640 4085
1230 1230 4095
1833 1833 4077
2414 2414 4000
2881 2881 3944
3230 3230 3928
3481 3481 3941
3655 3655 3965
3775 3775 3990
3857 3857 4012
3916 3916 4029
0 0 0
0 0 0
0 0 0
0 0 263
0 0 476
0 0 698
0 0 952
3 3 1255
5 5 1629
10 10 2070
18 18 2542
36 36 3006
63 63 3457
94 94 3918
640 640 4085
1230 1230 4095
1833 1833 4077
2414 2414 4000
2881 2881 3944
3230 3230 3928
3481 3481 3941
3655 3655 3965
3775 3775 3990
3857 3857 4012
3916 3916 4029
0 283 0
0 283 0
0 283 0
0 239 231
0 172 457
0 55 673
0 0 932
3 3 1246
5 5 1622
10 10 2065
18 18 2535
34 34 3001
63 63 3454
94 94 3916
638 638 4085
1228 1228 4095
1832 1832 4076
2413 2413 4000
2881 2881 3944
3230 3230 3928
3481 3481 3941
3655 3655 3965
3774 3774 3990
3857 3857 4012
3916 3916 4029
0 504 0
0 504 0
0 504 0
0 476 172
0 437 423
0 379 651
3 276 910
3 57 1226
5 5 1608
10 10 2054
18 18 2528
34 34 2996
63 63 3450
94 94 3914
636 636 4085
1227 1227 4095
1831 1831 4077
2413 2413 4000
2880 2880 3944
3230 3230 3928
3481 3481 3941
3655 3655 3965
3774 3774 3990
3857 3857 4012
3916 3916 4029
3 727 3
3 727 3
3 727 3
3 706 73
3 677 373
3 634 616
3 569 883
5 460 1202
5 254 1587
10 10 2038
18 18 2517
34 34 2989
63 63 3447
94 94 3910
633 633 4084
1225 1225 4095
1830 1830 4077
2412 2412 4000
2880 2880 3944
3230 3230 3929
3481 3481 3941
3655 3655 3965
3774 3774 3990
3857 3857 4012
3916 3916 4029
5 990 5
5 990 5
5 990 5
5 972 5
5 949 288
5 915 558
5 864 840
5 786 1168
10 660 1564
13 436 2020
18 18 2502
34 34 2979
63 63 3439
94 94 3906
629 629 4084
1222 1222 4095
1828 1828 4077
2411 2411 4001
2880 2880 3944
3229 3229 3928
3480 3480 3941
3655 3655 3965
3774 3774 3990
3857 3857 4012
3916 3916 4029
10 1313 10
10 1313 10
10 1313 10
10 1299 10
10 1280 113
8 1251 468
8 1210 772
8 1147 1114
13 1049 1521
18 896 1992
26 633 2486
34 34 2964
63 63 3429
94 94 3898
623 623 4084
1218 1218 4095
1825 1825 4077
2409 2409 4001
2878 2878 3944
3229 3229 3929
3480 3480 3941
3655 3655 3965
3774 3774 3990
3857 3857 4012
3916 3916 4029
5 1710 5
5 1710 5
5 1710 5
5 1698 5
8 1682 8
8 1660 298
8 1626 664
8 1575 1030
8 1497 1455
13 1377 1945
26 1186 2461
44 864 2954
60 60 3415
94 94 3888
614 614 4084
1212 1212 4095
1821 1821 4078
2407 2407 4001
2877 2877 3944
3228 3228 3929
3480 3480 3941
3655 3655 3965
3774 3774 3990
3857 3857 4012
3916 3916 4029
0 2167 0
0 2167 0
0 2167 0
0 2158 0
0 2146 0
0 2129 0
0 2104 472
0 2067 896
0 2009 1350
0 1919 1868
0 1778 2414
8 1545 2936
31 1144 3421
92 242 3876
601 601 4083
1203 1203 4095
1815 1815 4079
2403 2403 4002
2875 2875 3944
3227 3227 3928
3479 3479 3941
3654 3654 3965
3774 3774 3990
3857 3857 4012
3916 3916 4029
44 2617 44
44 2617 44
44 2617 44
42 2612 42
39 2604 39
34 2594 34
29 2579 29
23 2555 671
18 2518 1174
10 2461 1728
3 2371 2316
0 2225 2875
0 1971 3393
0 1491 3889
607 729 4088
1190 1190 4095
1806 1806 4079
2398 2398 4002
2873 2873 3945
3226 3226 3928
3479 3479 3941
3654 3654 3965
3774 3774 3990
3857 3857 4012
3916 3916 4029
