Log/Arri Alexa LogC.3dl
#25pt 3DLUT created by 3D LUT Creator Pro (c) Oleg Sharonov
#Copyright Oleg Sharonov
#IMAGEPROFILE sRGB
#INPUTGAMMA LogC
#OUTPUTGAMMA sRGB
0 256 512 768 1023
0 0 0
0 0 952
63 63 3457
2881 2881 3944
3916 3916 4029
5 990 5
5 864 840
63 63 3439
2880 2880 3944
3916 3916 4029
932 3360 932
909 3347 909
715 3161 3110
2862 2862 3946
3916 3916 4029
3632 4030 3632
3631 4030 3631
3624 4030 3624
3396 4025 4002
3914 3914 4028
4020 4082 4020
4020 4082 4020
4020 4082 4020
4019 4082 4019
3989 4080 4076
1113 3 3
1078 3 938
629 68 3457
2881 2881 3944
3916 3916 4029
870 958 5
829 829 829
192 63 3439
2879 2879 3944
3916 3916 4029
926 3356 926
903 3344 903
709 3156 3109
2862 2862 3946
3916 3916 4029
3632 4030 3632
3631 4030 3631
3624 4029 3624
3395 4025 4002
3914 3914 4028
4020 4082 4020
4020 4082 4020
4020 4082 4020
4019 4082 4019
3989 4080 4076
3790 0 0
3784 0 819
3706 78 3445
3099 3019 3933
3916 3916 4029
3754 509 0
3753 282 694
3677 52 3432
3088 3011 3933
3916 3916 4029
3103 3261 1051
3101 3248 1030
3052 3052 3052
2940 2909 3941
3916 3916 4029
3630 4030 3630
3629 4030 3629
3622 4029 3622
3391 4025 4003
3914 3914 4028
4020 4082 4020
4020 4082 4020
4020 4082 4020
4019 4082 4019
3989 4080 4076
3977 3661 3661
3977 3661 3661
3978 3665 3686
3988 3701 3935
3941 3934 4035
3976 3660 3660
3976 3660 3660
3977 3664 3685
3988 3700 3935
3941 3934 4035
3982 3692 3680
3982 3690 3678
3980 3677 3686
3987 3691 3935
3939 3933 4035
3913 4027 2889
3914 4027 2888
3919 4024 2883
3934 3934 3934
3923 3920 4031
4020 4082 4020
4020 4082 4020
4020 4082 4020
4018 4082 4018
3988 4080 4077
4067 4018 4018
4067 4018 4018
4067 4018 4018
4067 4019 4022
4070 4025 4061
4067 4018 4018
4067 4018 4018
4067 4018 4018
4067 4019 4022
4070 4025 4061
4067 4018 4018
4067 4018 4018
4067 4018 4018
4067 4019 4022
4070 4025 4061
4069 4023 4021
4069 4023 4021
4069 4023 4021
4068 4021 4022
4070 4023 4061
4062 4083 3930
4062 4083 3930
4062 4084 3930
4063 4083 3924
4066 4066 4066
