Log/Arri Alexa LogC.3dl
#25pt 3DLUT created by 3D LUT Creator Pro (c) Oleg Sharonov
#Copyright Oleg Sharonov
#IMAGEPROFILE sRGB
#INPUTGAMMA LogC
#OUTPUTGAMMA sRGB
0 128 256 384 512 640 768 896 1023
0 0 0
0 0 263
0 0 952
10 10 2070
63 63 3457
1230 1230 4095
2881 2881 3944
3655 3655 3965
3916 3916 4029
0 283 0
0 239 231
0 0 932
10 10 2065
63 63 3454
1228 1228 4095
2881 2881 3944
3655 3655 3965
3916 3916 4029
5 990 5
5 972 5
5 864 840
13 436 2020
63 63 3439
1222 1222 4095
2880 2880 3944
3655 3655 3965
3916 3916 4029
0 2167 0
0 2158 0
0 2104 472
0 1919 1868
31 1144 3421
1203 1203 4095
2875 2875 3944
3654 3654 3965
3916 3916 4029
932 3360 932
929 3358 929
909 3347 909
856 3309 1447
715 3161 3110
1922 2481 4006
2862 2862 3946
3653 3653 3965
3916 3916 4029
2453 3963 2453
2452 3963 2452
2449 3962 2449
2438 3958 2438
2402 3938 2749
2268 3848 3807
3409 3491 3940
3648 3648 3964
3915 3915 4029
3632 4030 3632
3632 4030 3632
3631 4030 3631
3630 4030 3630
3624 4030 3624
3595 4028 3660
3396 4025 4002
3837 3861 4011
3914 3914 4028
3908 4064 3908
3908 4064 3908
3908 4064 3908
3908 4064 3908
3907 4064 3907
3905 4064 3905
3895 4063 3918
3829 4061 4052
3984 3993 4054
4020 4082 4020
4020 4082 4020
4020 4082 4020
4020 4082 4020
4020 4082 4020
4020 4082 4020
4019 4082 4019
4015 4081 4024
3989 4080 4076
327 0 0
313 0 264
237 0 944
10 10 2070
63 63 3457
1230 1230 4095
2881 2881 3944
3655 3655 3965
3916 3916 4029
242 273 0
227 227 227
127 0 930
10 10 2065
63 63 3454
1228 1228 4095
2880 2880 3944
3655 3655 3965
3916 3916 4029
5 985 5
5 968 5
3 860 838
13 429 2018
63 63 3439
1222 1222 4095
2879 2879 3944
3655 3655 3965
3916 3916 4029
0 2165 0
0 2156 0
0 2101 470
0 1916 1867
31 1140 3421
1203 1203 4095
2875 2875 3945
3654 3654 3965
3916 3916 4029
931 3359 931
927 3358 927
908 3347 908
856 3309 1446
715 3160 3110
1921 2480 4006
2862 2862 3946
3653 3653 3965
3916 3916 4029
2453 3963 2453
2452 3963 2452
2449 3962 2449
2437 3957 2437
2401 3938 2749
2268 3848 3807
3409 3491 3940
3648 3648 3964
3915 3915 4029
3632 4030 3632
3632 4030 3632
3631 4030 3631
3630 4030 3630
3624 4030 3624
3595 4028 3660
3396 4025 4002
3837 3861 4011
3914 3914 4028
3908 4064 3908
3908 4064 3908
3908 4064 3908
3908 4064 3908
3907 4064 3907
3905 4064 3905
3895 4063 3918
3829 4061 4052
3984 3993 4054
4020 4082 4020
4020 4082 4020
4020 4082 4020
4020 4082 4020
4020 4082 4020
4020 4082 4020
4019 4082 4019
4015 4081 4024
3989 4080 4076
1113 3 3
1109 3 248
1078 3 938
978 13 2070
629 68 3457
1229 1229 4095
2881 2881 3944
3655 3655 3965
3916 3916 4029
1080 201 5
1075 145 207
1044 3 922
943 13 2062
582 68 3455
1228 1228 4095
2880 2880 3944
3655 3655 3965
3916 3916 4029
870 958 5
864 940 5
829 829 829
712 380 2016
192 63 3439
1221 1221 4095
2879 2879 3944
3655 3655 3965
3916 3916 4029
0 2151 0
0 2142 0
0 2087 457
0 1900 1862
34 1115 3419
1202 1202 4095
2875 2875 3945
3654 3654 3965
3916 3916 4029
926 3356 926
923 3355 923
903 3344 903
850 3306 1438
709 3156 3109
1914 2472 4007
2862 2862 3946
3653 3653 3965
3916 3916 4029
2452 3963 2452
2452 3962 2452
2448 3961 2448
2437 3957 2437
2400 3938 2748
2267 3848 3808
3408 3490 3940
3648 3648 3964
3915 3915 4029
3632 4030 3632
3632 4030 3632
3631 4030 3631
3630 4030 3630
3624 4029 3624
3595 4028 3659
3395 4025 4002
3837 3861 4011
3914 3914 4028
3908 4064 3908
3908 4064 3908
3908 4064 3908
3908 4064 3908
3907 4064 3907
3905 4064 3905
3895 4063 3918
3829 4061 4052
3984 3993 4054
4020 4082 4020
4020 4082 4020
4020 4082 4020
4020 4082 4020
4020 4082 4020
4020 4082 4020
4019 4082 4019
4015 4081 4024
3989 4080 4076
2380 26 26
2378 26 192
2365 26 915
2323 26 2064
2173 39 3478
1785 1349 4095
2880 2880 3944
3655 3655 3965
3916 3916 4029
2364 26 26
2363 26 143
2350 26 899
2307 26 2056
2155 39 3475
1771 1345 4095
2880 2880 3944
3655 3655 3965
3916 3916 4029
2277 868 18
2275 849 18
2259 731 803
2208 181 2006
2041 44 3458
1686 1320 4095
2879 2879 3944
3655 3655 3965
3916 3916 4029
1924 2099 0
1921 2090 0
1905 2036 409
1845 1845 1845
1631 1030 3421
1379 1237 4095
2875 2875 3945
3654 3654 3965
3916 3916 4029
909 3347 909
906 3346 906
886 3335 886
833 3296 1412
691 3144 3107
1891 2445 4011
2862 2862 3946
3653 3653 3965
3916 3916 4029
2449 3962 2449
2448 3961 2448
2445 3960 2445
2434 3956 2434
2397 3936 2744
2263 3846 3808
3405 3487 3940
3648 3648 3964
3915 3915 4029
3631 4030 3631
3631 4030 3631
3631 4030 3631
3629 4030 3629
3624 4029 3624
3595 4028 3659
3394 4025 4002
3837 3860 4011
3914 3914 4028
3908 4064 3908
3908 4064 3908
3908 4064 3908
3908 4064 3908
3907 4064 3907
3905 4064 3905
3895 4063 3918
3829 4061 4052
3984 3993 4054
4020 4082 4020
4020 4082 4020
4020 4082 4020
4020 4082 4020
4020 4082 4020
4020 4082 4020
4019 4082 4019
4015 4081 4024
3989 4080 4076
3790 0 0
3789 0 0
3784 0 819
3768 0 2014
3706 78 3445
3071 1898 4019
3099 3019 3933
3655 3655 3965
3916 3916 4029
3785 0 0
3785 0 0
3780 0 802
3763 0 2006
3702 73 3443
3067 1894 4020
3097 3018 3933
3655 3655 3965
3916 3916 4029
3754 509 0
3754 482 0
3753 282 694
3737 0 1957
3677 52 3432
3046 1871 4023
3088 3011 3933
3655 3655 3965
3916 3916 4029
3587 1930 385
3587 1921 380
3588 1861 464
3586 1655 1780
3575 742 3377
2974 1799 4034
3056 2988 3935
3654 3654 3965
3916 3916 4029
3103 3261 1051
3103 3260 1049
3101 3248 1030
3091 3209 1440
3052 3052 3052
2836 2531 3974
2940 2909 3941
3653 3653 3965
3916 3916 4029
2439 3958 2439
2439 3958 2439
2435 3957 2435
2424 3953 2424
2386 3933 2730
2249 3841 3812
3395 3476 3939
3648 3648 3964
3915 3915 4029
3630 4030 3630
3630 4030 3630
3629 4030 3629
3628 4030 3628
3622 4029 3622
3593 4028 3657
3391 4025 4003
3836 3859 4011
3914 3914 4028
3908 4064 3908
3908 4064 3908
3908 4064 3908
3907 4064 3907
3907 4064 3907
3905 4064 3905
3894 4063 3917
3828 4061 4052
3983 3993 4054
4020 4082 4020
4020 4082 4020
4020 4082 4020
4020 4082 4020
4020 4082 4020
4020 4082 4020
4019 4082 4019
4015 4081 4023
3989 4080 4076
3933 2784 2784
3933 2784 2784
3932 2784 2796
3932 2794 2902
3930 2825 3183
3928 2902 3779
3596 3377 3937
3725 3707 3976
3916 3916 4029
3933 2782 2782
3933 2782 2782
3933 2782 2793
3932 2792 2900
3930 2823 3182
3928 2900 3779
3596 3377 3937
3725 3707 3976
3916 3916 4029
3933 2772 2772
3933 2772 2772
3933 2771 2777
3932 2782 2886
3931 2813 3175
3928 2891 3780
3593 3374 3936
3724 3706 3976
3916 3916 4029
3930 2889 2829
3930 2886 2827
3930 2871 2817
3931 2830 2883
3931 2779 3150
3929 2860 3785
3583 3365 3936
3721 3703 3975
3916 3916 4029
3935 3305 3018
3935 3303 3018
3934 3297 3014
3934 3277 3025
3932 3213 3242
3928 2940 3810
3549 3335 3934
3710 3695 3974
3916 3916 4029
3704 3831 2404
3704 3830 2403
3704 3829 2400
3707 3824 2390
3709 3802 2650
3704 3704 3704
3605 3550 3951
3673 3667 3968
3915 3915 4029
3626 4030 3626
3625 4030 3625
3625 4030 3625
3623 4029 3623
3618 4029 3618
3588 4028 3652
3379 4024 4007
3833 3856 4010
3914 3914 4028
3907 4064 3907
3907 4064 3907
3907 4064 3907
3907 4064 3907
3906 4064 3906
3904 4064 3904
3894 4063 3917
3827 4061 4052
3983 3992 4054
4020 4082 4020
4020 4082 4020
4020 4082 4020
4020 4082 4020
4020 4082 4020
4020 4082 4020
4019 4082 4019
4015 4081 4023
3989 4080 4076
3977 3661 3661
3977 3661 3661
3977 3661 3661
3977 3662 3665
3978 3665 3686
3980 3675 3752
3988 3701 3935
3891 3826 4007
3941 3934 4035
3977 3661 3661
3977 3661 3661
3977 3661 3661
3977 3661 3665
3978 3665 3686
3980 3675 3752
3988 3701 3935
3891 3826 4007
3941 3934 4035
3976 3660 3660
3976 3660 3660
3976 3660 3660
3977 3661 3663
3977 3664 3685
3980 3674 3751
3988 3700 3935
3890 3826 4007
3941 3934 4035
3976 3658 3658
3976 3658 3658
3976 3657 3657
3976 3658 3659
3977 3661 3682
3980 3672 3749
3988 3698 3935
3889 3825 4007
3940 3934 4035
3982 3692 3680
3982 3692 3679
3982 3690 3678
3981 3686 3675
3980 3677 3686
3978 3663 3740
3987 3691 3935
3886 3822 4006
3939 3933 4035
4005 3807 3739
4005 3807 3739
4005 3806 3739
4005 3804 3738
4003 3799 3740
4001 3781 3788
3991 3713 3949
3873 3813 4003
3936 3930 4034
3913 4027 2889
3913 4027 2889
3914 4027 2888
3915 4026 2887
3919 4024 2883
3926 4009 3074
3934 3934 3934
3899 3881 4020
3923 3920 4031
3906 4064 3906
3906 4064 3906
3906 4064 3906
3905 4064 3905
3905 4064 3905
3903 4063 3903
3892 4063 3915
3824 4061 4054
3982 3991 4054
4020 4082 4020
4020 4082 4020
4020 4082 4020
4020 4082 4020
4020 4082 4020
4019 4082 4019
4018 4082 4018
4014 4081 4023
3988 4080 4077
4036 3919 3919
4036 3919 3919
4036 3919 3919
4036 3919 3919
4036 3919 3920
4036 3920 3928
4038 3923 3951
4042 3933 4021
4005 3979 4052
4036 3919 3919
4036 3919 3919
4036 3919 3919
4036 3919 3919
4036 3919 3920
4036 3920 3927
4038 3923 3951
4042 3933 4021
4005 3979 4052
4036 3919 3919
4036 3919 3919
4036 3919 3919
4036 3919 3919
4036 3919 3920
4036 3920 3927
4038 3924 3951
4042 3932 4021
4004 3979 4052
4036 3918 3918
4036 3918 3918
4036 3918 3918
4036 3918 3918
4036 3918 3920
4036 3920 3927
4038 3923 3950
4042 3932 4021
4004 3979 4052
4035 3917 3917
4035 3917 3917
4035 3917 3917
4035 3917 3917
4035 3917 3918
4036 3919 3926
4038 3922 3949
4042 3931 4021
4004 3979 4052
4039 3930 3925
4039 3930 3925
4039 3929 3925
4039 3929 3925
4038 3928 3924
4037 3924 3928
4037 3919 3947
4041 3929 4021
4002 3978 4052
4051 3972 3946
4051 3972 3946
4051 3972 3946
4051 3972 3946
4051 3971 3946
4050 3969 3947
4049 3962 3965
4044 3937 4026
3998 3974 4050
4014 4068 3650
4014 4068 3650
4014 4068 3650
4015 4068 3649
4015 4068 3645
4016 4067 3632
4018 4067 3605
4024 4024 4024
4009 4002 4059
4019 4082 4019
4019 4082 4019
4019 4082 4019
4019 4082 4019
4019 4082 4019
4019 4082 4019
4018 4081 4018
4013 4081 4022
3987 4080 4077
4067 4018 4018
4067 4018 4018
4067 4018 4018
4067 4018 4018
4067 4018 4018
4067 4018 4019
4067 4019 4022
4068 4020 4032
4070 4025 4061
4067 4018 4018
4067 4018 4018
4067 4018 4018
4067 4018 4018
4067 4018 4018
4067 4018 4019
4067 4019 4022
4068 4020 4032
4070 4025 4061
4067 4018 4018
4067 4018 4018
4067 4018 4018
4067 4018 4018
4067 4018 4018
4067 4018 4019
4067 4019 4022
4068 4020 4032
4070 4025 4061
4067 4018 4018
4067 4018 4018
4067 4018 4018
4067 4018 4018
4067 4018 4018
4067 4018 4019
4067 4019 4022
4068 4020 4032
4070 4025 4061
4067 4018 4018
4067 4018 4018
4067 4018 4018
4067 4018 4018
4067 4018 4018
4067 4018 4018
4067 4019 4022
4068 4020 4031
4070 4025 4061
4067 4017 4017
4067 4017 4017
4067 4017 4017
4067 4017 4017
4067 4017 4017
4067 4018 4018
4067 4018 4021
4068 4020 4031
4070 4024 4061
4069 4023 4021
4069 4023 4021
4069 4023 4021
4069 4023 4021
4069 4023 4021
4068 4022 4021
4068 4021 4022
4068 4018 4030
4070 4023 4061
4075 4042 4032
4075 4042 4032
4075 4042 4032
4075 4042 4032
4075 4042 4032
4075 4042 4031
4075 4041 4032
4074 4038 4039
4071 4027 4064
4062 4083 3930
4062 4083 3930
4062 4083 3930
4062 4084 3930
4062 4084 3930
4062 4083 3929
4063 4083 3924
4064 4083 3915
4066 4066 4066
