Log/Black Magic - BMD Film 4.6K URSA.3dl
#25pt 3DLUT created by 3D LUT Creator Pro (c) Oleg Sharonov
#Copyright Oleg Sharonov
#INPUTGAMMA BMDFilm 4.6K
#IMAGEPROFILE sRGB
#OUTPUTGAMMA sRGB
0 256 512 768 1023
0 0 0
10 85 884
78 444 2330
1146 1399 3801
3256 3256 3256
3 1015 3
0 974 947
95 822 2335
1138 1392 3800
3300 3300 3300
645 2620 645
633 2606 632
590 2537 2479
1797 2391 3763
3478 3478 3478
3277 3967 3277
3269 3966 3269
3234 3965 3271
3115 3957 3935
3875 3875 3875
3897 3897 3897
3900 3900 3900
3914 3914 3914
3972 3972 3972
4021 4021 4021
1010 0 0
959 0 1033
396 98 2787
1142 1396 3800
3284 3284 3284
974 965 3
920 920 920
463 740 2413
1134 1389 3800
3327 3327 3327
982 2606 648
922 2592 632
574 2520 2463
1778 2372 3763
3499 3499 3499
3268 3966 3268
3261 3966 3261
3225 3965 3259
3109 3956 3934
3880 3880 3880
3901 3901 3901
3904 3904 3904
3919 3919 3919
3975 3975 3975
4024 4024 4024
2618 88 88
2602 88 728
2489 155 2658
1893 1424 3960
3399 3399 3399
2602 642 129
2585 570 574
2477 145 2623
1879 1413 3961
3437 3437 3437
2550 2530 741
2532 2514 725
2430 2430 2430
2188 2348 3823
3584 3584 3584
3390 3970 3223
3380 3970 3214
3333 3968 3195
3177 3950 3929
3903 3903 3903
3921 3921 3921
3924 3924 3924
3937 3937 3937
3988 3988 3988
4033 4033 4033
3887 2144 2144
3887 2139 2139
3885 2153 2555
3790 2409 3880
3751 3751 3751
3887 2141 2141
3887 2135 2135
3886 2148 2535
3792 2400 3880
3766 3766 3766
3884 2708 2443
3884 2694 2431
3883 2646 2648
3810 2562 3881
3824 3824 3824
3955 3948 3303
3954 3947 3298
3948 3943 3274
3917 3917 3917
3983 3983 3983
3994 3994 3994
3996 3996 3996
4005 4005 4005
4040 4040 4040
4073 4073 4073
3598 3598 3598
3609 3609 3609
3656 3656 3656
3813 3813 3813
3917 3917 3917
3623 3623 3623
3634 3634 3634
3677 3677 3677
3825 3825 3825
3924 3924 3924
3717 3717 3717
3725 3725 3725
3757 3757 3757
3870 3870 3870
3952 3952 3952
3943 3943 3943
3945 3945 3945
3957 3957 3957
4003 4003 4003
4044 4044 4044
4052 4052 4052
4054 4054 4054
4059 4059 4059
4084 4084 4084
4095 4095 4095
