Log/Black Magic - BMD Film 4.6K URSA.3dl
#25pt 3DLUT created by 3D LUT Creator Pro (c) Oleg Sharonov
#Copyright Oleg Sharonov
#INPUTGAMMA BMDFilm 4.6K
#IMAGEPROFILE sRGB
#OUTPUTGAMMA sRGB
0 128 256 384 512 640 768 896 1023
0 0 0
3 17 317
10 85 884
24 229 1512
78 444 2330
247 742 3367
1146 1399 3801
3256 3256 3256
3256 3256 3256
0 390 0
0 371 359
7 317 890
24 229 1503
78 442 2324
247 741 3364
1142 1396 3800
3272 3272 3272
3272 3272 3272
3 1015 3
3 1007 41
0 974 947
0 932 1531
95 822 2335
245 736 3351
1138 1392 3800
3300 3300 3300
3300 3300 3300
82 1721 82
82 1716 78
78 1696 759
30 1657 1614
135 1599 2380
443 1474 3341
1180 1482 3797
3360 3360 3360
3360 3360 3360
645 2620 645
643 2618 642
633 2606 632
626 2584 1463
590 2537 2479
906 2459 3356
1797 2391 3763
3478 3478 3478
3478 3478 3478
1755 3532 1754
1753 3531 1753
1747 3527 1746
1731 3518 1733
1723 3497 2439
1697 3452 3393
2560 3315 3808
3669 3669 3669
3669 3669 3669
3277 3967 3277
3274 3967 3274
3269 3966 3269
3259 3966 3258
3234 3965 3271
3169 3966 3535
3115 3957 3935
3875 3875 3875
3875 3875 3875
3897 3897 3897
3898 3898 3898
3900 3900 3900
3904 3904 3904
3914 3914 3914
3934 3934 3934
3972 3972 3972
4021 4021 4021
4021 4021 4021
3897 3897 3897
3898 3898 3898
3900 3900 3900
3904 3904 3904
3914 3914 3914
3934 3934 3934
3972 3972 3972
4021 4021 4021
4021 4021 4021
392 0 0
361 0 397
209 3 1079
24 229 1508
78 444 2327
247 741 3365
1144 1398 3801
3266 3266 3266
3266 3266 3266
371 367 0
344 344 344
177 274 947
24 226 1498
74 442 2322
247 740 3362
1142 1395 3800
3282 3282 3282
3282 3282 3282
291 1005 3
256 996 3
61 964 938
0 921 1524
95 810 2331
245 736 3351
1136 1391 3800
3310 3310 3310
3310 3310 3310
99 1715 78
78 1710 78
75 1691 746
27 1652 1609
132 1594 2376
440 1467 3340
1172 1469 3796
3369 3369 3369
3369 3369 3369
643 2617 642
641 2615 639
631 2603 630
624 2581 1457
586 2534 2476
903 2455 3354
1790 2385 3763
3486 3486 3486
3486 3486 3486
1753 3531 1753
1752 3530 1751
1745 3526 1745
1730 3517 1730
1721 3495 2436
1695 3450 3392
2556 3312 3808
3673 3673 3673
3673 3673 3673
3274 3967 3274
3271 3966 3271
3266 3966 3266
3255 3966 3255
3230 3965 3267
3165 3966 3532
3113 3957 3935
3877 3877 3877
3877 3877 3877
3898 3898 3898
3899 3899 3899
3902 3902 3902
3906 3906 3906
3916 3916 3916
3936 3936 3936
3973 3973 3973
4022 4022 4022
4022 4022 4022
3898 3898 3898
3899 3899 3899
3902 3902 3902
3906 3906 3906
3916 3916 3916
3936 3936 3936
3973 3973 3973
4022 4022 4022
4022 4022 4022
1010 0 0
1000 0 289
959 0 1033
854 0 1800
396 98 2787
247 739 3359
1142 1396 3800
3284 3284 3284
3284 3284 3284
1005 246 0
995 215 215
951 58 1012
845 0 1788
375 98 2781
245 738 3356
1139 1393 3800
3300 3300 3300
3300 3300 3300
974 965 3
964 956 3
920 920 920
779 856 1657
463 740 2413
242 734 3345
1134 1389 3800
3327 3327 3327
3327 3327 3327
919 1693 88
909 1688 85
860 1668 694
735 1627 1594
362 1571 2371
430 1440 3334
1158 1446 3797
3384 3384 3384
3384 3384 3384
982 2606 648
972 2604 645
922 2592 632
817 2568 1438
574 2520 2463
889 2441 3347
1778 2372 3763
3499 3499 3499
3499 3499 3499
1746 3527 1745
1744 3526 1744
1737 3521 1737
1722 3512 1722
1714 3491 2424
1687 3445 3387
2550 3308 3807
3681 3681 3681
3681 3681 3681
3268 3966 3268
3266 3966 3265
3261 3966 3261
3250 3965 3249
3225 3965 3259
3159 3966 3527
3109 3956 3934
3880 3880 3880
3880 3880 3880
3901 3901 3901
3902 3902 3902
3904 3904 3904
3909 3909 3909
3919 3919 3919
3938 3938 3938
3975 3975 3975
4024 4024 4024
4024 4024 4024
3901 3901 3901
3902 3902 3902
3904 3904 3904
3909 3909 3909
3919 3919 3919
3938 3938 3938
3975 3975 3975
4024 4024 4024
4024 4024 4024
1714 6 6
1708 6 6
1684 10 943
1628 13 1747
1492 47 2733
1064 323 3817
1137 1391 3800
3321 3321 3321
3321 3321 3321
1710 6 6
1704 6 6
1681 10 919
1623 13 1735
1488 47 2726
1057 320 3815
1134 1389 3800
3336 3336 3336
3336 3336 3336
1694 871 20
1688 861 20
1663 820 821
1608 720 1686
1470 438 2697
1025 316 3808
1129 1385 3799
3363 3363 3363
3363 3363 3363
1659 1644 105
1653 1639 105
1627 1617 562
1570 1570 1570
1398 1491 2533
1051 1353 3475
1127 1393 3798
3418 3418 3418
3418 3418 3418
1661 2582 677
1654 2579 673
1627 2568 661
1572 2543 1392
1434 2492 2451
1192 2419 3355
1752 2344 3762
3528 3528 3528
3528 3528 3528
2074 3514 1761
2070 3513 1759
2051 3509 1751
2009 3500 1733
1930 3477 2414
1729 3433 3376
2534 3298 3806
3698 3698 3698
3698 3698 3698
3290 3967 3257
3286 3967 3254
3279 3966 3249
3263 3966 3237
3225 3965 3242
3144 3965 3516
3101 3954 3932
3888 3888 3888
3888 3888 3888
3908 3908 3908
3909 3909 3909
3911 3911 3911
3915 3915 3915
3924 3924 3924
3943 3943 3943
3979 3979 3979
4027 4027 4027
4027 4027 4027
3908 3908 3908
3909 3909 3909
3911 3911 3911
3915 3915 3915
3924 3924 3924
3943 3943 3943
3979 3979 3979
4027 4027 4027
4027 4027 4027
2618 88 88
2615 88 88
2602 88 728
2568 101 1630
2489 155 2658
2279 453 3747
1893 1424 3960
3399 3399 3399
3399 3399 3399
2616 88 88
2612 88 88
2599 88 699
2566 101 1618
2487 152 2652
2277 451 3745
1888 1420 3961
3413 3413 3413
3413 3413 3413
2602 642 129
2599 628 129
2585 570 574
2554 418 1564
2477 145 2623
2267 443 3736
1879 1413 3961
3437 3437 3437
3437 3437 3437
2574 1537 339
2570 1532 337
2557 1508 324
2526 1459 1460
2451 1344 2553
2249 1114 3692
1858 1397 3963
3488 3488 3488
3488 3488 3488
2550 2530 741
2546 2527 737
2532 2514 725
2500 2488 1288
2430 2430 2430
2241 2344 3506
2188 2348 3823
3584 3584 3584
3584 3584 3584
2633 3487 1795
2630 3486 1793
2618 3482 1785
2591 3472 1767
2539 3449 2381
2409 3402 3362
2713 3299 3816
3732 3732 3732
3732 3732 3732
3390 3970 3223
3387 3970 3220
3380 3970 3214
3366 3969 3202
3333 3968 3195
3264 3965 3506
3177 3950 3929
3903 3903 3903
3903 3903 3903
3921 3921 3921
3922 3922 3922
3924 3924 3924
3928 3928 3928
3937 3937 3937
3954 3954 3954
3988 3988 3988
4033 4033 4033
4033 4033 4033
3921 3921 3921
3922 3922 3922
3924 3924 3924
3928 3928 3928
3937 3937 3937
3954 3954 3954
3988 3988 3988
4033 4033 4033
4033 4033 4033
3628 636 636
3626 635 635
3621 629 629
3604 645 1438
3566 686 2474
3458 825 3643
2861 1819 3907
3547 3547 3547
3547 3547 3547
3627 635 635
3625 633 633
3620 629 629
3603 644 1425
3565 685 2467
3457 824 3640
2860 1815 3907
3558 3558 3558
3558 3558 3558
3623 631 631
3622 630 630
3616 625 625
3600 637 1367
3561 679 2439
3454 815 3630
2858 1808 3908
3576 3576 3576
3576 3576 3576
3587 1402 832
3586 1396 829
3581 1367 814
3567 1313 1316
3537 1192 2383
3444 906 3603
2855 1792 3909
3614 3614 3614
3614 3614 3614
3549 2459 1325
3548 2456 1323
3544 2445 1313
3535 2419 1416
3504 2367 2368
3422 2252 3528
2990 2420 3884
3683 3683 3683
3683 3683 3683
3448 3429 1874
3447 3428 1872
3441 3423 1863
3429 3413 1845
3400 3389 2310
3334 3334 3334
3248 3301 3874
3794 3794 3794
3794 3794 3794
3635 3967 3204
3633 3967 3202
3630 3967 3199
3623 3965 3191
3608 3963 3175
3584 3954 3507
3524 3939 3925
3932 3932 3932
3932 3932 3932
3947 3947 3947
3948 3948 3948
3950 3950 3950
3954 3954 3954
3961 3961 3961
3977 3977 3977
4006 4006 4006
4047 4047 4047
4047 4047 4047
3947 3947 3947
3948 3948 3948
3950 3950 3950
3954 3954 3954
3961 3961 3961
3977 3977 3977
4006 4006 4006
4047 4047 4047
4047 4047 4047
3887 2144 2144
3887 2142 2142
3887 2139 2139
3887 2134 2169
3885 2153 2555
3882 2194 3204
3790 2409 3880
3751 3751 3751
3751 3751 3751
3887 2143 2143
3887 2141 2141
3887 2138 2138
3887 2132 2160
3885 2152 2548
3882 2192 3199
3790 2405 3880
3757 3757 3757
3757 3757 3757
3887 2141 2141
3887 2139 2139
3887 2135 2135
3888 2128 2142
3886 2148 2535
3882 2189 3191
3792 2400 3880
3766 3766 3766
3766 3766 3766
3887 2138 2137
3887 2134 2134
3888 2131 2131
3888 2123 2123
3886 2141 2504
3883 2181 3173
3796 2387 3880
3786 3786 3786
3786 3786 3786
3884 2708 2443
3884 2703 2439
3884 2694 2431
3884 2673 2413
3883 2646 2648
3882 2594 3212
3810 2562 3881
3824 3824 3824
3824 3824 3824
3913 3433 2916
3913 3431 2913
3913 3426 2906
3912 3416 2891
3911 3398 2959
3910 3369 3369
3871 3332 3910
3890 3890 3890
3890 3890 3890
3955 3948 3303
3954 3948 3301
3954 3947 3298
3952 3946 3291
3948 3943 3274
3939 3935 3515
3917 3917 3917
3983 3983 3983
3983 3983 3983
3994 3994 3994
3995 3995 3995
3996 3996 3996
3999 3999 3999
4005 4005 4005
4017 4017 4017
4040 4040 4040
4073 4073 4073
4073 4073 4073
3994 3994 3994
3995 3995 3995
3996 3996 3996
3999 3999 3999
4005 4005 4005
4017 4017 4017
4040 4040 4040
4073 4073 4073
4073 4073 4073
3598 3598 3598
3602 3602 3602
3609 3609 3609
3625 3625 3625
3656 3656 3656
3716 3716 3716
3813 3813 3813
3917 3917 3917
3917 3917 3917
3607 3607 3607
3611 3611 3611
3618 3618 3618
3633 3633 3633
3664 3664 3664
3722 3722 3722
3818 3818 3818
3920 3920 3920
3920 3920 3920
3623 3623 3623
3627 3627 3627
3634 3634 3634
3648 3648 3648
3677 3677 3677
3733 3733 3733
3825 3825 3825
3924 3924 3924
3924 3924 3924
3656 3656 3656
3659 3659 3659
3665 3665 3665
3678 3678 3678
3705 3705 3705
3756 3756 3756
3840 3840 3840
3933 3933 3933
3933 3933 3933
3717 3717 3717
3720 3720 3720
3725 3725 3725
3735 3735 3735
3757 3757 3757
3799 3799 3799
3870 3870 3870
3952 3952 3952
3952 3952 3952
3816 3816 3816
3818 3818 3818
3821 3821 3821
3828 3828 3828
3843 3843 3843
3872 3872 3872
3923 3923 3923
3987 3987 3987
3987 3987 3987
3943 3943 3943
3944 3944 3944
3945 3945 3945
3949 3949 3949
3957 3957 3957
3973 3973 3973
4003 4003 4003
4044 4044 4044
4044 4044 4044
4052 4052 4052
4053 4053 4053
4054 4054 4054
4055 4055 4055
4059 4059 4059
4068 4068 4068
4084 4084 4084
4095 4095 4095
4095 4095 4095
4052 4052 4052
4053 4053 4053
4054 4054 4054
4055 4055 4055
4059 4059 4059
4068 4068 4068
4084 4084 4084
4095 4095 4095
4095 4095 4095
3598 3598 3598
3602 3602 3602
3609 3609 3609
3625 3625 3625
3656 3656 3656
3716 3716 3716
3813 3813 3813
3917 3917 3917
3917 3917 3917
3607 3607 3607
3611 3611 3611
3618 3618 3618
3633 3633 3633
3664 3664 3664
3722 3722 3722
3818 3818 3818
3920 3920 3920
3920 3920 3920
3623 3623 3623
3627 3627 3627
3634 3634 3634
3648 3648 3648
3677 3677 3677
3733 3733 3733
3825 3825 3825
3924 3924 3924
3924 3924 3924
3656 3656 3656
3659 3659 3659
3665 3665 3665
3678 3678 3678
3705 3705 3705
3756 3756 3756
3840 3840 3840
3933 3933 3933
3933 3933 3933
3717 3717 3717
3720 3720 3720
3725 3725 3725
3735 3735 3735
3757 3757 3757
3799 3799 3799
3870 3870 3870
3952 3952 3952
3952 3952 3952
3816 3816 3816
3818 3818 3818
3821 3821 3821
3828 3828 3828
3843 3843 3843
3872 3872 3872
3923 3923 3923
3987 3987 3987
3987 3987 3987
3943 3943 3943
3944 3944 3944
3945 3945 3945
3949 3949 3949
3957 3957 3957
3973 3973 3973
4003 4003 4003
4044 4044 4044
4044 4044 4044
4052 4052 4052
4053 4053 4053
4054 4054 4054
4055 4055 4055
4059 4059 4059
4068 4068 4068
4084 4084 4084
4095 4095 4095
4095 4095 4095
4052 4052 4052
4053 4053 4053
4054 4054 4054
4055 4055 4055
4059 4059 4059
4068 4068 4068
4084 4084 4084
4095 4095 4095
4095 4095 4095
