Log/Black Magic - BMD Film.3dl
#25pt 3DLUT created by 3D LUT Creator Pro (c) Oleg Sharonov
#Copyright Oleg Sharonov
#IMAGEPROFILE sRGB
#INPUTGAMMA BMD Film
#OUTPUTGAMMA sRGB
0 256 512 768 1023
0 0 0
321 0 1193
1012 30 2970
2368 573 4002
3140 3140 3140
6 1136 6
0 975 859
83 198 2826
2169 463 4026
3193 3193 3193
924 2844 924
863 2803 863
611 2576 2356
240 817 3841
3399 3399 3399
3394 3938 3394
3394 3938 3394
3394 3938 3394
3573 3973 3958
3942 3942 3942
3976 3976 3976
3983 3983 3983
4011 4011 4011
4095 4095 4095
4095 4095 4095
1226 0 0
1312 0 1148
1672 43 2960
2633 750 3961
3173 3173 3173
714 1016 3
836 836 836
1313 34 2881
2489 650 3984
3225 3225 3225
879 2813 878
818 2771 817
561 2534 2338
1211 314 4086
3426 3426 3426
3394 3938 3394
3394 3938 3394
3394 3938 3394
3572 3973 3956
3952 3952 3952
3985 3985 3985
3992 3992 3992
4020 4020 4020
4095 4095 4095
4095 4095 4095
3045 34 34
3067 40 930
3150 222 2887
3291 1323 3847
3306 3306 3306
2923 27 27
2949 27 539
3056 130 2817
3227 1257 3857
3352 3352 3352
2094 2654 801
2127 2603 749
2309 2309 2309
2875 936 3919
3535 3535 3535
3394 3938 3394
3394 3938 3394
3394 3938 3394
3570 3972 3952
3992 3992 3992
4024 4024 4024
4031 4031 4031
4058 4058 4058
4095 4095 4095
4095 4095 4095
3827 1498 1498
3827 1498 1498
3811 1619 2602
3786 1951 3786
3755 3755 3755
3827 1498 1498
3827 1498 1498
3812 1607 2529
3786 1951 3786
3778 3778 3778
3799 2033 1769
3804 1931 1712
3818 1558 2152
3786 1951 3786
3864 3864 3864
3943 4011 3743
3946 4012 3747
3960 4016 3762
4022 4022 4022
4095 4095 4095
4095 4095 4095
4095 4095 4095
4095 4095 4095
4095 4095 4095
4095 4095 4095
3543 3543 3543
3559 3559 3559
3624 3624 3624
3843 3843 3843
4016 4016 4016
3579 3579 3579
3594 3594 3594
3655 3655 3655
3862 3862 3862
4030 4030 4030
3709 3709 3709
3721 3721 3721
3766 3766 3766
3935 3935 3935
4092 4092 4092
4072 4072 4072
4078 4078 4078
4095 4095 4095
4095 4095 4095
4095 4095 4095
4095 4095 4095
4095 4095 4095
4095 4095 4095
4095 4095 4095
4095 4095 4095
