Log/Black Magic - BMD Film.3dl
#25pt 3DLUT created by 3D LUT Creator Pro (c) Oleg Sharonov
#Copyright Oleg Sharonov
#IMAGEPROFILE sRGB
#INPUTGAMMA BMD Film
#OUTPUTGAMMA sRGB
0 128 256 384 512 640 768 896 1023
0 0 0
99 0 546
321 0 1193
603 0 2027
1012 30 2970
1628 68 3868
2368 573 4002
3140 3140 3140
3140 3140 3140
0 526 0
0 444 384
9 209 903
282 21 2003
831 52 2953
1511 87 3862
2298 531 4012
3161 3161 3161
3161 3161 3161
6 1136 6
6 1092 6
0 975 859
9 724 1563
83 198 2826
1163 153 3849
2169 463 4026
3193 3193 3193
3193 3193 3193
40 1945 40
34 1919 34
21 1851 31
0 1693 1502
3 1345 2433
198 615 3509
1800 334 4056
3262 3262 3262
3262 3262 3262
924 2844 924
907 2833 906
863 2803 863
772 2734 957
611 2576 2356
639 2173 3267
240 817 3841
3399 3399 3399
3399 3399 3399
2584 3679 2584
2574 3674 2573
2547 3664 2547
2489 3639 2488
2362 3582 2494
2131 3452 3286
1968 3036 3665
3645 3645 3645
3645 3645 3645
3394 3938 3394
3394 3938 3394
3394 3938 3394
3394 3938 3394
3394 3938 3394
3416 3942 3517
3573 3973 3958
3942 3942 3942
3942 3942 3942
3976 3976 3976
3978 3978 3978
3983 3983 3983
3991 3991 3991
4011 4011 4011
4052 4052 4052
4095 4095 4095
4095 4095 4095
4095 4095 4095
3976 3976 3976
3978 3978 3978
3983 3983 3983
3991 3991 3991
4011 4011 4011
4052 4052 4052
4095 4095 4095
4095 4095 4095
4095 4095 4095
568 0 0
615 0 532
712 0 1179
899 3 2018
1228 34 2966
1777 81 3865
2479 643 3986
3153 3153 3153
3153 3153 3153
306 465 0
372 372 372
507 12 1103
734 0 1974
1103 30 2945
1690 71 3860
2417 602 3995
3173 3173 3173
3173 3173 3173
6 1104 6
3 1058 3
0 938 847
15 676 1552
655 61 2901
1407 103 3845
2305 536 4011
3206 3206 3206
3206 3206 3206
37 1926 34
31 1898 31
18 1829 18
0 1669 1493
9 1316 2427
313 233 3819
2002 387 4042
3273 3273 3273
3273 3273 3273
912 2836 911
895 2824 894
851 2794 850
759 2725 935
597 2564 2350
626 2157 3267
310 367 4095
3410 3410 3410
3410 3410 3410
2577 3676 2576
2566 3671 2566
2540 3661 2539
2480 3636 2480
2353 3578 2484
2120 3447 3283
1954 3026 3664
3652 3652 3652
3652 3652 3652
3394 3938 3394
3394 3938 3394
3394 3938 3394
3394 3938 3394
3394 3938 3394
3416 3942 3516
3573 3973 3957
3946 3946 3946
3946 3946 3946
3979 3979 3979
3982 3982 3982
3986 3986 3986
3995 3995 3995
4014 4014 4014
4055 4055 4055
4095 4095 4095
4095 4095 4095
4095 4095 4095
3979 3979 3979
3982 3982 3982
3986 3986 3986
3995 3995 3995
4014 4014 4014
4055 4055 4055
4095 4095 4095
4095 4095 4095
4095 4095 4095
1226 0 0
1252 0 476
1312 0 1148
1433 9 1997
1672 43 2960
2097 134 3854
2633 750 3961
3173 3173 3173
3173 3173 3173
1100 274 0
1129 121 298
1193 0 1068
1324 6 1951
1577 40 2937
2028 115 3851
2581 713 3969
3193 3193 3193
3193 3193 3193
714 1016 3
749 968 3
836 836 836
1004 471 1825
1313 34 2881
1837 77 3839
2489 650 3984
3225 3225 3225
3225 3225 3225
24 1875 24
21 1847 21
15 1774 12
0 1608 1472
400 1237 2459
1237 128 3802
2247 502 4017
3292 3292 3292
3292 3292 3292
879 2813 878
862 2801 861
818 2771 817
726 2700 875
561 2534 2338
591 2115 3266
1211 314 4086
3426 3426 3426
3426 3426 3426
2556 3668 2556
2547 3663 2546
2519 3652 2519
2460 3627 2459
2330 3568 2457
2094 3434 3275
1931 3009 3662
3664 3664 3664
3664 3664 3664
3394 3938 3394
3394 3938 3394
3394 3938 3394
3394 3938 3394
3394 3938 3394
3415 3942 3514
3572 3973 3956
3952 3952 3952
3952 3952 3952
3985 3985 3985
3988 3988 3988
3992 3992 3992
4000 4000 4000
4020 4020 4020
4061 4061 4061
4095 4095 4095
4095 4095 4095
4095 4095 4095
3985 3985 3985
3988 3988 3988
3992 3992 3992
4000 4000 4000
4020 4020 4020
4061 4061 4061
4095 4095 4095
4095 4095 4095
4095 4095 4095
2076 12 12
2091 15 341
2126 18 1080
2201 21 1959
2352 27 2953
2586 347 3814
2898 955 3915
3216 3216 3216
3216 3216 3216
2005 12 12
2021 12 83
2057 15 995
2134 21 1910
2291 30 2929
2545 315 3813
2859 924 3922
3236 3236 3236
3236 3236 3236
1807 804 15
1825 745 15
1865 581 751
1954 15 1783
2128 37 2868
2430 238 3809
2793 871 3933
3266 3266 3266
3266 3266 3266
1258 1757 28
1282 1727 24
1340 1649 15
1463 1463 1463
1701 959 2737
2115 96 3788
2629 747 3961
3331 3331 3331
3331 3331 3331
808 2763 807
790 2750 790
747 2718 746
651 2643 736
485 2467 2309
1040 2020 3315
2108 434 4033
3462 3462 3462
3462 3462 3462
2513 3649 2513
2503 3645 2502
2475 3633 2475
2413 3607 2413
2279 3544 2396
2036 3406 3257
1880 2972 3657
3687 3687 3687
3687 3687 3687
3394 3938 3394
3394 3938 3394
3394 3938 3394
3394 3938 3394
3394 3938 3394
3414 3942 3510
3571 3973 3955
3965 3965 3965
3965 3965 3965
3997 3997 3997
4000 4000 4000
4004 4004 4004
4013 4013 4013
4032 4032 4032
4073 4073 4073
4095 4095 4095
4095 4095 4095
4095 4095 4095
3997 3997 3997
4000 4000 4000
4004 4004 4004
4013 4013 4013
4032 4032 4032
4073 4073 4073
4095 4095 4095
4095 4095 4095
4095 4095 4095
3045 34 34
3052 34 34
3067 40 930
3098 71 1871
3150 222 2887
3172 803 3706
3291 1323 3847
3306 3306 3306
3306 3306 3306
3012 30 30
3019 30 30
3036 34 832
3068 58 1822
3125 195 2868
3153 775 3704
3267 1298 3850
3324 3324 3324
3324 3324 3324
2923 27 27
2931 27 27
2949 27 539
2988 37 1687
3056 130 2817
3101 706 3700
3227 1257 3857
3352 3352 3352
3352 3352 3352
2685 1474 201
2695 1439 184
2720 1343 150
2770 1116 1349
2871 389 2683
2974 543 3691
3131 1163 3874
3413 3413 3413
3413 3413 3413
2094 2654 801
2103 2640 788
2127 2603 749
2179 2518 667
2309 2309 2309
2523 1754 3509
2875 936 3919
3535 3535 3535
3535 3535 3535
2413 3607 2413
2402 3602 2401
2373 3589 2372
2307 3560 2307
2160 3490 2251
1902 3341 3218
2274 2918 3682
3734 3734 3734
3734 3734 3734
3394 3938 3394
3394 3938 3394
3394 3938 3394
3394 3938 3394
3394 3938 3394
3413 3941 3501
3570 3972 3952
3992 3992 3992
3992 3992 3992
4024 4024 4024
4027 4027 4027
4031 4031 4031
4039 4039 4039
4058 4058 4058
4095 4095 4095
4095 4095 4095
4095 4095 4095
4095 4095 4095
4024 4024 4024
4027 4027 4027
4031 4031 4031
4039 4039 4039
4058 4058 4058
4095 4095 4095
4095 4095 4095
4095 4095 4095
4095 4095 4095
3734 1016 1016
3735 1021 1021
3737 1040 1162
3733 1118 1863
3730 1278 2704
3736 1596 3536
3769 1921 3788
3481 3481 3481
3481 3481 3481
3728 992 992
3730 998 998
3732 1014 1077
3728 1092 1815
3724 1253 2684
3730 1573 3531
3759 1903 3788
3497 3497 3497
3497 3497 3497
3713 933 933
3714 938 938
3717 951 951
3715 1024 1683
3711 1188 2632
3717 1515 3518
3742 1875 3790
3522 3522 3522
3522 3522 3522
3658 1028 878
3663 976 863
3678 834 822
3682 872 1336
3677 1045 2504
3684 1384 3488
3702 1810 3793
3573 3573 3573
3573 3573 3573
3430 2458 1471
3432 2442 1461
3439 2400 1438
3455 2301 1385
3490 2087 2285
3570 1473 3402
3595 1661 3804
3668 3668 3668
3668 3668 3668
3168 3553 2410
3168 3547 2400
3168 3532 2374
3170 3499 2315
3179 3421 2180
3251 3251 3251
3322 2841 3786
3821 3821 3821
3821 3821 3821
3394 3938 3394
3394 3938 3394
3394 3938 3394
3394 3938 3394
3394 3938 3394
3409 3941 3480
3566 3972 3946
4050 4050 4050
4050 4050 4050
4082 4082 4082
4084 4084 4084
4088 4088 4088
4095 4095 4095
4095 4095 4095
4095 4095 4095
4095 4095 4095
4095 4095 4095
4095 4095 4095
4082 4082 4082
4084 4084 4084
4088 4088 4088
4095 4095 4095
4095 4095 4095
4095 4095 4095
4095 4095 4095
4095 4095 4095
4095 4095 4095
3827 1498 1498
3827 1498 1498
3827 1498 1498
3822 1528 1860
3811 1619 2602
3794 1802 3418
3786 1951 3786
3755 3755 3755
3755 3755 3755
3827 1498 1498
3827 1498 1498
3827 1498 1498
3823 1523 1810
3811 1615 2575
3794 1798 3405
3786 1951 3786
3764 3764 3764
3764 3764 3764
3827 1498 1498
3827 1498 1498
3827 1498 1498
3824 1516 1727
3812 1607 2529
3795 1792 3384
3786 1951 3786
3778 3778 3778
3778 3778 3778
3827 1498 1498
3827 1498 1498
3827 1498 1498
3826 1500 1525
3814 1592 2423
3796 1778 3337
3786 1951 3786
3806 3806 3806
3806 3806 3806
3799 2033 1769
3801 1995 1747
3804 1931 1712
3811 1779 1631
3818 1558 2152
3798 1747 3225
3786 1951 3786
3864 3864 3864
3864 3864 3864
3849 3438 2873
3847 3427 2863
3845 3410 2847
3839 3372 2810
3827 3283 2728
3812 3113 3235
3787 2562 3787
3970 3970 3970
3970 3970 3970
3943 4011 3743
3944 4011 3745
3946 4012 3747
3951 4013 3752
3960 4016 3762
3982 4023 3801
4022 4022 4022
4095 4095 4095
4095 4095 4095
4095 4095 4095
4095 4095 4095
4095 4095 4095
4095 4095 4095
4095 4095 4095
4095 4095 4095
4095 4095 4095
4095 4095 4095
4095 4095 4095
4095 4095 4095
4095 4095 4095
4095 4095 4095
4095 4095 4095
4095 4095 4095
4095 4095 4095
4095 4095 4095
4095 4095 4095
4095 4095 4095
3543 3543 3543
3549 3549 3549
3559 3559 3559
3580 3580 3580
3624 3624 3624
3706 3706 3706
3843 3843 3843
4016 4016 4016
4016 4016 4016
3557 3557 3557
3563 3563 3563
3573 3573 3573
3594 3594 3594
3636 3636 3636
3716 3716 3716
3851 3851 3851
4021 4021 4021
4021 4021 4021
3579 3579 3579
3585 3585 3585
3594 3594 3594
3614 3614 3614
3655 3655 3655
3731 3731 3731
3862 3862 3862
4030 4030 4030
4030 4030 4030
3624 3624 3624
3630 3630 3630
3638 3638 3638
3656 3656 3656
3693 3693 3693
3763 3763 3763
3886 3886 3886
4050 4050 4050
4050 4050 4050
3709 3709 3709
3714 3714 3714
3721 3721 3721
3735 3735 3735
3766 3766 3766
3826 3826 3826
3935 3935 3935
4092 4092 4092
4092 4092 4092
3851 3851 3851
3854 3854 3854
3859 3859 3859
3869 3869 3869
3892 3892 3892
3939 3939 3939
4032 4032 4032
4095 4095 4095
4095 4095 4095
4072 4072 4072
4074 4074 4074
4078 4078 4078
4087 4087 4087
4095 4095 4095
4095 4095 4095
4095 4095 4095
4095 4095 4095
4095 4095 4095
4095 4095 4095
4095 4095 4095
4095 4095 4095
4095 4095 4095
4095 4095 4095
4095 4095 4095
4095 4095 4095
4095 4095 4095
4095 4095 4095
4095 4095 4095
4095 4095 4095
4095 4095 4095
4095 4095 4095
4095 4095 4095
4095 4095 4095
4095 4095 4095
4095 4095 4095
4095 4095 4095
3543 3543 3543
3549 3549 3549
3559 3559 3559
3580 3580 3580
3624 3624 3624
3706 3706 3706
3843 3843 3843
4016 4016 4016
4016 4016 4016
3557 3557 3557
3563 3563 3563
3573 3573 3573
3594 3594 3594
3636 3636 3636
3716 3716 3716
3851 3851 3851
4021 4021 4021
4021 4021 4021
3579 3579 3579
3585 3585 3585
3594 3594 3594
3614 3614 3614
3655 3655 3655
3731 3731 3731
3862 3862 3862
4030 4030 4030
4030 4030 4030
3624 3624 3624
3630 3630 3630
3638 3638 3638
3656 3656 3656
3693 3693 3693
3763 3763 3763
3886 3886 3886
4050 4050 4050
4050 4050 4050
3709 3709 3709
3714 3714 3714
3721 3721 3721
3735 3735 3735
3766 3766 3766
3826 3826 3826
3935 3935 3935
4092 4092 4092
4092 4092 4092
3851 3851 3851
3854 3854 3854
3859 3859 3859
3869 3869 3869
3892 3892 3892
3939 3939 3939
4032 4032 4032
4095 4095 4095
4095 4095 4095
4072 4072 4072
4074 4074 4074
4078 4078 4078
4087 4087 4087
4095 4095 4095
4095 4095 4095
4095 4095 4095
4095 4095 4095
4095 4095 4095
4095 4095 4095
4095 4095 4095
4095 4095 4095
4095 4095 4095
4095 4095 4095
4095 4095 4095
4095 4095 4095
4095 4095 4095
4095 4095 4095
4095 4095 4095
4095 4095 4095
4095 4095 4095
4095 4095 4095
4095 4095 4095
4095 4095 4095
4095 4095 4095
4095 4095 4095
4095 4095 4095
