Log/Black Magic - BMD Film.3dl
#25pt 3DLUT created by 3D LUT Creator Pro (c) Oleg Sharonov
#Copyright Oleg Sharonov
#IMAGEPROFILE sRGB
#INPUTGAMMA BMD Film
#OUTPUTGAMMA sRGB
0 43 86 128 171 214 256 299 341 384 427 469 512 555 597 640 682 725 768 810 853 896 938 981 1023 
0 0 0
0 0 0
46 0 331
99 0 546
169 0 755
240 0 955
321 0 1193
406 0 1445
500 0 1728
603 0 2027
722 3 2339
858 15 2654
1012 30 2970
1190 55 3285
1394 65 3610
1628 68 3868
1875 303 4036
2130 444 4030
2368 573 4002
2615 737 3964
2837 905 3926
3140 3140 3140
3140 3140 3140
3140 3140 3140
3140 3140 3140
0 0 0
0 0 0
46 0 331
99 0 546
169 0 755
240 0 955
321 0 1193
406 0 1445
500 0 1728
603 0 2027
722 3 2339
858 15 2654
1012 30 2970
1190 55 3285
1394 65 3610
1628 68 3868
1875 303 4036
2130 444 4030
2345 558 4005
2601 727 3966
2835 904 3926
3147 3147 3147
3147 3147 3147
3147 3147 3147
3147 3147 3147
0 315 0
0 315 0
0 260 217
0 198 400
3 109 561
6 49 765
62 9 1174
204 9 1428
341 9 1711
473 9 2011
612 15 2324
762 24 2642
930 40 2960
1118 65 3278
1333 74 3604
1575 74 3865
1834 292 4036
2101 430 4033
2322 544 4008
2588 719 3968
2834 902 3926
3154 3154 3154
3154 3154 3154
3154 3154 3154
3154 3154 3154
0 526 0
0 526 0
0 488 71
0 444 384
0 393 561
0 323 719
9 209 903
12 112 1109
55 18 1700
282 21 2003
466 24 2316
645 37 2634
831 52 2953
1033 77 3270
1259 93 3597
1511 87 3862
1783 286 4037
2069 415 4036
2298 531 4012
2575 709 3970
2832 901 3927
3161 3161 3161
3161 3161 3161
3161 3161 3161
3161 3161 3161
0 715 0
0 715 0
0 686 0
0 651 271
0 610 533
0 558 720
0 491 891
9 386 1101
15 209 1323
24 137 1764
212 37 2306
472 46 2623
696 65 2943
922 90 3263
1164 112 3589
1431 103 3859
1718 279 4038
2028 400 4040
2267 513 4015
2558 697 3973
2830 900 3927
3169 3169 3169
3169 3169 3169
3169 3169 3169
3169 3169 3169
3 917 3
3 917 3
3 891 3
0 865 37
0 831 419
0 785 689
0 731 894
0 657 1094
9 553 1320
24 386 1574
28 259 1853
102 58 2620
480 77 2936
760 105 3255
1033 134 3579
1320 125 3855
1629 272 4039
1972 374 4044
2226 492 4020
2536 682 3977
2827 902 3927
3180 3180 3180
3180 3180 3180
3180 3180 3180
3180 3180 3180
6 1136 6
6 1136 6
6 1115 6
6 1092 6
3 1063 212
0 1026 567
0 975 859
3 915 1087
0 836 1320
9 724 1563
34 550 1844
43 321 2137
83 198 2826
494 121 3248
838 159 3569
1163 153 3849
1503 265 4041
1896 346 4050
2169 463 4026
2507 662 3981
2817 1056 3914
3193 3193 3193
3193 3193 3193
3193 3193 3193
3193 3193 3193
9 1381 9
9 1381 9
9 1364 9
9 1343 9
9 1318 9
9 1286 373
0 1245 723
0 1189 1048
3 1120 1309
0 1031 1570
12 908 1832
52 721 2136
62 414 2435
112 349 3025
512 184 3560
928 187 3843
1321 261 4042
1765 334 4059
2091 425 4034
2466 635 3987
2806 1229 3898
3211 3211 3211
3211 3211 3211
3211 3211 3211
3211 3211 3211
9 1652 9
9 1652 9
9 1637 9
9 1620 9
9 1599 9
9 1572 9
9 1536 526
0 1490 895
0 1428 1262
0 1352 1558
0 1251 1847
15 1114 2124
74 906 2439
96 580 2745
156 482 3252
525 223 3835
1041 258 4044
1568 322 4069
1980 378 4044
2412 599 3996
2796 1422 3880
3233 3233 3233
3233 3233 3233
3233 3233 3233
3233 3233 3233
40 1945 40
40 1945 40
37 1932 37
34 1919 34
31 1902 31
28 1880 24
21 1851 31
18 1811 687
0 1762 1087
0 1693 1502
0 1608 1831
0 1496 2143
3 1345 2433
93 1111 2756
143 752 3057
198 615 3509
539 270 4046
1259 314 4084
1800 334 4056
2336 552 4006
2788 1636 3859
3262 3262 3262
3262 3262 3262
3262 3262 3262
3262 3262 3262
230 2247 230
230 2247 230
222 2237 220
212 2226 209
198 2213 198
184 2197 184
163 2174 163
137 2143 287
121 2103 881
71 2052 1310
37 1980 1767
43 1888 2123
40 1766 2446
18 1601 2742
112 1340 3074
175 936 3384
220 748 3764
701 312 4095
1478 320 4074
2226 492 4020
2786 1866 3838
3298 3298 3298
3298 3298 3298
3298 3298 3298
3298 3298 3298
537 2548 537
537 2548 537
529 2541 529
520 2533 519
509 2523 509
494 2510 494
476 2493 476
450 2470 450
422 2440 594
395 2400 1135
339 2350 1578
282 2276 2054
284 2181 2416
293 2053 2734
240 1881 3026
273 1599 3364
240 1146 3688
240 818 3840
899 312 4095
2062 414 4037
2793 2110 3817
3343 3343 3343
3343 3343 3343
3343 3343 3343
3343 3343 3343
924 2844 924
924 2844 924
916 2839 916
907 2833 906
897 2825 896
882 2815 881
863 2803 863
840 2786 840
809 2763 808
772 2734 957
738 2695 1456
677 2647 1889
611 2576 2356
620 2480 2705
662 2349 3000
639 2173 3267
644 1887 3584
381 1342 3790
240 817 3841
1784 334 4057
2816 2365 3799
3399 3399 3399
3399 3399 3399
3399 3399 3399
3399 3399 3399
1416 3133 1415
1416 3133 1415
1409 3129 1408
1400 3124 1399
1389 3118 1388
1375 3111 1374
1357 3101 1357
1334 3089 1333
1304 3073 1303
1264 3051 1264
1220 3023 1407
1175 2986 1846
1104 2940 2235
1020 2872 2664
1036 2777 2986
1107 2646 3248
1105 2474 3480
1013 2171 3675
560 1618 3758
1186 1088 4030
2859 2626 3787
3469 3469 3469
3469 3469 3469
3469 3469 3469
3469 3469 3469
1995 3414 1995
1995 3414 1995
1988 3411 1988
1981 3408 1980
1971 3403 1971
1960 3398 1959
1945 3391 1945
1925 3382 1925
1899 3369 1898
1864 3353 1864
1819 3332 1818
1769 3305 1938
1716 3271 2287
1637 3227 2606
1538 3164 2975
1555 3070 3259
1643 2942 3480
1608 2769 3636
1278 2455 3645
1140 2218 3676
2898 2900 3785
3553 3553 3553
3553 3553 3553
3553 3553 3553
3553 3553 3553
2584 3679 2584
2584 3679 2584
2579 3677 2579
2574 3674 2573
2567 3672 2567
2559 3668 2558
2547 3664 2547
2533 3658 2533
2514 3650 2513
2489 3639 2488
2455 3625 2455
2411 3606 2411
2362 3582 2494
2309 3551 2744
2232 3511 2985
2131 3452 3286
2144 3361 3526
2226 3237 3686
1968 3036 3665
1705 2842 3643
2978 3182 3754
3645 3645 3645
3645 3645 3645
3645 3645 3645
3645 3645 3645
3158 3873 3158
3158 3873 3158
3154 3872 3154
3150 3871 3150
3145 3869 3144
3138 3867 3138
3129 3865 3129
3118 3861 3118
3103 3857 3103
3084 3851 3084
3059 3844 3058
3025 3833 3025
2981 3820 2981
2935 3803 3029
2884 3782 3193
2813 3755 3364
2719 3713 3595
2721 3643 3753
2606 3509 3755
2367 3329 3714
3099 3456 3781
3741 3741 3741
3741 3741 3741
3741 3741 3741
3741 3741 3741
3394 3938 3394
3394 3938 3394
3394 3938 3394
3394 3938 3394
3394 3938 3394
3394 3938 3394
3394 3938 3394
3394 3938 3394
3394 3938 3394
3394 3938 3394
3394 3938 3394
3394 3938 3394
3394 3938 3394
3394 3938 3394
3408 3941 3475
3440 3946 3629
3402 3934 3725
3311 3904 3835
3185 3843 3882
2936 3726 3826
3289 3702 3839
3840 3840 3840
3840 3840 3840
3840 3840 3840
3840 3840 3840
3394 3938 3394
3394 3938 3394
3394 3938 3394
3394 3938 3394
3394 3938 3394
3394 3938 3394
3394 3938 3394
3394 3938 3394
3394 3938 3394
3394 3938 3394
3394 3938 3394
3394 3938 3394
3394 3938 3394
3394 3938 3394
3394 3938 3394
3416 3942 3517
3455 3950 3683
3509 3960 3820
3573 3973 3958
3562 3970 3957
3546 3887 3919
3942 3942 3942
3942 3942 3942
3942 3942 3942
3942 3942 3942
3394 3938 3394
3394 3938 3394
3394 3938 3394
3394 3938 3394
3394 3938 3394
3394 3938 3394
3394 3938 3394
3394 3938 3394
3394 3938 3394
3394 3938 3394
3394 3938 3394
3394 3938 3394
3394 3938 3394
3394 3938 3394
3394 3938 3394
3406 3940 3463
3440 3946 3629
3483 3955 3763
3541 3966 3894
3574 3973 3959
3744 3992 3982
4058 4058 4058
4058 4058 4058
4058 4058 4058
4058 4058 4058
3403 3940 3450
3404 3940 3454
3405 3940 3457
3405 3940 3461
3406 3940 3466
3407 3941 3472
3409 3941 3479
3410 3941 3489
3413 3942 3502
3416 3942 3518
3420 3943 3538
3425 3944 3563
3432 3945 3593
3440 3946 3630
3451 3949 3668
3465 3952 3713
3483 3955 3764
3510 3960 3822
3541 3966 3892
3639 3979 3967
3709 3987 3976
4095 4095 4095
4095 4095 4095
4095 4095 4095
4095 4095 4095
3976 3976 3976
3977 3977 3977
3978 3978 3978
3978 3978 3978
3979 3979 3979
3981 3981 3981
3983 3983 3983
3985 3985 3985
3988 3988 3988
3991 3991 3991
3996 3996 3996
4002 4002 4002
4011 4011 4011
4021 4021 4021
4035 4035 4035
4052 4052 4052
4074 4074 4074
4095 4095 4095
4095 4095 4095
4095 4095 4095
4095 4095 4095
4095 4095 4095
4095 4095 4095
4095 4095 4095
4095 4095 4095
3976 3976 3976
3977 3977 3977
3978 3978 3978
3978 3978 3978
3979 3979 3979
3981 3981 3981
3983 3983 3983
3985 3985 3985
3988 3988 3988
3991 3991 3991
3996 3996 3996
4002 4002 4002
4011 4011 4011
4021 4021 4021
4035 4035 4035
4052 4052 4052
4074 4074 4074
4095 4095 4095
4095 4095 4095
4095 4095 4095
4095 4095 4095
4095 4095 4095
4095 4095 4095
4095 4095 4095
4095 4095 4095
3976 3976 3976
3977 3977 3977
3978 3978 3978
3978 3978 3978
3979 3979 3979
3981 3981 3981
3983 3983 3983
3985 3985 3985
3988 3988 3988
3991 3991 3991
3996 3996 3996
4002 4002 4002
4011 4011 4011
4021 4021 4021
4035 4035 4035
4052 4052 4052
4074 4074 4074
4095 4095 4095
4095 4095 4095
4095 4095 4095
4095 4095 4095
4095 4095 4095
4095 4095 4095
4095 4095 4095
4095 4095 4095
3976 3976 3976
3977 3977 3977
3978 3978 3978
3978 3978 3978
3979 3979 3979
3981 3981 3981
3983 3983 3983
3985 3985 3985
3988 3988 3988
3991 3991 3991
3996 3996 3996
4002 4002 4002
4011 4011 4011
4021 4021 4021
4035 4035 4035
4052 4052 4052
4074 4074 4074
4095 4095 4095
4095 4095 4095
4095 4095 4095
4095 4095 4095
4095 4095 4095
4095 4095 4095
4095 4095 4095
4095 4095 4095
0 0 0
0 0 0
46 0 331
99 0 546
169 0 755
240 0 955
321 0 1193
406 0 1445
500 0 1728
603 0 2027
722 3 2339
858 15 2654
1012 30 2970
1190 55 3285
1394 65 3610
1628 68 3868
1875 303 4036
2130 444 4030
2407 597 3997
2639 754 3960
2848 915 3924
3144 3144 3144
3144 3144 3144
3144 3144 3144
3144 3144 3144
0 0 0
0 0 0
46 0 331
99 0 546
169 0 755
240 0 955
321 0 1193
406 0 1445
500 0 1728
603 0 2027
722 3 2339
858 15 2654
1012 30 2970
1190 55 3285
1394 65 3610
1628 68 3868
1875 303 4036
2130 444 4030
2385 582 4000
2627 746 3962
2846 913 3924
3151 3151 3151
3151 3151 3151
3151 3151 3151
3151 3151 3151
0 315 0
0 315 0
0 260 217
0 198 400
3 109 561
6 49 765
62 9 1174
204 9 1428
341 9 1711
473 9 2011
612 15 2324
762 24 2642
930 40 2960
1118 65 3278
1333 74 3604
1575 74 3865
1834 292 4036
2101 430 4033
2362 567 4003
2614 736 3964
2845 912 3924
3158 3158 3158
3158 3158 3158
3158 3158 3158
3158 3158 3158
0 526 0
0 526 0
0 488 71
0 444 384
0 393 561
0 323 719
9 209 903
12 112 1109
55 18 1700
282 21 2003
466 24 2316
645 37 2634
831 52 2953
1033 77 3270
1259 93 3597
1511 87 3862
1783 286 4037
2069 415 4036
2338 554 4006
2601 727 3966
2843 911 3925
3165 3165 3165
3165 3165 3165
3165 3165 3165
3165 3165 3165
0 715 0
0 715 0
0 686 0
0 651 271
0 610 533
0 558 720
0 491 891
9 386 1101
15 209 1323
24 137 1764
212 37 2306
472 46 2623
696 65 2943
922 90 3263
1164 112 3589
1431 103 3859
1718 279 4038
2028 400 4040
2310 537 4010
2585 715 3969
2842 909 3925
3173 3173 3173
3173 3173 3173
3173 3173 3173
3173 3173 3173
3 917 3
3 917 3
3 891 3
0 865 37
0 831 419
0 785 689
0 731 894
0 657 1094
9 553 1320
24 386 1574
28 259 1853
102 58 2620
480 77 2936
760 105 3255
1033 134 3579
1320 125 3855
1629 272 4039
1972 374 4044
2270 516 4015
2563 701 3972
2839 917 3924
3184 3184 3184
3184 3184 3184
3184 3184 3184
3184 3184 3184
6 1136 6
6 1136 6
6 1115 6
6 1092 6
3 1063 212
0 1026 567
0 975 859
3 915 1087
0 836 1320
9 724 1563
34 550 1844
43 321 2137
83 198 2826
494 121 3248
838 159 3569
1163 153 3849
1503 265 4041
1896 346 4050
2217 487 4021
2535 681 3977
2828 1070 3911
3197 3197 3197
3197 3197 3197
3197 3197 3197
3197 3197 3197
9 1381 9
9 1381 9
9 1364 9
9 1343 9
9 1318 9
9 1286 373
0 1245 723
0 1189 1048
3 1120 1309
0 1031 1570
12 908 1832
52 721 2136
62 414 2435
112 349 3025
512 184 3560
928 187 3843
1321 261 4042
1765 334 4059
2142 450 4029
2496 654 3983
2817 1241 3896
3215 3215 3215
3215 3215 3215
3215 3215 3215
3215 3215 3215
9 1652 9
9 1652 9
9 1637 9
9 1620 9
9 1599 9
9 1572 9
9 1536 526
0 1490 895
0 1428 1262
0 1352 1558
0 1251 1847
15 1114 2124
74 906 2439
96 580 2745
156 482 3252
525 223 3835
1041 258 4044
1568 322 4069
2036 401 4039
2443 620 3991
2807 1432 3878
3237 3237 3237
3237 3237 3237
3237 3237 3237
3237 3237 3237
40 1945 40
40 1945 40
37 1932 37
34 1919 34
31 1902 31
28 1880 24
21 1851 31
18 1811 687
0 1762 1087
0 1693 1502
0 1608 1831
0 1496 2143
3 1345 2433
93 1111 2756
143 752 3057
198 615 3509
539 270 4046
1259 314 4084
1881 342 4051
2370 573 4002
2799 1644 3858
3266 3266 3266
3266 3266 3266
3266 3266 3266
3266 3266 3266
230 2247 230
230 2247 230
222 2237 220
212 2226 209
198 2213 198
184 2197 184
163 2174 163
137 2143 287
121 2103 881
71 2052 1310
37 1980 1767
43 1888 2123
40 1766 2446
18 1601 2742
112 1340 3074
175 936 3384
220 748 3764
701 312 4095
1581 322 4069
2265 513 4016
2797 1873 3836
3301 3301 3301
3301 3301 3301
3301 3301 3301
3301 3301 3301
