Log/Black Magic - BMD Film 4.6K URSA.3dl
#25pt 3DLUT created by 3D LUT Creator Pro (c) Oleg Sharonov
#Copyright Oleg Sharonov
#INPUTGAMMA BMDFilm 4.6K
#IMAGEPROFILE sRGB
#OUTPUTGAMMA sRGB
0 43 86 128 171 214 256 299 341 384 427 469 512 555 597 640 682 725 768 810 853 896 938 981 1023 
0 0 0
0 0 0
0 3 65
3 17 317
3 34 519
7 58 705
10 85 884
14 123 1075
17 170 1282
24 229 1512
34 293 1761
51 364 2031
78 444 2330
115 532 2653
166 630 3002
247 742 3367
393 882 3697
817 1144 3762
1146 1399 3801
1299 1524 3813
2325 2467 3826
3256 3256 3256
3256 3256 3256
3256 3256 3256
3256 3256 3256
0 0 0
0 0 0
0 3 65
3 17 317
3 34 519
7 58 705
10 85 884
14 123 1075
17 170 1282
24 229 1512
34 293 1761
51 364 2031
78 444 2330
115 532 2653
166 630 3002
247 742 3367
393 882 3697
817 1144 3762
1144 1398 3800
1299 1524 3812
2339 2485 3825
3262 3262 3262
3262 3262 3262
3262 3262 3262
3262 3262 3262
0 92 0
0 92 0
0 82 78
0 65 330
3 44 514
7 55 695
7 85 877
14 123 1075
17 170 1282
24 229 1508
34 293 1756
51 364 2031
78 444 2330
115 532 2653
166 630 3002
247 742 3367
391 882 3696
817 1144 3762
1144 1397 3800
1298 1524 3812
2352 2503 3825
3267 3267 3267
3267 3267 3267
3267 3267 3267
3267 3267 3267
0 390 0
0 390 0
0 386 3
0 371 359
0 357 543
0 342 711
7 317 890
14 284 1079
17 238 1280
24 229 1503
34 293 1753
51 362 2024
78 442 2324
115 530 2648
166 629 2998
247 741 3364
389 881 3697
816 1143 3761
1142 1396 3800
1298 1523 3812
2383 2537 3825
3272 3272 3272
3272 3272 3272
3272 3272 3272
3272 3272 3272
0 609 0
0 609 0
0 606 0
0 595 298
0 581 564
0 571 736
0 557 903
3 538 1085
17 511 1292
27 473 1514
37 424 1754
51 360 2017
74 440 2319
112 529 2643
166 627 2994
247 740 3361
385 879 3695
814 1142 3761
1142 1395 3800
1298 1523 3812
2396 2556 3824
3280 3280 3280
3280 3280 3280
3280 3280 3280
3280 3280 3280
0 810 0
0 810 0
0 808 0
0 799 206
0 791 508
0 776 754
0 766 924
0 752 1109
0 736 1294
20 710 1522
41 674 1766
61 627 2031
85 565 2322
112 528 2637
166 625 2989
245 738 3356
381 876 3695
812 1140 3761
1140 1394 3800
1297 1522 3812
2412 2580 3823
3289 3289 3289
3289 3289 3289
3289 3289 3289
3289 3289 3289
3 1015 3
3 1015 3
3 1013 3
3 1007 41
3 997 453
0 989 697
0 974 947
7 963 1124
0 948 1330
0 932 1531
23 904 1773
61 869 2043
95 822 2335
129 760 2650
170 676 2987
245 736 3351
376 874 3693
808 1138 3761
1138 1392 3800
1296 1521 3812
2433 2612 3823
3300 3300 3300
3300 3300 3300
3300 3300 3300
3300 3300 3300
10 1232 10
10 1232 10
10 1230 10
10 1225 10
10 1217 334
3 1210 645
0 1200 884
0 1183 1152
7 1171 1344
6 1155 1567
0 1136 1794
33 1110 2052
91 1071 2345
149 1021 2662
211 958 2999
273 875 3350
374 871 3689
804 1135 3760
1135 1390 3800
1295 1521 3812
2461 2651 3822
3316 3316 3316
3316 3316 3316
3316 3316 3316
3316 3316 3316
30 1466 27
30 1466 27
30 1465 27
27 1460 27
27 1454 112
27 1447 555
13 1438 831
13 1427 1083
0 1410 1372
23 1396 1583
37 1378 1825
33 1359 2077
81 1331 2350
183 1289 2665
271 1238 3000
351 1174 3347
438 1093 3682
799 1131 3759
1131 1386 3799
1386 1670 3806
2495 2701 3821
3335 3335 3335
3335 3335 3335
3335 3335 3335
3335 3335 3335
82 1721 82
82 1721 82
82 1719 82
82 1716 78
78 1711 78
78 1705 406
78 1696 759
54 1688 1029
58 1675 1299
30 1657 1614
78 1642 1845
115 1622 2107
135 1599 2380
208 1571 2667
337 1527 2998
443 1474 3341
546 1410 3673
910 1396 3755
1180 1482 3797
1504 1847 3797
2540 2763 3820
3360 3360 3360
3360 3360 3360
3360 3360 3360
3360 3360 3360
199 1998 196
199 1998 196
196 1997 196
196 1994 193
193 1990 193
190 1984 190
190 1978 637
190 1969 968
160 1960 1244
160 1946 1537
125 1927 1878
202 1910 2129
273 1887 2409
320 1863 2701
399 1833 2998
541 1788 3335
669 1734 3662
1064 1709 3746
1349 1765 3784
1650 2051 3788
2596 2840 3820
3391 3391 3391
3391 3391 3391
3391 3391 3391
3391 3391 3391
387 2299 385
387 2299 385
387 2298 385
383 2296 383
381 2292 381
378 2287 378
374 2282 496
374 2275 873
374 2266 1198
350 2256 1485
352 2242 1800
324 2220 2166
408 2201 2435
501 2176 2729
574 2149 3031
672 2120 3326
832 2073 3643
1256 2038 3733
1553 2069 3771
1828 2282 3781
2667 2934 3822
3430 3430 3430
3430 3430 3430
3430 3430 3430
3430 3430 3430
645 2620 645
645 2620 645
645 2620 644
643 2618 642
641 2615 639
638 2612 637
633 2606 632
630 2601 813
630 2593 1145
626 2584 1463
610 2574 1759
611 2559 2091
590 2537 2479
685 2515 2759
801 2488 3057
906 2459 3356
1027 2429 3628
1484 2384 3724
1797 2391 3763
2044 2539 3779
2754 3045 3824
3478 3478 3478
3478 3478 3478
3478 3478 3478
3478 3478 3478
980 2959 980
980 2959 980
980 2959 979
978 2957 977
975 2955 975
972 2952 972
968 2948 968
963 2943 962
960 2937 1171
960 2930 1473
955 2920 1779
944 2911 2076
944 2896 2416
927 2874 2814
1040 2850 3097
1205 2834 3399
1338 2799 3662
1759 2752 3729
2076 2729 3766
2258 2797 3781
2861 3176 3830
3536 3536 3536
3536 3536 3536
3536 3536 3536
3536 3536 3536
1347 3259 1346
1347 3259 1346
1347 3258 1346
1345 3258 1345
1344 3256 1343
1341 3254 1341
1338 3252 1337
1334 3249 1333
1328 3245 1328
1326 3239 1546
1324 3231 1817
1318 3221 2101
1308 3211 2388
1306 3195 2721
1288 3172 3112
1417 3144 3384
1581 3108 3641
1959 3057 3758
2290 3023 3774
2465 3047 3791
2988 3325 3840
3600 3600 3600
3600 3600 3600
3600 3600 3600
3600 3600 3600
1755 3532 1754
1755 3532 1754
1754 3532 1754
1753 3531 1753
1752 3530 1751
1750 3529 1749
1747 3527 1746
1743 3525 1742
1738 3522 1738
1731 3518 1733
1730 3513 1943
1729 3505 2181
1723 3497 2439
1715 3487 2706
1713 3472 3021
1697 3452 3393
1839 3422 3637
2138 3374 3790
2560 3315 3808
2714 3304 3817
3137 3487 3856
3669 3669 3669
3669 3669 3669
3669 3669 3669
3669 3669 3669
2215 3750 2214
2215 3750 2214
2215 3750 2214
2214 3750 2213
2212 3749 2212
2211 3749 2210
2208 3748 2207
2205 3747 2204
2201 3745 2201
2195 3743 2195
2189 3740 2207
2188 3736 2379
2187 3731 2580
2182 3725 2803
2175 3718 3040
2173 3707 3323
2159 3692 3649
2307 3668 3818
2822 3597 3846
2986 3555 3852
3316 3640 3882
3739 3739 3739
3739 3739 3739
3739 3739 3739
3739 3739 3739
2702 3894 2702
2702 3894 2702
2701 3894 2701
2700 3894 2700
2700 3894 2699
2698 3893 2698
2696 3893 2696
2694 3892 2693
2691 3892 2690
2687 3890 2686
2681 3889 2681
2675 3887 2699
2674 3884 2832
2673 3880 2992
2669 3876 3172
2665 3871 3368
2663 3863 3601
2653 3853 3823
3026 3805 3893
3251 3752 3891
3503 3769 3910
3809 3809 3809
3809 3809 3809
3809 3809 3809
3809 3809 3809
3277 3967 3277
3276 3967 3276
3275 3967 3275
3274 3967 3274
3273 3966 3273
3271 3966 3271
3269 3966 3269
3267 3966 3266
3263 3966 3263
3259 3966 3258
3252 3966 3252
3244 3965 3244
3234 3965 3271
3219 3965 3340
3199 3966 3429
3169 3966 3535
3124 3968 3650
3119 3964 3790
3115 3957 3935
3486 3890 3938
3668 3874 3943
3875 3875 3875
3875 3875 3875
3875 3875 3875
3875 3875 3875
3672 3990 3659
3672 3990 3659
3671 3990 3659
3671 3990 3659
3671 3990 3658
3670 3990 3658
3670 3990 3658
3669 3989 3657
3668 3989 3656
3666 3989 3655
3665 3989 3654
3663 3989 3666
3662 3990 3684
3660 3990 3707
3657 3991 3735
3653 3991 3769
3647 3993 3806
3640 3995 3851
3633 3997 3910
3617 4000 3986
3795 3958 3982
3937 3937 3937
3937 3937 3937
3937 3937 3937
3937 3937 3937
3750 3997 3707
3751 3997 3708
3751 3997 3710
3752 3997 3711
3752 3998 3713
3753 3998 3716
3754 3998 3720
3756 3998 3724
3757 3998 3730
3760 3999 3737
3762 3999 3747
3766 4000 3758
3771 4001 3773
3777 4002 3791
3785 4004 3813
3795 4006 3839
3807 4009 3868
3822 4012 3900
3840 4017 3936
3862 4023 3977
3888 4030 4023
3994 3994 3994
3994 3994 3994
3994 3994 3994
3994 3994 3994
3897 3897 3897
3897 3897 3897
3897 3897 3897
3898 3898 3898
3898 3898 3898
3899 3899 3899
3900 3900 3900
3901 3901 3901
3903 3903 3903
3904 3904 3904
3907 3907 3907
3910 3910 3910
3914 3914 3914
3920 3920 3920
3926 3926 3926
3934 3934 3934
3945 3945 3945
3957 3957 3957
3972 3972 3972
3990 3990 3990
4010 4010 4010
4021 4021 4021
4021 4021 4021
4021 4021 4021
4021 4021 4021
3897 3897 3897
3897 3897 3897
3897 3897 3897
3898 3898 3898
3898 3898 3898
3899 3899 3899
3900 3900 3900
3901 3901 3901
3903 3903 3903
3904 3904 3904
3907 3907 3907
3910 3910 3910
3914 3914 3914
3920 3920 3920
3926 3926 3926
3934 3934 3934
3945 3945 3945
3957 3957 3957
3972 3972 3972
3990 3990 3990
4010 4010 4010
4021 4021 4021
4021 4021 4021
4021 4021 4021
4021 4021 4021
3897 3897 3897
3897 3897 3897
3897 3897 3897
3898 3898 3898
3898 3898 3898
3899 3899 3899
3900 3900 3900
3901 3901 3901
3903 3903 3903
3904 3904 3904
3907 3907 3907
3910 3910 3910
3914 3914 3914
3920 3920 3920
3926 3926 3926
3934 3934 3934
3945 3945 3945
3957 3957 3957
3972 3972 3972
3990 3990 3990
4010 4010 4010
4021 4021 4021
4021 4021 4021
4021 4021 4021
4021 4021 4021
3897 3897 3897
3897 3897 3897
3897 3897 3897
3898 3898 3898
3898 3898 3898
3899 3899 3899
3900 3900 3900
3901 3901 3901
3903 3903 3903
3904 3904 3904
3907 3907 3907
3910 3910 3910
3914 3914 3914
3920 3920 3920
3926 3926 3926
3934 3934 3934
3945 3945 3945
3957 3957 3957
3972 3972 3972
3990 3990 3990
4010 4010 4010
4021 4021 4021
4021 4021 4021
4021 4021 4021
4021 4021 4021
0 0 0
0 0 0
0 3 65
3 17 317
3 34 519
7 58 705
10 85 884
14 123 1075
17 170 1282
24 229 1512
34 293 1761
51 364 2031
78 444 2330
115 532 2653
166 630 3002
247 742 3367
393 882 3697
817 1144 3762
1145 1398 3800
1299 1524 3813
2338 2472 3827
3260 3260 3260
3260 3260 3260
3260 3260 3260
3260 3260 3260
0 0 0
0 0 0
0 3 65
3 17 317
3 34 519
7 58 705
10 85 884
14 123 1075
17 170 1282
24 229 1512
34 293 1761
51 364 2031
78 444 2330
115 532 2653
166 630 3002
247 742 3367
393 882 3697
817 1144 3762
1144 1398 3801
1299 1524 3812
2351 2490 3827
3265 3265 3265
3265 3265 3265
3265 3265 3265
3265 3265 3265
0 92 0
0 92 0
0 82 78
0 65 330
3 44 514
7 55 695
7 85 877
14 123 1075
17 170 1282
24 229 1508
34 293 1756
51 364 2031
78 444 2330
115 532 2653
166 630 3002
247 742 3367
391 882 3696
817 1144 3762
1143 1397 3800
1298 1524 3812
2385 2525 3827
3270 3270 3270
3270 3270 3270
3270 3270 3270
3270 3270 3270
0 390 0
0 390 0
0 386 3
0 371 359
0 357 543
0 342 711
7 317 890
14 284 1079
17 238 1280
24 229 1503
34 293 1753
51 362 2024
78 442 2324
115 530 2648
166 629 2998
247 741 3364
389 881 3697
816 1143 3761
1142 1396 3800
1298 1523 3812
2394 2540 3826
3276 3276 3276
3276 3276 3276
3276 3276 3276
3276 3276 3276
0 609 0
0 609 0
0 606 0
0 595 298
0 581 564
0 571 736
0 557 903
3 538 1085
17 511 1292
27 473 1514
37 424 1754
51 360 2017
74 440 2319
112 529 2643
166 627 2994
247 740 3361
385 879 3695
814 1142 3761
1141 1395 3800
1298 1523 3812
2407 2559 3825
3283 3283 3283
3283 3283 3283
3283 3283 3283
3283 3283 3283
0 810 0
0 810 0
0 808 0
0 799 206
0 791 508
0 776 754
0 766 924
0 752 1109
0 736 1294
20 710 1522
41 674 1766
61 627 2031
85 565 2322
112 528 2637
166 625 2989
245 738 3356
381 876 3695
812 1140 3761
1140 1393 3800
1297 1522 3812
2423 2583 3825
3292 3292 3292
3292 3292 3292
3292 3292 3292
3292 3292 3292
3 1015 3
3 1015 3
3 1013 3
3 1007 41
3 997 453
0 989 697
0 974 947
7 963 1124
0 948 1330
0 932 1531
23 904 1773
61 869 2043
95 822 2335
129 760 2650
170 676 2987
245 736 3351
376 874 3693
808 1138 3761
1137 1391 3800
1296 1521 3812
2444 2614 3824
3304 3304 3304
3304 3304 3304
3304 3304 3304
3304 3304 3304
10 1232 10
10 1232 10
10 1230 10
10 1225 10
10 1217 334
3 1210 645
0 1200 884
0 1183 1152
7 1171 1344
6 1155 1567
0 1136 1794
33 1110 2052
91 1071 2345
149 1021 2662
211 958 2999
273 875 3350
374 871 3689
804 1135 3760
1134 1389 3800
1295 1520 3812
2470 2654 3823
3319 3319 3319
3319 3319 3319
3319 3319 3319
3319 3319 3319
30 1466 27
30 1466 27
30 1465 27
27 1460 27
27 1454 112
27 1447 555
13 1438 831
13 1427 1083
0 1410 1372
23 1396 1583
37 1378 1825
33 1359 2077
81 1331 2350
183 1289 2665
271 1238 3000
351 1174 3347
438 1093 3682
799 1131 3759
1130 1386 3799
1385 1669 3806
2505 2704 3822
3338 3338 3338
3338 3338 3338
3338 3338 3338
3338 3338 3338
82 1721 82
82 1721 82
82 1719 82
82 1716 78
78 1711 78
78 1705 406
78 1696 759
54 1688 1029
58 1675 1299
30 1657 1614
78 1642 1845
115 1622 2107
135 1599 2380
208 1571 2667
337 1527 2998
443 1474 3341
546 1410 3673
910 1396 3755
1178 1477 3796
1504 1846 3797
2549 2766 3821
3363 3363 3363
3363 3363 3363
3363 3363 3363
3363 3363 3363
199 1998 196
199 1998 196
196 1997 196
196 1994 193
193 1990 193
190 1984 190
190 1978 637
190 1969 968
160 1960 1244
160 1946 1537
125 1927 1878
202 1910 2129
273 1887 2409
320 1863 2701
399 1833 2998
541 1788 3335
669 1734 3662
1064 1709 3746
1346 1762 3785
1649 2051 3788
2605 2843 3821
3394 3394 3394
3394 3394 3394
3394 3394 3394
3394 3394 3394
