Log/Canon C-Log 2 Cinema Gamut.3dl
#25pt 3DLUT created by 3D LUT Creator Pro (c) Oleg Sharonov
#Copyright Oleg Sharonov
#INPUTGAMMA Canon Log 2
#IMAGEPROFILE sRGB IEC61966-2.1 v.2.10
#OUTPUTGAMMA sRGB IEC61966-2.1 v.2.10
0 256 512 768 1023
0 0 0
0 0 942
0 0 3214
2794 2794 4083
4040 4040 4090
0 952 0
0 837 699
0 0 3184
2790 2790 4083
4040 4040 4090
290 3215 290
278 3201 278
155 2988 2675
2743 2743 4084
4040 4040 4090
3927 4081 3927
3926 4081 3926
3923 4081 3923
3859 4076 4023
4038 4038 4090
4079 4093 4079
4079 4093 4079
4079 4093 4079
4078 4093 4078
4073 4093 4088
1077 0 41
1037 0 959
302 0 3216
2794 2794 4083
4040 4040 4090
796 888 0
745 764 715
0 0 3186
2790 2790 4083
4040 4040 4090
284 3207 284
272 3192 272
147 2978 2677
2743 2743 4084
4040 4040 4090
3926 4081 3926
3926 4081 3926
3923 4081 3923
3859 4076 4023
4038 4038 4090
4079 4093 4079
4079 4093 4079
4079 4093 4079
4078 4093 4078
4073 4093 4088
3437 0 457
3432 0 1103
3374 0 3236
2989 2908 4081
4040 4040 4090
3408 0 0
3403 0 895
3343 0 3208
2969 2894 4081
4040 4040 4090
2905 3095 324
2896 3078 310
2785 2830 2714
2746 2746 4084
4040 4040 4090
3925 4081 3925
3924 4081 3924
3921 4081 3921
3855 4076 4024
4038 4038 4090
4079 4093 4079
4079 4093 4079
4079 4093 4079
4078 4093 4078
4073 4093 4088
4079 3862 3866
4079 3863 3868
4079 3867 3888
4081 3901 4058
4047 4045 4091
4079 3861 3865
4079 3862 3867
4079 3866 3886
4081 3900 4058
4047 4045 4091
4078 3847 3847
4078 3847 3847
4078 3852 3867
4080 3890 4057
4046 4045 4091
4029 4072 3795
4029 4072 3795
4029 4071 3786
4014 4049 3961
4038 4038 4090
4079 4093 4079
4079 4093 4079
4079 4093 4079
4078 4093 4078
4073 4093 4088
4093 4077 4077
4093 4077 4077
4093 4077 4077
4093 4077 4079
4093 4079 4092
4093 4077 4077
4093 4077 4077
4093 4077 4077
4093 4077 4079
4093 4079 4092
4093 4077 4077
4093 4077 4077
4093 4077 4077
4093 4077 4079
4093 4079 4092
4093 4076 4076
4093 4076 4076
4093 4076 4076
4093 4077 4078
4093 4078 4091
4088 4092 4068
4088 4092 4068
4088 4092 4068
4088 4092 4067
4083 4093 4069
