Log/Canon C-Log 2 Cinema Gamut Contrast.3dl
#25pt 3DLUT created by 3D LUT Creator Pro (c) Oleg Sharonov
#Copyright Oleg Sharonov
#INPUTGAMMA Canon Log 2
#IMAGEPROFILE Rec. ITU-R BT.709-5 v.4.00
#OUTPUTGAMMA Rec. ITU-R BT.709-5 v.4.00
0 256 512 768 1023
0 0 0
0 0 418
0 0 3132
2483 2483 4095
4070 4070 4095
0 423 0
0 314 208
0 0 3097
2478 2478 4095
4070 4070 4095
0 3137 0
0 3120 0
0 2873 2487
2412 2412 4095
4070 4070 4095
3957 4095 3957
3957 4095 3957
3953 4095 3953
3836 4095 4059
4069 4069 4095
4087 4095 4087
4087 4095 4087
4087 4095 4087
4087 4095 4087
4084 4095 4092
545 0 8
511 0 433
55 0 3133
2483 2483 4095
4070 4070 4095
278 361 0
238 252 217
0 0 3097
2479 2479 4095
4070 4070 4095
0 3128 0
0 3111 0
0 2860 2491
2412 2412 4095
4070 4070 4095
3957 4095 3957
3957 4095 3957
3953 4095 3953
3836 4095 4059
4069 4069 4095
4087 4095 4087
4087 4095 4087
4087 4095 4087
4087 4095 4087
4084 4095 4092
3378 0 97
3373 0 575
3310 0 3156
2797 2624 4095
4070 4070 4095
3347 0 0
3342 0 366
3275 0 3123
2767 2607 4095
4070 4070 4095
2769 2997 0
2759 2977 0
2625 2681 2536
2415 2415 4095
4070 4070 4095
3955 4095 3955
3955 4095 3955
3950 4095 3950
3828 4095 4060
4069 4069 4095
4087 4095 4087
4087 4095 4087
4087 4095 4087
4087 4095 4087
4084 4095 4092
4095 3899 3905
4095 3900 3907
4095 3905 3933
4095 3948 4084
4074 4073 4095
4095 3897 3903
4095 3898 3905
4095 3904 3931
4095 3947 4084
4074 4073 4095
4095 3878 3878
4095 3878 3878
4095 3884 3906
4095 3935 4084
4074 4073 4095
4057 4095 3383
4057 4095 3379
4058 4095 3313
4058 4074 4028
4069 4069 4095
4087 4095 4087
4087 4095 4087
4087 4095 4087
4087 4095 4087
4084 4095 4092
4095 4088 4088
4095 4088 4088
4095 4088 4088
4095 4088 4089
4095 4089 4094
4095 4088 4088
4095 4088 4088
4095 4088 4088
4095 4088 4089
4095 4089 4094
4095 4088 4088
4095 4088 4088
4095 4088 4088
4095 4088 4089
4095 4089 4094
4095 4088 4088
4095 4088 4088
4095 4088 4088
4095 4088 4088
4095 4088 4094
4092 4095 4075
4092 4095 4075
4092 4095 4075
4092 4095 4074
4089 4095 4079
