Log/Canon C-Log.3dl
#32pt 3DLUT created by 3D LUT Creator Pro (c) Oleg Sharonov
#Copyright Oleg Sharonov
#IMAGEPROFILE sRGB
#INPUTGAMMA Canon Log
#OUTPUTGAMMA sRGB
0 33 66 99 132 165 198 231 264 297 330 363 396 429 462 495 528 561 594 627 660 693 726 759 792 825 858 891 924 957 990 1023 
0 0 0
0 0 0
0 0 0
9 3 83
28 12 219
43 18 321
64 28 424
89 40 518
117 52 614
148 68 705
184 83 799
221 102 899
257 123 999
296 148 1103
336 176 1211
374 203 1315
416 231 1429
458 261 1545
505 294 1669
553 327 1798
604 362 1933
658 400 2073
717 439 2219
779 482 2371
844 527 2528
915 575 2691
991 627 2859
1074 695 3013
1172 810 3102
1278 936 3189
1393 1069 3273
1517 1214 3354
0 0 0
0 0 0
0 0 0
9 3 83
28 12 219
43 18 321
64 28 424
89 40 518
117 52 614
148 68 705
184 83 799
221 102 899
257 123 999
296 148 1103
336 176 1211
374 203 1315
416 231 1429
458 261 1545
505 294 1669
553 327 1798
604 362 1933
658 400 2073
717 439 2219
779 482 2371
844 527 2528
915 575 2691
991 627 2859
1074 695 3013
1172 810 3102
1278 936 3189
1393 1069 3273
1517 1214 3354
0 0 0
0 0 0
0 0 0
9 3 83
28 12 219
43 18 321
64 28 424
89 40 518
117 52 614
148 68 705
184 83 799
221 102 899
257 123 999
296 148 1103
336 176 1211
374 203 1315
416 231 1429
458 261 1545
505 294 1669
553 327 1798
604 362 1933
658 400 2073
717 439 2219
779 482 2371
844 527 2528
915 575 2691
991 627 2859
1074 695 3013
1172 810 3102
1278 936 3189
1393 1069 3273
1517 1214 3354
24 261 0
24 261 0
24 261 0
0 257 136
0 257 259
40 221 459
68 167 624
86 117 742
130 92 786
164 92 821
195 95 851
221 102 899
259 123 1003
298 148 1107
336 176 1214
375 203 1319
418 234 1432
459 261 1548
505 294 1671
553 327 1800
605 363 1935
660 400 2075
718 440 2221
779 482 2373
845 527 2529
916 576 2692
991 627 2860
1074 696 3014
1172 811 3102
1278 936 3189
1393 1070 3273
1518 1215 3354
61 494 0
61 494 0
61 494 0
0 490 136
0 490 306
0 490 425
0 489 489
15 475 603
117 421 853
154 370 998
181 325 1111
211 270 1234
266 224 1299
316 221 1315
355 221 1351
387 226 1387
418 234 1435
462 264 1553
506 294 1674
555 327 1803
606 363 1937
661 402 2078
719 440 2224
780 483 2375
846 528 2532
917 576 2694
992 628 2862
1075 696 3014
1173 812 3103
1279 936 3189
1394 1071 3273
1518 1215 3354
105 675 0
105 675 0
105 675 0
0 673 102
0 665 310
0 671 437
0 675 556
0 674 620
0 672 685
12 655 803
154 607 1023
229 542 1257
255 492 1363
283 437 1482
316 372 1615
377 325 1667
436 321 1687
482 325 1732
522 329 1777
558 335 1821
607 365 1941
662 402 2080
720 442 2226
781 483 2378
847 528 2533
917 577 2695
992 628 2863
1076 698 3015
1174 813 3104
1280 938 3190
1395 1071 3274
1519 1216 3354
151 841 0
151 841 0
151 841 0
0 843 52
0 832 300
0 831 442
0 837 557
0 844 676
0 841 753
0 840 814
0 838 876
55 810 1029
226 756 1279
306 681 1526
333 625 1634
362 566 1756
395 497 1891
443 422 2008
525 411 1995
580 414 2047
628 419 2097
674 425 2150
721 442 2229
783 485 2381
848 530 2536
918 577 2698
994 630 2866
1077 699 3016
1174 814 3105
1281 939 3191
1395 1073 3274
1519 1217 3355
203 998 0
203 998 0
203 998 0
3 1005 0
0 992 272
0 986 440
0 989 561
0 995 672
0 1004 789
0 1002 880
0 1002 936
0 999 1006
0 988 1102
158 948 1292
329 877 1612
385 802 1806
414 739 1920
445 671 2047
482 593 2189
536 510 2310
626 497 2293
689 502 2351
745 508 2406
797 516 2464
849 531 2539
920 579 2701
994 630 2868
1078 700 3017
1176 816 3106
1282 940 3192
1396 1074 3275
1520 1218 3355
255 1154 0
255 1154 0
255 1154 0
68 1159 0
0 1150 236
0 1144 425
0 1138 562
0 1144 674
0 1151 784
0 1162 904
0 1161 1004
0 1160 1065
0 1157 1137
0 1155 1204
49 1127 1370
298 1069 1616
440 975 1989
469 906 2097
501 834 2219
536 757 2355
576 666 2507
655 593 2582
745 584 2590
813 590 2651
876 597 2712
933 606 2774
996 631 2871
1079 702 3019
1177 817 3107
1282 941 3192
1397 1075 3275
1521 1219 3356
306 1311 0
306 1311 0
306 1311 0
142 1315 0
0 1312 173
0 1302 399
0 1297 555
0 1292 675
0 1301 786
0 1308 897
0 1321 1020
0 1320 1129
0 1318 1198
0 1316 1268
0 1314 1341
0 1297 1467
252 1248 1686
451 1166 2037
527 1071 2281
559 995 2399
596 915 2533
637 824 2681
683 715 2845
797 672 2836
881 674 2888
954 681 2953
1021 690 3017
1089 719 3054
1178 819 3108
1284 942 3193
1399 1076 3276
1523 1221 3357
356 1470 0
356 1470 0
356 1470 0
219 1473 0
0 1476 89
0 1463 365
0 1458 533
0 1453 674
0 1451 788
0 1459 899
0 1467 1012
0 1481 1139
0 1481 1255
0 1479 1334
0 1477 1401
0 1474 1482
0 1466 1581
181 1423 1787
445 1352 2090
588 1240 2471
622 1158 2587
660 1072 2718
701 979 2865
749 871 3027
836 775 3126
951 761 3122
1035 769 3191
1120 801 3222
1205 871 3194
1285 945 3194
1400 1078 3278
1524 1222 3358
410 1632 0
410 1632 0
410 1632 0
291 1635 0
9 1642 0
0 1631 310
0 1622 505
0 1618 657
0 1612 788
0 1614 903
0 1621 1014
0 1630 1131
0 1644 1262
0 1644 1386
0 1643 1473
0 1642 1538
0 1638 1627
0 1636 1708
74 1599 1909
436 1532 2183
641 1417 2632
688 1322 2781
728 1232 2911
771 1134 3057
821 1023 3219
877 890 3398
1023 853 3360
1133 889 3383
1244 968 3339
1336 1038 3315
1415 1102 3303
1525 1224 3359
465 1798 0
465 1798 0
465 1798 0
360 1801 0
123 1807 0
0 1803 231
0 1791 468
0 1786 632
0 1782 778
0 1776 903
0 1779 1018
0 1787 1133
0 1796 1254
0 1810 1390
0 1812 1521
0 1810 1617
0 1809 1683
0 1805 1776
0 1803 1860
0 1775 2039
422 1711 2299
663 1609 2705
759 1490 2978
800 1394 3108
846 1292 3255
898 1178 3419
957 1043 3601
1116 999 3578
1273 1074 3476
1387 1151 3442
1481 1219 3422
1563 1284 3411
522 1969 0
522 1969 0
522 1969 0
428 1971 0
241 1976 0
0 1978 111
0 1967 408
0 1958 599
0 1954 754
0 1950 897
0 1944 1021
0 1950 1138
0 1957 1256
0 1966 1383
0 1980 1523
0 1983 1661
0 1981 1765
0 1979 1836
0 1976 1930
0 1973 2018
0 1951 2175
402 1892 2432
686 1796 2810
833 1663 3180
876 1561 3312
925 1454 3461
980 1336 3629
1094 1234 3739
1278 1218 3677
1435 1275 3561
1547 1348 3534
1641 1414 3516
581 2143 0
581 2143 0
581 2143 0
497 2145 0
340 2149 0
40 2156 0
0 2147 327
0 2137 555
0 2131 724
0 2127 875
0 2122 1018
0 2116 1141
0 2124 1263
0 2131 1385
0 2139 1516
0 2153 1662
0 2156 1806
0 2154 1918
0 2153 1994
0 2150 2087
0 2147 2180
0 2130 2322
375 2074 2577
712 1983 2937
910 1839 3387
958 1733 3522
1010 1621 3675
1142 1527 3768
1320 1476 3773
1468 1450 3763
1615 1488 3639
1721 1554 3613
645 2322 0
645 2322 0
645 2322 0
568 2324 0
434 2327 0
208 2332 0
0 2332 203
0 2322 485
0 2312 684
0 2308 846
0 2303 997
0 2299 1140
0 2292 1266
0 2302 1393
0 2308 1519
0 2316 1655
0 2330 1806
0 2334 1956
0 2332 2075
0 2330 2156
0 2327 2249
0 2324 2347
0 2311 2476
340 2259 2731
740 2170 3079
994 2018 3599
1045 1909 3738
1203 1816 3813
1404 1757 3810
1558 1717 3815
1679 1689 3819
1806 1710 3709
711 2505 0
711 2505 0
711 2505 0
641 2506 0
523 2509 0
347 2513 0
0 2519 6
0 2511 390
0 2501 625
0 2494 809
0 2489 970
0 2485 1123
0 2480 1267
0 2474 1396
0 2484 1528
0 2490 1658
0 2497 1800
0 2510 1955
0 2514 2112
0 2512 2237
0 2510 2322
0 2508 2416
0 2504 2518
0 2495 2638
291 2446 2893
770 2360 3235
1065 2209 3776
1277 2105 3871
1503 2035 3857
1670 1987 3853
1798 1952 3851
1904 1932 3853
781 2691 0
781 2691 0
781 2691 0
718 2692 0
613 2695 0
465 2699 0
219 2704 0
0 2703 248
0 2695 541
0 2685 759
0 2680 933
0 2675 1096
0 2670 1253
0 2665 1398
0 2661 1532
0 2670 1669
0 2675 1804
0 2682 1950
0 2694 2110
0 2698 2272
0 2696 2404
0 2694 2493
0 2691 2586
0 2688 2693
0 2681 2805
229 2636 3064
803 2551 3402
1323 2410 3849
1619 2312 3911
1798 2254 3896
1935 2212 3889
2046 2187 3890
853 2875 0
853 2875 0
853 2875 0
795 2876 0
701 2879 0
576 2882 0
389 2886 0
3 2892 0
0 2885 424
0 2877 677
0 2868 883
0 2864 1057
0 2859 1222
0 2855 1384
0 2849 1532
0 2846 1670
0 2854 1812
0 2858 1950
0 2865 2101
0 2875 2264
0 2879 2431
0 2877 2567
0 2873 2660
0 2871 2753
0 2866 2863
0 2862 2970
130 2819 3230
1144 2715 3551
1682 2585 3875
1922 2503 3940
2068 2456 3931
2183 2425 3928
926 3052 0
926 3052 0
926 3052 0
871 3052 0
788 3055 0
678 3058 0
526 3062 0
279 3067 0
0 3067 236
0 3061 567
0 3052 803
0 3045 1002
0 3041 1177
0 3036 1346
0 3031 1512
0 3025 1663
0 3023 1805
0 3030 1950
0 3033 2093
0 3039 2247
0 3049 2413
0 3052 2584
0 3049 2725
0 3046 2821
0 3043 2914
0 3038 3028
0 3034 3133
862 2966 3410
1644 2847 3697
2026 2748 3926
2211 2695 3975
2329 2656 3967
999 3227 0
999 3227 0
999 3227 0
950 3228 0
874 3231 0
778 3233 0
650 3237 0
465 3241 0
95 3246 0
0 3242 411
0 3235 695
0 3227 925
0 3221 1120
0 3217 1298
0 3212 1472
0 3207 1642
0 3200 1795
0 3198 1941
0 3204 2089
0 3207 2235
0 3212 2393
0 3221 2562
0 3223 2735
0 3220 2881
0 3216 2979
0 3213 3072
0 3208 3191
310 3192 3359
1634 3070 3625
2132 2964 3874
2357 2909 3991
2476 2873 4002
1073 3396 0
1073 3396 0
1073 3396 0
1027 3397 0
959 3400 0
874 3402 0
764 3406 0
615 3409 0
385 3414 0
0 3417 133
0 3412 550
0 3405 815
0 3397 1042
0 3392 1234
0 3387 1416
0 3382 1594
0 3377 1769
0 3370 1924
0 3368 2074
0 3374 2225
0 3375 2373
0 3379 2534
0 3386 2705
0 3388 2881
0 3383 3030
0 3379 3132
0 3376 3225
0 3367 3377
1637 3268 3604
2312 3136 3906
2496 3093 3973
2620 3067 4012
1143 3555 0
1143 3555 0
1143 3555 0
1102 3556 0
1041 3558 0
965 3560 0
870 3564 0
746 3567 0
571 3571 0
277 3576 0
0 3576 329
0 3571 670
0 3564 926
0 3557 1152
0 3552 1344
0 3547 1530
0 3542 1711
0 3537 1890
0 3530 2047
0 3528 2199
0 3532 2352
0 3533 2503
0 3536 2666
0 3541 2838
0 3541 3017
0 3536 3169
0 3531 3274
0 3527 3370
1486 3455 3549
2384 3318 3860
2620 3263 3957
2751 3236 3999
1209 3699 0
1209 3699 0
1209 3699 0
1172 3700 0
1116 3702 0
1049 3704 0
966 3707 0
861 3710 0
721 3714 0
518 3719 0
108 3724 0
0 3721 468
0 3716 777
0 3709 1028
0 3703 1250
0 3698 1446
0 3694 1634
0 3688 1819
0 3683 2001
0 3676 2160
0 3674 2314
0 3676 2469
0 3676 2621
0 3678 2785
0 3681 2959
0 3680 3140
0 3674 3295
0 3669 3402
1160 3630 3489
2137 3531 3686
2660 3433 3894
2859 3385 3982
1267 3826 0
1267 3826 0
1267 3826 0
1236 3828 0
1184 3829 0
1125 3831 0
1053 3834 0
963 3837 0
847 3840 0
690 3845 0
454 3850 0
0 3854 95
0 3850 580
0 3844 871
0 3838 1120
0 3832 1340
0 3828 1538
0 3823 1729
0 3818 1916
0 3812 2099
0 3805 2261
0 3803 2416
0 3804 2571
0 3803 2726
0 3803 2891
0 3805 3065
0 3803 3248
0 3795 3405
1043 3763 3509
1836 3707 3581
2470 3620 3749
2888 3533 3923
1320 3936 0
1320 3936 0
1320 3936 0
1291 3937 0
1245 3939 0
1193 3941 0
1130 3944 0
1053 3946 0
955 3949 0
829 3953 0
655 3957 0
375 3963 0
0 3965 277
0 3961 674
0 3956 955
0 3950 1201
0 3944 1420
0 3940 1619
0 3935 1812
0 3930 2001
0 3924 2185
0 3917 2348
0 3915 2504
0 3915 2660
0 3913 2816
0 3912 2982
0 3912 3157
0 3908 3341
380 3896 3500
1828 3820 3595
2276 3772 3655
2736 3695 3803
1365 4030 0
1365 4030 0
1365 4030 0
1338 4031 0
1297 4033 0
1252 4035 0
1197 4037 0
1130 4039 0
1047 4042 0
944 4046 0
807 4049 0
615 4054 0
281 4060 0
0 4060 397
0 4056 753
0 4051 1028
0 4045 1273
0 4040 1489
0 4036 1689
0 4031 1883
0 4026 2074
0 4020 2259
0 4013 2423
0 4010 2579
0 4009 2736
0 4006 2892
0 4004 3059
0 4003 3234
0 3997 3419
1649 3930 3586
2306 3865 3667
2601 3825 3718
1419 4095 77
1419 4095 77
1419 4095 77
1397 4095 77
1362 4095 77
1357 4095 281
1312 4095 281
1298 4095 424
1235 4095 424
1125 4095 333
1073 4095 457
1003 4095 557
906 4095 640
771 4095 716
744 4095 920
693 4095 1102
492 4095 1220
424 4095 1418
340 4095 1600
154 4095 1767
0 4095 1946
0 4095 2136
0 4095 2321
0 4094 2486
0 4090 2643
0 4088 2800
0 4085 2956
0 4082 3123
0 4079 3299
0 4075 3484
2218 3958 3657
2640 3902 3728
1915 4095 1316
1915 4095 1316
1915 4095 1316
1902 4095 1317
