Log/Canon C-Log 2 Cinema Gamut.3dl
#25pt 3DLUT created by 3D LUT Creator Pro (c) Oleg Sharonov
#Copyright Oleg Sharonov
#INPUTGAMMA Canon Log 2
#IMAGEPROFILE sRGB IEC61966-2.1 v.2.10
#OUTPUTGAMMA sRGB IEC61966-2.1 v.2.10
0 43 86 128 171 214 256 299 341 384 427 469 512 555 597 640 682 725 768 810 853 896 938 981 1023 
0 0 0
0 0 0
0 0 0
0 0 208
0 0 439
0 0 688
0 0 942
0 0 1243
0 0 1575
0 0 1952
0 0 2360
0 0 2788
0 0 3214
0 0 3604
0 0 3982
885 885 4095
1600 1600 4095
2224 2224 4091
2794 2794 4083
3292 3292 4075
3655 3655 4074
3860 3860 4079
3959 3959 4085
4011 4011 4088
4040 4040 4090
0 0 0
0 0 0
0 0 0
0 0 208
0 0 439
0 0 688
0 0 942
0 0 1243
0 0 1575
0 0 1952
0 0 2360
0 0 2788
0 0 3214
0 0 3604
0 0 3982
885 885 4095
1600 1600 4095
2224 2224 4091
2794 2794 4083
3292 3292 4075
3655 3655 4074
3860 3860 4079
3959 3959 4085
4011 4011 4088
4040 4040 4090
0 0 0
0 0 0
0 0 0
0 0 208
0 0 439
0 0 688
0 0 942
0 0 1243
0 0 1575
0 0 1952
0 0 2360
0 0 2788
0 0 3214
0 0 3604
0 0 3982
885 885 4095
1600 1600 4095
2224 2224 4091
2794 2794 4083
3292 3292 4075
3655 3655 4074
3860 3860 4079
3959 3959 4085
4011 4011 4088
4040 4040 4090
0 186 0
0 186 0
0 186 0
0 147 109
0 79 396
0 0 644
0 0 925
0 0 1230
0 0 1566
0 0 1945
0 0 2355
0 0 2785
0 0 3212
0 0 3602
0 0 3981
881 881 4095
1599 1599 4095
2223 2223 4091
2793 2793 4083
3292 3292 4075
3655 3655 4074
3860 3860 4079
3959 3959 4085
4011 4011 4088
4040 4040 4090
0 444 0
0 444 0
0 444 0
0 422 0
0 379 302
0 308 593
0 174 883
0 0 1193
0 0 1538
0 0 1924
0 0 2340
0 0 2775
0 0 3205
0 0 3599
0 0 3978
879 879 4095
1597 1597 4095
2222 2222 4091
2793 2793 4083
3291 3291 4075
3655 3655 4074
3860 3860 4079
3959 3959 4085
4011 4011 4088
4040 4040 4090
0 688 0
0 688 0
0 688 0
0 673 0
0 644 109
0 598 492
0 525 812
0 401 1143
0 120 1500
0 0 1896
0 0 2320
0 0 2761
0 0 3197
0 0 3594
0 0 3975
874 874 4095
1594 1594 4095
2220 2220 4091
2792 2792 4083
3291 3291 4075
3655 3655 4074
3860 3860 4079
3959 3959 4085
4011 4011 4088
4040 4040 4090
0 952 0
0 952 0
0 952 0
0 940 0
0 920 0
0 886 299
0 837 699
0 757 1063
0 621 1443
0 351 1855
0 0 2289
0 0 2740
0 0 3184
0 0 3586
0 0 3969
866 866 4095
1590 1590 4095
2218 2218 4091
2790 2790 4083
3290 3290 4075
3654 3654 4074
3860 3860 4079
3959 3959 4085
4011 4011 4088
4040 4040 4090
0 1246 0
0 1246 0
0 1246 0
0 1237 0
0 1222 0
0 1198 0
0 1161 490
0 1104 931
0 1013 1351
0 861 1789
0 572 2247
0 0 2712
0 0 3163
0 0 3573
0 0 3962
854 854 4095
1584 1584 4095
2214 2214 4091
2788 2788 4083
3289 3289 4075
3654 3654 4074
3860 3860 4079
3959 3959 4085
4011 4011 4088
4040 4040 4090
0 1582 0
0 1582 0
0 1582 0
0 1575 0
0 1563 0
0 1545 0
0 1517 0
0 1475 696
0 1410 1200
0 1306 1684
0 1131 2174
0 805 2663
0 0 3133
0 0 3555
0 0 3949
837 837 4095
1575 1575 4095
2208 2208 4091
2785 2785 4083
3287 3287 4075
3653 3653 4074
3859 3859 4079
3959 3959 4085
4011 4011 4088
4040 4040 4090
0 1958 0
0 1958 0
0 1958 0
0 1953 0
0 1944 0
0 1930 0
0 1910 0
0 1880 56
0 1832 929
0 1758 1510
0 1641 2058
0 1442 2588
0 1068 3087
0 0 3528
0 0 3930
809 809 4095
1561 1561 4095
2200 2200 4091
2779 2779 4083
3285 3285 4075
3652 3652 4074
3859 3859 4079
3959 3959 4085
4011 4011 4088
4040 4040 4090
0 2368 0
0 2368 0
0 2368 0
0 2364 0
0 2358 0
0 2348 0
0 2333 0
0 2312 0
0 2278 229
0 2227 1197
0 2147 1864
0 2016 2465
0 1794 3012
0 1369 3485
0 0 3903
768 768 4095
1540 1540 4095
2187 2187 4092
2772 2772 4083
3281 3281 4075
3650 3650 4074
3858 3858 4079
3959 3959 4085
4010 4010 4088
4040 4040 4090
34 2795 34
34 2795 34
34 2795 34
34 2792 34
34 2788 34
30 2781 30
26 2772 26
22 2757 22
15 2734 15
7 2700 428
4 2647 1507
0 2563 2257
0 2426 2889
0 2186 3417
0 1712 3860
702 702 4095
1508 1508 4095
2168 2168 4092
2760 2760 4084
3274 3274 4075
3647 3647 4074
3858 3858 4079
3958 3958 4085
4010 4010 4088
4040 4040 4090
290 3215 290
290 3215 290
290 3215 290
290 3214 290
287 3211 287
284 3207 284
278 3201 278
269 3191 269
256 3177 256
240 3156 240
215 3123 706
189 3072 1876
155 2988 2675
166 2850 3298
186 2603 3784
987 2152 4094
1472 1489 4095
2139 2139 4092
2743 2743 4084
3266 3266 4075
3643 3643 4074
3856 3856 4079
3958 3958 4085
4010 4010 4088
4040 4040 4090
702 3599 702
702 3599 702
702 3599 702
702 3598 702
699 3596 699
696 3594 696
691 3590 691
684 3584 684
673 3576 673
657 3563 657
633 3544 633
601 3514 1078
564 3467 2297
512 3393 3100
572 3265 3670
1184 3025 4079
2128 2674 4086
2123 2139 4092
2717 2717 4084
3252 3252 4076
3637 3637 4074
3854 3854 4079
3957 3957 4084
4010 4010 4088
4040 4040 4090
1176 3923 1176
1176 3923 1176
1176 3923 1176
1175 3922 1175
1173 3921 1173
1171 3920 1171
1168 3918 1168
1163 3915 1163
1155 3910 1155
1145 3904 1145
1129 3894 1129
1104 3878 1104
1068 3853 1530
1025 3811 2727
959 3745 3477
1077 3629 4017
2784 3402 4069
2917 3164 4076
2716 2727 4084
3232 3232 4076
3628 3628 4074
3851 3851 4079
3956 3956 4084
4010 4010 4088
4040 4040 4090
2984 4047 2984
2984 4047 2984
2984 4047 2984
2983 4047 2983
2980 4047 2980
2976 4047 2976
2970 4047 2970
2961 4047 2961
2947 4047 2947
2925 4046 2925
2893 4046 2893
2839 4045 2839
2751 4044 2751
2584 4043 2741
2167 4038 3189
1383 4012 3747
3191 3833 4057
3487 3705 4068
3459 3555 4071
3239 3244 4076
3613 3613 4074
3847 3847 4079
3955 3955 4084
4009 4009 4088
4039 4039 4090
3618 4064 3618
3618 4064 3618
3618 4064 3618
3617 4064 3617
3617 4064 3617
3616 4064 3616
3615 4064 3615
3614 4064 3614
3612 4063 3612
3609 4063 3609
3603 4063 3603
3596 4063 3596
3584 4062 3584
3566 4062 3566
3533 4060 3567
3462 4057 3685
3307 4052 3904
3684 3948 4069
3788 3884 4075
3768 3809 4075
3622 3625 4074
3839 3839 4078
3952 3952 4084
4008 4008 4088
4039 4039 4090
3825 4074 3825
3825 4074 3825
3825 4074 3825
3825 4074 3825
3825 4074 3825
3825 4074 3825
3824 4074 3824
3824 4074 3824
3823 4074 3823
3822 4074 3822
3821 4074 3821
3819 4074 3819
3815 4074 3815
3810 4074 3810
3802 4073 3802
3789 4072 3804
3759 4070 3864
3700 4067 3982
3865 4007 4078
3921 3973 4082
3914 3935 4082
3845 3846 4079
3949 3949 4084
4007 4007 4088
4039 4039 4090
3927 4081 3927
3927 4081 3927
3927 4081 3927
3927 4081 3927
3926 4081 3926
3926 4081 3926
3926 4081 3926
3926 4081 3926
3926 4081 3926
3926 4081 3926
3925 4081 3925
3924 4081 3924
3923 4081 3923
3921 4081 3921
3918 4081 3918
3914 4080 3914
3907 4080 3916
3891 4079 3951
3859 4076 4023
3953 4039 4083
3988 4019 4086
3986 3998 4086
3952 3953 4084
4005 4005 4088
4038 4038 4090
3985 4086 3985
3985 4086 3985
3985 4086 3985
3985 4086 3985
3985 4086 3985
3984 4086 3984
3984 4086 3984
3984 4086 3984
3984 4086 3984
3984 4086 3984
3984 4086 3984
3984 4085 3984
3983 4085 3983
3982 4085 3982
3981 4085 3981
3980 4085 3980
3977 4085 3977
3973 4085 3979
3963 4084 4001
3944 4082 4048
4003 4058 4087
4025 4045 4089
4025 4033 4089
4007 4007 4088
4037 4037 4090
4021 4089 4021
4021 4089 4021
4021 4089 4021
4021 4089 4021
4021 4089 4021
4021 4089 4021
4021 4089 4021
4021 4089 4021
4021 4088 4021
4021 4088 4021
4020 4088 4020
4020 4088 4020
4020 4088 4020
4020 4088 4020
4019 4088 4019
4019 4088 4019
4018 4088 4018
4016 4088 4016
4013 4088 4017
4007 4087 4032
3994 4086 4063
4033 4070 4090
4048 4062 4091
4048 4054 4091
4038 4038 4090
4044 4090 4044
4044 4090 4044
4044 4090 4044
4044 4090 4044
4044 4090 4044
4044 4090 4044
4044 4090 4044
4044 4090 4044
4044 4090 4044
4044 4090 4044
4044 4090 4044
4044 4090 4044
4044 4090 4044
4044 4090 4044
4044 4090 4044
4044 4090 4044
4043 4090 4043
4042 4090 4042
4041 4090 4041
4040 4090 4042
4035 4090 4052
4027 4089 4073
4053 4078 4091
4063 4072 4092
4064 4067 4092
4060 4092 4060
4060 4092 4060
4060 4092 4060
4060 4092 4060
4060 4092 4060
4060 4092 4060
4060 4092 4060
4060 4092 4060
4060 4092 4060
4060 4092 4060
4060 4092 4060
4060 4092 4060
4060 4092 4060
4060 4092 4060
4060 4092 4060
4060 4092 4060
4060 4092 4060
4060 4092 4060
4059 4092 4059
4058 4092 4058
4057 4092 4059
4054 4091 4066
4049 4091 4080
4066 4083 4092
4073 4079 4093
4071 4093 4071
4071 4093 4071
4071 4093 4071
4071 4093 4071
4071 4093 4071
4071 4093 4071
4071 4093 4071
4071 4093 4071
4071 4093 4071
4071 4093 4071
4071 4093 4071
4071 4093 4071
4071 4093 4071
4071 4093 4071
4071 4093 4071
4071 4093 4071
4071 4093 4071
4071 4093 4071
4071 4093 4071
4070 4093 4070
4070 4093 4070
4069 4093 4070
4067 4092 4075
4063 4092 4085
4075 4087 4093
4079 4093 4079
4079 4093 4079
4079 4093 4079
4079 4093 4079
4079 4093 4079
4079 4093 4079
4079 4093 4079
4079 4093 4079
4079 4093 4079
4079 4093 4079
4079 4093 4079
4079 4093 4079
4079 4093 4079
4079 4093 4079
4079 4093 4079
4079 4093 4079
4079 4093 4079
4079 4093 4079
4078 4093 4078
4078 4093 4078
4078 4093 4078
4078 4093 4078
4077 4093 4078
4076 4093 4081
4073 4093 4088
0 0 0
0 0 0
0 0 0
0 0 208
0 0 439
0 0 688
0 0 942
0 0 1243
0 0 1575
0 0 1952
0 0 2360
0 0 2788
0 0 3214
0 0 3604
0 0 3982
885 885 4095
1600 1600 4095
2224 2224 4091
2794 2794 4083
3292 3292 4075
3655 3655 4074
3860 3860 4079
3959 3959 4085
4011 4011 4088
4040 4040 4090
0 0 0
0 0 0
0 0 0
0 0 208
0 0 439
0 0 688
0 0 942
0 0 1243
0 0 1575
0 0 1952
0 0 2360
0 0 2788
0 0 3214
0 0 3604
0 0 3982
885 885 4095
1600 1600 4095
2224 2224 4091
2794 2794 4083
3292 3292 4075
3655 3655 4074
3860 3860 4079
3959 3959 4085
4011 4011 4088
4040 4040 4090
0 0 0
0 0 0
0 0 0
0 0 208
0 0 439
0 0 688
0 0 942
0 0 1243
0 0 1575
0 0 1952
0 0 2360
0 0 2788
0 0 3214
0 0 3604
0 0 3982
885 885 4095
1600 1600 4095
2224 2224 4091
2794 2794 4083
3292 3292 4075
3655 3655 4074
3860 3860 4079
3959 3959 4085
4011 4011 4088
4040 4040 4090
0 186 0
0 186 0
0 186 0
0 147 109
0 79 396
0 0 644
0 0 925
0 0 1230
0 0 1566
0 0 1945
0 0 2355
0 0 2785
0 0 3212
0 0 3602
0 0 3981
881 881 4095
1599 1599 4095
2223 2223 4091
2793 2793 4083
3292 3292 4075
3655 3655 4074
3860 3860 4079
3959 3959 4085
4011 4011 4088
4040 4040 4090
0 444 0
0 444 0
0 444 0
0 422 0
0 379 302
0 308 593
0 174 883
0 0 1193
0 0 1538
0 0 1924
0 0 2340
0 0 2775
0 0 3205
0 0 3599
0 0 3978
879 879 4095
1597 1597 4095
2222 2222 4091
2793 2793 4083
3291 3291 4075
3655 3655 4074
3860 3860 4079
3959 3959 4085
4011 4011 4088
4040 4040 4090
0 688 0
0 688 0
0 688 0
0 673 0
0 644 109
0 598 492
0 525 812
0 401 1143
0 120 1500
0 0 1896
0 0 2320
0 0 2761
0 0 3197
0 0 3594
0 0 3975
874 874 4095
1594 1594 4095
2220 2220 4091
2792 2792 4083
3291 3291 4075
3655 3655 4074
3860 3860 4079
3959 3959 4085
4011 4011 4088
4040 4040 4090
0 952 0
0 952 0
0 952 0
0 940 0
0 920 0
0 886 299
0 837 699
0 757 1063
0 621 1443
0 351 1855
0 0 2289
0 0 2740
0 0 3184
0 0 3586
0 0 3969
866 866 4095
1590 1590 4095
2218 2218 4091
2790 2790 4083
3290 3290 4075
3654 3654 4074
3860 3860 4079
3959 3959 4085
4011 4011 4088
4040 4040 4090
0 1246 0
0 1246 0
0 1246 0
0 1237 0
0 1222 0
0 1198 0
0 1161 490
0 1104 931
0 1013 1351
0 861 1789
0 572 2247
0 0 2712
0 0 3163
0 0 3573
0 0 3962
854 854 4095
1584 1584 4095
2214 2214 4091
2788 2788 4083
3289 3289 4075
3654 3654 4074
3860 3860 4079
3959 3959 4085
4011 4011 4088
4040 4040 4090
0 1582 0
0 1582 0
0 1582 0
0 1575 0
0 1563 0
0 1545 0
0 1517 0
0 1475 696
0 1410 1200
0 1306 1684
0 1131 2174
0 805 2663
0 0 3133
0 0 3555
0 0 3949
837 837 4095
1575 1575 4095
2208 2208 4091
2785 2785 4083
3287 3287 4075
3653 3653 4074
3859 3859 4079
3959 3959 4085
4011 4011 4088
4040 4040 4090
0 1958 0
0 1958 0
0 1958 0
0 1953 0
0 1944 0
0 1930 0
0 1910 0
0 1880 56
0 1832 929
0 1758 1510
0 1641 2058
0 1442 2588
0 1068 3087
0 0 3528
0 0 3930
809 809 4095
1561 1561 4095
2200 2200 4091
2779 2779 4083
3285 3285 4075
3652 3652 4074
3859 3859 4079
3959 3959 4085
4011 4011 4088
4040 4040 4090
0 2368 0
0 2368 0
0 2368 0
0 2364 0
0 2358 0
0 2348 0
0 2333 0
0 2312 0
0 2278 229
0 2227 1197
0 2147 1864
0 2016 2465
0 1794 3012
0 1369 3485
0 0 3903
768 768 4095
1540 1540 4095
2187 2187 4092
2772 2772 4083
3281 3281 4075
3650 3650 4074
3858 3858 4079
3959 3959 4085
4010 4010 4088
4040 4040 4090
