Log/Canon C-Log 2 Cinema Gamut.3dl
#25pt 3DLUT created by 3D LUT Creator Pro (c) Oleg Sharonov
#Copyright Oleg Sharonov
#INPUTGAMMA Canon Log 2
#IMAGEPROFILE sRGB IEC61966-2.1 v.2.10
#OUTPUTGAMMA sRGB IEC61966-2.1 v.2.10
0 128 256 384 512 640 768 896 1023
0 0 0
0 0 208
0 0 942
0 0 1952
0 0 3214
885 885 4095
2794 2794 4083
3860 3860 4079
4040 4040 4090
0 186 0
0 147 109
0 0 925
0 0 1945
0 0 3212
881 881 4095
2793 2793 4083
3860 3860 4079
4040 4040 4090
0 952 0
0 940 0
0 837 699
0 351 1855
0 0 3184
866 866 4095
2790 2790 4083
3860 3860 4079
4040 4040 4090
0 1958 0
0 1953 0
0 1910 0
0 1758 1510
0 1068 3087
809 809 4095
2779 2779 4083
3859 3859 4079
4040 4040 4090
290 3215 290
290 3214 290
278 3201 278
240 3156 240
155 2988 2675
987 2152 4094
2743 2743 4084
3856 3856 4079
4040 4040 4090
2984 4047 2984
2983 4047 2983
2970 4047 2970
2925 4046 2925
2751 4044 2751
1383 4012 3747
3459 3555 4071
3847 3847 4079
4039 4039 4090
3927 4081 3927
3927 4081 3927
3926 4081 3926
3926 4081 3926
3923 4081 3923
3914 4080 3914
3859 4076 4023
3986 3998 4086
4038 4038 4090
4044 4090 4044
4044 4090 4044
4044 4090 4044
4044 4090 4044
4044 4090 4044
4044 4090 4044
4041 4090 4041
4027 4089 4073
4064 4067 4092
4079 4093 4079
4079 4093 4079
4079 4093 4079
4079 4093 4079
4079 4093 4079
4079 4093 4079
4078 4093 4078
4078 4093 4078
4073 4093 4088
229 0 4
219 0 189
90 0 954
0 0 1952
0 0 3214
885 885 4095
2794 2794 4083
3860 3860 4079
4040 4040 4090
136 166 0
120 128 113
0 0 925
0 0 1945
0 0 3212
884 884 4095
2794 2794 4083
3860 3860 4079
4040 4040 4090
0 945 0
0 934 0
0 829 700
0 335 1855
0 0 3184
866 866 4095
2790 2790 4083
3860 3860 4079
4040 4040 4090
0 1955 0
0 1951 0
0 1907 0
0 1756 1511
0 1062 3088
809 809 4095
2779 2779 4083
3859 3859 4079
4040 4040 4090
290 3215 290
290 3213 290
278 3200 278
240 3155 240
155 2987 2675
986 2149 4094
2743 2743 4084
3856 3856 4079
4040 4040 4090
2983 4047 2983
2982 4047 2982
2969 4047 2969
2925 4046 2925
2750 4044 2750
1383 4012 3748
3459 3555 4071
3847 3847 4079
4039 4039 4090
3927 4081 3927
3927 4081 3927
3926 4081 3926
3926 4081 3926
3923 4081 3923
3914 4080 3914
3859 4076 4023
3986 3998 4086
4038 4038 4090
4044 4090 4044
4044 4090 4044
4044 4090 4044
4044 4090 4044
4044 4090 4044
4044 4090 4044
4041 4090 4041
4027 4089 4073
4063 4067 4092
4079 4093 4079
4079 4093 4079
4079 4093 4079
4079 4093 4079
4079 4093 4079
4079 4093 4079
4078 4093 4078
4078 4093 4078
4073 4093 4088
1077 0 41
1075 0 226
1037 0 959
916 0 1956
302 0 3216
886 886 4095
2794 2794 4083
3860 3860 4079
4040 4040 4090
1053 0 0
1049 0 151
1014 0 939
888 0 1950
222 0 3213
884 884 4095
2794 2794 4083
3860 3860 4079
4040 4040 4090
796 888 0
791 875 0
745 764 715
570 155 1889
0 0 3186
868 868 4095
2790 2790 4083
3860 3860 4079
4040 4040 4090
0 1931 0
0 1926 0
0 1882 0
0 1727 1518
0 1011 3089
811 811 4095
2780 2780 4083
3859 3859 4079
4040 4040 4090
284 3207 284
281 3205 281
272 3192 272
233 3147 233
147 2978 2677
980 2130 4094
2743 2743 4084
3856 3856 4079
4040 4040 4090
2976 4047 2976
2975 4047 2975
2962 4047 2962
2917 4046 2917
2739 4044 2739
1381 4011 3749
3456 3552 4071
3847 3847 4079
4039 4039 4090
3926 4081 3926
3926 4081 3926
3926 4081 3926
3925 4081 3925
3923 4081 3923
3914 4080 3914
3859 4076 4023
3986 3998 4086
4038 4038 4090
4044 4090 4044
4044 4090 4044
4044 4090 4044
4044 4090 4044
4044 4090 4044
4044 4090 4044
4041 4090 4041
4027 4089 4073
4063 4067 4092
4079 4093 4079
4079 4093 4079
4079 4093 4079
4079 4093 4079
4079 4093 4079
4079 4093 4079
4078 4093 4078
4078 4093 4078
4073 4093 4088
2169 0 162
2168 0 324
2152 0 995
2105 0 1972
1936 0 3221
1375 937 4095
2795 2795 4083
3860 3860 4079
4040 4040 4090
2158 0 86
2157 0 266
2143 0 974
2095 0 1964
1923 0 3218
1358 932 4095
2794 2794 4083
3860 3860 4079
4040 4040 4090
2063 668 0
2061 652 0
2063 480 751
1994 0 1876
1808 0 3191
1204 901 4095
2791 2791 4083
3860 3860 4079
4040 4040 4090
1687 1848 0
1685 1843 0
1665 1796 0
1594 1630 1539
1332 791 3137
815 815 4095
2780 2780 4083
3859 3859 4079
4040 4040 4090
262 3182 262
259 3181 259
250 3167 250
208 3120 208
128 2945 2686
957 2063 4095
2744 2744 4084
3856 3856 4079
4040 4040 4090
2951 4047 2951
2950 4047 2950
2937 4047 2937
2889 4046 2889
2703 4044 2703
1373 4005 3754
3445 3542 4071
3847 3847 4079
4039 4039 4090
3926 4081 3926
3926 4081 3926
3926 4081 3926
3925 4081 3925
3922 4081 3922
3914 4080 3914
3858 4076 4024
3985 3997 4086
4038 4038 4090
4044 4090 4044
4044 4090 4044
4044 4090 4044
4044 4090 4044
4044 4090 4044
4044 4090 4044
4041 4090 4041
4027 4089 4073
4063 4067 4092
4079 4093 4079
4079 4093 4079
4079 4093 4079
4079 4093 4079
4079 4093 4079
4079 4093 4079
4078 4093 4078
4078 4093 4078
4073 4093 4088
3437 0 457
3436 0 555
3432 0 1103
3419 0 2023
3374 0 3236
3026 1323 4094
2989 2908 4081
3861 3861 4079
4040 4040 4090
3434 0 415
3434 0 518
3429 0 1083
3416 0 2013
3371 0 3234
3023 1319 4094
2987 2907 4081
3860 3860 4079
4040 4040 4090
3408 0 0
3407 0 15
3403 0 895
3389 0 1930
3343 0 3208
2994 1287 4094
2969 2894 4081
3860 3860 4079
4040 4040 4090
3315 1530 0
3314 1523 0
3309 1463 0
3301 1229 1603
3242 0 3114
2889 1178 4095
2907 2852 4082
3859 3859 4079
4040 4040 4090
2905 3095 324
2904 3094 324
2896 3078 310
2871 3026 272
2785 2830 2714
2444 1885 4093
2746 2746 4084
3856 3856 4079
4040 4040 4090
2862 4046 2862
2861 4046 2861
2845 4045 2845
2790 4045 2790
2569 4043 2569
1347 3988 3771
3410 3507 4071
3847 3847 4079
4039 4039 4090
3925 4081 3925
3925 4081 3925
3924 4081 3924
3924 4081 3924
3921 4081 3921
3912 4080 3912
3855 4076 4024
3984 3996 4086
4038 4038 4090
4044 4090 4044
4044 4090 4044
4044 4090 4044
4044 4090 4044
4044 4090 4044
4043 4090 4043
4041 4090 4041
4027 4089 4073
4063 4067 4092
4079 4093 4079
4079 4093 4079
4079 4093 4079
4079 4093 4079
4079 4093 4079
4079 4093 4079
4078 4093 4078
4078 4093 4078
4073 4093 4088
4078 2429 2505
4078 2429 2512
4078 2433 2577
4077 2446 2768
4076 2488 3226
4071 2613 3967
3692 3473 4072
3899 3891 4081
4040 4040 4090
4078 2426 2499
4078 2426 2507
4078 2430 2572
4077 2444 2764
4076 2485 3224
4071 2611 3967
3692 3472 4072
3899 3891 4081
4040 4040 4090
4078 2403 2451
4078 2404 2459
4078 2408 2528
4077 2420 2730
4076 2462 3207
4072 2587 3967
3687 3467 4072
3898 3890 4081
4040 4040 4090
4079 2328 2328
4079 2328 2328
4079 2327 2365
4078 2340 2603
4077 2382 3148
4072 2504 3968
3672 3447 4072
3894 3887 4081
4040 4040 4090
4067 3124 2687
4067 3123 2686
4067 3108 2671
4068 3059 2626
4073 2905 3078
4075 2177 3971
3615 3379 4072
3882 3877 4080
4040 4040 4090
3819 3981 1453
3819 3981 1453
3820 3979 1451
3821 3974 1442
3824 3954 1413
3801 3837 3742
3621 3561 4073
3847 3847 4079
4039 4039 4090
3920 4081 3920
3920 4081 3920
3919 4081 3919
3919 4081 3919
3916 4080 3916
3907 4080 3907
3845 4075 4028
3980 3991 4086
4038 4038 4090
4044 4090 4044
4044 4090 4044
4044 4090 4044
4044 4090 4044
4044 4090 4044
4043 4090 4043
4041 4090 4041
4026 4089 4074
4063 4066 4092
4079 4093 4079
4079 4093 4079
4079 4093 4079
4079 4093 4079
4079 4093 4079
4079 4093 4079
4078 4093 4078
4078 4093 4078
4073 4093 4088
4079 3862 3866
4079 3862 3867
4079 3863 3868
4079 3864 3873
4079 3867 3888
4079 3877 3933
4081 3901 4058
4018 3987 4086
4047 4045 4091
4079 3862 3866
4079 3862 3867
4079 3863 3868
4079 3864 3873
4079 3867 3888
4079 3877 3933
4081 3901 4058
4018 3987 4086
4047 4045 4091
4079 3861 3865
4079 3861 3865
4079 3862 3867
4079 3863 3871
4079 3866 3886
4079 3876 3932
4081 3900 4058
4017 3987 4086
4047 4045 4091
4079 3858 3860
4079 3858 3860
4079 3858 3862
4079 3859 3867
4079 3863 3882
4079 3873 3929
4081 3898 4058
4017 3986 4086
4047 4045 4091
4078 3847 3847
4078 3847 3847
4078 3847 3847
4078 3848 3850
4078 3852 3867
4079 3863 3919
4080 3890 4057
4014 3984 4086
4046 4045 4091
4082 3948 3918
4082 3948 3918
4081 3947 3918
4081 3945 3916
4081 3940 3912
4082 3924 3936
4078 3860 4054
4005 3975 4085
4044 4043 4090
4029 4072 3795
4029 4072 3795
4029 4072 3795
4029 4071 3793
4029 4071 3786
4031 4069 3759
4014 4049 3961
4007 3999 4087
4038 4038 4090
4043 4090 4043
4043 4090 4043
4043 4090 4043
4043 4090 4043
4042 4090 4042
4042 4090 4042
4039 4090 4039
4024 4089 4075
4062 4065 4092
4079 4093 4079
4079 4093 4079
4079 4093 4079
4079 4093 4079
4079 4093 4079
4079 4093 4079
4078 4093 4078
4077 4093 4077
4073 4093 4088
4090 4038 4039
4090 4038 4039
4090 4039 4040
4090 4039 4040
4090 4039 4041
4090 4039 4044
4090 4041 4054
4091 4045 4085
4072 4064 4092
4090 4038 4039
4090 4038 4039
4090 4038 4040
4090 4039 4040
4090 4039 4041
4090 4039 4044
4090 4041 4054
4091 4045 4085
4072 4064 4092
4090 4038 4039
4090 4038 4039
4090 4038 4039
4090 4038 4040
4090 4039 4041
4090 4039 4044
4090 4041 4054
4091 4045 4085
4072 4064 4092
4090 4038 4039
4090 4038 4039
4090 4038 4039
4090 4038 4039
4090 4038 4040
4090 4039 4044
4090 4040 4054
4091 4044 4085
4072 4064 4092
4090 4038 4038
4090 4038 4038
4090 4038 4038
4090 4038 4039
4090 4038 4040
4090 4038 4043
4090 4040 4053
4091 4044 4085
4072 4064 4092
4090 4036 4036
4090 4036 4036
4090 4036 4036
4090 4036 4036
4090 4036 4037
4090 4037 4040
4090 4038 4051
4090 4043 4084
4072 4063 4092
4091 4055 4047
4091 4055 4047
4091 4055 4047
4091 4055 4047
4091 4054 4047
4091 4053 4046
4091 4050 4053
4090 4037 4084
4069 4061 4092
4074 4087 4009
4074 4087 4009
4074 4087 4009
4074 4087 4008
4074 4087 4008
4075 4087 4006
4075 4087 4000
4060 4087 4018
4069 4067 4092
4078 4093 4078
4078 4093 4078
4078 4093 4078
4078 4093 4078
4078 4093 4078
4078 4093 4078
4078 4093 4078
4077 4093 4077
4072 4093 4088
4093 4077 4077
4093 4077 4077
4093 4077 4077
4093 4077 4077
4093 4077 4077
4093 4077 4078
4093 4077 4079
4093 4078 4082
4093 4079 4092
4093 4077 4077
4093 4077 4077
4093 4077 4077
4093 4077 4077
4093 4077 4077
4093 4077 4078
4093 4077 4079
4093 4078 4082
4093 4079 4092
4093 4077 4077
4093 4077 4077
4093 4077 4077
4093 4077 4077
4093 4077 4077
4093 4077 4078
4093 4077 4079
4093 4078 4082
4093 4079 4092
4093 4077 4077
4093 4077 4077
4093 4077 4077
4093 4077 4077
4093 4077 4077
4093 4077 4078
4093 4077 4079
4093 4078 4082
4093 4079 4092
4093 4077 4077
4093 4077 4077
4093 4077 4077
4093 4077 4077
4093 4077 4077
4093 4077 4078
4093 4077 4079
4093 4078 4082
4093 4079 4092
4093 4077 4077
4093 4077 4077
4093 4077 4077
4093 4077 4077
4093 4077 4077
4093 4077 4077
4093 4077 4078
4093 4078 4082
4093 4079 4092
4093 4076 4076
4093 4076 4076
4093 4076 4076
4093 4076 4076
4093 4076 4076
4093 4076 4077
4093 4077 4078
4093 4077 4081
4093 4078 4091
4094 4082 4080
4094 4082 4080
4094 4082 4080
4094 4082 4080
4094 4082 4080
4094 4082 4080
4093 4081 4079
4094 4080 4081
4093 4077 4091
4088 4092 4068
4088 4092 4068
4088 4092 4068
4088 4092 4068
4088 4092 4068
4088 4092 4067
4088 4092 4067
4089 4092 4065
4083 4093 4069
