Log/Canon C-Log 2 Cinema Gamut Contrast.3dl
#25pt 3DLUT created by 3D LUT Creator Pro (c) Oleg Sharonov
#Copyright Oleg Sharonov
#INPUTGAMMA Canon Log 2
#IMAGEPROFILE Rec. ITU-R BT.709-5 v.4.00
#OUTPUTGAMMA Rec. ITU-R BT.709-5 v.4.00
0 43 86 128 171 214 256 299 341 384 427 469 512 555 597 640 682 725 768 810 853 896 938 981 1023 
0 0 0
0 0 0
0 0 0
0 0 37
0 0 108
0 0 188
0 0 418
0 0 716
0 0 1086
0 0 1542
0 0 2083
0 0 2632
0 0 3132
0 0 3554
0 0 3884
0 0 4088
737 737 4095
1629 1629 4095
2483 2483 4095
3148 3148 4095
3622 3622 4095
3900 3900 4095
4011 4011 4095
4052 4052 4095
4070 4070 4095
0 0 0
0 0 0
0 0 0
0 0 37
0 0 108
0 0 188
0 0 418
0 0 716
0 0 1086
0 0 1542
0 0 2083
0 0 2632
0 0 3132
0 0 3554
0 0 3884
0 0 4088
737 737 4095
1629 1629 4095
2483 2483 4095
3148 3148 4095
3622 3622 4095
3900 3900 4095
4011 4011 4095
4052 4052 4095
4070 4070 4095
0 0 0
0 0 0
0 0 0
0 0 37
0 0 108
0 0 188
0 0 418
0 0 716
0 0 1086
0 0 1542
0 0 2083
0 0 2632
0 0 3132
0 0 3554
0 0 3884
0 0 4088
737 737 4095
1629 1629 4095
2483 2483 4095
3148 3148 4095
3622 3622 4095
3900 3900 4095
4011 4011 4095
4052 4052 4095
4070 4070 4095
0 35 0
0 35 0
0 35 0
0 26 21
0 13 76
0 0 188
0 0 384
0 0 716
0 0 1086
0 0 1528
0 0 2073
0 0 2626
0 0 3128
0 0 3552
0 0 3883
0 0 4087
735 735 4095
1628 1628 4095
2482 2482 4095
3148 3148 4095
3622 3622 4095
3900 3900 4095
4011 4011 4095
4052 4052 4095
4070 4070 4095
0 91 0
0 91 0
0 91 0
0 86 0
0 74 55
0 57 152
0 29 345
0 0 663
0 0 1049
0 0 1499
0 0 2052
0 0 2614
0 0 3121
0 0 3549
0 0 3882
0 0 4087
733 733 4095
1626 1626 4095
2482 2482 4095
3147 3147 4095
3622 3622 4095
3900 3900 4095
4011 4011 4095
4052 4052 4095
4070 4070 4095
0 200 0
0 200 0
0 200 0
0 191 0
0 176 18
0 152 108
0 122 292
0 79 611
0 21 1010
0 0 1470
0 0 2030
0 0 2595
0 0 3111
0 0 3543
0 0 3878
0 0 4086
729 729 4095
1624 1624 4095
2480 2480 4095
3146 3146 4095
3621 3621 4095
3900 3900 4095
4011 4011 4095
4052 4052 4095
4070 4070 4095
0 423 0
0 423 0
0 423 0
0 413 0
0 390 0
0 358 55
0 314 208
0 246 533
0 161 942
0 67 1417
0 0 1987
0 0 2569
0 0 3097
0 0 3534
0 0 3875
0 0 4085
722 722 4095
1620 1620 4095
2478 2478 4095
3145 3145 4095
3621 3621 4095
3899 3899 4095
4011 4011 4095
4052 4052 4095
4070 4070 4095
0 729 0
0 729 0
0 729 0
0 718 0
0 703 0
0 677 0
0 637 108
0 579 402
0 483 840
0 334 1337
0 137 1926
0 0 2529
0 0 3072
0 0 3523
0 0 3869
0 0 4083
714 714 4095
1614 1614 4095
2475 2475 4095
3144 3144 4095
3620 3620 4095
3899 3899 4095
4011 4011 4095
4052 4052 4095
4070 4070 4095
0 1097 0
0 1097 0
0 1097 0
0 1091 0
0 1076 0
0 1057 0
0 1025 0
0 978 205
0 905 678
0 791 1214
0 604 1827
0 283 2473
0 0 3038
0 0 3504
0 0 3860
0 0 4080
699 699 4095
1606 1606 4095
2470 2470 4095
3141 3141 4095
3619 3619 4095
3899 3899 4095
4010 4010 4095
4052 4052 4095
4070 4070 4095
0 1547 0
0 1547 0
0 1547 0
0 1541 0
0 1530 0
0 1513 0
0 1489 0
0 1450 10
0 1393 400
0 1304 1017
0 1166 1677
0 941 2377
0 540 2984
0 0 3476
0 0 3847
0 0 4076
682 682 4095
1594 1594 4095
2462 2462 4095
3138 3138 4095
3618 3618 4095
3898 3898 4095
4010 4010 4095
4052 4052 4095
4070 4070 4095
0 2090 0
0 2090 0
0 2090 0
0 2085 0
0 2077 0
0 2065 0
0 2044 0
0 2016 0
0 1971 43
0 1902 675
0 1792 1432
0 1622 2218
0 1347 2898
0 860 3430
0 0 3825
0 0 4069
651 651 4095
1574 1574 4095
2452 2452 4095
3132 3132 4095
3615 3615 4095
3898 3898 4095
4010 4010 4095
4052 4052 4095
4070 4070 4095
0 2638 0
0 2638 0
0 2638 0
0 2635 0
0 2629 0
0 2622 0
0 2609 0
0 2591 0
0 2563 0
0 2520 86
0 2453 1013
0 2346 1941
0 2167 2752
0 1845 3357
0 1249 3790
0 0 4058
607 607 4095
1546 1546 4095
2436 2436 4095
3124 3124 4095
3612 3612 4095
3896 3896 4095
4010 4010 4095
4052 4052 4095
4070 4070 4095
0 3137 0
0 3137 0
0 3137 0
0 3135 0
0 3133 0
0 3127 0
0 3120 0
0 3110 0
0 3094 0
0 3069 0
0 3031 164
0 2970 1426
0 2873 2487
0 2707 3232
0 2398 3734
0 1725 4039
545 581 4095
1504 1504 4095
2412 2412 4095
3112 3112 4095
3606 3606 4095
3895 3895 4095
4010 4010 4095
4052 4052 4095
4070 4070 4095
0 3559 0
0 3559 0
0 3559 0
0 3558 0
0 3557 0
0 3554 0
0 3550 0
0 3544 0
0 3535 0
0 3522 0
0 3502 0
0 3470 320
0 3420 1935
0 3337 2998
0 3195 3634
0 2920 4005
1029 2387 4095
1472 1508 4095
2374 2374 4095
3093 3093 4095
3598 3598 4095
3892 3892 4095
4009 4009 4095
4052 4052 4095
4070 4070 4095
0 3884 0
0 3884 0
0 3884 0
0 3883 0
0 3882 0
0 3881 0
0 3879 0
0 3877 0
0 3873 0
0 3867 0
0 3858 0
0 3844 0
0 3821 573
0 3783 2481
0 3719 3441
0 3605 3939
1457 3366 4095
2433 3017 4095
2366 2391 4095
3065 3065 4095
3586 3586 4095
3888 3888 4095
4008 4008 4095
4051 4051 4095
4070 4070 4095
0 4065 0
0 4065 0
0 4065 0
0 4065 0
0 4065 0
0 4064 0
0 4064 0
0 4063 0
0 4062 0
0 4061 0
0 4058 0
0 4054 0
0 4047 0
0 4036 850
0 4015 2942
0 3977 3771
777 3895 4095
3194 3712 4095
3299 3510 4095
3071 3084 4095
3567 3567 4095
3882 3882 4095
4006 4006 4095
4051 4051 4095
4070 4070 4095
3131 4095 3131
3131 4095 3131
3131 4095 3131
3129 4095 3129
3128 4095 3128
3125 4095 3125
3120 4095 3120
3113 4095 3113
3102 4095 3102
3086 4095 3086
3061 4095 3061
3021 4095 3021
2956 4095 2956
2846 4095 2846
2607 4095 2849
1800 4095 3412
0 4089 3950
3515 4004 4095
3783 3932 4095
3765 3835 4095
3577 3582 4095
3873 3873 4095
4004 4004 4095
4050 4050 4095
4070 4070 4095
3793 4095 3793
3793 4095 3793
3793 4095 3793
3792 4095 3792
3792 4095 3792
3792 4095 3792
3791 4095 3791
3790 4095 3790
3789 4095 3789
3787 4095 3787
3784 4095 3784
3780 4095 3780
3773 4095 3773
3762 4095 3762
3745 4095 3745
3711 4095 3749
3624 4095 3863
3394 4095 4028
3892 4051 4095
3971 4023 4095
3964 3987 4095
3880 3882 4095
4001 4001 4095
4049 4049 4095
4069 4069 4095
3957 4095 3957
3957 4095 3957
3957 4095 3957
3957 4095 3957
3957 4095 3957
3957 4095 3957
3957 4095 3957
3957 4095 3957
3956 4095 3956
3956 4095 3956
3955 4095 3955
3954 4095 3954
3953 4095 3953
3951 4095 3951
3947 4095 3947
3941 4095 3941
3930 4095 3944
3902 4095 3987
3836 4095 4059
4000 4071 4095
4034 4058 4095
4033 4043 4095
4004 4004 4095
4048 4048 4095
4069 4069 4095
4021 4095 4021
4021 4095 4021
4021 4095 4021
4021 4095 4021
4021 4095 4021
4021 4095 4021
4021 4095 4021
4021 4095 4021
4021 4095 4021
4021 4095 4021
4020 4095 4020
4020 4095 4020
4020 4095 4020
4019 4095 4019
4018 4095 4018
4016 4095 4016
4014 4095 4014
4009 4095 4015
3997 4095 4036
3969 4095 4074
4043 4081 4095
4061 4073 4095
4061 4066 4095
4049 4050 4095
4068 4068 4095
4051 4095 4051
4051 4095 4051
4051 4095 4051
4051 4095 4051
4051 4095 4051
4051 4095 4051
4051 4095 4051
4051 4095 4051
4051 4095 4051
4051 4095 4051
4051 4095 4051
4051 4095 4051
4051 4095 4051
4051 4095 4051
4050 4095 4050
4050 4095 4050
4049 4095 4049
4048 4095 4048
4045 4095 4049
4039 4095 4060
4025 4095 4081
4064 4086 4095
4074 4081 4095
4075 4077 4095
4069 4069 4095
4068 4095 4068
4068 4095 4068
4068 4095 4068
4068 4095 4068
4068 4095 4068
4068 4095 4068
4068 4095 4068
4068 4095 4068
4068 4095 4068
4068 4095 4068
4068 4095 4068
4068 4095 4068
4068 4095 4068
4067 4095 4067
4067 4095 4067
4067 4095 4067
4067 4095 4067
4066 4095 4066
4066 4095 4066
4064 4095 4066
4061 4095 4073
4053 4095 4086
4075 4089 4095
4082 4086 4095
4082 4084 4095
4077 4095 4077
4077 4095 4077
4077 4095 4077
4077 4095 4077
4077 4095 4077
4077 4095 4077
4077 4095 4077
4077 4095 4077
4077 4095 4077
4077 4095 4077
4077 4095 4077
4077 4095 4077
4077 4095 4077
4077 4095 4077
4077 4095 4077
4077 4095 4077
4077 4095 4077
4077 4095 4077
4077 4095 4077
4076 4095 4076
4075 4095 4077
4073 4095 4081
4069 4095 4089
4082 4091 4095
4086 4089 4095
4083 4095 4083
4083 4095 4083
4083 4095 4083
4083 4095 4083
4083 4095 4083
4083 4095 4083
4083 4095 4083
4083 4095 4083
4083 4095 4083
4083 4095 4083
4083 4095 4083
4083 4095 4083
4083 4095 4083
4083 4095 4083
4083 4095 4083
4083 4095 4083
4083 4095 4083
4083 4095 4083
4083 4095 4083
4083 4095 4083
4083 4095 4083
4082 4095 4083
4081 4095 4086
4078 4095 4091
4087 4092 4095
4087 4095 4087
4087 4095 4087
4087 4095 4087
4087 4095 4087
4087 4095 4087
4087 4095 4087
4087 4095 4087
4087 4095 4087
4087 4095 4087
4087 4095 4087
4087 4095 4087
4087 4095 4087
4087 4095 4087
4087 4095 4087
4087 4095 4087
4087 4095 4087
4087 4095 4087
4087 4095 4087
4087 4095 4087
4087 4095 4087
4087 4095 4087
4087 4095 4087
4086 4095 4087
4086 4095 4089
4084 4095 4092
0 0 0
0 0 0
0 0 0
0 0 37
0 0 108
0 0 188
0 0 418
0 0 716
0 0 1086
0 0 1542
0 0 2083
0 0 2632
0 0 3132
0 0 3554
0 0 3884
0 0 4088
737 737 4095
1629 1629 4095
2483 2483 4095
3148 3148 4095
3622 3622 4095
3900 3900 4095
4011 4011 4095
4052 4052 4095
4070 4070 4095
0 0 0
0 0 0
0 0 0
0 0 37
0 0 108
0 0 188
0 0 418
0 0 716
0 0 1086
0 0 1542
0 0 2083
0 0 2632
0 0 3132
0 0 3554
0 0 3884
0 0 4088
737 737 4095
1629 1629 4095
2483 2483 4095
3148 3148 4095
3622 3622 4095
3900 3900 4095
4011 4011 4095
4052 4052 4095
4070 4070 4095
0 0 0
0 0 0
0 0 0
0 0 37
0 0 108
0 0 188
0 0 418
0 0 716
0 0 1086
0 0 1542
0 0 2083
0 0 2632
0 0 3132
0 0 3554
0 0 3884
0 0 4088
737 737 4095
1629 1629 4095
2483 2483 4095
3148 3148 4095
3622 3622 4095
3900 3900 4095
4011 4011 4095
4052 4052 4095
4070 4070 4095
0 35 0
0 35 0
0 35 0
0 26 21
0 13 76
0 0 188
0 0 384
0 0 716
0 0 1086
0 0 1528
0 0 2073
0 0 2626
0 0 3128
0 0 3552
0 0 3883
0 0 4087
735 735 4095
1628 1628 4095
2482 2482 4095
3148 3148 4095
3622 3622 4095
3900 3900 4095
4011 4011 4095
4052 4052 4095
4070 4070 4095
0 91 0
0 91 0
0 91 0
0 86 0
0 74 55
0 57 152
0 29 345
0 0 663
0 0 1049
0 0 1499
0 0 2052
0 0 2614
0 0 3121
0 0 3549
0 0 3882
0 0 4087
733 733 4095
1626 1626 4095
2482 2482 4095
3147 3147 4095
3622 3622 4095
3900 3900 4095
4011 4011 4095
4052 4052 4095
4070 4070 4095
0 200 0
0 200 0
0 200 0
0 191 0
0 176 18
0 152 108
0 122 292
0 79 611
0 21 1010
0 0 1470
0 0 2030
0 0 2595
0 0 3111
0 0 3543
0 0 3878
0 0 4086
729 729 4095
1624 1624 4095
2480 2480 4095
3146 3146 4095
3621 3621 4095
3900 3900 4095
4011 4011 4095
4052 4052 4095
4070 4070 4095
0 423 0
0 423 0
0 423 0
0 413 0
0 390 0
0 358 55
0 314 208
0 246 533
0 161 942
0 67 1417
0 0 1987
0 0 2569
0 0 3097
0 0 3534
0 0 3875
0 0 4085
722 722 4095
1620 1620 4095
2478 2478 4095
3145 3145 4095
3621 3621 4095
3899 3899 4095
4011 4011 4095
4052 4052 4095
4070 4070 4095
0 729 0
0 729 0
0 729 0
0 718 0
0 703 0
0 677 0
0 637 108
0 579 402
0 483 840
0 334 1337
0 137 1926
0 0 2529
0 0 3072
0 0 3523
0 0 3869
0 0 4083
714 714 4095
1614 1614 4095
2475 2475 4095
3144 3144 4095
3620 3620 4095
3899 3899 4095
4011 4011 4095
4052 4052 4095
4070 4070 4095
0 1097 0
0 1097 0
0 1097 0
0 1091 0
0 1076 0
0 1057 0
0 1025 0
0 978 205
0 905 678
0 791 1214
0 604 1827
0 283 2473
0 0 3038
0 0 3504
0 0 3860
0 0 4080
699 699 4095
1606 1606 4095
2470 2470 4095
3141 3141 4095
3619 3619 4095
3899 3899 4095
4010 4010 4095
4052 4052 4095
4070 4070 4095
0 1547 0
0 1547 0
0 1547 0
0 1541 0
0 1530 0
0 1513 0
0 1489 0
0 1450 10
0 1393 400
0 1304 1017
0 1166 1677
0 941 2377
0 540 2984
0 0 3476
0 0 3847
0 0 4076
682 682 4095
1594 1594 4095
2462 2462 4095
3138 3138 4095
3618 3618 4095
3898 3898 4095
4010 4010 4095
4052 4052 4095
4070 4070 4095
0 2090 0
0 2090 0
0 2090 0
0 2085 0
0 2077 0
0 2065 0
0 2044 0
0 2016 0
0 1971 43
0 1902 675
0 1792 1432
0 1622 2218
0 1347 2898
0 860 3430
0 0 3825
0 0 4069
651 651 4095
1574 1574 4095
2452 2452 4095
3132 3132 4095
3615 3615 4095
3898 3898 4095
4010 4010 4095
4052 4052 4095
4070 4070 4095
