Log/Canon C-Log 2 Cinema Gamut Contrast.3dl
#25pt 3DLUT created by 3D LUT Creator Pro (c) Oleg Sharonov
#Copyright Oleg Sharonov
#INPUTGAMMA Canon Log 2
#IMAGEPROFILE Rec. ITU-R BT.709-5 v.4.00
#OUTPUTGAMMA Rec. ITU-R BT.709-5 v.4.00
0 128 256 384 512 640 768 896 1023
0 0 0
0 0 37
0 0 418
0 0 1542
0 0 3132
0 0 4088
2483 2483 4095
3900 3900 4095
4070 4070 4095
0 35 0
0 26 21
0 0 384
0 0 1528
0 0 3128
0 0 4087
2482 2482 4095
3900 3900 4095
4070 4070 4095
0 423 0
0 413 0
0 314 208
0 67 1417
0 0 3097
0 0 4085
2478 2478 4095
3899 3899 4095
4070 4070 4095
0 1547 0
0 1541 0
0 1489 0
0 1304 1017
0 540 2984
0 0 4076
2462 2462 4095
3898 3898 4095
4070 4070 4095
0 3137 0
0 3135 0
0 3120 0
0 3069 0
0 2873 2487
0 1725 4039
2412 2412 4095
3895 3895 4095
4070 4070 4095
0 4065 0
0 4065 0
0 4064 0
0 4061 0
0 4047 0
0 3977 3771
3299 3510 4095
3882 3882 4095
4070 4070 4095
3957 4095 3957
3957 4095 3957
3957 4095 3957
3956 4095 3956
3953 4095 3953
3941 4095 3941
3836 4095 4059
4033 4043 4095
4069 4069 4095
4068 4095 4068
4068 4095 4068
4068 4095 4068
4068 4095 4068
4068 4095 4068
4067 4095 4067
4066 4095 4066
4053 4095 4086
4082 4084 4095
4087 4095 4087
4087 4095 4087
4087 4095 4087
4087 4095 4087
4087 4095 4087
4087 4095 4087
4087 4095 4087
4087 4095 4087
4084 4095 4092
37 0 0
40 0 35
16 0 408
0 0 1542
0 0 3132
0 0 4088
2483 2483 4095
3900 3900 4095
4070 4070 4095
24 29 0
24 24 21
0 0 384
0 0 1528
0 0 3128
0 0 4087
2483 2483 4095
3900 3900 4095
4070 4070 4095
0 415 0
0 405 0
0 306 208
0 62 1417
0 0 3097
0 0 4085
2478 2478 4095
3899 3899 4095
4070 4070 4095
0 1544 0
0 1538 0
0 1485 0
0 1299 1017
0 533 2987
0 0 4076
2463 2463 4095
3898 3898 4095
4070 4070 4095
0 3136 0
0 3134 0
0 3119 0
0 3068 0
0 2872 2487
0 1721 4039
2412 2412 4095
3895 3895 4095
4070 4070 4095
0 4065 0
0 4065 0
0 4064 0
0 4060 0
0 4047 0
0 3977 3771
3299 3510 4095
3882 3882 4095
4070 4070 4095
3957 4095 3957
3957 4095 3957
3957 4095 3957
3956 4095 3956
3953 4095 3953
3941 4095 3941
3836 4095 4059
4033 4043 4095
4069 4069 4095
4068 4095 4068
4068 4095 4068
4068 4095 4068
4068 4095 4068
4068 4095 4068
4067 4095 4067
4066 4095 4066
4053 4095 4086
4082 4084 4095
4087 4095 4087
4087 4095 4087
4087 4095 4087
4087 4095 4087
4087 4095 4087
4087 4095 4087
4087 4095 4087
4087 4095 4087
4084 4095 4092
545 0 8
545 0 40
511 0 433
387 0 1545
55 0 3133
0 0 4088
2483 2483 4095
3900 3900 4095
4070 4070 4095
527 0 0
518 0 26
486 0 410
358 0 1535
40 0 3128
0 0 4088
2483 2483 4095
3900 3900 4095
4070 4070 4095
278 361 0
272 347 0
238 252 217
137 32 1428
0 0 3097
0 0 4085
2479 2479 4095
3899 3899 4095
4070 4070 4095
0 1513 0
0 1508 0
0 1454 0
0 1267 1026
0 481 2988
0 0 4076
2463 2463 4095
3898 3898 4095
4070 4070 4095
0 3128 0
0 3126 0
0 3111 0
0 3059 0
0 2860 2491
0 1693 4039
2412 2412 4095
3895 3895 4095
4070 4070 4095
0 4064 0
0 4064 0
0 4063 0
0 4060 0
0 4047 0
0 3976 3772
3295 3506 4095
3882 3882 4095
4070 4070 4095
3957 4095 3957
3957 4095 3957
3957 4095 3957
3956 4095 3956
3953 4095 3953
3941 4095 3941
3836 4095 4059
4033 4043 4095
4069 4069 4095
4068 4095 4068
4068 4095 4068
4068 4095 4068
4068 4095 4068
4068 4095 4068
4067 4095 4067
4066 4095 4066
4053 4095 4086
4082 4084 4095
4087 4095 4087
4087 4095 4087
4087 4095 4087
4087 4095 4087
4087 4095 4087
4087 4095 4087
4087 4095 4087
4087 4095 4087
4084 4095 4092
1822 0 29
1819 0 60
1802 0 467
1737 0 1566
1521 0 3139
598 0 4088
2484 2484 4095
3900 3900 4095
4070 4070 4095
1807 0 16
1807 0 48
1789 0 445
1723 0 1554
1504 0 3133
573 0 4088
2484 2484 4095
3900 3900 4095
4070 4070 4095
1684 188 0
1680 179 0
1661 110 249
1595 0 1448
1363 0 3103
334 0 4086
2479 2479 4095
3900 3900 4095
4070 4070 4095
1220 1412 0
1218 1406 0
1194 1350 0
1112 1153 1050
819 300 2993
0 0 4077
2464 2464 4095
3898 3898 4095
4070 4070 4095
0 3099 0
0 3097 0
0 3082 0
0 3027 0
0 2822 2502
0 1597 4040
2413 2413 4095
3895 3895 4095
4070 4070 4095
0 4063 0
0 4062 0
0 4061 0
0 4058 0
0 4044 0
0 3971 3775
3282 3494 4095
3882 3882 4095
4070 4070 4095
3956 4095 3956
3956 4095 3956
3956 4095 3956
3955 4095 3955
3952 4095 3952
3941 4095 3941
3834 4095 4059
4033 4043 4095
4069 4069 4095
4068 4095 4068
4068 4095 4068
4068 4095 4068
4068 4095 4068
4068 4095 4068
4067 4095 4067
4066 4095 4066
4053 4095 4086
4082 4084 4095
4087 4095 4087
4087 4095 4087
4087 4095 4087
4087 4095 4087
4087 4095 4087
4087 4095 4087
4087 4095 4087
4087 4095 4087
4084 4095 4092
3378 0 97
3377 0 131
3373 0 575
3360 0 1630
3310 0 3156
3121 0 4090
2797 2624 4095
3900 3900 4095
4070 4070 4095
3375 0 84
3374 0 116
3370 0 556
3356 0 1618
3307 0 3153
3117 0 4089
2793 2622 4095
3900 3900 4095
4070 4070 4095
3347 0 0
3346 0 3
3342 0 366
3327 0 1513
3275 0 3123
3076 0 4087
2767 2607 4095
3900 3900 4095
4070 4070 4095
3244 1039 0
3243 1032 0
3239 965 0
3221 722 1129
3162 0 3016
2929 0 4078
2672 2553 4095
3899 3899 4095
4070 4070 4095
2769 2997 0
2768 2995 0
2759 2977 0
2729 2916 0
2625 2681 2536
2193 1256 4042
2415 2415 4095
3895 3895 4095
4070 4070 4095
0 4056 0
0 4055 0
0 4054 0
0 4050 0
0 4035 0
0 3956 3785
3233 3448 4095
3883 3883 4095
4070 4070 4095
3955 4095 3955
3955 4095 3955
3955 4095 3955
3953 4095 3953
3950 4095 3950
3938 4095 3938
3828 4095 4060
4032 4042 4095
4069 4069 4095
4068 4095 4068
4068 4095 4068
4068 4095 4068
4068 4095 4068
4067 4095 4067
4067 4095 4067
4066 4095 4066
4053 4095 4086
4082 4084 4095
4087 4095 4087
4087 4095 4087
4087 4095 4087
4087 4095 4087
4087 4095 4087
4087 4095 4087
4087 4095 4087
4087 4095 4087
4084 4095 4092
4095 1194 1450
4095 1194 1473
4095 1195 1674
4095 1194 2226
4095 1188 3185
4095 1112 4049
3749 3339 4095
3947 3938 4095
4070 4070 4095
4095 1189 1435
4095 1190 1460
4095 1189 1661
4095 1189 2217
4095 1182 3182
4095 1105 4049
3749 3338 4095
3947 3938 4095
4070 4070 4095
4095 1144 1309
4095 1142 1333
4095 1142 1546
4095 1142 2139
4095 1132 3158
4095 1040 4049
3744 3331 4095
3946 3937 4095
4070 4070 4095
4095 990 990
4095 990 990
4095 985 1114
4095 979 1834
4095 960 3072
4095 817 4049
3727 3304 4095
3942 3934 4095
4070 4070 4095
4095 2672 769
4095 2669 767
4095 2642 742
4095 2547 667
4095 2179 2701
4094 0 4050
3663 3208 4095
3927 3921 4095
4070 4070 4095
3879 3993 0
3879 3993 0
3879 3992 0
3878 3986 0
3873 3968 0
3837 3867 3785
3608 3488 4095
3883 3883 4095
4070 4070 4095
3949 4095 3949
3949 4095 3949
3948 4095 3948
3947 4095 3947
3944 4095 3944
3931 4095 3931
3807 4095 4064
4028 4038 4095
4069 4069 4095
4067 4095 4067
4067 4095 4067
4067 4095 4067
4067 4095 4067
4067 4095 4067
4067 4095 4067
4065 4095 4065
4052 4095 4086
4082 4084 4095
4087 4095 4087
4087 4095 4087
4087 4095 4087
4087 4095 4087
4087 4095 4087
4087 4095 4087
4087 4095 4087
4087 4095 4087
4084 4095 4092
4095 3899 3905
4095 3899 3905
4095 3900 3907
4095 3901 3913
4095 3905 3933
4095 3918 3986
4095 3948 4084
4057 4034 4095
4074 4073 4095
4095 3899 3905
4095 3899 3905
4095 3899 3907
4095 3901 3913
4095 3905 3932
4095 3918 3986
4095 3948 4084
4057 4034 4095
4074 4073 4095
4095 3897 3903
4095 3898 3903
4095 3898 3905
4095 3899 3911
4095 3904 3931
4095 3917 3985
4095 3947 4084
4057 4034 4095
4074 4073 4095
4095 3893 3896
4095 3893 3896
4095 3893 3899
4095 3895 3905
4095 3899 3926
4095 3913 3981
4095 3945 4084
4056 4034 4095
4074 4073 4095
4095 3878 3878
4095 3878 3878
4095 3878 3878
4095 3879 3883
4095 3884 3906
4095 3899 3970
4095 3935 4084
4055 4032 4095
4074 4073 4095
4095 3999 3967
4095 3999 3967
4095 3998 3967
4095 3997 3965
4095 3991 3960
4095 3974 3988
4095 3894 4083
4048 4024 4095
4072 4072 4095
4057 4095 3383
4057 4095 3383
4057 4095 3379
4057 4095 3365
4058 4095 3313
4060 4095 3076
4058 4074 4028
4050 4043 4095
4069 4069 4095
4067 4095 4067
4067 4095 4067
4067 4095 4067
4067 4095 4067
4066 4095 4066
4066 4095 4066
4064 4095 4064
4050 4095 4087
4081 4083 4095
4087 4095 4087
4087 4095 4087
4087 4095 4087
4087 4095 4087
4087 4095 4087
4087 4095 4087
4087 4095 4087
4087 4095 4087
4084 4095 4092
4095 4069 4070
4095 4069 4070
4095 4069 4070
4095 4069 4070
4095 4069 4070
4095 4069 4072
4095 4070 4078
4095 4072 4092
4086 4082 4095
4095 4069 4070
4095 4069 4070
4095 4069 4070
4095 4069 4070
4095 4069 4070
4095 4069 4072
4095 4070 4078
4095 4072 4092
4086 4082 4095
4095 4069 4070
4095 4069 4070
4095 4069 4070
4095 4069 4070
4095 4069 4070
4095 4069 4072
4095 4070 4078
4095 4072 4092
4086 4082 4095
4095 4069 4069
4095 4069 4069
4095 4069 4069
4095 4069 4070
4095 4069 4070
4095 4069 4072
4095 4070 4078
4095 4072 4092
4086 4082 4095
4095 4069 4069
4095 4069 4069
4095 4069 4069
4095 4069 4069
4095 4069 4070
4095 4069 4072
4095 4070 4077
4095 4072 4092
4086 4082 4095
4095 4068 4068
4095 4068 4068
4095 4068 4068
4095 4068 4068
4095 4068 4068
4095 4068 4070
4095 4069 4076
4095 4071 4092
4086 4082 4095
4095 4078 4074
4095 4078 4074
4095 4078 4074
4095 4078 4073
4095 4077 4073
4095 4077 4073
4095 4075 4077
4095 4068 4092
4085 4081 4095
4085 4095 4010
4085 4095 4010
4085 4095 4010
4085 4095 4010
4085 4095 4009
4085 4095 4006
4086 4095 3993
4080 4093 4054
4085 4084 4095
4087 4095 4087
4087 4095 4087
4087 4095 4087
4087 4095 4087
4087 4095 4087
4087 4095 4087
4087 4095 4087
4086 4095 4086
4083 4095 4093
4095 4088 4088
4095 4088 4088
4095 4088 4088
4095 4088 4088
4095 4088 4088
4095 4088 4088
4095 4088 4089
4095 4088 4090
4095 4089 4094
4095 4088 4088
4095 4088 4088
4095 4088 4088
4095 4088 4088
4095 4088 4088
4095 4088 4088
4095 4088 4089
4095 4088 4090
4095 4089 4094
4095 4088 4088
4095 4088 4088
4095 4088 4088
4095 4088 4088
4095 4088 4088
4095 4088 4088
4095 4088 4089
4095 4088 4090
4095 4089 4094
4095 4088 4088
4095 4088 4088
4095 4088 4088
4095 4088 4088
4095 4088 4088
4095 4088 4088
4095 4088 4089
4095 4088 4090
4095 4089 4094
4095 4088 4088
4095 4088 4088
4095 4088 4088
4095 4088 4088
4095 4088 4088
4095 4088 4088
4095 4088 4089
4095 4088 4090
4095 4089 4094
4095 4088 4088
4095 4088 4088
4095 4088 4088
4095 4088 4088
4095 4088 4088
4095 4088 4088
4095 4088 4089
4095 4088 4090
4095 4089 4094
4095 4088 4088
4095 4088 4088
4095 4088 4088
4095 4088 4088
4095 4088 4088
4095 4088 4088
4095 4088 4088
4095 4088 4090
4095 4088 4094
4095 4090 4089
4095 4090 4089
4095 4090 4089
4095 4090 4089
4095 4090 4089
4095 4090 4089
4095 4090 4089
4095 4089 4090
4095 4088 4094
4092 4095 4075
4092 4095 4075
4092 4095 4075
4092 4095 4075
4092 4095 4075
4092 4095 4074
4092 4095 4074
4092 4095 4071
4089 4095 4079
