Log/DJI Mavic D-Log - Film emulation.3dl
#25pt 3DLUT created by 3D LUT Creator Pro (c) Oleg Sharonov
#Copyright Oleg Sharonov
#IMAGEPROFILE sRGB IEC61966-2.1 v.2.10
#INPUTGAMMA DJI D-Log Ph3
#OUTPUTGAMMA sRGB IEC61966-2.1 v.2.10
0 256 512 768 1023
0 0 0
0 0 705
0 0 1841
1 0 3083
533 676 3803
50 412 0
0 631 636
0 593 1836
0 181 3084
533 676 3803
243 1079 172
212 1235 545
0 1740 1662
0 1740 3074
662 1322 3801
630 2127 521
500 2210 628
593 2527 1448
233 3059 2862
1894 3104 3788
2617 3747 2417
2606 3746 2417
2530 3759 2599
2386 3789 2921
1223 3858 3632
566 0 1
492 0 672
246 0 1822
1 0 3077
529 673 3803
708 580 1
537 670 637
87 539 2171
0 155 3078
528 672 3803
654 1293 257
495 1443 463
255 1765 1665
0 1732 3069
655 1310 3801
916 2269 531
846 2322 552
774 2635 1467
232 3056 2855
1887 3102 3788
2671 3746 2383
2659 3745 2383
2552 3761 2560
2424 3790 2907
1222 3858 3631
1763 0 0
1723 0 530
1577 0 1758
1017 0 3060
519 661 3803
1852 629 70
1801 610 480
1708 433 1850
1050 0 3086
518 660 3803
2076 1600 0
2083 1604 245
1667 1855 1669
1036 1695 3157
636 1273 3801
1961 2566 742
1925 2575 744
1613 2839 1386
1070 3132 2902
1864 3095 3788
2855 3735 2302
2843 3734 2301
2715 3756 2420
2543 3790 2864
1219 3856 3626
3198 250 270
3186 246 266
3219 0 1526
3071 1 2997
2300 851 3797
3134 737 467
3116 712 463
3251 318 1516
3077 1 2995
2309 852 3797
3372 1814 485
3359 1799 482
3275 1792 1506
3199 1517 3068
2374 1357 3794
3574 2859 336
3566 2852 321
3585 2930 1250
3176 3194 2925
2807 3120 3787
3388 3666 1897
3379 3666 1902
3309 3686 2040
2883 3784 2504
1834 3886 3620
4049 2004 1996
4050 1993 1986
4055 1952 2001
4051 1922 2798
4051 1801 3784
4049 2008 1999
4050 1997 1990
4055 1957 2002
4051 1926 2797
4051 1806 3783
4038 2596 2317
4038 2583 2306
4036 2539 2291
4050 2412 2865
4051 1917 3780
4048 3374 2910
4048 3370 2903
4048 3357 2884
4047 3336 3112
4048 3201 3767
4051 3515 1938
4051 3514 1922
4052 3511 1869
4048 3671 3016
3884 3797 3500
