Log/DJI Mavic D-Log - Film emulation.3dl
#25pt 3DLUT created by 3D LUT Creator Pro (c) Oleg Sharonov
#Copyright Oleg Sharonov
#IMAGEPROFILE sRGB IEC61966-2.1 v.2.10
#INPUTGAMMA DJI D-Log Ph3
#OUTPUTGAMMA sRGB IEC61966-2.1 v.2.10
0 43 86 128 171 214 256 299 341 384 427 469 512 555 597 640 682 725 768 810 853 896 938 981 1023 
0 0 0
0 0 106
0 0 225
0 0 332
0 0 459
0 0 572
0 0 705
0 0 858
0 0 1038
0 0 1217
0 0 1410
0 0 1620
0 0 1841
0 0 2057
0 0 2268
0 0 2473
0 0 2678
1 0 2884
1 0 3083
1 0 3272
1 0 3443
1 0 3604
1 0 3770
221 309 3804
533 676 3803
4 61 0
0 84 87
0 86 223
0 71 338
0 54 450
0 39 577
0 19 713
0 1 858
0 0 1038
0 0 1217
0 0 1410
0 0 1620
0 0 1841
0 0 2057
0 0 2268
0 0 2473
0 0 2678
1 0 2884
1 0 3083
1 0 3272
1 0 3443
1 0 3604
1 0 3770
221 309 3804
533 676 3803
9 145 0
0 162 65
0 198 199
0 213 329
0 206 449
0 192 572
0 176 710
0 156 868
0 129 1036
0 91 1222
0 43 1416
0 1 1625
0 0 1834
0 0 2057
0 0 2268
0 0 2473
0 0 2678
1 0 2884
1 0 3083
1 0 3270
1 0 3443
1 0 3604
1 0 3770
221 309 3804
533 676 3803
13 210 0
1 222 45
0 264 175
0 301 306
0 318 437
0 316 570
0 302 708
0 288 865
0 271 1037
0 247 1216
0 218 1415
0 181 1623
0 124 1839
0 43 2056
0 0 2268
0 0 2473
0 0 2678
1 0 2884
1 0 3083
1 0 3270
1 0 3443
1 0 3604
1 0 3770
221 309 3804
533 676 3803
22 274 0
2 283 33
0 319 154
0 366 277
0 403 409
0 423 555
0 423 706
0 411 863
0 396 1034
0 377 1216
0 355 1415
0 327 1622
0 291 1839
0 243 2056
0 177 2267
0 69 2473
0 0 2678
1 0 2884
1 0 3083
1 0 3270
1 0 3442
1 0 3604
1 0 3770
221 309 3804
533 676 3803
33 341 0
6 347 25
0 379 135
0 425 250
0 471 377
0 509 514
0 541 690
0 545 864
0 530 1034
0 513 1216
0 493 1413
0 467 1620
0 437 1838
0 400 2054
0 351 2266
0 289 2474
0 200 2680
0 47 2884
1 0 3083
1 0 3270
1 0 3442
1 0 3603
1 0 3770
220 307 3804
533 676 3803
50 412 0
16 416 17
4 443 125
2 487 227
0 538 350
0 587 479
0 631 636
0 665 828
0 678 1029
0 665 1217
0 644 1410
0 621 1619
0 593 1836
0 559 2053
0 517 2266
0 464 2471
0 399 2679
0 310 2884
0 181 3084
1 0 3270
1 0 3442
1 0 3603
1 0 3770
220 307 3804
533 676 3803
74 491 2
37 494 15
17 515 126
24 555 226
17 608 317
0 668 451
0 723 593
0 772 773
0 810 985
0 829 1206
0 819 1413
0 795 1619
0 769 1834
0 737 2052
0 699 2265
0 650 2470
0 591 2678
0 516 2884
0 421 3083
0 293 3271
0 62 3443
1 0 3603
1 0 3770
220 307 3804
532 675 3803
97 583 1
65 583 13
35 598 128
53 634 243
48 686 316
33 749 425
5 815 563
0 877 726
0 932 924
0 977 1158
0 1001 1397
0 992 1619
0 966 1834
0 938 2051
0 901 2263
0 858 2469
0 804 2676
0 736 2883
0 651 3082
0 542 3270
0 404 3442
0 195 3603
1 0 3770
220 307 3804
532 675 3803
129 688 24
108 686 31
62 699 127
92 726 264
85 776 325
87 837 412
61 906 538
18 980 693
0 1050 874
0 1110 1091
0 1161 1342
0 1193 1600
0 1186 1834
0 1157 2049
0 1125 2263
0 1086 2468
0 1037 2675
0 977 2881
0 900 3080
0 804 3269
0 681 3441
0 522 3603
0 306 3770
219 306 3804
530 674 3803
164 804 62
155 802 65
108 814 134
128 838 276
127 880 344
129 935 421
126 1003 522
97 1081 663
39 1162 839
0 1240 1039
0 1305 1269
0 1362 1537
0 1403 1814
0 1394 2047
0 1366 2261
0 1331 2466
0 1289 2674
0 1235 2879
0 1168 3079
0 1084 3267
0 978 3439
0 839 3601
0 660 3768
210 569 3804
530 674 3803
203 935 115
198 932 116
167 942 150
150 967 277
171 998 371
169 1049 441
172 1112 527
165 1188 646
132 1272 808
67 1362 1003
0 1446 1211
0 1517 1459
0 1576 1740
0 1620 2020
0 1619 2258
0 1588 2464
0 1553 2671
0 1507 2877
0 1450 3077
0 1379 3265
0 1287 3437
0 1170 3599
0 1017 3767
241 940 3803
571 974 3802
243 1079 172
239 1076 173
228 1081 182
172 1110 271
215 1133 401
214 1178 467
212 1235 545
215 1304 644
211 1388 778
169 1480 969
98 1575 1174
3 1666 1398
0 1740 1662
0 1801 1947
0 1848 2224
0 1855 2462
0 1824 2668
1 1786 2874
0 1740 3074
1 1679 3261
5 1603 3434
1 1507 3594
8 1382 3762
335 1326 3801
662 1322 3801
288 1236 229
285 1233 229
281 1233 228
222 1262 282
251 1282 417
265 1319 502
259 1372 570
260 1435 664
261 1512 782
250 1602 938
204 1700 1142
127 1799 1360
10 1893 1595
0 1968 1870
0 2030 2152
8 2078 2420
20 2096 2667
26 2062 2867
37 2024 3065
48 1977 3252
60 1917 3421
75 1842 3580
90 1744 3743
427 1691 3799
798 1679 3799
339 1402 285
336 1399 285
331 1397 285
302 1418 308
276 1450 407
305 1476 526
312 1520 603
311 1577 689
312 1646 797
314 1729 928
293 1825 1108
239 1928 1326
150 2028 1558
21 2121 1799
8 2195 2076
22 2255 2348
42 2302 2614
66 2323 2862
82 2295 3061
99 2259 3245
116 2214 3415
135 2155 3572
156 2082 3733
531 2031 3793
945 2011 3797
397 1575 341
394 1573 341
389 1570 342
378 1583 351
326 1619 403
329 1648 529
376 1678 649
368 1730 721
369 1793 823
369 1867 944
370 1953 1089
335 2052 1290
273 2155 1522
172 2254 1761
42 2343 2006
35 2413 2277
60 2472 2543
93 2521 2808
126 2546 3052
149 2521 3242
171 2485 3410
194 2442 3566
221 2387 3726
658 2340 3785
1127 2315 3795
465 1756 398
461 1754 398
456 1750 399
448 1755 404
416 1785 430
370 1823 520
425 1848 672
436 1890 759
434 1947 852
433 2014 968
434 2090 1101
434 2177 1260
382 2277 1485
309 2376 1727
199 2472 1968
75 2560 2209
84 2630 2472
113 2690 2737
159 2739 2997
205 2770 3233
238 2749 3405
269 2713 3560
306 2669 3717
822 2623 3776
1343 2593 3794
542 1941 458
539 1939 458
534 1935 458
527 1935 461
510 1954 477
470 1994 520
436 2034 648
507 2059 797
511 2107 890
508 2166 995
507 2234 1121
508 2311 1269
495 2396 1450
434 2495 1689
350 2594 1934
236 2691 2171
123 2778 2405
147 2847 2667
188 2906 2929
250 2953 3175
323 2988 3392
376 2971 3554
428 2936 3708
1031 2891 3766
1601 2858 3794
630 2127 521
627 2125 521
622 2122 521
616 2119 522
604 2130 532
583 2161 552
500 2210 628
552 2237 804
597 2270 933
595 2321 1030
592 2381 1148
592 2449 1289
593 2527 1448
569 2614 1650
498 2715 1898
406 2814 2140
287 2909 2366
202 2993 2601
233 3059 2862
295 3114 3113
390 3160 3338
509 3195 3537
602 3183 3700
1295 3139 3758
1894 3104 3788
725 2304 585
722 2302 585
718 2299 585
712 2296 586
703 2299 591
685 2322 609
649 2360 644
588 2407 757
649 2435 940
692 2472 1068
685 2525 1175
684 2589 1308
685 2660 1461
687 2739 1633
649 2826 1852
576 2924 2097
485 3021 2330
370 3110 2553
307 3189 2787
360 3250 3041
450 3301 3274
588 3341 3479
746 3375 3672
1521 3351 3754
2147 3314 3785
825 2468 652
821 2466 652
817 2464 652
812 2461 652
805 2459 653
792 2472 666
769 2502 693
719 2548 742
662 2596 890
773 2620 1090
791 2664 1206
783 2722 1325
783 2787 1469
786 2859 1634
793 2936 1812
742 3020 2043
675 3114 2280
592 3205 2506
489 3288 2728
454 3359 2959
527 3415 3199
639 3462 3414
807 3498 3608
1611 3517 3746
2382 3492 3787
924 2617 719
921 2616 719
917 2614 719
912 2612 719
906 2609 719
897 2612 724
880 2634 745
854 2669 779
793 2722 847
771 2768 1031
877 2795 1218
887 2842 1338
884 2901 1472
888 2965 1626
895 3034 1796
902 3109 1980
849 3188 2211
793 3276 2440
725 3358 2665
630 3435 2882
617 3498 3106
698 3550 3330
831 3592 3530
1179 3637 3723
2537 3631 3783
1015 2748 783
1013 2747 783
1009 2745 783
1004 2743 783
999 2740 783
992 2738 784
980 2749 796
961 2776 823
932 2816 862
849 2874 953
878 2912 1159
978 2942 1339
983 2991 1461
984 3049 1602
991 3110 1762
1004 3177 1933
1012 3245 2121
963 3318 2345
916 3400 2571
854 3476 2794
772 3545 3005
764 3603 3218
853 3650 3429
1006 3692 3628
2431 3727 3767
1718 3404 1358
1716 3403 1359
1712 3402 1358
1708 3401 1357
1703 3400 1359
1697 3399 1359
1683 3402 1391
1660 3408 1446
1631 3416 1514
1594 3426 1600
1559 3437 1703
1573 3445 1815
1628 3453 1921
1619 3468 2011
1553 3489 2096
1462 3510 2195
1380 3520 2299
1319 3522 2424
1192 3528 2590
1078 3545 2751
970 3572 2914
883 3621 3095
884 3681 3297
985 3727 3498
1724 3815 3734
2617 3747 2417
2616 3747 2416
2615 3747 2416
2613 3747 2417
2612 3747 2417
2609 3747 2417
2606 3746 2417
2594 3748 2434
2581 3750 2457
2566 3752 2484
2551 3755 2517
2538 3757 2555
2530 3759 2599
2530 3761 2645
2534 3763 2693
2526 3766 2741
2493 3773 2793
2447 3781 2849
2386 3789 2921
2283 3800 3022
2160 3813 3137
2007 3829 3250
1783 3846 3362
1491 3862 3487
1223 3858 3632
68 0 0
55 0 82
35 0 214
16 0 331
0 0 442
0 0 572
0 0 705
0 0 858
0 0 1038
0 0 1217
0 0 1410
0 0 1620
0 0 1834
0 0 2057
0 0 2268
0 0 2473
0 0 2678
1 0 2884
1 0 3083
1 0 3270
1 0 3443
1 0 3604
1 0 3770
221 309 3804
533 676 3803
103 77 0
72 88 80
41 82 240
14 62 390
1 53 455
0 37 574
0 17 709
0 0 855
0 0 1038
0 0 1217
0 0 1410
0 0 1620
0 0 1834
0 0 2057
0 0 2268
0 0 2473
0 0 2678
1 0 2884
1 0 3083
1 0 3270
1 0 3443
1 0 3604
1 0 3770
221 309 3804
533 676 3803
99 157 0
39 188 21
15 211 189
7 210 368
0 202 467
0 190 569
0 174 707
0 154 865
0 126 1033
0 88 1220
0 41 1414
0 0 1620
0 0 1834
0 0 2057
0 0 2268
0 0 2473
0 0 2678
1 0 2884
1 0 3083
1 0 3270
1 0 3443
1 0 3604
1 0 3770
221 309 3804
533 676 3803
99 220 0
29 245 0
0 281 142
0 306 309
0 319 437
0 313 567
0 301 705
0 286 861
0 269 1034
0 246 1214
0 217 1413
0 177 1621
0 122 1837
0 40 2055
0 0 2263
0 0 2470
0 0 2678
1 0 2884
1 0 3083
1 0 3270
1 0 3442
1 0 3604
1 0 3770
221 309 3804
533 676 3803
103 284 0
38 298 0
0 333 111
0 370 276
0 404 406
0 421 551
0 422 702
0 410 860
0 395 1032
0 376 1214
0 354 1413
0 326 1621
0 290 1837
0 242 2055
0 175 2266
0 67 2473
0 0 2676
1 0 2884
1 0 3083
1 0 3270
1 0 3442
1 0 3603
1 0 3770
220 307 3804
533 676 3803
109 352 0
54 359 0
0 393 88
0 429 248
0 472 374
0 508 511
0 539 687
0 544 861
0 528 1030
0 512 1213
0 492 1411
0 466 1619
0 436 1837
0 398 2053
0 350 2265
0 288 2473
0 199 2679
0 44 2884
1 0 3081
1 0 3270
1 0 3442
1 0 3603
1 0 3770
220 307 3804
532 675 3803
118 426 0
78 429 0
6 460 74
6 494 232
0 540 345
0 587 476
0 630 633
0 664 825
0 677 1027
0 663 1213
0 643 1408
0 620 1617
0 592 1835
0 558 2051
0 516 2266
0 463 2470
0 398 2676
0 309 2883
0 180 3083
1 0 3270
1 0 3442
1 0 3603
1 0 3770
220 307 3804
532 675 3803
131 507 0
103 508 0
29 534 67
29 567 220
19 613 312
0 667 448
0 721 590
0 771 770
0 809 982
0 828 1203
0 817 1409
0 795 1617
0 769 1834
0 736 2051
0 698 2264
0 649 2469
0 590 2677
0 515 2884
0 420 3082
0 292 3270
0 59 3443
1 0 3603
1 0 3770
220 307 3804
532 675 3803
141 600 0
127 599 0
62 620 59
51 654 213
53 695 311
36 751 422
6 814 560
0 875 723
0 929 920
0 976 1155
0 1000 1394
0 992 1617
0 965 1832
0 936 2050
0 900 2263
0 857 2469
0 803 2675
0 735 2882
0 650 3081
0 541 3270
0 403 3442
0 194 3603
1 0 3770
219 306 3804
532 675 3803
163 705 18
156 702 18
108 720 63
77 754 207
92 790 323
91 842 410
63 906 534
19 979 690
0 1049 871
0 1108 1087
0 1159 1339
0 1191 1599
0 1184 1832
0 1156 2047
0 1124 2262
0 1085 2467
0 1036 2674
0 975 2879
0 899 3079
0 803 3269
0 680 3441
0 521 3602
0 305 3770
219 306 3804
530 674 3803
195 822 60
190 819 60
161 831 83
104 868 208
138 898 345
134 948 421
129 1009 521
98 1081 660
40 1161 837
0 1239 1036
0 1304 1266
0 1361 1535
0 1402 1812
0 1393 2046
0 1365 2260
0 1330 2465
0 1288 2673
0 1234 2879
0 1167 3078
0 1083 3266
0 977 3439
0 838 3601
0 658 3768
209 568 3804
530 674 3803
