Log/DJI Phantom 4 Pro D-Log.3dl
#32pt 3DLUT created by 3D LUT Creator Pro (c) Oleg Sharonov
#Copyright Oleg Sharonov
#IMAGEPROFILE 
#INPUTGAMMA DJI D-Log Ph3
#OUTPUTGAMMA 
0 33 66 99 132 165 198 231 264 297 330 363 396 429 462 495 528 561 594 627 660 693 726 759 792 825 858 891 924 957 990 1023 
0 0 0
0 0 25
0 0 131
0 0 235
0 0 328
0 0 473
0 0 603
0 0 750
0 0 886
0 0 1057
0 0 1236
0 0 1419
0 0 1624
0 0 1842
0 0 2068
0 0 2295
0 0 2527
0 0 2752
0 0 2960
0 0 3146
0 0 3301
0 0 3437
0 0 3562
0 0 3675
0 0 3773
0 0 3856
0 0 3924
0 0 3977
0 0 4020
0 0 4062
0 0 4095
0 0 4095
0 23 0
0 17 19
0 8 115
0 0 231
0 0 354
0 0 473
0 0 603
0 0 750
0 0 886
0 0 1057
0 0 1236
0 0 1419
0 0 1624
0 0 1842
0 0 2068
0 0 2295
0 0 2527
0 0 2752
0 0 2960
0 0 3146
0 0 3301
0 0 3437
0 0 3562
0 0 3675
0 0 3773
0 0 3856
0 0 3924
0 0 3977
0 0 4020
0 0 4062
0 0 4095
0 0 4095
0 133 0
0 126 21
0 112 118
0 96 234
0 73 344
0 55 472
0 30 601
0 7 743
0 0 902
0 0 1057
0 0 1236
0 0 1419
0 0 1624
0 0 1842
0 0 2068
0 0 2295
0 0 2527
0 0 2752
0 0 2960
0 0 3146
0 0 3301
0 0 3437
0 0 3562
0 0 3675
0 0 3773
0 0 3856
0 0 3924
0 0 3977
0 0 4020
0 0 4062
0 0 4095
0 0 4095
0 257 0
0 248 23
0 236 121
0 222 232
0 205 349
0 185 470
0 160 599
0 130 741
0 97 895
0 55 1057
0 15 1237
0 0 1421
0 0 1624
0 0 1842
0 0 2068
0 0 2295
0 0 2527
0 0 2752
0 0 2960
0 0 3146
0 0 3301
0 0 3437
0 0 3562
0 0 3675
0 0 3773
0 0 3856
0 0 3924
0 0 3977
0 0 4020
0 0 4062
0 0 4095
0 0 4095
0 382 0
0 374 25
0 364 123
0 351 234
0 338 351
0 318 472
0 296 602
0 271 743
0 243 898
0 206 1060
0 163 1239
0 109 1427
0 48 1634
0 0 1849
0 0 2068
0 0 2295
0 0 2527
0 0 2752
0 0 2960
0 0 3146
0 0 3301
0 0 3437
0 0 3562
0 0 3675
0 0 3773
0 0 3856
0 0 3924
0 0 3977
0 0 4020
0 0 4062
0 0 4095
0 0 4095
0 514 0
0 509 26
0 499 125
0 488 239
0 472 351
0 458 474
0 438 605
0 416 747
0 389 896
0 357 1059
0 319 1238
0 274 1427
0 222 1633
0 154 1841
0 68 2063
0 0 2302
0 0 2527
0 0 2752
0 0 2960
0 0 3146
0 0 3301
0 0 3437
0 0 3564
0 0 3677
0 0 3773
0 0 3857
0 0 3924
0 0 3977
0 0 4020
0 0 4062
0 0 4095
0 0 4095
0 656 0
0 649 30
0 639 128
0 631 241
0 618 355
0 605 478
0 587 607
0 566 748
0 542 900
0 513 1063
0 480 1241
0 439 1431
0 390 1630
0 334 1847
0 263 2071
0 178 2294
0 66 2526
0 0 2754
0 0 2960
0 0 3151
0 0 3301
0 0 3437
0 0 3564
0 0 3677
0 0 3775
0 0 3857
0 0 3924
0 0 3977
0 0 4020
0 0 4062
0 0 4095
0 0 4095
0 805 0
0 801 32
0 795 133
0 785 243
0 772 357
0 760 478
0 743 609
0 724 748
0 704 903
0 677 1066
0 645 1242
0 608 1430
0 566 1630
0 512 1842
0 452 2066
0 378 2298
0 288 2525
0 172 2749
0 26 2962
0 0 3151
0 0 3301
0 0 3437
0 0 3564
0 0 3677
0 0 3775
0 0 3857
0 0 3924
0 0 3977
0 0 4020
0 0 4062
0 0 4095
0 0 4095
0 968 0
0 962 36
0 955 138
0 946 247
0 937 361
0 927 482
0 911 611
0 894 750
0 874 903
0 850 1067
0 820 1242
0 787 1432
0 748 1632
0 699 1844
0 644 2065
0 578 2297
0 498 2526
0 403 2752
0 283 2961
0 130 3149
0 0 3301
0 0 3437
0 0 3564
0 0 3677
0 0 3775
0 0 3857
0 0 3924
0 0 3977
0 0 4020
0 0 4062
0 0 4095
0 0 4095
0 1141 0
0 1138 42
0 1132 143
0 1124 251
0 1114 363
0 1101 484
0 1089 612
0 1073 752
0 1055 903
0 1033 1067
0 1006 1242
0 977 1431
0 939 1632
0 896 1843
0 845 2066
0 783 2294
0 713 2524
0 626 2748
0 523 2959
0 397 3146
0 234 3300
0 18 3439
0 0 3564
0 0 3677
0 0 3775
0 0 3857
0 0 3925
0 0 3978
0 0 4020
0 0 4062
0 0 4095
0 0 4095
0 1326 0
0 1324 46
0 1316 150
0 1310 256
0 1301 367
0 1292 487
0 1279 614
0 1265 753
0 1249 905
0 1229 1067
0 1206 1243
0 1176 1431
0 1140 1630
0 1101 1841
0 1054 2064
0 999 2292
0 933 2521
0 854 2745
0 761 2955
0 652 3144
0 514 3296
0 344 3436
0 114 3563
0 0 3677
0 0 3775
0 0 3857
0 0 3925
0 0 3978
0 0 4020
0 0 4062
0 0 4095
0 0 4095
0 1524 2
0 1520 53
0 1514 155
0 1507 260
0 1500 371
0 1492 491
0 1480 618
0 1466 755
0 1453 905
0 1434 1066
0 1415 1243
0 1389 1431
0 1357 1630
0 1318 1840
0 1276 2062
0 1224 2288
0 1163 2517
0 1091 2741
0 1008 2952
0 907 3140
0 787 3293
0 639 3432
0 456 3560
0 216 3675
0 0 3775
0 0 3857
0 0 3925
0 0 3978
0 0 4020
0 0 4062
0 0 4095
0 0 4095
0 1732 9
0 1728 63
0 1724 164
0 1719 269
0 1710 377
0 1702 495
0 1692 621
0 1681 756
0 1667 906
0 1651 1066
0 1632 1240
0 1611 1428
0 1583 1630
0 1549 1840
0 1508 2058
0 1460 2284
0 1405 2514
0 1339 2737
0 1262 2947
0 1170 3135
0 1060 3288
0 929 3428
0 770 3554
0 574 3670
0 320 3772
0 0 3858
0 0 3925
0 0 3978
0 0 4020
0 0 4062
0 0 4095
0 0 4095
0 1948 16
0 1944 74
0 1941 171
0 1936 275
0 1928 383
0 1921 498
0 1913 623
0 1902 758
0 1889 906
0 1875 1066
0 1858 1238
0 1838 1424
0 1815 1626
0 1788 1838
0 1751 2057
0 1707 2282
0 1656 2510
0 1596 2732
0 1525 2943
0 1441 3130
0 1342 3284
0 1223 3422
0 1081 3550
0 910 3665
0 698 3767
0 426 3853
0 39 3925
0 0 3978
0 0 4020
0 0 4062
0 0 4095
0 0 4095
0 2169 26
0 2167 84
0 2163 181
0 2158 282
0 2152 389
0 2146 504
0 2139 626
0 2129 761
0 2117 906
0 2105 1064
0 2091 1236
0 2074 1420
0 2052 1619
0 2029 1831
0 2000 2053
0 1960 2278
0 1914 2504
0 1859 2727
0 1795 2937
0 1719 3124
0 1628 3278
0 1521 3417
0 1393 3544
0 1240 3660
0 1053 3761
0 824 3848
0 536 3920
0 131 3976
0 0 4021
0 0 4063
0 0 4095
0 0 4095
0 2393 37
0 2391 98
0 2387 193
0 2384 292
0 2379 397
0 2374 509
0 2366 629
0 2358 763
0 2349 906
0 2339 1063
0 2325 1232
0 2311 1415
0 2292 1612
0 2272 1823
0 2248 2044
0 2217 2274
0 2175 2498
0 2125 2720
0 2068 2930
0 1999 3117
0 1919 3272
0 1824 3411
0 1708 3539
0 1570 3654
0 1405 3755
0 1204 3842
0 957 3914
0 646 3971
0 223 4019
0 0 4063
0 0 4095
0 0 4095
0 2614 52
0 2611 114
0 2609 205
0 2605 301
0 2601 405
0 2596 515
0 2591 635
0 2584 765
0 2575 907
0 2567 1061
0 2556 1228
0 2543 1410
0 2528 1605
0 2510 1813
0 2490 2033
0 2465 2262
0 2435 2492
0 2392 2713
0 2340 2922
0 2280 3110
0 2208 3265
0 2123 3403
0 2021 3531
0 1899 3647
0 1753 3749
0 1574 3836
0 1359 3909
0 1093 3966
0 760 4013
0 314 4060
0 0 4095
0 0 4095
0 2822 83
0 2821 143
0 2819 231
0 2816 323
0 2812 423
0 2808 531
0 2803 646
0 2798 773
0 2791 913
0 2784 1065
0 2776 1229
0 2765 1406
0 2752 1598
0 2737 1803
0 2721 2020
0 2701 2246
0 2678 2477
0 2648 2704
0 2604 2913
0 2551 3101
0 2490 3257
0 2416 3395
0 2328 3523
0 2221 3639
0 2092 3741
0 1936 3830
0 1747 3902
0 1516 3960
0 1231 4007
0 874 4053
0 401 4095
0 0 4095
0 3012 149
0 3011 202
0 3008 283
0 3006 369
0 3003 462
0 3000 565
0 2996 677
0 2992 799
0 2987 932
0 2981 1079
0 2974 1238
0 2966 1412
0 2956 1598
0 2945 1798
0 2931 2009
0 2916 2232
0 2897 2459
0 2876 2686
0 2848 2901
0 2805 3088
0 2753 3244
0 2691 3381
0 2617 3509
0 2527 3626
0 2417 3730
0 2283 3820
0 2119 3895
0 1919 3954
0 1674 4000
0 1371 4047
0 990 4089
0 490 4095
51 3174 225
51 3173 272
51 3171 346
50 3169 426
50 3168 514
50 3165 611
47 3162 716
46 3159 833
46 3155 962
46 3150 1102
42 3145 1256
42 3139 1422
41 3132 1603
38 3124 1796
37 3113 2003
33 3102 2219
30 3088 2442
29 3072 2665
26 3053 2880
26 3028 3075
34 2987 3232
42 2937 3368
51 2878 3494
58 2804 3609
58 2715 3713
53 2605 3802
42 2470 3879
22 2303 3941
0 2094 3990
0 1831 4039
0 1507 4082
0 1103 4095
135 3306 313
135 3305 358
135 3304 423
132 3303 498
132 3301 578
132 3299 670
132 3297 769
132 3294 880
129 3291 1001
128 3288 1136
128 3284 1282
125 3279 1441
124 3274 1615
121 3267 1801
120 3260 2000
117 3252 2210
113 3242 2427
110 3231 2645
107 3217 2858
101 3202 3054
101 3181 3220
121 3144 3355
138 3099 3481
154 3043 3595
168 2975 3697
177 2889 3787
180 2781 3863
174 2646 3925
159 2478 3974
128 2266 4020
74 1999 4066
0 1654 4095
233 3424 415
232 3423 457
232 3422 516
232 3422 583
232 3420 658
230 3418 741
229 3416 834
229 3414 937
229 3412 1053
226 3409 1179
226 3406 1317
223 3402 1469
223 3398 1634
220 3392 1812
217 3387 2003
214 3380 2205
211 3372 2415
208 3363 2627
205 3352 2835
200 3340 3030
195 3326 3200
198 3307 3343
223 3272 3468
248 3232 3581
270 3183 3683
290 3121 3772
305 3041 3848
315 2939 3911
314 2809 3961
301 2643 4004
274 2430 4048
227 2159 4088
346 3531 534
346 3530 569
343 3529 623
343 3528 684
343 3527 753
343 3526 829
343 3525 915
341 3523 1010
340 3521 1116
338 3518 1233
338 3516 1364
335 3513 1507
335 3509 1663
332 3505 1832
330 3500 2014
327 3495 2207
325 3488 2406
320 3481 2611
317 3473 2814
313 3463 3006
308 3452 3176
302 3439 3321
305 3421 3455
337 3386 3569
371 3346 3670
399 3298 3759
424 3240 3835
443 3169 3899
457 3076 3949
460 2953 3990
451 2792 4032
423 2582 4072
472 3625 666
472 3625 698
470 3624 745
470 3623 800
470 3622 861
470 3621 930
468 3620 1008
468 3618 1096
468 3617 1194
465 3615 1304
465 3613 1424
463 3610 1557
461 3607 1702
458 3604 1861
456 3600 2031
454 3596 2213
451 3591 2404
447 3585 2599
445 3578 2795
441 3571 2982
435 3562 3151
429 3553 3295
424 3541 3431
428 3524 3556
468 3489 3657
505 3449 3746
540 3401 3823
570 3343 3887
594 3274 3938
608 3189 3979
611 3078 4019
600 2925 4057
614 3707 813
614 3706 841
614 3706 884
614 3705 932
614 3704 987
614 3703 1049
612 3702 1121
612 3701 1200
610 3700 1289
610 3698 1386
608 3697 1498
607 3695 1620
605 3692 1754
603 3690 1901
601 3687 2060
599 3683 2230
595 3679 2409
593 3675 2594
590 3669 2780
584 3664 2961
581 3657 3126
575 3649 3269
568 3641 3402
562 3631 3530
566 3614 3644
613 3581 3733
656 3541 3810
695 3493 3875
726 3436 3927
752 3367 3968
767 3283 4007
767 3181 4044
773 3776 975
773 3776 1000
773 3775 1037
773 3775 1079
773 3774 1129
771 3773 1184
771 3772 1246
771 3772 1317
769 3770 1397
769 3769 1487
767 3768 1586
766 3766 1697
766 3764 1819
764 3762 1953
762 3760 2099
758 3757 2256
757 3754 2422
753 3750 2595
750 3746 2770
746 3742 2943
741 3737 3103
737 3731 3243
732 3724 3374
724 3717 3499
717 3707 3616
723 3693 3720
775 3660 3797
820 3621 3863
861 3575 3916
895 3518 3958
917 3450 3996
929 3367 4033
945 3833 1149
945 3833 1169
945 3833 1202
945 3832 1240
945 3832 1283
943 3831 1331
943 3831 1386
943 3830 1448
942 3829 1519
942 3828 1598
940 3827 1687
938 3826 1786
938 3824 1896
937 3822 2017
935 3820 2150
932 3818 2292
930 3816 2445
927 3813 2604
924 3810 2767
921 3806 2929
918 3803 3083
912 3798 3219
908 3793 3345
901 3788 3467
894 3781 3583
887 3773 3691
893 3760 3783
947 3728 3850
997 3691 3905
1038 3645 3948
1069 3590 3985
1088 3523 4021
1127 3880 1330
1126 3880 1348
1127 3880 1377
1126 3879 1408
1126 3879 1446
1126 3879 1488
1124 3878 1535
1124 3878 1590
1124 3877 1652
1123 3876 1721
1123 3875 1800
1121 3874 1887
1120 3873 1985
1118 3871 2092
1117 3870 2211
1115 3868 2339
1114 3866 2477
1111 3864 2621
1108 3862 2771
1105 3859 2921
1101 3856 3066
1097 3853 3198
1092 3849 3318
1089 3845 3436
1082 3840 3550
1074 3834 3657
1067 3828 3755
1073 3815 3837
1130 3786 3893
1181 3749 3938
1220 3706 3974
1247 3652 4010
1313 3918 1514
1313 3917 1530
1311 3917 1554
1311 3917 1582
