Log/DJI Mavic D-Log.3dl
#25pt 3DLUT created by 3D LUT Creator Pro (c) Oleg Sharonov
#Copyright Oleg Sharonov
#IMAGEPROFILE sRGB
#INPUTGAMMA DJI D-Log Ph3
#OUTPUTGAMMA sRGB
0 256 512 768 1023
0 0 0
0 154 815
0 477 1866
0 1015 3180
1459 2127 4095
0 1227 124
0 1241 1164
0 1204 2384
0 1108 3278
1458 2127 4095
0 2590 410
0 2598 1254
0 2605 2486
0 2568 3810
2058 2548 4095
1055 4095 1461
888 4095 1762
0 4095 2646
0 4063 3923
3724 3864 4095
4059 4095 4061
4059 4095 4060
4059 4095 4063
4058 4095 4069
4054 4095 4091
1205 14 0
973 185 1115
0 426 2324
0 1011 3174
1455 2125 4095
1250 1304 0
1187 1245 1154
569 1156 2468
0 1090 3257
1454 2125 4095
1048 2593 0
601 2663 689
756 2625 2489
0 2560 3803
2046 2541 4095
1635 4095 1489
1519 4095 1707
1159 4095 2629
0 4060 3915
3721 3862 4095
4059 4095 4060
4059 4095 4060
4059 4095 4062
4058 4095 4069
4054 4095 4091
2516 61 3
2512 0 866
2149 529 2390
297 691 4090
1441 2117 4095
2566 1264 26
2520 1168 908
2256 1141 2427
436 759 4084
1441 2117 4095
2615 2695 0
2579 2683 691
2518 2609 2467
1574 2495 4003
2009 2516 4095
2752 4095 1674
2688 4095 1746
2484 4095 2528
1441 4095 3917
3708 3855 4095
4060 4095 4059
4060 4095 4059
4060 4095 4061
4059 4095 4068
4053 4095 4091
3938 210 14
3925 210 14
3929 32 2092
3514 1120 3790
2487 2508 4088
3931 1095 55
3918 1040 52
3935 709 2080
3526 1114 3791
2493 2511 4088
4078 2648 200
4063 2632 195
4038 2434 1976
3675 2479 3848
2727 2769 4092
4009 4095 1495
3998 4095 1385
3968 4095 1709
3891 4010 3822
3929 3961 4095
4065 4095 4055
4065 4095 4055
4064 4095 4057
4063 4095 4063
4057 4095 4089
4095 3397 3393
4095 3391 3387
4095 3377 3381
4094 3442 3606
3985 3652 4068
4095 3400 3395
4095 3393 3389
4095 3379 3383
4094 3444 3607
3986 3653 4068
4095 3786 3755
4094 3776 3743
4095 3744 3714
4095 3722 3791
3999 3696 4070
4095 4064 4050
4095 4063 4050
4095 4063 4049
4095 4057 4053
4086 4056 4092
4090 4095 4019
4090 4095 4021
4089 4095 4020
4088 4095 4026
4072 4095 4059
