Log/DJI Mavic D-Log.3dl
#25pt 3DLUT created by 3D LUT Creator Pro (c) Oleg Sharonov
#Copyright Oleg Sharonov
#IMAGEPROFILE sRGB
#INPUTGAMMA DJI D-Log Ph3
#OUTPUTGAMMA sRGB
0 43 86 128 171 214 256 299 341 384 427 469 512 555 597 640 682 725 768 810 853 896 938 981 1023 
0 0 0
0 12 124
0 29 279
0 55 424
0 82 549
0 115 685
0 154 815
0 203 966
0 250 1121
0 299 1292
0 355 1472
0 412 1664
0 477 1866
0 546 2078
0 622 2294
0 706 2513
0 798 2733
0 901 2956
0 1015 3180
0 1140 3408
0 1278 3641
0 1430 3882
225 1608 4095
955 1867 4095
1459 2127 4095
0 245 9
0 243 222
0 236 436
0 225 574
0 210 703
0 200 824
0 203 899
0 208 979
0 250 1121
0 299 1287
0 355 1472
0 412 1664
0 477 1866
0 546 2078
0 622 2294
0 706 2513
0 798 2733
0 901 2956
0 1015 3180
0 1140 3408
0 1278 3641
0 1430 3882
225 1608 4095
955 1867 4095
1459 2127 4095
0 474 26
0 470 232
0 470 438
0 458 644
0 464 800
0 457 935
0 438 1078
0 420 1222
0 404 1369
0 403 1472
0 407 1570
0 417 1671
0 477 1866
0 546 2078
0 622 2294
0 706 2512
0 798 2733
0 901 2956
0 1015 3180
0 1140 3408
0 1278 3641
0 1430 3882
225 1608 4095
955 1867 4095
1458 2127 4095
0 662 44
0 662 245
0 661 435
0 663 620
0 649 825
0 660 1004
0 657 1163
0 648 1311
0 626 1471
0 605 1632
0 584 1793
0 574 1929
0 579 2035
0 586 2144
0 621 2292
0 706 2512
0 798 2733
0 901 2956
0 1015 3180
0 1139 3407
0 1278 3641
0 1430 3882
225 1608 4095
955 1867 4095
1458 2127 4095
0 844 64
0 851 261
0 846 451
0 848 611
0 850 795
3 838 1009
0 840 1204
0 850 1387
0 843 1549
0 824 1714
0 799 1886
0 774 2058
0 751 2230
0 742 2362
0 747 2472
0 756 2582
0 798 2733
0 901 2956
0 1015 3180
0 1139 3407
0 1277 3640
0 1430 3882
222 1607 4095
954 1867 4095
1458 2127 4095
0 1031 91
0 1041 273
0 1036 464
0 1036 624
0 1040 783
0 1041 976
3 1029 1200
0 1025 1414
0 1044 1612
0 1038 1792
0 1028 1960
0 997 2137
0 968 2314
0 940 2488
0 912 2660
0 913 2772
0 921 2882
0 935 2996
0 1014 3179
0 1139 3407
0 1277 3640
0 1430 3881
222 1607 4095
954 1867 4095
1458 2127 4095
0 1227 124
0 1238 284
0 1236 478
0 1233 641
0 1235 795
0 1238 959
0 1241 1164
6 1229 1403
0 1219 1633
0 1244 1842
0 1240 2032
0 1234 2206
0 1204 2384
0 1171 2563
0 1138 2739
0 1106 2913
0 1090 3054
0 1096 3164
0 1108 3278
0 1139 3406
0 1277 3640
0 1430 3881
222 1607 4095
954 1867 4095
1458 2127 4095
0 1434 162
0 1443 297
0 1447 493
0 1442 657
0 1441 815
0 1445 972
0 1448 1144
0 1452 1364
9 1440 1616
0 1423 1859
0 1448 2073
0 1451 2273
0 1443 2451
0 1419 2625
0 1382 2805
0 1346 2983
0 1310 3159
0 1279 3325
0 1282 3438
0 1293 3553
0 1313 3674
0 1429 3880
220 1607 4095
954 1867 4095
1458 2126 4095
0 1651 205
0 1658 317
0 1667 509
0 1663 673
0 1661 832
0 1660 992
0 1665 1157
0 1668 1341
0 1672 1574
6 1660 1838
3 1639 2088
0 1664 2308
0 1671 2509
0 1662 2690
0 1644 2862
0 1603 3044
0 1563 3224
0 1524 3404
0 1484 3584
0 1480 3709
0 1490 3827
0 1510 3952
220 1607 4095
953 1866 4095
1458 2126 4095
0 1878 250
0 1882 339
0 1894 525
0 1894 692
0 1889 851
0 1887 1013
0 1889 1177
0 1893 1354
0 1895 1549
0 1901 1795
0 1889 2066
3 1867 2319
0 1887 2541
0 1898 2743
0 1889 2926
0 1874 3096
0 1831 3281
0 1789 3465
0 1748 3651
0 1705 3837
0 1690 3982
70 1702 4095
599 1761 4095
953 1866 4095
1457 2126 4095
0 2112 299
0 2114 365
0 2127 543
0 2130 714
0 2126 871
0 2122 1034
0 2121 1204
0 2122 1374
0 2127 1562
0 2128 1767
0 2134 2021
0 2122 2296
6 2100 2551
0 2117 2775
0 2130 2976
0 2119 3160
0 2107 3330
0 2064 3519
0 2021 3709
0 1977 3901
17 1933 4095
719 1949 4095
1004 1994 4095
1242 2054 4095
1463 2130 4095
0 2350 353
0 2350 396
0 2361 563
0 2366 733
0 2365 896
0 2362 1057
0 2358 1228
0 2357 1405
0 2360 1585
0 2364 1781
0 2365 1993
0 2369 2253
0 2357 2528
12 2335 2783
0 2348 3007
0 2362 3208
0 2350 3394
0 2338 3567
0 2298 3761
0 2255 3959
467 2218 4095
1053 2210 4095
1374 2229 4095
1574 2276 4095
1760 2337 4095
0 2590 410
0 2588 433
0 2596 591
0 2604 755
0 2605 922
0 2602 1084
0 2598 1254
0 2596 1433
0 2594 1620
0 2597 1806
0 2600 2008
0 2600 2225
0 2605 2486
0 2593 2760
14 2570 3015
0 2580 3241
0 2593 3440
0 2580 3632
0 2568 3810
0 2531 4009
782 2492 4095
1327 2474 4095
1668 2477 4095
1903 2500 4095
2058 2548 4095
0 2830 475
0 2828 490
0 2834 623
0 2841 781
0 2844 947
0 2843 1116
0 2840 1285
0 2836 1463
0 2834 1651
0 2832 1843
0 2835 2035
0 2837 2240
0 2837 2458
0 2840 2719
0 2828 2992
17 2806 3249
0 2812 3477
0 2823 3678
0 2809 3875
0 2796 4060
1088 2757 4095
1621 2730 4095
1946 2723 4095
2176 2733 4095
2351 2762 4095
0 3073 547
0 3072 560
0 3075 665
0 3080 813
0 3085 976
0 3085 1147
0 3083 1320
0 3079 1497
0 3075 1684
0 3073 1878
0 3071 2074
0 3073 2269
0 3075 2475
0 3073 2693
0 3076 2952
0 3063 3226
23 3040 3486
0 3044 3719
0 3052 3922
472 3033 4095
1447 3003 4095
1934 2978 4095
2237 2963 4095
2446 2966 4095
2606 2984 4095
0 3321 627
0 3320 639
0 3320 713
0 3324 853
0 3328 1010
0 3329 1180
0 3329 1360
0 3326 1537
0 3322 1723
0 3318 1916
0 3315 2114
0 3313 2310
0 3314 2506
0 3315 2711
0 3313 2928
0 3313 3187
0 3300 3464
32 3277 3729
0 3277 3968
989 3266 4095
1879 3228 4095
2280 3211 4095
2540 3198 4095
2724 3195 4095
2864 3207 4095
0 3575 717
0 3574 729
0 3573 771
0 3576 904
0 3579 1053
0 3581 1220
0 3580 1397
0 3579 1583
0 3575 1767
0 3571 1958
0 3567 2155
0 3563 2354
0 3560 2549
0 3560 2745
0 3560 2948
0 3557 3166
0 3555 3426
0 3540 3707
41 3518 3981
1547 3479 4095
2299 3451 4095
2656 3428 4095
2862 3422 4095
3013 3421 4095
3132 3428 4095
0 3840 819
0 3840 829
0 3838 844
0 3839 966
0 3840 1107
0 3842 1266
0 3842 1442
0 3841 1628
0 3838 1818
0 3834 2007
0 3830 2201
0 3825 2400
0 3820 2597
0 3816 2790
0 3815 2985
0 3814 3188
0 3809 3407
0 3804 3670
0 3788 3959
2003 3709 4094
2753 3657 4095
3033 3644 4095
3205 3636 4095
3322 3640 4095
3416 3649 4095
1055 4095 1461
1033 4095 1452
1001 4095 1440
976 4095 1478
952 4095 1557
923 4095 1651
888 4095 1762
842 4095 1890
782 4095 2029
697 4095 2172
570 4095 2319
380 4095 2477
0 4095 2646
0 4089 2842
0 4084 3033
0 4081 3228
0 4078 3432
0 4071 3655
0 4063 3923
2413 3964 4095
3215 3871 4094
3450 3848 4095
3571 3848 4095
3660 3853 4095
3724 3864 4095
3527 4095 3554
3525 4095 3553
3523 4095 3551
3520 4095 3550
3519 4095 3555
3517 4095 3561
3515 4095 3569
3514 4095 3579
3511 4095 3591
3508 4095 3606
3504 4095 3621
3498 4095 3640
3492 4095 3662
3483 4095 3689
3472 4095 3720
3466 4095 3760
3469 4095 3811
3473 4095 3870
3470 4095 3942
3465 4095 4040
3686 4049 4095
3836 4019 4095
3899 4013 4095
3935 4015 4095
3961 4018 4095
3894 4095 3902
3894 4095 3902
3893 4095 3902
3892 4095 3901
3892 4095 3902
3892 4095 3904
3891 4095 3906
3891 4095 3909
3891 4095 3912
3890 4095 3916
3889 4095 3921
3888 4095 3926
3887 4095 3932
3885 4095 3940
3883 4095 3949
3880 4095 3959
3878 4095 3973
3878 4095 3989
3876 4095 4009
3873 4095 4035
3868 4095 4073
3938 4076 4095
3990 4063 4095
4013 4060 4095
4026 4060 4095
3986 4095 3990
3986 4095 3990
3985 4095 3990
3985 4095 3990
3985 4095 3990
3985 4095 3991
3985 4095 3992
3985 4095 3993
3984 4095 3994
3984 4095 3996
3984 4095 3998
3984 4095 4001
3983 4095 4004
3982 4095 4007
3982 4095 4011
3981 4095 4015
3979 4095 4021
3978 4095 4028
3977 4095 4037
3976 4095 4048
3974 4095 4062
3971 4095 4082
4007 4084 4095
4036 4077 4095
4048 4075 4095
4025 4095 4028
4025 4095 4028
4025 4095 4027
4025 4095 4027
4025 4095 4028
4025 4095 4028
4024 4095 4028
4024 4095 4029
4024 4095 4030
4024 4095 4031
4024 4095 4032
4024 4095 4033
4024 4095 4034
4023 4095 4036
4023 4095 4038
4022 4095 4041
4022 4095 4044
4021 4095 4048
4020 4095 4052
4020 4095 4058
4019 4095 4064
4017 4095 4073
4015 4095 4087
4038 4088 4095
4056 4083 4095
4046 4095 4048
4046 4095 4048
4046 4095 4048
4046 4095 4048
4046 4095 4048
4046 4095 4048
4046 4095 4048
4046 4095 4048
4046 4095 4049
4046 4095 4049
4045 4095 4050
4045 4095 4051
4045 4095 4052
4045 4095 4053
4045 4095 4054
4045 4095 4056
4044 4095 4057
4044 4095 4060
4043 4095 4062
4043 4095 4065
4042 4095 4069
4042 4095 4074
4041 4095 4080
4039 4095 4089
4055 4090 4095
4059 4095 4061
4059 4095 4061
4059 4095 4061
4059 4095 4061
4059 4095 4060
4059 4095 4060
4059 4095 4060
4059 4095 4061
4059 4095 4061
4059 4095 4062
4059 4095 4062
4059 4095 4062
4059 4095 4063
4059 4095 4063
4058 4095 4064
4058 4095 4065
4058 4095 4066
4058 4095 4067
4058 4095 4069
4057 4095 4071
4057 4095 4073
4056 4095 4076
4056 4095 4079
4055 4095 4084
4054 4095 4091
234 0 0
171 14 210
55 17 488
0 47 551
0 82 549
0 115 677
0 154 815
0 200 961
0 250 1121
0 299 1287
0 353 1468
0 412 1660
0 477 1866
0 546 2075
0 621 2292
0 706 2512
0 798 2733
0 901 2956
0 1015 3180
0 1139 3407
0 1278 3641
0 1430 3882
222 1607 4095
955 1867 4095
1458 2127 4095
241 256 0
225 241 217
157 229 439
61 215 607
0 205 709
0 192 809
0 198 891
0 205 970
0 248 1116
0 299 1287
0 353 1468
0 412 1660
0 477 1866
0 546 2075
0 621 2292
0 706 2512
0 798 2733
0 901 2956
0 1015 3180
0 1139 3407
0 1278 3641
0 1430 3882
222 1607 4095
954 1867 4095
1458 2127 4095
215 472 0
157 488 160
174 472 433
121 460 635
9 463 806
0 454 930
0 433 1073
0 417 1218
0 399 1365
0 399 1466
0 404 1561
0 413 1666
0 475 1863
0 546 2075
0 621 2292
0 706 2512
0 798 2733
0 901 2956
0 1015 3180
0 1139 3407
0 1277 3640
0 1430 3881
222 1607 4095
954 1867 4095
1458 2127 4095
190 662 0
70 687 91
94 680 410
106 670 620
64 648 822
0 656 997
0 655 1159
0 645 1307
0 622 1465
0 600 1627
0 580 1790
0 572 1923
0 576 2032
0 585 2141
0 621 2292
0 706 2512
0 798 2733
0 900 2954
0 1014 3179
0 1139 3407
0 1277 3640
0 1430 3881
222 1607 4095
954 1867 4095
1458 2127 4095
162 845 0
0 875 38
44 875 393
3 867 590
23 854 792
3 835 1003
0 837 1200
0 846 1382
0 842 1546
0 822 1711
0 796 1884
0 771 2055
0 748 2226
0 740 2360
0 745 2469
0 755 2580
0 798 2732
0 900 2954
0 1014 3179
0 1139 3407
0 1277 3640
0 1430 3881
222 1607 4095
954 1867 4095
1458 2127 4095
130 1033 0
0 1056 55
0 1067 377
0 1060 587
0 1048 770
0 1043 971
3 1027 1196
0 1023 1410
0 1043 1609
0 1036 1789
0 1026 1956
0 996 2136
0 966 2312
0 937 2487
0 910 2659
0 911 2770
0 919 2880
0 933 2994
0 1014 3179
0 1139 3406
0 1277 3640
0 1430 3881
220 1607 4095
954 1867 4095
1458 2127 4095
88 1232 0
0 1248 76
0 1264 383
0 1259 591
0 1252 773
0 1243 952
0 1240 1160
6 1227 1398
0 1216 1629
0 1241 1838
0 1238 2030
0 1231 2204
0 1202 2382
0 1168 2561
0 1136 2738
0 1104 2911
0 1089 3052
0 1093 3162
0 1107 3276
0 1139 3406
0 1277 3640
0 1429 3880
220 1607 4095
953 1866 4095
1458 2126 4095
44 1440 0
0 1451 103
0 1469 390
0 1467 597
0 1461 780
0 1453 957
0 1447 1140
0 1450 1360
9 1438 1613
0 1421 1856
0 1447 2071
0 1449 2270
0 1442 2449
0 1418 2624
0 1381 2804
0 1344 2982
0 1308 3158
0 1277 3324
0 1280 3436
0 1292 3552
0 1312 3672
0 1429 3880
220 1607 4095
953 1866 4095
1458 2126 4095
0 1660 3
0 1664 136
0 1684 401
0 1685 608
0 1680 789
0 1674 966
0 1668 1148
0 1666 1337
0 1671 1571
6 1659 1835
3 1638 2085
0 1663 2306
0 1670 2508
0 1661 2689
0 1642 2861
0 1602 3043
0 1562 3223
0 1522 3403
0 1483 3583
0 1479 3707
0 1489 3826
0 1509 3950
215 1606 4095
953 1866 4095
1457 2126 4095
0 1885 61
0 1888 174
0 1905 415
0 1911 623
0 1907 802
0 1903 979
0 1897 1158
0 1893 1349
0 1894 1546
0 1899 1791
0 1888 2063
3 1865 2317
0 1887 2540
0 1898 2742
0 1887 2925
0 1872 3095
0 1830 3280
0 1789 3465
0 1746 3650
0 1704 3837
0 1689 3981
67 1701 4095
595 1759 4095
952 1866 4095
1457 2126 4095
0 2118 130
0 2119 215
0 2132 435
0 2142 636
0 2141 819
0 2137 996
0 2131 1175
0 2127 1361
0 2126 1559
0 2127 1764
0 2133 2019
0 2121 2294
6 2099 2549
0 2116 2773
0 2128 2974
0 2117 3159
0 2106 3329
0 2063 3518
0 2020 3709
0 1976 3901
14 1932 4095
716 1948 4095
1002 1993 4095
1241 2053 4095
1461 2129 4095
