Log/DJI Inspire - D-Log.3dl
#25pt 3DLUT created by 3D LUT Creator Pro (c) Oleg Sharonov
#Copyright Oleg Sharonov
#IMAGEPROFILE sRGB IEC61966-2.1 v.2.10
#INPUTGAMMA DJI Inspire Log
#OUTPUTGAMMA sRGB IEC61966-2.1 v.2.10
0 256 512 768 1023
0 0 0
0 37 619
0 131 1482
0 272 2686
1 492 3539
0 1074 0
0 967 919
0 820 1831
0 822 2856
1 948 3587
17 2531 17
27 2543 997
0 2322 2231
0 2060 3110
40 1968 3674
790 3500 790
803 3502 1349
841 3508 2574
646 3370 3316
869 3207 3750
2860 4011 2860
2866 4012 2936
2890 4015 3261
2908 4014 3626
2580 3929 3899
1303 0 0
979 0 979
188 0 1507
0 220 2670
1 455 3535
1296 1015 0
1035 1042 1020
0 770 1854
0 784 2840
1 917 3582
1287 2502 39
1029 2514 978
0 2305 2229
0 2029 3102
28 1940 3672
1658 3495 815
1451 3497 1341
900 3503 2561
634 3363 3312
859 3199 3748
3048 4011 2874
3000 4012 2938
2882 4013 3254
2901 4012 3624
2571 3927 3897
2849 0 0
2756 0 983
2358 0 2360
960 0 2933
1 362 3524
2846 869 0
2754 896 960
2395 908 2389
917 655 3060
1 840 3572
2832 2434 134
2740 2447 948
2467 2477 2443
1023 2059 3206
1 1872 3668
2903 3484 882
2828 3486 1348
2613 3491 2562
1471 3389 3347
834 3178 3745
3398 4011 2916
3371 4012 2965
3306 4013 3270
3121 4017 3633
2548 3922 3894
3696 53 53
3677 46 861
3625 45 2411
3414 1 3416
2194 1 3727
3686 576 153
3666 604 872
3613 679 2398
3416 647 3415
2095 1 3775
3655 2331 576
3637 2342 1068
3588 2372 2429
3420 2340 3415
1931 1387 3840
3664 3463 1260
3647 3465 1545
3602 3471 2609
3480 3486 3468
2198 3196 3852
3771 4013 3003
3760 4013 3022
3733 4015 3305
3667 4019 3651
2910 3987 3961
4010 1007 1007
4009 1015 1247
4004 1065 2446
3999 1175 3396
3908 1018 3909
4010 1007 1007
4009 1014 1229
4004 1065 2437
3999 1175 3394
3909 1020 3909
3997 2287 1379
3996 2305 1538
3994 2365 2574
3992 2490 3418
3931 1475 3930
4001 3446 2241
4002 3449 2286
4002 3461 2913
4004 3487 3506
3948 3388 3944
4064 4009 3193
4064 4010 3194
4066 4013 3399
4070 4021 3695
4032 4035 4025
