Log/DJI Inspire - D-Log.3dl
#25pt 3DLUT created by 3D LUT Creator Pro (c) Oleg Sharonov
#Copyright Oleg Sharonov
#IMAGEPROFILE sRGB IEC61966-2.1 v.2.10
#INPUTGAMMA DJI Inspire Log
#OUTPUTGAMMA sRGB IEC61966-2.1 v.2.10
0 128 256 384 512 640 768 896 1023
0 0 0
0 15 314
0 37 619
0 78 993
0 131 1482
0 194 2084
0 272 2686
0 368 3172
1 492 3539
0 502 0
0 462 440
0 403 762
0 393 1134
0 406 1615
0 437 2189
0 485 2749
0 559 3205
1 662 3557
0 1074 0
0 1084 471
0 967 919
0 871 1346
0 820 1831
0 805 2360
0 822 2856
0 867 3262
1 948 3587
0 1789 0
0 1796 441
0 1769 1000
0 1600 1523
0 1465 2050
0 1374 2548
0 1327 2980
0 1325 3336
1 1369 3627
17 2531 17
20 2536 409
27 2543 997
17 2473 1643
0 2322 2231
0 2177 2722
0 2060 3110
0 1987 3423
40 1968 3674
298 3100 298
302 3102 517
311 3105 1064
323 3110 1751
282 3038 2375
227 2929 2855
251 2814 3212
308 2712 3487
411 2643 3703
790 3500 790
793 3501 879
803 3502 1349
818 3504 1948
841 3508 2574
742 3447 2992
646 3370 3316
725 3284 3562
869 3207 3750
1707 3782 1707
1709 3782 1709
1720 3783 2030
1738 3784 2429
1765 3786 2838
1781 3784 3197
1600 3739 3439
1419 3685 3647
1585 3622 3816
2860 4011 2860
2861 4012 2861
2866 4012 2936
2876 4013 3086
2890 4015 3261
2911 4018 3451
2908 4014 3626
2757 3974 3758
2580 3929 3899
605 0 0
463 0 462
164 0 662
0 45 980
0 101 1476
0 171 2072
0 255 2683
0 353 3167
1 479 3537
601 475 0
485 488 478
0 376 811
0 373 1117
0 389 1600
0 421 2181
0 471 2743
0 545 3202
1 651 3555
596 1053 0
478 1062 459
70 970 931
0 852 1335
0 805 1822
0 791 2353
0 809 2850
0 855 3260
1 937 3585
588 1771 0
469 1779 430
190 1762 995
0 1584 1515
0 1450 2043
0 1359 2542
0 1314 2976
0 1314 3334
1 1359 3626
585 2521 24
468 2526 400
212 2533 989
14 2463 1636
0 2310 2226
0 2165 2717
0 2049 3107
0 1976 3421
35 1957 3673
711 3095 305
608 3097 510
405 3101 1055
321 3106 1743
278 3033 2371
223 2924 2852
248 2808 3210
304 2706 3486
408 2637 3702
1085 3498 797
998 3499 874
842 3500 1339
814 3503 1940
837 3506 2569
738 3444 2989
642 3367 3315
721 3281 3561
866 3204 3750
1890 3781 1714
1828 3781 1712
1720 3782 2021
1732 3783 2422
1759 3785 2834
1776 3783 3195
1595 3737 3438
1413 3684 3646
1581 3621 3815
2910 4011 2862
2888 4011 2861
2863 4012 2932
2873 4013 3083
2887 4014 3258
2908 4017 3449
2905 4013 3625
2754 3973 3757
2577 3928 3898
1303 0 0
1212 0 468
979 0 979
584 0 1275
188 0 1507
0 128 2065
0 220 2670
0 325 3163
1 455 3535
1301 427 0
1209 440 457
1002 434 996
574 310 1397
0 321 1653
0 392 2160
0 446 2733
0 521 3196
1 630 3552
1296 1015 0
1204 1023 438
1035 1042 1020
627 896 1491
0 770 1854
0 766 2338
0 784 2840
0 833 3255
1 917 3582
1289 1741 0
1197 1748 409
1027 1761 998
682 1644 1587
0 1432 2061
0 1333 2532
0 1291 2969
0 1292 3330
1 1337 3623
1287 2502 39
1197 2506 387
1029 2514 978
741 2492 1666
0 2305 2229
0 2144 2711
0 2029 3102
0 1958 3418
28 1940 3672
1372 3087 323
1286 3089 506
1129 3093 1050
882 3098 1736
330 3031 2365
217 2914 2847
242 2797 3207
299 2695 3484
400 2626 3701
1658 3495 815
1584 3495 877
1451 3497 1341
1240 3499 1936
900 3503 2561
731 3440 2985
634 3363 3312
715 3277 3559
859 3199 3748
2277 3779 1734
2229 3780 1732
2143 3780 2029
2006 3781 2422
1776 3783 2827
1768 3782 3191
1586 3735 3436
1405 3682 3645
1574 3618 3814
3048 4011 2874
3030 4011 2873
3000 4012 2938
2954 4012 3083
2882 4013 3254
2904 4016 3446
2901 4012 3624
2748 3972 3756
2571 3927 3897
2127 0 0
2064 0 437
1941 0 1020
1628 0 1629
1084 0 2014
540 0 2273
0 162 2654
0 282 3155
1 419 3530
2125 346 0
2061 360 426
1937 384 1011
1647 374 1644
1089 272 2088
432 96 2419
0 406 2717
0 487 3188
1 597 3547
2122 958 0
2056 966 406
1934 984 996
1686 979 1674
1140 845 2162
475 705 2522
0 749 2827
0 800 3247
1 886 3578
2116 1693 0
2052 1702 376
1927 1715 974
1726 1736 1703
1204 1552 2250
528 1339 2646
0 1254 2957
0 1259 3323
1 1309 3620
2111 2475 62
2047 2479 368
1926 2487 963
1726 2499 1686
1280 2393 2333
580 2175 2773
0 1997 3094
0 1929 3413
15 1913 3671
2150 3076 348
2090 3077 497
1977 3081 1042
1791 3086 1728
1444 3070 2430
734 2935 2876
233 2780 3202
288 2678 3481
390 2609 3699
2318 3490 842
2268 3491 881
2174 3492 1344
2023 3494 1937
1766 3498 2561
1150 3450 2997
625 3356 3308
706 3268 3557
849 3191 3747
2695 3778 1765
2663 3778 1763
2606 3779 2042
2514 3779 2430
2357 3781 2832
2073 3783 3197
1572 3732 3432
1392 3678 3643
1564 3614 3813
3213 4011 2891
3200 4011 2890
3176 4012 2949
3141 4012 3092
3084 4013 3260
2988 4015 3445
2894 4010 3621
2740 3970 3754
2562 3925 3896
2849 0 0
2817 0 389
2756 0 983
2656 0 1710
2358 0 2360
1733 0 2715
960 0 2933
0 208 3141
1 362 3524
2848 206 0
2817 223 378
2755 251 975
2654 294 1703
2370 291 2369
1740 183 2753
901 0 3002
0 431 3175
1 547 3541
2846 869 0
2814 878 357
2754 896 960
2653 922 1692
2395 908 2389
1784 793 2793
917 655 3060
0 750 3234
1 840 3572
2843 1622 0
2811 1630 324
2750 1644 938
2650 1666 1674
2431 1655 2418
1845 1472 2845
964 1259 3130
0 1210 3314
1 1262 3614
2832 2434 134
2801 2438 357
2740 2447 948
2641 2459 1666
2467 2477 2443
1924 2300 2897
1023 2059 3206
0 1885 3405
1 1872 3668
2839 3059 383
2809 3061 485
2752 3065 1031
2657 3070 1717
2494 3078 2456
2051 3003 2959
1185 2837 3268
273 2651 3476
374 2584 3697
2903 3484 882
2877 3485 886
2828 3486 1348
2749 3488 1940
2613 3491 2562
2320 3480 3053
1471 3389 3347
692 3257 3553
834 3178 3745
3085 3776 1809
3066 3776 1807
3033 3777 2060
2980 3777 2444
2893 3779 2840
2738 3781 3202
2208 3750 3454
1374 3673 3640
1547 3609 3811
3398 4011 2916
3388 4012 2915
3371 4012 2965
3346 4012 3105
3306 4013 3270
3241 4015 3452
3121 4017 3633
2728 3967 3752
2548 3922 3894
3353 0 0
3338 0 311
3311 0 928
3268 0 1666
3196 0 2455
2971 0 2973
2444 0 3236
1521 0 3399
1 116 3530
3352 0 0
3337 0 297
3311 0 921
3267 32 1659
3196 118 2452
2976 0 2976
2449 0 3251
1480 0 3429
1 408 3546
3351 732 0
3337 740 273
3310 759 906
3266 786 1647
3194 827 2444
2989 810 2986
2474 684 3277
1427 461 3480
1 733 3576
3340 1524 84
3325 1531 295
3298 1546 911
3254 1567 1640
3183 1601 2430
3003 1567 2997
2514 1366 3304
1463 1099 3514
1 1172 3616
3325 2380 304
3311 2384 405
3285 2393 969
3243 2405 1666
3173 2424 2427
3023 2411 3012
2560 2206 3321
1517 1905 3549
1 1800 3669
3326 3034 537
3312 3036 561
3286 3040 1074
3246 3045 1732
3178 3054 2451
3060 3067 3042
2647 2934 3354
1665 2725 3574
354 2544 3698
3346 3475 939
3333 3476 936
3309 3477 1354
3271 3479 1944
3210 3483 2563
3105 3489 3079
2787 3438 3407
1925 3317 3621
815 3160 3744
3420 3773 1874
3410 3774 1872
3391 3774 2086
3362 3775 2463
3316 3776 2853
3239 3779 3209
3065 3772 3496
2342 3714 3684
1527 3601 3809
3587 4012 2952
3580 4012 2951
3569 4012 2988
3553 4013 3124
3528 4014 3284
3487 4016 3462
3417 4018 3641
3113 4000 3780
2527 3918 3892
3696 53 53
3690 46 207
3677 46 861
3657 45 1603
3625 45 2411
3574 43 3048
3414 1 3416
3029 1 3606
2194 1 3727
3696 53 53
3690 46 191
3677 46 852
3656 45 1597
3625 43 2407
3574 43 3046
3414 1 3414
3030 1 3609
2170 1 3741
3686 576 153
3680 584 244
3666 604 872
3645 635 1601
3613 679 2398
3562 744 3031
3416 647 3415
3041 168 3640
2095 1 3775
3668 1435 351
3661 1440 385
3648 1454 946
3629 1476 1638
3598 1507 2401
3548 1554 3020
3412 1463 3409
3046 1112 3639
1929 303 3828
3655 2331 576
3649 2334 569
3637 2342 1068
3618 2354 1716
3588 2372 2429
3540 2399 3021
3420 2340 3415
3059 2043 3636
1931 1387 3840
3653 3011 864
3647 3012 856
3635 3015 1260
3617 3020 1851
3589 3029 2495
3543 3041 3041
3442 3027 3434
3105 2845 3648
2009 2458 3833
3664 3463 1260
3658 3463 1248
3647 3465 1545
3629 3467 2060
3602 3471 2609
3558 3477 3087
3480 3486 3468
3189 3387 3677
2198 3196 3852
3692 3771 1966
3687 3771 1965
3676 3771 2123
3661 3772 2491
3637 3773 2870
3599 3776 3219
3536 3780 3520
3319 3747 3725
2501 3658 3895
3771 4013 3003
3767 4013 3002
3760 4013 3022
3749 4014 3151
3733 4015 3305
3708 4017 3476
3667 4019 3651
3570 4017 3813
2910 3987 3961
3911 600 600
3908 591 591
3901 586 1036
3890 579 1675
3874 570 2390
3850 556 2992
3812 533 3432
3698 383 3698
3425 263 3854
3910 600 600
3908 591 591
3901 586 1029
3890 579 1669
3874 570 2386
3850 555 2990
3812 533 3431
3697 383 3698
3425 263 3854
3910 603 600
3907 606 594
3900 621 1020
3889 646 1665
3872 684 2384
3847 738 2988
3808 817 3428
3704 396 3703
3428 284 3867
3898 1453 785
3895 1455 777
3888 1466 1152
3877 1484 1755
3861 1511 2425
3838 1551 2996
3800 1609 3424
3703 1249 3702
3432 323 3893
3888 2341 1042
3885 2342 1034
3879 2348 1347
3869 2358 1896
3854 2374 2498
3831 2397 3022
3795 2431 3427
3703 2228 3701
3420 1252 3898
3886 3013 1398
3883 3013 1390
3876 3015 1629
3867 3020 2103
3853 3027 2614
3831 3038 3071
3797 3053 3444
3714 2978 3710
3430 2521 3890
3893 3460 1877
3890 3460 1867
3884 3461 2012
3875 3463 2383
3862 3466 2780
3841 3471 3153
3808 3479 3478
3738 3464 3732
3473 3265 3902
3915 3766 2433
3912 3766 2425
3907 3767 2473
3898 3768 2721
3886 3769 2994
3866 3772 3272
3834 3777 3536
3780 3783 3771
3551 3699 3935
3957 4015 3073
3954 4015 3072
3949 4015 3071
3942 4016 3190
3931 4017 3335
3914 4019 3498
3888 4021 3665
3846 4026 3836
3669 4010 3990
4010 1007 1007
4010 1007 1007
4009 1015 1247
4007 1035 1818
4004 1065 2446
4002 1110 2986
3999 1175 3396
3997 1274 3699
3908 1018 3909
4010 1007 1007
4010 1007 1007
4009 1014 1241
4007 1035 1813
4004 1065 2443
4002 1109 2985
3999 1176 3395
3997 1273 3698
3908 1018 3908
4010 1007 1007
4010 1007 1007
4009 1014 1229
4007 1034 1804
4004 1065 2437
4002 1109 2981
3999 1175 3394
3997 1273 3697
3909 1020 3909
4006 1368 1096
4005 1376 1098
4005 1398 1299
4003 1440 1861
4000 1500 2471
3998 1589 2997
3995 1718 3400
3993 1897 3698
3918 1063 3918
3997 2287 1379
3997 2293 1381
3996 2305 1538
3995 2329 2039
3994 2365 2574
3993 2416 3044
3992 2490 3418
3991 2591 3703
3931 1475 3930
3994 2987 1763
3994 2989 1765
3994 2995 1870
3993 3005 2284
3993 3021 2721
3993 3044 3118
3993 3077 3451
3995 3125 3717
3933 2741 3931
4001 3446 2241
4001 3447 2243
4002 3449 2286
4001 3454 2589
4002 3461 2913
4002 3471 3225
4004 3487 3506
4006 3509 3743
3948 3388 3944
4023 3757 2743
4023 3758 2744
4023 3759 2745
4023 3761 2930
4024 3764 3144
4025 3769 3369
4027 3777 3586
4031 3788 3787
3979 3762 3974
4064 4009 3193
4064 4009 3193
4064 4010 3194
4065 4011 3271
4066 4013 3399
4067 4016 3542
4070 4021 3695
4074 4029 3856
4032 4035 4025
