Log/DJI Mavic D-Log - Film emulation.3dl
#25pt 3DLUT created by 3D LUT Creator Pro (c) Oleg Sharonov
#Copyright Oleg Sharonov
#IMAGEPROFILE sRGB IEC61966-2.1 v.2.10
#INPUTGAMMA DJI D-Log Ph3
#OUTPUTGAMMA sRGB IEC61966-2.1 v.2.10
0 128 256 384 512 640 768 896 1023
0 0 0
0 0 332
0 0 705
0 0 1217
0 0 1841
0 0 2473
1 0 3083
1 0 3604
533 676 3803
13 210 0
0 301 306
0 302 708
0 247 1216
0 124 1839
0 0 2473
1 0 3083
1 0 3604
533 676 3803
50 412 0
2 487 227
0 631 636
0 665 1217
0 593 1836
0 464 2471
0 181 3084
1 0 3603
533 676 3803
129 688 24
92 726 264
61 906 538
0 1110 1091
0 1186 1834
0 1086 2468
0 900 3080
0 522 3603
530 674 3803
243 1079 172
172 1110 271
212 1235 545
169 1480 969
0 1740 1662
0 1855 2462
0 1740 3074
1 1507 3594
662 1322 3801
397 1575 341
378 1583 351
376 1678 649
369 1867 944
273 2155 1522
35 2413 2277
126 2546 3052
194 2442 3566
1127 2315 3795
630 2127 521
616 2119 522
500 2210 628
595 2321 1030
593 2527 1448
406 2814 2140
233 3059 2862
509 3195 3537
1894 3104 3788
924 2617 719
912 2612 719
880 2634 745
771 2768 1031
884 2901 1472
902 3109 1980
725 3358 2665
698 3550 3330
2537 3631 3783
2617 3747 2417
2613 3747 2417
2606 3746 2417
2566 3752 2484
2530 3759 2599
2526 3766 2741
2386 3789 2921
2007 3829 3250
1223 3858 3632
251 1 1
221 0 322
159 0 698
9 0 1208
0 0 1834
0 0 2470
1 0 3081
1 0 3603
532 675 3803
306 279 1
231 316 294
95 252 1052
0 233 1264
0 115 1833
0 0 2470
1 0 3081
1 0 3603
532 675 3803
281 495 2
178 578 52
81 659 646
0 664 1246
0 589 1830
0 460 2468
0 172 3081
1 0 3602
530 674 3803
293 771 56
237 826 66
150 965 527
2 1116 1085
0 1181 1827
0 1083 2465
0 896 3079
0 517 3601
530 674 3803
357 1158 178
330 1182 184
259 1325 539
198 1508 964
0 1737 1654
0 1853 2459
0 1736 3072
0 1505 3593
659 1318 3801
495 1643 334
476 1642 341
357 1786 534
409 1927 945
279 2161 1518
34 2411 2272
126 2545 3050
193 2440 3565
1124 2313 3795
720 2178 516
706 2169 516
653 2247 572
650 2382 1024
616 2566 1453
408 2812 2136
233 3058 2859
508 3194 3536
1892 3103 3788
1001 2653 718
989 2647 718
961 2665 740
796 2817 931
923 2942 1471
932 3131 1982
725 3358 2663
697 3549 3329
2535 3630 3783
2635 3747 2404
2631 3747 2404
2624 3746 2405
2582 3752 2469
2536 3760 2586
2535 3767 2735
2399 3790 2916
2006 3829 3250
1223 3858 3632
566 0 1
539 0 278
492 0 672
404 0 1192
246 0 1822
0 0 2462
1 0 3077
1 0 3601
529 673 3803
628 305 1
679 247 179
616 193 790
512 0 1611
250 0 1966
0 0 2462
1 0 3077
1 0 3601
529 673 3803
708 580 1
714 585 60
537 670 637
389 639 1359
87 539 2171
0 450 2461
0 155 3078
1 0 3601
528 672 3803
657 902 97
633 923 108
466 1049 503
350 1162 1109
234 1183 1868
0 1075 2458
0 887 3074
0 507 3600
528 672 3803
654 1293 257
627 1300 256
495 1443 463
466 1578 959
255 1765 1665
19 1849 2453
0 1732 3069
0 1498 3592
655 1310 3801
742 1760 382
720 1753 379
617 1880 463
625 2004 968
488 2213 1519
47 2417 2272
125 2542 3047
192 2437 3563
1120 2310 3795
916 2269 531
898 2261 527
846 2322 552
757 2464 976
774 2635 1467
444 2853 2146
232 3056 2855
506 3192 3534
1887 3102 3788
1149 2717 720
1136 2712 718
1111 2723 731
1031 2860 862
1040 3025 1473
993 3186 1994
740 3364 2664
696 3549 3327
2531 3630 3783
2671 3746 2383
2667 3745 2383
2659 3745 2383
2615 3751 2441
2552 3761 2560
2549 3767 2722
2424 3790 2907
2005 3828 3248
1222 3858 3631
1071 0 0
1051 0 198
1013 0 623
939 0 1158
801 0 1799
540 0 2453
1 0 3071
1 0 3599
526 669 3803
1117 284 0
1203 178 9
1253 9 633
1086 4 1288
831 0 1842
550 0 2452
1 0 3071
1 0 3599
526 669 3803
1207 654 0
1214 637 48
1144 632 563
1073 573 1247
905 466 2048
537 89 2915
0 120 3073
1 0 3598
525 668 3803
1310 1017 0
1296 1010 0
1238 1064 500
994 1192 1081
806 1151 1949
509 1040 2600
0 864 3100
0 491 3597
524 666 3803
1245 1458 232
1220 1451 239
1142 1536 504
916 1680 936
722 1822 1690
579 1850 2479
129 1723 3071
0 1488 3589
648 1297 3801
1219 1928 470
1198 1919 466
1141 1998 535
961 2130 875
897 2282 1514
571 2456 2293
307 2542 3048
190 2433 3561
1112 2304 3795
1325 2398 623
1306 2392 619
1266 2430 627
1108 2570 865
1099 2711 1502
861 2912 2155
275 3085 2873
503 3190 3532
1879 3099 3788
1468 2812 803
1454 2808 799
1425 2812 796
1337 2935 848
1177 3119 1414
1196 3281 2020
839 3420 2688
694 3547 3324
2524 3630 3783
2735 3743 2350
2731 3742 2350
2723 3742 2350
2681 3748 2394
2599 3761 2510
2566 3770 2694
2467 3790 2892
2056 3829 3240
1221 3857 3629
1763 0 0
1748 0 4
1723 0 530
1672 0 1091
1577 0 1758
1394 0 2430
1017 0 3060
172 0 3593
519 661 3803
1773 265 0
1756 249 0
1884 0 449
1765 0 1112
1583 0 1756
1401 0 2429
1025 0 3059
185 0 3593
519 661 3803
1852 629 70
1838 618 62
1801 610 480
1836 508 1091
1708 433 1850
1537 177 2613
1050 0 3086
207 0 3593
518 660 3803
1959 1156 0
1944 1147 0
1904 1156 479
1829 1147 1023
1749 1065 1850
1503 965 2579
1064 741 3240
0 206 3771
517 659 3803
2076 1600 0
2062 1593 0
2083 1604 245
1966 1691 962
1667 1855 1669
1412 1818 2566
1036 1695 3157
271 1465 3603
636 1273 3801
2004 2105 369
1989 2100 372
1977 2131 408
1866 2221 898
1558 2386 1474
1289 2521 2322
1109 2548 3081
473 2427 3568
1097 2293 3795
1961 2566 742
1947 2562 740
1925 2575 744
1854 2689 935
1613 2839 1386
1489 2988 2148
1070 3132 2902
851 3196 3540
1864 3095 3788
1971 2944 933
1961 2941 930
1940 2937 925
1902 3028 975
1715 3216 1277
1672 3349 2057
1331 3498 2710
754 3588 3355
2510 3628 3782
2855 3735 2302
2850 3734 2302
2843 3734 2301
2804 3741 2331
2715 3756 2420
2595 3774 2622
2543 3790 2864
2154 3830 3219
1219 3856 3626
2516 0 0
2508 0 0
2494 0 343
2466 0 965
2413 0 1678
2316 0 2391
2124 0 3037
1682 0 3579
772 666 3803
2442 312 186
2442 285 170
2550 0 268
2479 0 959
2417 0 1677
2320 0 2389
2128 0 3036
1688 0 3579
779 665 3803
2485 660 259
2476 650 255
2449 643 431
2577 447 910
2507 374 1703
2386 219 2434
2137 0 3035
1699 0 3578
792 666 3803
2600 1156 307
2591 1148 306
2566 1139 474
2515 1136 949
2558 1006 1677
2436 900 2458
2212 708 3115
1756 256 3648
816 667 3803
2730 1792 86
2722 1787 83
2702 1785 302
2660 1813 915
2584 1811 1601
2506 1713 2479
2241 1604 3166
1758 1364 3673
985 1270 3800
2868 2248 0
2860 2243 0
2852 2241 0
2861 2278 688
2743 2378 1530
2441 2540 2311
2147 2517 3161
1735 2401 3644
1382 2286 3795
2794 2728 575
2785 2725 576
2768 2721 579
2791 2795 706
2669 2903 1369
2302 3080 2086
2008 3195 2929
1888 3211 3571
2080 3100 3790
2625 3094 1090
2617 3092 1090
2602 3088 1088
2591 3135 1134
2560 3298 1346
2273 3441 1920
2113 3548 2685
1636 3636 3386
2679 3634 3787
3068 3715 2206
3064 3714 2206
3058 3714 2206
3030 3719 2226
2942 3737 2307
2775 3767 2458
2662 3789 2796
2320 3831 3169
1332 3872 3630
3198 250 270
3193 249 268
3186 246 266
3246 0 711
3219 0 1526
3167 0 2314
3071 1 2997
2871 21 3554
2300 851 3797
3199 250 270
3195 249 269
3187 247 266
3248 0 707
3220 0 1524
3169 0 2313
3073 1 2996
2873 21 3553
2304 852 3797
3134 737 467
3128 728 465
3116 712 463
3283 402 659
3251 318 1516
3187 166 2317
3077 1 2995
2878 22 3553
2309 852 3797
3232 1181 513
3227 1173 511
3217 1158 507
3192 1146 848
3301 937 1482
3236 838 2329
3121 649 3022
2895 283 3558
2319 854 3797
3372 1814 485
3367 1809 484
3359 1799 482
3327 1795 879
3275 1792 1506
3313 1650 2310
3199 1517 3068
2958 1297 3604
2374 1357 3794
3459 2448 357
3455 2445 354
3447 2439 349
3434 2450 697
3402 2497 1487
3325 2510 2242
3269 2411 3088
2996 2318 3654
2530 2341 3791
3574 2859 336
3571 2856 330
3566 2852 321
3578 2866 337
3585 2930 1250
3471 3042 2180
3176 3194 2925
2902 3176 3634
2807 3120 3787
3401 3221 995
3397 3220 995
3390 3218 994
3383 3225 1006
3427 3333 1137
3344 3454 1848
2938 3593 2585
2613 3662 3387
3053 3638 3786
3388 3666 1897
3385 3666 1899
3379 3666 1902
3370 3666 1906
3309 3686 2040
3186 3722 2225
2883 3784 2504
2610 3828 3040
1834 3886 3620
3799 469 508
3797 468 507
3793 466 505
3801 423 481
3853 168 1239
3829 178 2162
3785 196 2907
3708 208 3505
3358 1219 3791
3800 469 508
3798 468 507
3794 467 505
3799 432 486
3854 168 1237
3829 179 2160
3786 196 2907
3709 209 3505
3359 1220 3791
3739 801 685
3739 786 680
3739 759 669
3743 702 649
3859 258 1229
3831 179 2158
3788 197 2905
3711 209 3504
3361 1220 3791
3777 1246 748
3774 1238 746
3769 1224 742
3760 1199 736
3897 853 1170
3861 766 2157
3806 587 2913
3714 210 3503
3365 1221 3791
3865 1843 867
3862 1837 864
3858 1826 859
3850 1808 850
3828 1798 1380
3909 1592 2129
3855 1465 2933
3762 1217 3534
3392 1526 3791
3971 2523 954
3969 2520 951
3965 2514 946
3959 2503 937
3926 2505 1488
3885 2497 2166
3910 2377 2916
3820 2250 3568
3432 2431 3788
3996 3064 1042
3995 3063 1039
3992 3060 1034
3987 3054 1025
3996 3080 1345
3954 3141 2176
3896 3160 2843
3850 3072 3563
3509 3153 3785
3994 3317 1037
3993 3316 1035
3992 3315 1031
3989 3312 1024
4022 3343 1058
4045 3426 1809
3955 3512 2637
3681 3624 3341
3558 3621 3784
3651 3440 1268
3649 3440 1268
3646 3439 1267
3640 3438 1267
3642 3455 1292
3690 3565 1457
3649 3711 2080
3249 3835 2821
2876 3886 3589
4049 2004 1996
4049 2001 1993
4050 1993 1986
4050 1982 1976
4055 1952 2001
4051 1937 2353
4051 1922 2798
4050 1883 3297
4051 1801 3784
4049 2005 1997
4049 2001 1994
4050 1995 1987
4050 1983 1977
4055 1955 2002
4051 1939 2353
4051 1923 2798
4050 1885 3297
4051 1802 3784
4049 2008 1999
4049 2004 1996
4050 1997 1990
4050 1986 1979
4055 1957 2002
4051 1941 2353
4051 1926 2797
4050 1888 3296
4051 1806 3783
4032 2250 2117
4032 2243 2113
4031 2231 2104
4028 2211 2089
4037 2160 2090
4051 2085 2386
4051 1977 2802
4050 1894 3295
4051 1813 3782
4038 2596 2317
4038 2591 2313
4038 2583 2306
4037 2568 2294
4036 2539 2291
4050 2479 2496
4050 2412 2865
4049 2263 3310
4051 1917 3780
4049 2972 2563
4049 2970 2560
4049 2964 2554
4049 2954 2543
4049 2938 2537
4049 2923 2681
4048 2883 2959
4048 2799 3336
4049 2602 3775
4048 3374 2910
4048 3372 2908
4048 3370 2903
4048 3365 2895
4048 3357 2884
4048 3350 2970
4047 3336 3112
4048 3299 3382
4048 3201 3767
4047 3614 3104
4047 3613 3102
4047 3612 3099
4047 3611 3093
4047 3607 3081
4047 3613 3133
4047 3623 3234
4047 3616 3391
4048 3571 3750
4051 3515 1938
4051 3515 1932
4051 3514 1922
4051 3513 1903
4052 3511 1869
4049 3557 2311
4048 3671 3016
4047 3720 3182
3884 3797 3500
