Log/DJI Inspire - D-Log.3dl
#25pt 3DLUT created by 3D LUT Creator Pro (c) Oleg Sharonov
#Copyright Oleg Sharonov
#IMAGEPROFILE sRGB IEC61966-2.1 v.2.10
#INPUTGAMMA DJI Inspire Log
#OUTPUTGAMMA sRGB IEC61966-2.1 v.2.10
0 43 86 128 171 214 256 299 341 384 427 469 512 555 597 640 682 725 768 810 853 896 938 981 1023 
0 0 0
0 2 81
0 7 203
0 15 314
0 20 407
0 30 519
0 37 619
0 50 727
0 62 852
0 78 993
0 94 1141
0 112 1297
0 131 1482
0 149 1670
0 171 1879
0 194 2084
0 218 2292
0 243 2494
0 272 2686
0 302 2862
0 333 3023
0 368 3172
0 405 3305
0 446 3427
1 492 3539
0 104 0
0 96 88
0 83 222
0 86 326
0 94 424
0 102 532
0 110 638
0 120 752
0 131 873
0 142 1004
0 157 1161
0 169 1324
0 185 1502
0 201 1690
0 218 1891
0 239 2103
0 260 2310
0 283 2510
0 309 2695
0 336 2870
0 367 3029
0 400 3177
0 436 3310
0 476 3431
1 520 3542
0 322 0
0 322 91
0 298 281
0 272 395
0 260 494
0 255 590
0 255 696
0 257 806
0 260 927
0 268 1063
0 276 1214
0 285 1374
0 296 1554
0 307 1736
0 319 1936
0 334 2139
0 353 2343
0 373 2539
0 394 2720
0 419 2891
0 446 3047
0 476 3190
0 509 3320
0 546 3440
1 587 3549
0 502 0
0 505 83
0 505 303
0 462 440
0 434 551
0 415 657
0 403 762
0 397 875
0 393 997
0 393 1134
0 395 1277
0 398 1439
0 406 1615
0 414 1800
0 424 1993
0 437 2189
0 450 2384
0 466 2571
0 485 2749
0 507 2915
0 531 3065
0 559 3205
0 590 3333
0 623 3450
1 662 3557
0 682 0
0 683 73
0 688 299
0 662 463
0 621 592
0 590 709
0 566 824
0 551 944
0 539 1070
0 530 1202
0 526 1352
0 526 1514
0 526 1684
0 530 1864
0 536 2054
0 546 2244
0 555 2432
0 569 2612
0 584 2782
0 603 2942
0 625 3088
0 649 3223
0 677 3347
0 710 3462
1 747 3566
0 871 0
0 872 62
0 875 290
0 878 476
0 829 618
0 788 749
0 753 877
0 726 1004
0 704 1136
0 688 1276
0 676 1428
0 669 1589
0 664 1758
0 661 1934
0 662 2119
0 666 2302
0 674 2481
0 682 2653
0 695 2816
0 711 2969
0 729 3111
0 751 3241
0 777 3362
1 807 3474
1 841 3576
0 1074 0
0 1076 50
0 1079 283
0 1084 471
0 1060 636
0 1011 780
0 967 919
0 929 1058
0 897 1199
0 871 1346
0 849 1500
0 832 1661
0 820 1831
0 812 2007
0 807 2184
0 805 2360
0 807 2534
0 813 2700
0 822 2856
0 832 3000
0 847 3137
0 867 3262
0 889 3379
1 917 3488
1 948 3587
0 1296 0
0 1298 34
0 1300 272
0 1305 462
0 1309 644
0 1260 802
0 1209 954
0 1161 1103
0 1118 1255
0 1082 1412
0 1052 1573
0 1026 1738
0 1004 1906
0 987 2079
0 975 2253
0 967 2423
0 963 2588
0 963 2746
0 965 2894
0 973 3035
0 984 3164
0 999 3285
0 1019 3398
1 1043 3504
1 1070 3599
0 1535 0
0 1537 19
0 1539 260
0 1543 453
0 1548 636
0 1536 818
0 1479 981
0 1423 1142
0 1372 1304
0 1328 1471
0 1285 1638
0 1250 1809
0 1219 1982
0 1194 2152
0 1172 2322
0 1155 2486
0 1144 2645
0 1137 2794
0 1133 2937
0 1134 3069
0 1141 3194
0 1150 3310
0 1166 3419
1 1185 3520
1 1210 3613
0 1789 0
0 1790 2
0 1791 245
0 1796 441
0 1799 626
0 1803 818
0 1769 1000
0 1710 1173
0 1655 1349
0 1600 1523
0 1552 1700
0 1506 1875
0 1465 2050
0 1430 2222
0 1399 2388
0 1374 2548
0 1353 2700
0 1338 2844
0 1327 2980
0 1322 3106
0 1322 3225
0 1325 3336
0 1335 3442
1 1349 3538
1 1369 3627
0 2045 0
0 2046 0
0 2049 229
0 2051 429
0 2055 616
0 2058 807
0 2063 1013
0 2008 1197
0 1951 1384
0 1895 1570
0 1840 1755
0 1789 1938
0 1741 2116
0 1697 2289
0 1656 2453
0 1623 2610
0 1594 2756
0 1568 2894
0 1549 3023
0 1536 3144
0 1528 3258
0 1525 3365
0 1527 3465
1 1535 3557
1 1549 3643
0 2296 0
0 2298 0
0 2299 210
0 2302 414
0 2305 604
0 2308 796
0 2311 1002
0 2299 1216
0 2246 1412
0 2192 1609
0 2137 1803
0 2084 1994
0 2031 2177
0 1982 2351
0 1936 2514
0 1894 2667
0 1856 2810
0 1824 2943
0 1796 3066
0 1774 3182
0 1757 3291
0 1747 3393
0 1742 3489
1 1742 3578
1 1749 3660
17 2531 17
17 2532 17
17 2534 199
20 2536 409
22 2538 599
24 2540 791
27 2543 997
29 2546 1221
24 2521 1439
17 2473 1643
10 2423 1846
5 2372 2043
0 2322 2231
0 2271 2407
0 2222 2571
0 2177 2722
0 2133 2861
0 2094 2990
0 2060 3110
0 2030 3220
0 2006 3325
0 1987 3423
0 1975 3515
10 1968 3598
40 1968 3674
81 2743 81
81 2744 81
83 2745 227
86 2746 426
88 2748 611
91 2750 801
94 2752 1005
99 2754 1227
102 2757 1467
91 2723 1680
78 2681 1888
65 2635 2088
55 2590 2279
45 2543 2457
42 2496 2620
40 2450 2769
40 2406 2905
40 2364 3031
42 2326 3146
47 2292 3252
55 2261 3352
68 2236 3445
89 2216 3530
121 2202 3609
165 2196 3681
181 2932 181
181 2933 181
183 2934 274
186 2934 461
188 2936 640
192 2938 826
195 2939 1026
199 2941 1243
203 2943 1479
208 2942 1725
190 2907 1934
172 2869 2135
155 2829 2326
139 2789 2503
123 2746 2666
121 2704 2813
126 2661 2946
134 2619 3067
142 2580 3178
152 2543 3281
170 2510 3376
188 2481 3465
215 2456 3546
246 2436 3621
288 2423 3691
298 3100 298
298 3100 298
298 3101 347
302 3102 517
304 3103 689
307 3104 869
311 3105 1064
314 3107 1277
319 3108 1507
323 3110 1751
321 3102 1987
302 3071 2187
282 3038 2375
263 3003 2550
243 2967 2710
227 2929 2855
225 2890 2986
237 2852 3105
251 2814 3212
267 2777 3311
286 2743 3402
308 2712 3487
336 2685 3564
369 2662 3636
411 2643 3703
431 3248 431
433 3249 433
433 3250 448
436 3250 602
437 3251 763
440 3251 936
445 3252 1126
448 3253 1332
452 3255 1556
458 3256 1792
464 3258 2033
455 3246 2248
431 3218 2431
408 3189 2601
385 3158 2756
364 3126 2898
342 3093 3026
344 3058 3142
362 3023 3246
383 2988 3342
406 2955 3430
433 2924 3511
463 2895 3584
501 2870 3652
545 2849 3717
593 3381 593
593 3381 593
594 3382 594
595 3383 719
598 3383 870
602 3384 1036
606 3385 1218
609 3385 1416
614 3386 1630
619 3387 1855
626 3389 2085
632 3391 2312
615 3375 2498
587 3351 2659
559 3325 2807
532 3297 2942
505 3268 3066
479 3239 3179
484 3208 3281
509 3176 3374
538 3145 3459
569 3114 3535
605 3086 3606
646 3060 3671
695 3037 3732
790 3500 790
790 3500 790
791 3500 791
793 3501 879
796 3501 1020
800 3502 1177
803 3502 1349
807 3503 1536
813 3504 1737
818 3504 1948
825 3506 2162
832 3507 2373
841 3508 2574
812 3491 2727
777 3470 2865
742 3447 2992
708 3422 3109
676 3397 3217
646 3370 3316
651 3342 3407
686 3313 3488
725 3284 3562
768 3257 3629
814 3231 3691
869 3207 3750
1036 3604 1036
1036 3604 1036
1037 3604 1037
1038 3605 1089
1042 3605 1220
1045 3605 1366
1050 3606 1526
1054 3606 1699
1060 3606 1883
1066 3607 2074
1074 3608 2268
1082 3609 2457
1091 3610 2640
1100 3611 2810
1057 3593 2934
1014 3575 3049
971 3555 3158
929 3533 3258
888 3511 3352
850 3488 3440
857 3463 3519
905 3437 3589
955 3411 3654
1011 3385 3714
1073 3362 3770
1342 3697 1342
1342 3697 1342
1343 3697 1343
1344 3697 1360
1347 3698 1480
1351 3698 1611
1355 3698 1754
1360 3698 1907
1366 3699 2069
1372 3699 2236
1380 3700 2403
1389 3701 2569
1399 3702 2728
1410 3703 2879
1411 3701 3015
1360 3685 3117
1308 3669 3214
1255 3651 3306
1202 3632 3393
1152 3612 3474
1104 3592 3550
1115 3569 3618
1175 3546 3680
1240 3523 3738
1311 3500 3792
1707 3782 1707
1707 3782 1707
1708 3782 1708
1709 3782 1709
1712 3782 1797
1715 3782 1909
1720 3783 2030
1726 3783 2158
1731 3783 2292
1738 3784 2429
1745 3784 2567
1754 3785 2704
1765 3786 2838
1776 3786 2967
1789 3788 3090
1781 3784 3197
1722 3770 3281
1661 3755 3361
1600 3739 3439
1537 3721 3512
1477 3703 3582
1419 3685 3647
1432 3665 3708
1507 3643 3763
1585 3622 3816
2110 3861 2110
2111 3861 2111
2111 3861 2111
2112 3861 2112
2114 3861 2155
2118 3862 2243
2122 3862 2337
2126 3862 2436
2132 3862 2539
2138 3863 2644
2145 3863 2752
2152 3864 2860
2162 3865 2967
2172 3866 3072
2184 3866 3175
2197 3868 3274
2182 3863 3359
2121 3850 3427
2057 3835 3493
1991 3820 3557
1924 3804 3618
1856 3788 3678
1790 3771 3736
1805 3752 3791
1889 3732 3841
2508 3937 2508
2508 3937 2508
2508 3937 2508
2509 3937 2509
2511 3937 2519
2513 3938 2581
2516 3938 2647
2520 3938 2717
2525 3939 2791
2529 3939 2868
2535 3939 2947
2542 3940 3028
2549 3941 3110
2557 3941 3192
2566 3942 3275
2577 3943 3356
2590 3945 3437
2568 3939 3502
2513 3926 3555
2454 3912 3609
2391 3898 3662
2326 3883 3714
2258 3867 3767
2192 3851 3819
2206 3833 3870
2860 4011 2860
2860 4011 2860
2860 4012 2860
2861 4012 2861
2861 4012 2861
2863 4012 2893
2866 4012 2936
2868 4013 2983
2872 4013 3033
2876 4013 3086
2880 4014 3142
2884 4014 3200
2890 4015 3261
2896 4016 3323
2903 4017 3387
2911 4018 3451
2921 4019 3514
2931 4020 3577
2908 4014 3626
2861 4001 3669
2811 3988 3713
2757 3974 3758
2700 3959 3804
2640 3944 3851
2580 3929 3899
134 0 0
99 0 96
10 0 212
0 7 303
0 15 414
0 25 509
0 35 625
0 45 731
0 57 856
0 70 987
0 88 1133
0 107 1299
0 126 1483
0 147 1670
0 169 1879
0 190 2084
0 214 2292
0 241 2494
0 268 2686
0 298 2862
0 330 3023
0 365 3169
0 403 3305
0 445 3427
1 489 3539
134 96 0
99 99 94
0 75 216
0 81 321
0 88 426
0 96 526
0 104 631
0 115 743
0 126 874
0 136 1004
0 149 1152
0 164 1316
0 181 1494
0 197 1690
0 216 1891
0 235 2096
0 257 2304
0 279 2504
0 307 2695
0 335 2869
0 365 3029
0 397 3175
0 434 3309
0 474 3431
1 517 3542
128 315 0
96 319 86
0 292 279
0 268 392
0 255 489
0 251 590
0 253 696
0 253 806
0 258 927
0 264 1063
0 272 1208
0 281 1374
0 290 1547
0 303 1736
0 317 1936
0 333 2139
0 351 2343
0 370 2534
0 392 2720
0 417 2891
0 443 3047
0 474 3190
0 507 3320
0 544 3440
1 585 3549
128 498 0
91 499 78
0 501 301
0 459 438
0 430 550
0 411 655
0 400 762
0 393 875
0 390 997
0 390 1129
0 392 1277
0 397 1438
0 403 1609
0 411 1795
0 421 1993
0 434 2189
0 449 2384
0 463 2571
0 483 2749
0 504 2912
0 529 3065
0 556 3205
0 587 3331
0 622 3449
1 661 3556
123 678 0
88 679 70
5 684 296
0 659 462
0 618 589
0 586 707
0 563 820
0 547 940
0 536 1068
0 528 1204
0 523 1349
0 522 1510
0 523 1679
0 528 1863
0 533 2049
0 542 2240
0 553 2428
0 566 2612
0 583 2782
0 600 2939
0 623 3086
0 646 3221
0 676 3346
0 708 3461
1 744 3565
120 867 0
86 868 57
2 872 289
0 874 475
0 825 617
0 784 747
0 751 874
0 723 1002
0 701 1134
0 684 1274
0 673 1425
0 665 1585
0 660 1755
0 659 1934
0 660 2115
0 664 2299
0 670 2478
0 681 2652
0 693 2816
0 709 2969
0 728 3111
0 749 3241
0 775 3361
1 804 3473
1 840 3575
115 1070 0
80 1072 47
0 1074 279
0 1079 468
0 1058 635
0 1007 779
0 963 918
0 925 1055
0 893 1197
0 867 1344
0 847 1501
0 830 1662
0 818 1832
0 809 2007
0 805 2184
0 804 2360
0 806 2533
0 810 2698
0 818 2854
0 830 3000
0 846 3137
0 865 3262
0 888 3379
1 915 3488
1 946 3586
112 1292 0
75 1294 32
0 1297 270
0 1301 460
0 1306 643
0 1258 801
0 1206 952
0 1157 1102
0 1117 1255
0 1080 1410
0 1050 1571
0 1023 1735
0 1002 1907
0 986 2079
0 973 2251
0 965 2423
0 961 2587
0 959 2744
0 964 2894
0 971 3033
0 983 3164
0 997 3285
0 1016 3398
1 1039 3503
1 1068 3598
104 1532 0
70 1534 17
0 1537 257
0 1540 450
0 1545 634
0 1532 817
0 1476 979
0 1420 1141
0 1370 1303
0 1324 1469
0 1284 1638
0 1247 1808
0 1217 1979
0 1190 2151
0 1170 2320
0 1154 2486
0 1141 2643
0 1134 2794
0 1132 2937
0 1133 3069
0 1138 3193
0 1149 3310
0 1165 3419
1 1184 3520
1 1209 3613
99 1785 0
65 1786 0
0 1790 243
0 1792 440
0 1797 625
0 1800 816
0 1766 999
0 1707 1172
0 1653 1347
0 1598 1522
0 1549 1699
0 1503 1874
0 1463 2050
0 1427 2221
0 1396 2387
0 1372 2548
0 1352 2700
0 1337 2844
0 1326 2979
0 1321 3106
0 1320 3225
0 1324 3336
0 1333 3441
1 1348 3538
1 1367 3627
91 2044 0
57 2044 0
0 2047 226
0 2050 427
0 2053 614
0 2057 806
0 2061 1012
0 2006 1196
0 1949 1382
0 1893 1569
0 1839 1754
0 1786 1937
0 1738 2115
0 1694 2288
0 1655 2452
0 1620 2608
0 1591 2756
0 1566 2893
0 1547 3022
0 1534 3144
0 1525 3257
0 1523 3364
0 1526 3465
1 1534 3557
1 1547 3643
