Log/DJI Mavic D-Log.3dl
#25pt 3DLUT created by 3D LUT Creator Pro (c) Oleg Sharonov
#Copyright Oleg Sharonov
#IMAGEPROFILE sRGB
#INPUTGAMMA DJI D-Log Ph3
#OUTPUTGAMMA sRGB
0 128 256 384 512 640 768 896 1023
0 0 0
0 55 424
0 154 815
0 299 1292
0 477 1866
0 706 2513
0 1015 3180
0 1430 3882
1459 2127 4095
0 662 44
0 663 620
0 657 1163
0 605 1632
0 579 2035
0 706 2512
0 1015 3180
0 1430 3882
1458 2127 4095
0 1227 124
0 1233 641
0 1241 1164
0 1244 1842
0 1204 2384
0 1106 2913
0 1108 3278
0 1430 3881
1458 2127 4095
0 1878 250
0 1894 692
0 1889 1177
0 1901 1795
0 1887 2541
0 1874 3096
0 1748 3651
70 1702 4095
1457 2126 4095
0 2590 410
0 2604 755
0 2598 1254
0 2597 1806
0 2605 2486
0 2580 3241
0 2568 3810
1327 2474 4095
2058 2548 4095
0 3321 627
0 3324 853
0 3329 1360
0 3318 1916
0 3314 2506
0 3313 3187
0 3277 3968
2280 3211 4095
2864 3207 4095
1055 4095 1461
976 4095 1478
888 4095 1762
697 4095 2172
0 4095 2646
0 4081 3228
0 4063 3923
3450 3848 4095
3724 3864 4095
3986 4095 3990
3985 4095 3990
3985 4095 3992
3984 4095 3996
3983 4095 4004
3981 4095 4015
3977 4095 4037
3971 4095 4082
4048 4075 4095
4059 4095 4061
4059 4095 4061
4059 4095 4060
4059 4095 4062
4059 4095 4063
4058 4095 4065
4058 4095 4069
4056 4095 4076
4054 4095 4091
644 6 0
512 64 593
133 55 1372
0 297 1293
0 474 1860
0 705 2510
0 1013 3178
0 1429 3880
1458 2126 4095
665 694 0
629 662 611
448 635 1176
0 587 1674
0 568 2015
0 704 2508
0 1013 3178
0 1429 3880
1457 2126 4095
580 1223 0
442 1276 457
490 1251 1161
213 1239 1828
0 1196 2376
0 1098 2907
0 1102 3271
0 1428 3880
1457 2126 4095
503 1881 0
0 1942 154
157 1942 1083
157 1910 1789
0 1882 2534
0 1869 3092
0 1742 3647
47 1697 4095
1456 2125 4095
346 2597 0
0 2622 297
0 2641 1074
0 2625 1757
0 2602 2478
0 2578 3237
0 2565 3808
1322 2471 4095
2054 2546 4095
0 3334 82
0 3336 478
0 3349 1139
0 3340 1818
0 3321 2485
0 3311 3183
0 3275 3966
2277 3210 4095
2862 3205 4095
1283 4095 1466
1211 4095 1462
1139 4095 1737
999 4095 2162
610 4095 2640
0 4081 3223
0 4062 3920
3447 3847 4095
3723 3863 4095
3987 4095 3990
3986 4095 3990
3986 4095 3991
3985 4095 3996
3984 4095 4003
3982 4095 4015
3977 4095 4037
3971 4095 4082
4048 4075 4095
4059 4095 4060
4059 4095 4060
4059 4095 4061
4059 4095 4061
4059 4095 4062
4058 4095 4065
4058 4095 4069
4056 4095 4076
4054 4095 4091
1205 14 0
1193 9 522
973 185 1115
614 263 1863
0 426 2324
0 702 2503
0 1011 3174
0 1427 3878
1455 2125 4095
1347 705 26
1197 635 526
1066 624 1146
713 573 1880
109 525 2372
0 701 2501
0 1011 3174
0 1427 3877
1455 2125 4095
1250 1304 0
1217 1288 474
1187 1245 1154
1000 1215 1815
569 1156 2468
0 1083 2896
0 1090 3257
0 1427 3877
1454 2125 4095
1133 1872 0
1024 1908 23
981 1949 984
1036 1918 1792
792 1887 2511
0 1859 3084
0 1733 3642
0 1687 4095
1453 2124 4095
1048 2593 0
900 2613 0
601 2663 689
763 2650 1704
756 2625 2489
47 2573 3231
0 2560 3803
1312 2466 4095
2046 2541 4095
918 3331 0
774 3337 0
0 3373 455
340 3376 1612
0 3358 2413
0 3321 3181
0 3272 3962
2268 3207 4095
2858 3202 4095
1635 4095 1489
1572 4095 1454
1519 4095 1707
1411 4095 2118
1159 4095 2629
296 4095 3192
0 4060 3915
3443 3846 4095
3721 3862 4095
3989 4095 3989
3988 4095 3989
3988 4095 3991
3987 4095 3995
3986 4095 4002
3984 4095 4015
3979 4095 4037
3970 4095 4082
4048 4075 4095
4059 4095 4060
4059 4095 4060
4059 4095 4060
4059 4095 4061
4059 4095 4062
4059 4095 4065
4058 4095 4069
4056 4095 4076
4054 4095 4091
1833 32 3
1833 0 363
1813 52 1064
1513 337 1717
1056 472 2485
0 521 3273
0 1007 3167
0 1424 3874
1450 2122 4095
1818 658 12
1820 603 388
1830 539 1054
1566 580 1735
1083 537 2485
12 511 3291
0 1007 3167
0 1424 3874
1449 2122 4095
2077 1336 70
2057 1325 461
1849 1216 1062
1701 1196 1779
1283 1141 2548
715 1079 3100
0 1070 3233
0 1424 3873
1449 2122 4095
1913 1986 0
1888 1981 58
1861 1959 1019
1826 1907 1780
1614 1872 2506
1115 1805 3173
0 1714 3638
0 1673 4082
1448 2121 4095
1782 2594 0
1741 2595 0
1647 2628 649
1589 2658 1585
1650 2621 2479
1367 2585 3205
0 2556 3825
1293 2456 4095
2033 2532 4095
1692 3329 0
1652 3328 0
1324 3365 0
1155 3388 1242
1349 3366 2403
1326 3329 3183
695 3272 3953
2255 3202 4095
2851 3197 4095
2155 4095 1542
2111 4095 1495
2042 4095 1694
1943 4095 2059
1792 4095 2605
1365 4095 3185
0 4079 3918
3435 3843 4095
3716 3859 4095
3992 4095 3989
3992 4095 3988
3991 4095 3990
3990 4095 3993
3990 4095 4001
3987 4095 4014
3982 4095 4036
3970 4095 4082
4047 4075 4095
4060 4095 4060
4060 4095 4060
4060 4095 4060
4060 4095 4060
4059 4095 4062
4059 4095 4064
4059 4095 4068
4057 4095 4076
4054 4095 4091
2516 61 3
2511 35 3
2512 0 866
2480 157 1677
2149 529 2390
1590 732 3142
297 691 4090
0 1420 3895
1441 2117 4095
2505 598 17
2492 567 29
2519 435 873
2499 401 1678
2161 525 2390
1599 736 3138
333 692 4090
0 1420 3901
1441 2117 4095
2566 1264 26
2548 1247 26
2520 1168 908
2520 1101 1658
2256 1141 2427
1706 1095 3174
436 759 4084
0 1419 3912
1441 2117 4095
2759 2001 121
2745 1991 121
2724 1978 1013
2545 1875 1673
2398 1845 2470
1944 1789 3243
1268 1705 3836
145 1653 4095
1440 2116 4095
2615 2695 0
2598 2690 0
2579 2683 691
2552 2662 1624
2518 2609 2467
2297 2572 3197
1574 2495 4003
1442 2444 4095
2009 2516 4095
2511 3333 0
2496 3329 0
2418 3344 0
2355 3357 1205
2282 3371 2272
2336 3324 3174
1864 3288 3967
2359 3207 4095
2838 3188 4095
2752 4095 1674
2728 4095 1634
2688 4095 1746
2617 4095 2061
2484 4095 2528
2287 4095 3174
1441 4095 3917
3496 3856 4095
3708 3855 4095
3999 4095 3987
3999 4095 3987
3998 4095 3988
3997 4095 3991
3995 4095 3997
3993 4095 4011
3988 4095 4034
3975 4095 4081
4047 4075 4095
4060 4095 4059
4060 4095 4059
4060 4095 4059
4060 4095 4060
4060 4095 4061
4060 4095 4064
4059 4095 4068
4058 4095 4075
4053 4095 4091
3209 118 9
3201 118 9
3212 0 572
3202 0 1423
3164 299 2361
2822 780 3078
2221 1074 3840
1545 1628 4088
1544 2143 4095
3205 474 17
3198 438 17
3214 256 572
3206 58 1419
3168 297 2359
2829 777 3078
2227 1076 3837
1551 1629 4088
1549 2145 4095
3199 1209 44
3191 1191 44
3195 1120 628
3224 993 1452
3198 964 2361
2870 1069 3095
2238 1081 3832
1563 1631 4088
1557 2147 4095
3324 1943 88
3315 1933 85
3261 1908 630
3228 1821 1491
3225 1743 2345
2963 1785 3129
2400 1731 3897
1727 1842 4091
1572 2151 4095
3437 2685 205
3429 2680 205
3413 2669 688
3389 2654 1607
3243 2579 2356
3099 2544 3166
2642 2493 3929
2293 2526 4095
2084 2525 4095
3316 3401 0
3307 3398 0
3291 3396 0
3273 3384 1248
3245 3362 2304
3213 3309 3159
2969 3271 3957
2932 3233 4095
2909 3197 4095
3388 4095 1886
3375 4095 1829
3349 4095 1763
3305 4095 1992
3220 4095 2413
3051 4095 3038
2716 4095 3892
3698 3906 4095
3750 3872 4095
4011 4095 3983
4010 4095 3982
4010 4095 3982
4009 4095 3986
4006 4095 3992
4002 4095 4004
3998 4095 4030
3985 4095 4080
4051 4075 4095
4062 4095 4058
4062 4095 4058
4062 4095 4058
4062 4095 4058
4062 4095 4060
4061 4095 4062
4060 4095 4066
4059 4095 4074
4055 4095 4090
3938 210 14
3934 210 14
3925 210 14
3940 0 1083
3929 32 2092
3876 477 3056
3514 1120 3790
2738 2041 4024
2487 2508 4088
3940 210 14
3936 210 14
3926 210 14
3942 0 1078
3931 32 2089
3878 475 3054
3518 1118 3791
2741 2042 4024
2489 2509 4088
3931 1095 55
3926 1076 55
3918 1040 52
3967 773 1058
3935 709 2080
3889 690 3055
3526 1114 3791
2746 2044 4023
2493 2511 4088
3932 1895 82
3927 1884 82
3919 1864 82
4039 1588 752
4029 1456 2052
3946 1535 3065
3582 1696 3815
2786 2146 4026
2500 2515 4088
4078 2648 200
4073 2642 198
4063 2632 195
4069 2559 669
4038 2434 1976
3984 2397 3037
3675 2479 3848
3015 2704 4046
2727 2769 4092
4086 3380 1406
4086 3376 1354
4086 3368 1251
4085 3358 1642
4058 3350 2446
4004 3247 2983
3814 3244 3884
3380 3323 4078
3273 3343 4095
4009 4095 1495
4005 4095 1462
3998 4095 1385
3987 4095 1421
3968 4095 1709
3927 4080 2676
3891 4010 3822
3935 3974 4095
3929 3961 4095
4032 4095 3968
4032 4095 3968
4032 4095 3968
4030 4095 3969
4028 4095 3974
4023 4095 3986
4013 4095 4012
4000 4095 4075
4060 4077 4095
4065 4095 4055
4065 4095 4055
4065 4095 4055
4065 4095 4056
4064 4095 4057
4064 4095 4059
4063 4095 4063
4061 4095 4072
4057 4095 4089
4095 2132 2110
4095 2127 2104
4095 2116 2093
4095 2099 2089
4095 2114 2413
4094 2155 2857
4078 2271 3455
3804 2502 4026
3277 3000 4043
4095 2134 2112
4095 2129 2106
4095 2119 2096
4095 2101 2091
4095 2116 2413
4094 2157 2857
4078 2273 3454
3806 2503 4026
3279 3001 4043
4094 2267 2178
4094 2254 2168
4094 2231 2151
4094 2186 2132
4095 2153 2427
4094 2161 2856
4078 2277 3452
3809 2503 4026
3281 3003 4043
4093 2639 2395
4093 2630 2386
4093 2613 2369
4093 2581 2346
4095 2530 2596
4095 2495 2936
4080 2493 3471
3816 2505 4027
3284 3005 4043
4093 3107 2760
4093 3101 2751
4093 3090 2736
4093 3069 2709
4094 3029 2879
4095 2985 3129
4087 2988 3543
3877 2978 4040
3368 3142 4049
4092 3669 3445
4092 3665 3439
4092 3658 3428
4092 3645 3407
4094 3622 3418
4094 3577 3501
4093 3553 3715
3979 3547 4064
3687 3607 4072
4094 4037 3972
4094 4037 3971
4094 4036 3969
4094 4035 3966
4094 4034 3973
4094 4033 3989
4095 4022 4004
4081 4017 4090
4030 4026 4093
4082 4095 3899
4082 4095 3899
4081 4095 3901
4080 4095 3900
4079 4095 3905
4076 4095 3910
4070 4095 3930
4035 4095 4002
4073 4078 4095
4072 4095 4049
4072 4095 4049
4072 4095 4049
4071 4095 4048
4071 4095 4049
4070 4095 4051
4068 4095 4055
4065 4095 4065
4060 4095 4088
4095 3397 3393
4095 3395 3391
4095 3391 3387
4095 3384 3379
4095 3377 3381
4095 3399 3465
4094 3442 3606
4087 3528 3834
3985 3652 4068
4095 3398 3394
4095 3396 3391
4095 3392 3387
4095 3385 3380
4095 3377 3382
4095 3399 3466
4094 3443 3606
4087 3529 3834
3985 3652 4068
4095 3400 3395
4095 3398 3393
4095 3393 3389
4095 3386 3382
4095 3379 3383
4095 3401 3467
4094 3444 3607
4087 3531 3834
3986 3653 4068
4095 3535 3514
4095 3531 3509
4095 3522 3501
4095 3506 3486
4095 3481 3471
4095 3472 3522
4094 3464 3618
4087 3533 3834
3988 3655 4068
4095 3786 3755
4095 3783 3751
4094 3776 3743
4094 3763 3730
4095 3744 3714
4095 3731 3740
4095 3722 3791
4090 3721 3907
3999 3696 4070
4095 4005 3984
4095 4004 3983
4095 4003 3982
4095 4000 3979
4095 3996 3975
4095 3992 3982
4095 3987 3997
4094 3987 4031
4066 3980 4087
4095 4064 4050
4095 4064 4050
4095 4063 4050
4095 4063 4049
4095 4063 4049
4095 4061 4049
4095 4057 4053
4095 4056 4067
4086 4056 4092
4095 4081 4066
4095 4081 4066
4095 4081 4065
4095 4081 4065
4095 4081 4065
4095 4081 4067
4095 4081 4071
4095 4078 4074
4092 4077 4094
4090 4095 4019
4090 4095 4020
4090 4095 4021
4089 4095 4019
4089 4095 4020
4089 4095 4022
4088 4095 4026
4085 4095 4032
4072 4095 4059
