Log/Panasonic GH5 - HLG.3dl
#64pt 3DLUT created by 3D LUT Creator Pro (c) Oleg Sharonov
#Copyright Oleg Sharonov
#INPUTGAMMA Panasonic HLG
#IMAGEPROFILE sRGB
#OUTPUTGAMMA sRGB
0 341 682 1023
18 18 18
0 0 1272
0 0 2973
0 0 4048
0 1723 431
0 1567 1458
0 861 3032
0 0 4053
0 3469 1351
0 3440 2026
0 3324 3209
0 2668 4070
3 4095 2853
3 4095 3097
3 4095 3612
3 4095 4095
1792 0 0
1590 0 1184
595 0 2953
0 0 4045
1598 1542 292
1377 1370 1385
166 534 3010
0 0 4051
643 3435 1273
216 3405 1970
0 3282 3191
0 2574 4068
0 4095 2826
0 4095 3077
0 4095 3603
3 4095 4095
3526 0 0
3491 0 847
3348 0 2861
2386 0 4037
3492 655 0
3456 344 1092
3304 0 2925
2251 0 4043
3354 3297 958
3309 3260 1757
3115 3106 3124
1633 2152 4062
2444 4095 2722
2312 4095 2998
1701 4095 3568
3 4095 4095
4095 0 0
4095 0 0
4095 0 2454
4095 3 4004
4095 0 0
4095 0 0
4095 0 2549
4095 0 4012
4095 2423 0
4095 2323 737
4095 1876 2834
4095 0 4035
4095 4095 2238
4095 4095 2658
4095 4095 3426
4090 4087 4092
