Log/Panasonic GH4 - VLog.3dl
#32pt 3DLUT created by 3D LUT Creator Pro (c) Oleg Sharonov
#Copyright Oleg Sharonov
#INPUTGAMMA V-Log
#IMAGEPROFILE sRGB
#OUTPUTGAMMA sRGB
0 33 66 99 132 165 198 231 264 297 330 363 396 429 462 495 528 561 594 627 660 693 726 759 792 825 858 891 924 957 990 1023 
0 0 0
0 0 0
0 0 0
0 0 0
0 0 69
0 0 172
0 0 285
0 0 393
0 0 512
0 0 650
0 0 796
3 0 966
3 0 1164
3 0 1390
6 3 1632
13 6 1873
23 13 2127
39 26 2412
62 49 2722
102 82 3064
149 122 3441
162 135 3552
162 135 3552
162 135 3552
162 135 3552
162 135 3552
162 135 3552
162 135 3552
162 135 3552
162 135 3552
162 135 3552
162 135 3552
0 0 0
0 0 0
0 0 0
0 0 0
0 0 69
0 0 172
0 0 285
0 0 393
0 0 512
0 0 650
0 0 796
3 0 966
3 0 1164
3 0 1390
6 3 1632
13 6 1873
23 13 2127
39 26 2412
62 49 2722
102 82 3064
149 122 3441
162 135 3552
162 135 3552
162 135 3552
162 135 3552
162 135 3552
162 135 3552
162 135 3552
162 135 3552
162 135 3552
162 135 3552
162 135 3552
0 0 0
0 0 0
0 0 0
0 0 0
0 0 69
0 0 172
0 0 285
0 0 393
0 0 512
0 0 650
0 0 796
3 0 966
3 0 1164
3 0 1390
6 3 1632
13 6 1873
23 13 2127
39 26 2412
62 49 2722
102 82 3064
149 122 3441
162 135 3552
162 135 3552
162 135 3552
162 135 3552
162 135 3552
162 135 3552
162 135 3552
162 135 3552
162 135 3552
162 135 3552
162 135 3552
0 0 0
0 0 0
0 0 0
0 0 0
0 0 69
0 0 172
0 0 285
0 0 393
0 0 512
0 0 650
0 0 796
3 0 966
3 0 1164
3 0 1390
6 3 1632
13 6 1873
23 13 2127
39 26 2412
62 49 2722
102 82 3064
149 122 3441
162 135 3552
162 135 3552
162 135 3552
162 135 3552
162 135 3552
162 135 3552
162 135 3552
162 135 3552
162 135 3552
162 135 3552
162 135 3552
0 149 0
0 149 0
0 149 0
0 149 0
0 122 106
0 69 176
3 43 258
3 20 347
0 0 512
0 0 650
0 0 796
3 0 966
3 0 1164
3 0 1390
6 3 1632
13 6 1869
23 13 2127
39 26 2412
62 49 2722
102 82 3064
149 122 3441
162 135 3552
162 135 3552
162 135 3552
162 135 3552
162 135 3552
162 135 3552
162 135 3552
162 135 3552
162 135 3552
162 135 3552
162 135 3552
3 326 0
3 326 0
3 326 0
3 326 0
0 310 63
0 288 256
0 207 324
0 156 403
10 112 491
13 76 566
0 0 802
3 0 966
3 0 1164
3 0 1384
6 3 1632
13 6 1869
23 13 2125
39 26 2409
62 49 2722
102 82 3062
145 122 3440
162 135 3552
162 135 3552
162 135 3552
162 135 3552
162 135 3552
162 135 3552
162 135 3552
162 135 3552
162 135 3552
162 135 3552
162 135 3552
3 486 0
3 486 0
3 486 0
3 486 0
0 466 23
0 472 218
0 433 393
0 355 475
0 297 536
13 232 657
20 182 737
23 112 879
3 0 1156
3 0 1384
6 3 1628
13 6 1866
23 13 2125
39 26 2409
62 49 2720
102 82 3062
145 122 3440
162 135 3552
162 135 3552
162 135 3552
162 135 3552
162 135 3552
162 135 3552
162 135 3552
162 135 3552
162 135 3552
162 135 3552
162 135 3552
7 671 0
7 671 0
7 671 0
7 671 0
0 662 0
0 636 136
0 651 382
0 597 548
0 502 627
0 431 683
13 365 818
30 299 931
39 240 1020
20 66 1348
6 3 1628
13 6 1866
23 13 2122
39 26 2407
62 49 2720
102 82 3061
145 122 3439
162 135 3552
162 135 3552
162 135 3552
162 135 3552
162 135 3552
162 135 3552
162 135 3552
162 135 3552
162 135 3552
162 135 3552
162 135 3552
7 889 0
7 889 0
7 889 0
7 889 0
7 885 0
0 850 69
0 854 306
0 862 561
0 792 731
0 670 806
0 572 852
10 493 983
43 412 1123
56 345 1224
56 194 1501
13 6 1862
23 13 2119
39 26 2405
62 49 2719
99 82 3059
145 122 3438
162 135 3552
162 135 3552
162 135 3552
162 135 3552
162 135 3552
162 135 3552
162 135 3552
162 135 3552
162 135 3552
162 135 3552
162 135 3552
13 1125 0
13 1125 0
13 1125 0
13 1125 0
13 1120 0
0 1093 10
0 1068 206
0 1089 475
0 1091 747
0 1001 926
0 852 1003
0 727 1048
7 632 1174
59 527 1329
76 449 1440
89 315 1684
23 13 2116
39 26 2403
62 49 2715
99 82 3058
145 122 3436
162 135 3552
162 135 3552
162 135 3552
162 135 3552
162 135 3552
162 135 3552
162 135 3552
162 135 3552
162 135 3552
162 135 3552
162 135 3552
20 1377 0
20 1377 0
20 1377 0
20 1377 0
20 1374 0
16 1369 0
0 1316 86
0 1307 351
0 1339 648
0 1336 943
0 1230 1139
0 1053 1222
0 903 1270
3 786 1394
89 655 1566
106 565 1684
129 429 1905
39 26 2398
62 49 2712
99 82 3055
145 122 3434
162 135 3552
162 135 3552
162 135 3552
162 135 3552
162 135 3552
162 135 3552
162 135 3552
162 135 3552
162 135 3552
162 135 3552
162 135 3552
26 1648 0
26 1648 0
26 1648 0
26 1648 0
26 1646 0
26 1642 0
0 1620 0
0 1576 215
0 1567 494
0 1608 828
0 1600 1155
0 1478 1372
0 1275 1466
0 1101 1521
0 961 1646
122 802 1833
149 694 1962
185 551 2168
33 49 2738
99 79 3052
145 119 3432
162 135 3552
162 135 3552
162 135 3552
162 135 3552
162 135 3552
162 135 3552
162 135 3552
162 135 3552
162 135 3552
162 135 3552
162 135 3552
36 1938 0
36 1938 0
36 1938 0
36 1938 0
36 1936 0
36 1932 0
36 1928 0
0 1884 46
0 1855 345
0 1854 648
0 1895 1019
0 1883 1383
0 1746 1624
3 1522 1735
0 1324 1802
0 1159 1932
166 972 2132
206 842 2272
250 686 2467
99 166 3060
145 119 3428
162 135 3552
162 135 3552
162 135 3552
162 135 3552
162 135 3552
162 135 3552
162 135 3552
162 135 3552
162 135 3552
162 135 3552
162 135 3552
49 2240 0
49 2240 0
49 2240 0
49 2240 0
49 2238 0
49 2236 0
46 2233 0
46 2228 0
0 2171 132
0 2152 475
0 2155 809
0 2196 1222
0 2179 1627
0 2032 1896
6 1792 2027
0 1574 2112
0 1386 2250
221 1168 2465
273 1012 2617
323 836 2805
188 306 3416
162 135 3552
162 135 3552
162 135 3552
162 135 3552
162 135 3552
162 135 3552
162 135 3552
162 135 3552
162 135 3552
162 135 3552
162 135 3552
62 2552 0
62 2552 0
62 2552 0
62 2552 0
62 2551 0
62 2549 0
62 2547 0
62 2543 0
62 2539 0
0 2474 240
0 2460 606
0 2467 980
0 2506 1440
0 2485 1885
0 2333 2183
23 2085 2340
0 1855 2450
6 1645 2599
294 1394 2827
359 1212 2993
415 1013 3177
266 443 3511
162 135 3552
162 135 3552
162 135 3552
162 135 3552
162 135 3552
162 135 3552
162 135 3552
162 135 3552
162 135 3552
162 135 3552
82 2869 0
82 2869 0
82 2869 0
82 2869 0
82 2868 0
82 2867 0
82 2865 0
82 2863 0
82 2860 0
3 2840 0
0 2787 342
0 2778 742
0 2786 1161
0 2821 1669
0 2797 2154
0 2646 2484
99 2397 2670
52 2165 2809
85 1937 2970
418 1658 3212
492 1449 3387
474 1197 3328
323 578 3466
162 135 3552
162 135 3552
162 135 3552
162 135 3552
162 135 3552
162 135 3552
162 135 3552
162 135 3552
162 135 3552
109 3190 0
109 3190 0
109 3190 0
109 3190 0
109 3189 0
109 3189 0
109 3187 0
105 3185 0
105 3183 0
105 3180 0
0 3153 6
0 3108 448
0 3101 886
0 3109 1354
0 3139 1910
46 3111 2432
218 2962 2792
413 2722 3004
406 2495 3167
442 2260 3337
698 1964 3580
640 1716 3610
513 1384 3444
370 718 3418
162 135 3552
162 135 3552
162 135 3552
162 135 3552
162 135 3552
162 135 3552
162 135 3552
162 135 3552
764 3490 723
764 3490 723
764 3490 723
764 3490 723
763 3489 722
761 3489 719
759 3488 716
755 3487 713
750 3485 707
742 3483 699
733 3480 689
687 3453 698
695 3416 927
738 3406 1286
779 3411 1721
813 3432 2245
870 3402 2745
880 3267 3099
986 3046 3323
1026 2835 3490
1079 2606 3637
1073 2359 3699
875 2047 3681
589 1620 3571
411 869 3368
162 135 3552
162 135 3552
162 135 3552
162 135 3552
162 135 3552
162 135 3552
162 135 3552
1627 3730 1606
1627 3730 1606
1627 3730 1606
1627 3730 1606
1626 3729 1605
1625 3729 1604
1622 3729 1601
1620 3728 1599
1616 3727 1595
1612 3726 1591
1605 3725 1584
1597 3723 1575
1563 3703 1573
1555 3680 1691
1571 3672 1920
1593 3674 2240
1615 3687 2659
1635 3663 3082
1599 3560 3405
1686 3369 3619
1760 3184 3744
1664 3026 3768
1449 2818 3738
1166 2483 3708
789 1915 3666
448 1037 3321
162 135 3552
162 135 3552
162 135 3552
162 135 3552
162 135 3552
162 135 3552
2436 3897 2424
2436 3897 2424
2436 3897 2424
2436 3897 2424
2435 3897 2423
2434 3897 2422
2433 3896 2421
2431 3896 2419
2429 3896 2417
2426 3895 2414
2422 3894 2409
2415 3893 2403
2408 3891 2395
2382 3880 2389
2370 3867 2455
2376 3862 2595
2388 3861 2810
2401 3866 3111
2403 3850 3438
2355 3792 3693
2433 3678 3836
2443 3566 3879
2270 3447 3855
2002 3263 3819
1571 2949 3754
1050 2326 3697
477 1212 3338
162 135 3552
162 135 3552
162 135 3552
162 135 3552
162 135 3552
3180 4025 3174
3180 4025 3174
3180 4025 3174
3180 4025 3174
3180 4025 3174
3180 4025 3174
3180 4025 3174
3180 4025 3174
3180 4025 3174
3180 4025 3174
3180 4025 3174
3180 4025 3174
3180 4025 3174
3180 4025 3174
3174 4020 3179
3166 4013 3213
3166 4010 3288
3169 4008 3412
3172 4009 3592
3165 3997 3767
3125 3965 3903
3112 3916 3970
2995 3871 3955
2832 3797 3934
2595 3660 3901
2168 3377 3841
1417 2784 3735
518 1404 3455
162 135 3552
162 135 3552
162 135 3552
162 135 3552
3180 4025 3174
3180 4025 3174
3180 4025 3174
3180 4025 3174
3180 4025 3174
3180 4025 3174
3180 4025 3174
3180 4025 3174
3180 4025 3174
3180 4025 3174
3180 4025 3174
3180 4025 3174
3180 4025 3174
3180 4025 3174
3180 4025 3174
3175 4019 3186
3192 4016 3264
3217 4016 3388
3265 4024 3582
3313 4026 3763
3360 4019 3911
3398 4007 4005
3398 4007 4005
3398 4007 4005
3398 4007 4005
3149 3930 3975
2740 3748 3922
1957 3232 3813
599 1645 3582
162 135 3552
162 135 3552
162 135 3552
3180 4025 3174
3180 4025 3174
3180 4025 3174
3180 4025 3174
3180 4025 3174
3180 4025 3174
3180 4025 3174
3180 4025 3174
3180 4025 3174
3180 4025 3174
3180 4025 3174
3180 4025 3174
3180 4025 3174
3180 4025 3174
3180 4025 3174
3180 4025 3174
3176 4018 3195
3202 4016 3312
3246 4021 3499
3298 4026 3712
3351 4022 3885
3398 4007 4005
3398 4007 4005
3398 4007 4005
3398 4007 4005
3398 4007 4005
3398 4007 4005
3324 3987 3996
2552 3635 3895
815 1945 3672
162 135 3552
162 135 3552
3180 4025 3174
3180 4025 3174
3180 4025 3174
3180 4025 3174
3180 4025 3174
3180 4025 3174
3180 4025 3174
3180 4025 3174
3180 4025 3174
3180 4025 3174
3180 4025 3174
3180 4025 3174
3180 4025 3174
3180 4025 3174
3180 4025 3174
3180 4025 3174
3180 4025 3174
3178 4016 3210
3214 4016 3376
3276 4025 3630
3337 4025 3839
3390 4009 3985
3398 4007 4005
3398 4007 4005
3398 4007 4005
3398 4007 4005
3398 4007 4005
3398 4007 4005
3398 4007 4005
3105 3914 3969
1079 2367 3700
162 135 3552
3180 4025 3174
3180 4025 3174
3180 4025 3174
3180 4025 3174
3180 4025 3174
3180 4025 3174
3180 4025 3174
3180 4025 3174
3180 4025 3174
3180 4025 3174
3180 4025 3174
3180 4025 3174
3180 4025 3174
3180 4025 3174
3180 4025 3174
3180 4025 3174
3180 4025 3174
3180 4025 3174
3185 4016 3237
3242 4020 3483
3311 4026 3758
3372 4014 3944
3398 4007 4005
3398 4007 4005
3398 4007 4005
3398 4007 4005
3398 4007 4005
3398 4007 4005
3398 4007 4005
3398 4007 4005
3398 4007 4005
1457 2827 3739
3180 4025 3174
3180 4025 3174
3180 4025 3174
3180 4025 3174
3180 4025 3174
3180 4025 3174
3180 4025 3174
3180 4025 3174
3180 4025 3174
3180 4025 3174
3180 4025 3174
3180 4025 3174
3180 4025 3174
3180 4025 3174
3180 4025 3174
3180 4025 3174
3180 4025 3174
3180 4025 3174
3180 4025 3174
3194 4016 3276
3272 4025 3613
3350 4023 3882
3398 4007 4005
3398 4007 4005
3398 4007 4005
3398 4007 4005
3398 4007 4005
3398 4007 4005
3398 4007 4005
3398 4007 4005
3398 4007 4005
3398 4007 4005
3180 4025 3174
3180 4025 3174
3180 4025 3174
3180 4025 3174
3180 4025 3174
3180 4025 3174
3180 4025 3174
3180 4025 3174
3180 4025 3174
3180 4025 3174
3180 4025 3174
3180 4025 3174
3180 4025 3174
3180 4025 3174
3180 4025 3174
3180 4025 3174
3180 4025 3174
3180 4025 3174
3180 4025 3174
3180 4025 3174
3205 4016 3328
3306 4026 3741
3388 4010 3981
3398 4007 4005
3398 4007 4005
3398 4007 4005
3398 4007 4005
3398 4007 4005
3398 4007 4005
3398 4007 4005
3398 4007 4005
3398 4007 4005
3180 4025 3174
3180 4025 3174
3180 4025 3174
3180 4025 3174
3180 4025 3174
3180 4025 3174
3180 4025 3174
3180 4025 3174
3180 4025 3174
3180 4025 3174
3180 4025 3174
3180 4025 3174
3180 4025 3174
3180 4025 3174
3180 4025 3174
3180 4025 3174
3180 4025 3174
3180 4025 3174
3180 4025 3174
3180 4025 3174
3180 4025 3174
3221 4017 3402
3346 4025 3869
3398 4007 4005
3398 4007 4005
3398 4007 4005
3398 4007 4005
3398 4007 4005
3398 4007 4005
3398 4007 4005
3398 4007 4005
3398 4007 4005
3180 4025 3174
3180 4025 3174
3180 4025 3174
3180 4025 3174
