Log/Panasonic GH5 - HLG.3dl
#64pt 3DLUT created by 3D LUT Creator Pro (c) Oleg Sharonov
#Copyright Oleg Sharonov
#INPUTGAMMA Panasonic HLG
#IMAGEPROFILE sRGB
#OUTPUTGAMMA sRGB
0 17 33 49 65 82 98 114 130 147 163 179 195 212 228 244 260 277 293 309 325 341 358 374 390 406 423 439 455 471 488 504 520 536 553 569 585 601 618 634 650 666 682 699 715 731 747 764 780 796 812 829 845 861 877 894 910 926 942 959 975 991 1007 1023 
18 18 18
13 13 36
5 8 55
0 3 95
0 0 145
0 0 177
0 0 207
0 0 263
0 0 316
0 0 365
0 0 440
0 0 511
0 0 581
0 0 646
0 0 711
0 0 791
0 0 869
0 0 959
0 0 1027
0 0 1108
0 0 1185
0 0 1272
0 0 1341
0 0 1434
0 0 1510
0 0 1584
0 0 1666
0 0 1745
0 0 1822
0 0 1906
0 0 1988
0 0 2077
0 0 2169
0 0 2256
0 0 2336
0 0 2419
0 0 2503
0 0 2587
0 0 2671
0 0 2747
0 0 2824
0 0 2900
0 0 2973
0 0 3049
0 0 3118
0 0 3188
0 0 3252
0 0 3318
0 0 3379
0 0 3441
0 0 3498
0 0 3555
0 0 3609
0 0 3662
0 0 3712
0 0 3760
0 0 3804
0 0 3848
0 0 3888
0 0 3926
0 0 3961
0 0 3993
0 0 4022
0 0 4048
13 44 21
8 41 39
0 36 66
0 31 101
0 21 133
0 10 186
0 0 236
0 0 263
0 0 316
0 0 391
0 0 440
0 0 511
0 0 581
0 0 646
0 0 731
0 0 791
0 0 869
0 0 959
0 0 1027
0 0 1108
0 0 1185
0 0 1272
0 0 1341
0 0 1447
0 0 1510
0 0 1596
0 0 1666
0 0 1745
0 0 1822
0 0 1906
0 0 1998
0 0 2077
0 0 2169
0 0 2256
0 0 2336
0 0 2426
0 0 2509
0 0 2587
0 0 2671
0 0 2747
0 0 2824
0 0 2900
0 0 2977
0 0 3049
0 0 3118
0 0 3188
0 0 3254
0 0 3318
0 0 3379
0 0 3441
0 0 3498
0 0 3555
0 0 3609
0 0 3662
0 0 3712
0 0 3760
0 0 3805
0 0 3848
0 0 3888
0 0 3926
0 0 3961
0 0 3993
0 0 4022
0 0 4048
5 85 28
0 79 44
0 77 71
0 68 101
0 60 140
0 49 188
0 36 232
0 21 269
0 5 327
0 0 391
0 0 440
0 0 511
0 0 581
0 0 646
0 0 731
0 0 791
0 0 888
0 0 959
0 0 1027
0 0 1108
0 0 1185
0 0 1272
0 0 1355
0 0 1447
0 0 1523
0 0 1596
0 0 1666
0 0 1745
0 0 1833
0 0 1906
0 0 1998
0 0 2086
0 0 2169
0 0 2256
0 0 2344
0 0 2426
0 0 2509
0 0 2587
0 0 2671
0 0 2747
0 0 2824
0 0 2904
0 0 2977
0 0 3049
0 0 3118
0 0 3188
0 0 3254
0 0 3318
0 0 3382
0 0 3441
0 0 3500
0 0 3555
0 0 3611
0 0 3662
0 0 3712
0 0 3760
0 0 3805
0 0 3848
0 0 3888
0 0 3926
0 0 3961
0 0 3993
0 0 4022
0 0 4048
0 138 36
0 135 52
0 130 79
0 123 112
0 112 147
0 104 190
0 90 236
0 74 284
0 55 331
0 36 385
0 18 445
0 0 511
0 0 581
0 0 646
0 0 731
0 0 811
0 0 888
0 0 959
0 0 1043
0 0 1124
0 0 1200
0 0 1272
0 0 1355
0 0 1447
0 0 1523
0 0 1596
0 0 1666
0 0 1745
0 0 1833
0 0 1917
0 0 1998
0 0 2086
0 0 2169
0 0 2256
0 0 2344
0 0 2426
0 0 2509
0 0 2593
0 0 2671
0 0 2747
0 0 2829
0 0 2904
0 0 2977
0 0 3049
0 0 3121
0 0 3188
0 0 3254
0 0 3318
0 0 3382
0 0 3441
0 0 3500
0 0 3555
0 0 3611
0 0 3662
0 0 3712
0 0 3760
0 0 3805
0 0 3848
0 0 3889
0 0 3926
0 0 3961
0 0 3993
0 0 4022
0 0 4048
0 195 44
0 190 63
0 184 87
0 180 120
0 173 157
0 161 197
0 149 240
0 138 286
0 123 340
0 104 396
0 82 458
0 60 528
0 34 592
0 8 665
0 0 731
0 0 811
0 0 888
0 0 959
0 0 1043
0 0 1124
0 0 1200
0 0 1272
0 0 1355
0 0 1447
0 0 1523
0 0 1596
0 0 1678
0 0 1756
0 0 1833
0 0 1917
0 0 1998
0 0 2086
0 0 2169
0 0 2256
0 0 2344
0 0 2426
0 0 2509
0 0 2593
0 0 2671
0 0 2753
0 0 2829
0 0 2904
0 0 2977
0 0 3049
0 0 3121
0 0 3188
0 0 3254
0 0 3318
0 0 3382
0 0 3441
0 0 3500
0 0 3557
0 0 3611
0 0 3662
0 0 3713
0 0 3760
0 0 3805
0 0 3849
0 0 3889
0 0 3927
0 0 3961
0 0 3993
0 0 4022
0 0 4048
0 252 58
0 248 74
0 246 101
0 240 130
0 234 166
0 226 207
0 216 250
0 203 294
0 190 347
0 175 402
0 157 463
0 138 531
0 112 597
0 85 668
0 55 746
0 23 817
0 0 888
0 0 976
0 0 1043
0 0 1124
0 0 1200
0 0 1286
0 0 1355
0 0 1460
0 0 1523
0 0 1596
0 0 1678
0 0 1756
0 0 1833
0 0 1917
0 0 1998
0 0 2086
0 0 2178
0 0 2264
0 0 2344
0 0 2433
0 0 2509
0 0 2593
0 0 2676
0 0 2753
0 0 2829
0 0 2904
0 0 2981
0 0 3052
0 0 3121
0 0 3191
0 0 3257
0 0 3321
0 0 3382
0 0 3444
0 0 3500
0 0 3557
0 0 3611
0 0 3664
0 0 3713
0 0 3761
0 0 3806
0 0 3849
0 0 3889
0 0 3927
0 0 3962
0 0 3994
0 0 4022
0 0 4048
0 318 71
0 314 87
0 311 112
0 305 142
0 299 180
0 290 216
0 280 257
0 271 305
0 261 356
0 246 412
0 232 473
0 214 539
0 195 605
0 173 677
0 147 752
0 117 825
0 82 901
0 47 983
0 8 1055
0 0 1124
0 0 1215
0 0 1286
0 0 1369
0 0 1460
0 0 1535
0 0 1608
0 0 1678
0 0 1756
0 0 1843
0 0 1927
0 0 2008
0 0 2095
0 0 2178
0 0 2264
0 0 2352
0 0 2433
0 0 2516
0 0 2599
0 0 2676
0 0 2753
0 0 2834
0 0 2909
0 0 2981
0 0 3052
0 0 3121
0 0 3191
0 0 3257
0 0 3321
0 0 3384
0 0 3444
0 0 3502
0 0 3557
0 0 3612
0 0 3664
0 0 3713
0 0 3761
0 0 3806
0 0 3849
0 0 3889
0 0 3927
0 0 3962
0 0 3994
0 0 4022
0 0 4048
0 391 87
0 387 104
0 382 128
0 378 159
0 373 193
0 364 230
0 354 271
0 346 316
0 333 365
0 322 425
0 307 484
0 290 546
0 275 616
0 254 688
0 232 757
0 209 836
0 182 911
0 149 981
0 112 1056
0 71 1132
0 28 1214
0 0 1286
0 0 1369
0 0 1460
0 0 1535
0 0 1608
0 0 1689
0 0 1767
0 0 1843
0 0 1927
0 0 2008
0 0 2095
0 0 2187
0 0 2264
0 0 2352
0 0 2433
0 0 2516
0 0 2599
0 0 2676
0 0 2758
0 0 2834
0 0 2909
0 0 2981
0 0 3056
0 0 3125
0 0 3191
0 0 3257
0 0 3324
0 0 3384
0 0 3444
0 0 3502
0 0 3559
0 0 3612
0 0 3664
0 0 3714
0 0 3761
0 0 3806
0 0 3849
0 0 3890
0 0 3927
0 0 3962
0 0 3994
0 0 4023
0 0 4048
0 468 104
0 464 123
0 463 145
0 458 173
0 451 205
0 442 242
0 437 284
0 425 327
0 416 380
0 402 433
0 389 494
0 375 559
0 356 624
0 338 695
0 318 768
0 295 842
0 271 917
0 246 994
0 216 1068
0 184 1145
0 147 1225
0 104 1300
0 55 1379
0 0 1473
0 0 1548
0 0 1620
0 0 1689
0 0 1767
0 0 1854
0 0 1927
0 0 2017
0 0 2105
0 0 2187
0 0 2272
0 0 2360
0 0 2440
0 0 2523
0 0 2599
0 0 2682
0 0 2758
0 0 2834
0 0 2913
0 0 2986
0 0 3056
0 0 3125
0 0 3194
0 0 3260
0 0 3324
0 0 3386
0 0 3446
0 0 3504
0 0 3559
0 0 3614
0 0 3665
0 0 3714
0 0 3762
0 0 3807
0 0 3849
0 0 3890
0 0 3927
0 0 3962
0 0 3994
0 0 4023
0 0 4048
0 553 123
0 551 140
0 548 161
0 543 190
0 538 222
0 529 257
0 521 297
0 512 342
0 501 393
0 490 447
0 478 507
0 461 569
0 444 635
0 426 704
0 409 778
0 387 850
0 364 924
0 340 1001
0 312 1075
0 284 1151
0 254 1229
0 220 1305
0 182 1382
0 130 1473
0 82 1547
0 31 1626
0 0 1701
0 0 1779
0 0 1854
0 0 1937
0 0 2017
0 0 2105
0 0 2196
0 0 2280
0 0 2360
0 0 2440
0 0 2523
0 0 2605
0 0 2687
0 0 2763
0 0 2839
0 0 2913
0 0 2986
0 0 3060
0 0 3128
0 0 3194
0 0 3260
0 0 3326
0 0 3386
0 0 3446
0 0 3504
0 0 3561
0 0 3614
0 0 3665
0 0 3715
0 0 3762
0 0 3807
0 0 3850
0 0 3890
0 0 3928
0 0 3963
0 0 3995
0 0 4023
0 0 4049
0 643 145
0 640 159
0 637 182
0 632 207
0 627 238
0 619 273
0 614 312
0 603 356
0 595 409
0 582 461
0 571 521
0 558 585
0 541 651
0 524 720
0 506 791
0 485 863
0 463 937
0 440 1013
0 414 1087
0 387 1163
0 358 1241
0 327 1317
0 294 1395
0 252 1485
0 216 1558
0 173 1630
0 125 1705
0 66 1779
0 5 1859
0 0 1947
0 0 2027
0 0 2115
0 0 2196
0 0 2280
0 0 2367
0 0 2448
0 0 2529
0 0 2611
0 0 2687
0 0 2763
0 0 2844
0 0 2917
0 0 2990
0 0 3060
0 0 3132
0 0 3197
0 0 3263
0 0 3326
0 0 3389
0 0 3448
0 0 3506
0 0 3561
0 0 3615
0 0 3667
0 0 3715
0 0 3763
0 0 3808
0 0 3850
0 0 3890
0 0 3928
0 0 3963
0 0 3995
0 0 4024
0 0 4049
0 736 166
0 734 182
0 731 201
0 727 226
0 723 255
0 715 290
0 709 329
0 700 375
0 689 423
0 680 478
0 666 536
0 654 598
0 640 663
0 622 731
0 606 803
0 587 874
0 566 947
0 544 1022
0 519 1096
0 494 1171
0 466 1248
0 437 1323
0 405 1400
0 365 1491
0 333 1564
0 297 1640
0 259 1715
0 216 1790
0 166 1870
0 104 1949
0 34 2035
0 0 2115
0 0 2204
0 0 2289
0 0 2367
0 0 2455
0 0 2536
0 0 2611
0 0 2693
0 0 2769
0 0 2844
0 0 2917
0 0 2994
0 0 3064
0 0 3132
0 0 3200
0 0 3266
0 0 3329
0 0 3389
0 0 3450
0 0 3506
0 0 3563
0 0 3615
0 0 3668
0 0 3717
0 0 3764
0 0 3809
0 0 3851
0 0 3891
0 0 3929
0 0 3964
0 0 3995
0 0 4024
0 0 4049
0 832 188
0 829 201
0 828 222
0 825 246
0 818 275
0 814 309
0 807 347
0 797 391
0 790 440
0 778 494
0 768 553
0 757 614
0 742 679
0 727 746
0 711 818
0 692 889
0 672 961
0 652 1035
0 630 1108
0 605 1183
0 581 1260
0 551 1334
0 522 1412
0 484 1502
0 452 1574
0 419 1645
0 382 1720
0 344 1800
0 299 1874
0 254 1959
0 201 2037
0 138 2121
0 60 2210
0 0 2289
0 0 2374
0 0 2455
0 0 2536
0 0 2617
0 0 2693
0 0 2774
0 0 2849
0 0 2922
0 0 2994
0 0 3068
0 0 3135
0 0 3200
0 0 3266
0 0 3331
0 0 3391
0 0 3450
0 0 3508
0 0 3564
0 0 3617
0 0 3668
0 0 3718
0 0 3764
0 0 3809
0 0 3852
0 0 3892
0 0 3930
0 0 3964
0 0 3996
0 0 4024
0 0 4050
0 930 211
0 927 224
0 924 242
0 921 267
0 917 295
0 911 329
0 906 367
0 897 410
0 890 459
0 880 512
0 870 571
0 859 632
0 846 695
0 832 762
0 815 831
0 800 904
0 781 975
0 761 1046
0 742 1121
0 718 1196
0 694 1268
0 668 1346
0 640 1422
0 605 1512
0 576 1584
0 543 1655
0 509 1730
0 471 1805
0 431 1884
0 389 1967
0 342 2046
0 290 2130
0 234 2217
0 166 2297
0 82 2379
0 0 2462
0 0 2542
0 0 2623
0 0 2699
0 0 2779
0 0 2853
0 0 2926
0 0 2998
0 0 3068
0 0 3138
0 0 3203
0 0 3269
0 0 3331
0 0 3393
0 0 3452
0 0 3510
0 0 3564
0 0 3619
0 0 3669
0 0 3719
0 0 3766
0 0 3810
0 0 3852
0 0 3893
0 0 3930
0 0 3964
0 0 3996
0 0 4025
0 0 4050
0 1028 234
0 1025 248
0 1022 265
0 1019 288
