Log/Panasonic GH5 - HLG.3dl
#64pt 3DLUT created by 3D LUT Creator Pro (c) Oleg Sharonov
#Copyright Oleg Sharonov
#INPUTGAMMA Panasonic HLG
#IMAGEPROFILE sRGB
#OUTPUTGAMMA sRGB
0 147 293 439 585 731 877 1023
18 18 18
0 0 365
0 0 1027
0 0 1745
0 0 2503
0 0 3188
0 0 3712
0 0 4048
0 553 123
0 490 447
0 312 1075
0 0 1779
0 0 2523
0 0 3194
0 0 3715
0 0 4049
0 1422 340
0 1387 622
0 1289 1194
0 1108 1857
0 765 2572
0 0 3219
0 0 3725
0 0 4051
0 2319 643
0 2297 884
0 2238 1375
0 2131 1990
0 1943 2652
0 1575 3258
0 691 3741
0 0 4056
0 3067 1034
0 3057 1219
0 3030 1631
0 2981 2185
0 2898 2765
0 2734 3314
0 2369 3767
0 1352 4063
0 3639 1531
0 3635 1673
0 3623 2011
0 3603 2462
0 3570 2933
0 3508 3402
0 3384 3806
0 3095 4074
0 4014 2173
0 4013 2275
0 4009 2510
0 4003 2818
0 3993 3163
0 3974 3530
0 3936 3866
0 3856 4090
3 4095 2853
3 4095 2908
0 4095 3039
0 4095 3223
3 4095 3443
3 4095 3699
0 4095 3948
3 4095 4095
582 0 0
501 0 349
267 0 1012
0 0 1734
0 0 2496
0 0 3185
0 0 3710
0 0 4047
502 480 82
417 414 421
168 230 1059
0 0 1767
0 0 2516
0 0 3191
0 0 3714
0 0 4048
275 1380 311
175 1344 598
0 1243 1177
0 1059 1846
0 701 2566
0 0 3216
0 0 3723
0 0 4051
0 2294 619
0 2272 862
0 2212 1361
0 2102 1979
0 1909 2645
0 1536 3254
0 622 3740
0 0 4056
0 3056 1015
0 3045 1202
0 3017 1619
0 2968 2175
0 2884 2759
0 2717 3311
0 2345 3765
0 1309 4063
0 3634 1518
0 3630 1660
0 3618 1999
0 3598 2454
0 3565 2928
0 3502 3400
0 3376 3805
0 3083 4074
0 4013 2163
0 4011 2266
0 4008 2502
0 4002 2813
0 3991 3159
0 3972 3528
0 3934 3865
0 3853 4090
5 4095 2847
5 4095 2903
0 4095 3035
0 4095 3219
5 4095 3441
3 4095 3698
0 4095 3947
3 4095 4095
1482 0 0
1437 0 271
1312 0 961
1074 0 1700
590 0 2475
0 0 3172
0 0 3706
0 0 4046
1437 271 0
1391 197 346
1260 0 1007
1016 0 1729
511 0 2496
0 0 3181
0 0 3710
0 0 4047
1315 1265 232
1265 1226 529
1125 1118 1131
854 915 1814
286 517 2548
0 0 3207
0 0 3719
0 0 4050
1084 2224 551
1028 2201 805
861 2137 1320
528 2021 1949
0 1822 2627
0 1432 3246
0 430 3736
0 0 4055
622 3023 963
543 3013 1156
314 2984 1583
0 2933 2148
0 2844 2743
0 2670 3303
0 2279 3762
0 1189 4062
0 3621 1480
0 3616 1625
0 3605 1970
0 3584 2433
0 3550 2915
0 3485 3393
0 3356 3802
0 3053 4073
0 4009 2135
0 4007 2240
0 4004 2482
0 3997 2798
0 3986 3149
0 3967 3522
0 3928 3862
0 3845 4089
5 4095 2833
5 4095 2890
0 4095 3023
0 4095 3210
5 4095 3434
3 4095 3694
0 4095 3945
3 4095 4095
2398 0 0
2370 0 120
2296 0 868
2161 0 1638
1914 0 2441
1412 0 3156
0 0 3699
0 0 4044
2370 0 0
2344 0 209
2269 0 921
2130 0 1672
1879 0 2462
1366 0 3166
0 0 3703
0 0 4045
2300 1050 63
2271 1006 409
2191 878 1050
2043 633 1759
1783 149 2515
1239 0 3191
0 0 3713
0 0 4048
2169 2098 431
2137 2072 701
2047 2001 1247
1887 1877 1896
1605 1664 2596
997 1238 3230
0 15 3730
0 0 4053
1929 2966 872
1893 2955 1077
1793 2924 1520
1613 2869 2100
1288 2774 2715
501 2585 3289
0 2156 3755
0 961 4060
1446 3597 1414
1399 3593 1564
1271 3581 1917
1028 3559 2395
528 3523 2892
0 3456 3380
0 3319 3796
0 2997 4072
0 4001 2087
0 4000 2197
0 3996 2447
0 3989 2771
0 3978 3132
0 3958 3513
0 3917 3858
0 3831 4088
0 4095 2808
0 4095 2865
0 4095 3003
0 4095 3194
0 4095 3423
3 4095 3687
0 4095 3942
3 4095 4095
3136 0 0
3123 0 0
3091 0 707
3030 0 1542
2925 0 2382
2711 0 3129
2190 0 3688
400 0 4041
3124 0 0
3111 0 0
3077 0 765
3017 0 1577
2911 0 2404
2692 0 3139
2160 0 3692
314 0 4042
3091 622 0
3078 563 195
3043 393 911
2980 34 1667
2869 0 2459
2640 0 3165
2074 0 3702
28 0 4045
3033 1872 222
3020 1843 522
2982 1766 1126
2914 1628 1811
2793 1387 2545
2544 872 3206
1920 0 3720
0 0 4050
2932 2866 711
2916 2854 941
2874 2819 1417
2797 2757 2022
2660 2650 2671
2372 2436 3267
1651 1937 3745
0 502 4057
2726 3558 1305
2706 3553 1464
2653 3540 1833
2556 3517 2334
2380 3478 2854
2000 3405 3361
1081 3257 3787
0 2901 4069
2230 3989 2008
2199 3987 2124
2115 3983 2387
1959 3976 2728
1687 3964 3104
1112 3942 3497
0 3899 3850
0 3808 4086
587 4095 2766
507 4095 2827
275 4095 2970
3 4095 3169
0 4095 3404
5 4095 3675
0 4095 3936
3 4095 4095
3690 0 0
3685 0 0
3671 0 389
3648 0 1364
3607 0 2274
3530 0 3080
3368 0 3667
2950 0 4035
3685 0 0
3680 0 0
3667 0 458
3643 0 1402
3602 0 2297
3523 0 3090
3360 0 3672
2935 0 4036
3672 0 0
3666 0 0
3653 0 633
3628 0 1500
3586 0 2357
3506 0 3117
3336 0 3683
2895 0 4040
3649 1421 0
3643 1386 164
3629 1287 892
3603 1107 1654
3559 765 2451
3474 0 3161
3295 0 3701
2821 0 4045
3610 2665 393
3604 2650 669
3588 2607 1225
3560 2530 1880
3513 2395 2587
3421 2119 3226
3224 1502 3728
2692 0 4052
3535 3483 1098
3528 3478 1277
3510 3463 1678
3478 3437 2220
3423 3392 2786
3317 3309 3325
3083 3136 3771
2421 2708 4065
3379 3966 1865
3371 3964 1989
3347 3960 2279
3306 3952 2650
3234 3939 3052
3091 3914 3468
2766 3866 3836
1750 3764 4082
2984 4095 2691
2969 4095 2756
2928 4095 2909
2856 4095 3121
2728 4095 3371
2460 4095 3654
1788 4095 3926
3 4095 4095
4041 0 0
4040 0 0
4036 0 0
4029 0 1004
4017 0 2059
3995 0 2987
3950 0 3631
3846 0 4025
4040 0 0
4038 0 0
4034 0 0
4028 0 1052
4016 0 2087
3993 0 2999
3948 0 3636
3843 0 4026
4036 0 0
4035 0 0
4031 0 0
4024 0 1171
4011 0 2157
3988 0 3029
3941 0 3647
3834 0 4029
4030 157 0
4028 58 0
4024 0 373
4016 0 1355
4003 0 2269
3979 0 3078
3930 0 3667
3818 0 4035
4018 2191 0
4016 2167 36
4012 2101 826
4004 1982 1614
3990 1780 2426
3964 1381 3149
3912 333 3696
3791 0 4043
3997 3329 655
3995 3322 893
3990 3303 1383
3980 3269 1996
3965 3212 2655
3936 3102 3259
3877 2869 3742
3741 2256 4056
3953 3920 1597
3951 3918 1735
3944 3913 2065
3933 3903 2499
3914 3887 2957
3878 3858 3415
3806 3800 3812
3639 3677 4076
3853 4095 2545
3850 4095 2622
3841 4095 2796
3825 4095 3034
3798 4095 3310
3748 4095 3617
3644 4095 3908
3399 4095 4095
4095 0 0
4095 0 0
4095 0 0
4095 3 49
4095 0 1618
4095 0 2799
4095 0 3562
4095 3 4004
4095 0 0
4095 0 0
4095 0 0
4095 0 152
4095 0 1652
4095 0 2814
4095 0 3566
4095 0 4006
4095 0 0
4095 0 0
4095 0 0
4095 0 362
4095 3 1739
4095 0 2851
4095 0 3580
4095 0 4010
4095 0 0
4095 0 0
4095 0 0
4095 0 662
4095 0 1877
4095 0 2911
4095 0 3602
4095 0 4016
4095 727 0
4095 671 3
4095 509 3
4095 201 1048
4095 0 2084
4095 0 2997
4095 3 3635
4095 0 4026
4095 2946 3
4095 2934 0
4095 2902 706
4095 2846 1542
4095 2749 2382
4095 2555 3129
4095 2112 3688
4095 876 4041
4095 3818 1024
4095 3816 1210
4095 3808 1626
4095 3795 2180
4095 3773 2762
4095 3733 3313
4095 3653 3766
4095 3479 4063
4095 4095 2238
4095 4095 2336
4095 4095 2561
4095 4095 2857
4095 4095 3187
4095 4095 3546
4095 4095 3873
4090 4087 4092
