Log/Raw - Neutral.3dl
#25pt 3DLUT created by 3D LUT Creator Pro (c) Oleg Sharonov
#Copyright Oleg Sharonov
#INPUTGAMMA sRGB IEC61966-2.1 v.2.10
#IMAGEPROFILE sRGB IEC61966-2.1 v.2.10
#OUTPUTGAMMA sRGB IEC61966-2.1 v.2.10
0 128 256 384 512 640 768 896 1023
0 0 0
0 0 488
0 0 1184
0 0 1928
0 0 2631
0 0 3213
0 0 3629
0 0 3927
0 0 4095
0 444 0
0 446 457
0 444 1173
0 444 1920
0 444 2623
0 444 3208
0 444 3627
0 444 3926
0 444 4095
0 1117 0
0 1117 388
0 1117 1139
0 1117 1899
0 1117 2610
0 1117 3201
0 1117 3623
0 1117 3924
0 1117 4095
0 1829 0
0 1830 245
0 1830 1075
0 1830 1861
0 1829 2587
0 1829 3188
0 1830 3616
0 1830 3920
0 1830 4095
0 2515 0
0 2515 0
0 2515 972
0 2514 1801
0 2515 2551
0 2515 3167
0 2514 3604
0 2515 3913
0 2515 4095
0 3103 0
0 3103 0
0 3103 816
0 3103 1716
0 3103 2499
0 3103 3138
13 3101 3584
247 3099 3890
443 3099 4070
473 3526 473
473 3526 473
477 3526 864
496 3526 1719
522 3526 2479
557 3527 3107
614 3527 3555
847 3524 3861
1048 3523 4047
1097 3827 1097
1097 3827 1097
1097 3827 1158
1110 3827 1861
1128 3828 2539
1153 3829 3119
1184 3830 3548
1242 3831 3854
1803 3819 4032
2512 4023 2512
2512 4023 2512
2512 4023 2512
2539 4023 2746
2588 4023 3080
2655 4023 3392
2744 4023 3653
2852 4023 3865
2968 4024 4024
503 0 0
444 0 468
285 0 1183
0 0 1922
0 0 2627
0 0 3211
0 0 3627
0 0 3927
0 0 4095
500 446 0
444 444 444
34 406 1548
0 444 1915
0 444 2622
0 444 3208
0 444 3626
0 444 3926
0 444 4095
497 1117 0
324 1140 230
77 1135 1153
0 1117 1894
0 1117 2609
0 1117 3200
0 1117 3622
0 1117 3924
0 1117 4095
494 1830 0
234 1853 0
0 1856 1002
0 1829 1856
0 1830 2585
0 1830 3187
0 1830 3615
0 1830 3919
0 1830 4095
488 2515 0
420 2516 0
0 2532 856
0 2515 1797
0 2515 2548
0 2514 3166
0 2515 3603
0 2514 3912
0 2515 4095
482 3103 0
426 3103 0
169 3106 768
0 3103 1711
0 3103 2496
0 3103 3136
13 3101 3584
247 3099 3890
443 3099 4070
795 3526 483
756 3526 482
653 3526 861
496 3526 1716
522 3527 2476
557 3527 3105
613 3527 3554
847 3524 3861
1048 3523 4047
1285 3827 1104
1258 3827 1103
1193 3827 1156
1110 3827 1857
1128 3828 2536
1153 3829 3118
1184 3830 3547
1241 3831 3854
1803 3819 4032
2586 4023 2531
2576 4023 2529
2548 4023 2522
2538 4023 2744
2588 4023 3079
2656 4023 3391
2743 4023 3653
2852 4023 3865
2968 4024 4024
1222 0 0
1192 0 441
1119 0 1166
974 0 1916
718 0 2621
198 0 3207
0 0 3626
0 0 3927
0 0 4095
1221 444 0
1373 335 283
1243 337 1285
1175 0 2584
619 0 3229
0 303 3382
0 444 3624
0 444 3925
0 444 4095
1220 1117 0
1204 1120 166
1117 1117 1117
914 1104 2043
237 1051 3044
0 1096 3293
0 1117 3620
0 1117 3922
0 1117 4095
1218 1830 0
1154 1843 0
1052 1845 980
884 1842 1861
408 1846 2684
0 1832 3229
0 1830 3613
0 1830 3918
0 1830 4095
1216 2515 0
1188 2515 0
1022 2528 835
860 2527 1760
560 2525 2554
0 2521 3182
0 2515 3602
0 2515 3911
0 2515 4095
1212 3103 0
1184 3103 0
1091 3105 765
947 3104 1695
694 3103 2489
174 3103 3133
9 3101 3582
245 3099 3889
443 3099 4070
1388 3526 515
1363 3527 514
1300 3526 864
1185 3527 1715
993 3527 2473
671 3527 3102
611 3527 3553
846 3524 3860
1048 3523 4047
1712 3828 1125
1693 3828 1124
1643 3828 1163
1559 3828 1860
1423 3828 2535
1214 3829 3115
1184 3830 3545
1241 3831 3853
1803 3819 4032
2780 4023 2588
2770 4023 2585
2747 4023 2578
2697 4025 2756
2685 4024 3083
2672 4023 3390
2743 4023 3652
2851 4023 3864
2968 4024 4024
1976 0 0
1959 0 386
1915 0 1139
1833 0 1899
1698 0 2611
1493 0 3202
1179 0 3623
648 0 3924
0 0 4095
1976 444 0
2236 107 0
2235 0 1197
2078 0 2149
1897 0 2954
1592 0 3481
1149 0 3827
345 0 4083
0 444 4095
1976 1117 0
2040 1086 0
2010 1071 1035
1901 1069 1944
1784 996 2849
1496 837 3592
704 522 4083
0 914 4095
0 1117 4095
1975 1830 0
1964 1831 0
1921 1832 941
1830 1830 1830
1672 1824 2635
1388 1810 3313
831 1781 3784
0 1781 4030
0 1830 4095
1974 2515 0
1956 2514 0
1892 2522 815
1804 2521 1742
1663 2519 2536
1419 2520 3184
1021 2518 3639
207 2514 3956
0 2515 4095
1973 3103 0
1955 3103 0
1911 3103 758
1829 3102 1686
1699 3102 2481
1501 3102 3125
1218 3100 3576
793 3099 3885
443 3099 4070
2069 3527 567
2054 3527 565
2013 3527 868
1942 3527 1714
1829 3527 2471
1659 3528 3099
1413 3528 3550
1167 3525 3858
1048 3523 4047
2266 3829 1162
2253 3829 1161
2219 3829 1174
2160 3829 1866
2069 3830 2538
1933 3830 3116
1740 3831 3544
1477 3832 3851
1803 3819 4032
3057 4023 2689
3049 4023 2686
3032 4023 2679
2987 4026 2821
2942 4028 3100
2931 4027 3402
2920 4026 3657
2917 4024 3864
2968 4024 4024
2685 0 0
2674 0 295
2648 0 1097
2596 0 1873
2517 0 2595
2400 0 3193
2233 0 3618
1995 0 3921
1653 0 4095
2685 444 0
2804 219 0
2878 0 1014
2807 0 1981
2701 0 2780
2548 0 3367
2338 0 3756
2048 0 4034
1653 446 4095
2685 1117 0
2726 1080 0
2820 971 871
2744 979 1888
2636 981 2702
2562 852 3406
2397 627 3888
2023 791 4091
1651 1117 4095
2684 1830 0
2678 1828 0
2697 1812 817
2638 1811 1782
2547 1809 2585
2431 1791 3250
2241 1761 3713
1949 1751 4010
1650 1830 4095
2683 2515 0
2672 2515 0
2650 2516 779
2597 2515 1717
2515 2515 2515
2392 2513 3161
2213 2511 3615
1957 2509 3929
1648 2515 4095
2684 3101 37
2673 3101 34
2646 3101 746
2597 3101 1675
2520 3101 2469
2406 3101 3115
2255 3101 3567
2056 3101 3876
1713 3102 4079
2726 3528 639
2716 3528 638
2691 3528 874
2647 3528 1714
2576 3529 2467
2474 3529 3095
2332 3530 3546
2190 3528 3855
1934 3528 4056
2834 3831 1215
2825 3831 1214
2802 3831 1211
2765 3831 1875
2705 3832 2542
2619 3833 3117
2498 3833 3544
2339 3834 3851
2402 3824 4035
3351 4023 2841
3347 4023 2839
3335 4023 2831
3307 4026 2942
3255 4031 3151
3223 4033 3418
3215 4032 3668
3211 4031 3872
3209 4030 4030
3263 0 0
3258 0 143
3242 0 1036
3214 0 1838
3170 0 2573
3105 0 3180
3014 0 3611
2887 0 3917
2711 0 4095
3263 444 0
3295 341 0
3375 0 875
3342 0 1852
3290 0 2665
3215 0 3287
3111 0 3703
2967 0 3996
2711 444 4095
3263 1117 0
3267 1104 0
3400 860 648
3358 874 1783
3295 893 2641
3213 903 3278
3152 771 3747
3034 609 4078
2710 1117 4095
3263 1830 0
3257 1830 0
3301 1783 674
3267 1785 1713
3215 1787 2547
3142 1788 3194
3057 1766 3653
2926 1743 3973
2709 1829 4095
3262 2515 0
3256 2515 0
3250 2511 711
3220 2512 1679
3174 2512 2488
3107 2512 3137
3014 2512 3591
2885 2514 3902
2709 2515 4094
3257 3102 234
3252 3102 230
3236 3102 745
3209 3102 1665
3166 3102 2456
3103 3103 3103
3016 3104 3557
2893 3105 3878
2728 3106 4076
3270 3531 728
3264 3531 727
3250 3531 880
3225 3531 1714
3185 3531 2464
3126 3532 3090
3046 3533 3542
2948 3533 3855
2809 3534 4058
3318 3835 1284
3313 3835 1283
3300 3835 1281
3277 3835 1887
3243 3835 2547
3231 3830 3165
3175 3831 3555
3108 3831 3842
3022 3831 4041
3614 4025 3047
3611 4025 3044
3604 4025 3037
3588 4027 3111
3559 4032 3269
3511 4040 3453
3490 4041 3683
3486 4040 3883
3486 4039 4039
3671 0 0
3668 0 0
3659 0 954
3644 0 1791
3621 0 2544
3587 0 3164
3540 0 3602
3477 0 3911
3392 0 4095
3671 444 0
3668 444 0
3735 0 736
3718 0 1749
3691 0 2581
3654 0 3226
3602 0 3663
3534 0 3966
3392 444 4095
3671 1117 0
3668 1117 0
3761 815 459
3738 831 1670
3704 856 2557
3657 886 3218
3600 906 3656
3546 838 3978
3391 1117 4095
3671 1830 0
3668 1830 0
3697 1774 585
3678 1777 1653
3650 1781 2497
3610 1788 3156
3558 1794 3607
3494 1791 3922
3391 1830 4095
3668 2516 0
3665 2516 0
3657 2516 713
3641 2517 1663
3616 2518 2465
3580 2520 3114
3532 2523 3570
3465 2531 3881
3386 2525 4085
3654 3108 540
3650 3107 535
3642 3107 837
3628 3108 1696
3605 3109 2459
3572 3110 3093
3527 3111 3548
3468 3112 3869
3386 3113 4073
3658 3535 906
3655 3535 903
3647 3535 953
3633 3535 1742
3612 3536 2470
3581 3537 3087
3538 3538 3538
3481 3539 3854
3407 3541 4063
3678 3839 1367
3675 3839 1366
3667 3839 1364
3654 3840 1902
3634 3840 2555
3621 3835 3205
3577 3839 3555
3534 3840 3847
3481 3841 4051
3827 4030 3299
3825 4030 3296
3820 4030 3289
3812 4031 3328
3799 4036 3432
3776 4043 3559
3734 4053 3706
3723 4054 3898
3723 4053 4053
3965 0 0
3963 0 0
3958 0 844
3948 0 1730
3934 0 2507
3914 0 3143
3887 0 3591
3851 0 3905
3806 0 4095
3965 444 0
3963 444 0
4006 0 569
3996 0 1651
3980 0 2507
3958 0 3176
3928 0 3630
3887 0 3940
3806 446 4095
3965 1117 0
3963 1117 0
4005 908 443
3992 924 1609
3971 945 2481
3944 974 3153
3908 1008 3606
3865 1041 3916
3806 1117 4095
3965 1830 0
3963 1830 0
3964 1815 636
3952 1819 1640
3935 1826 2461
3912 1834 3116
3881 1845 3572
3842 1858 3887
3800 1850 4088
3942 2545 468
3940 2544 465
3935 2544 834
3925 2546 1698
3922 2532 2443
3901 2535 3094
3863 2556 3548
3826 2562 3864
3790 2547 4076
3930 3126 898
3928 3126 895
3923 3125 1024
3914 3126 1779
3906 3123 2469
3892 3121 3083
3865 3123 3540
3830 3126 3858
3786 3130 4066
3932 3544 1252
3931 3544 1249
3926 3544 1242
3918 3545 1877
3901 3547 2568
3885 3547 3116
3867 3547 3535
3834 3549 3849
3792 3551 4062
3947 3845 1573
3945 3845 1570
3940 3845 1562
3932 3845 1985
3910 3843 2839
3894 3845 3273
3877 3847 3576
3850 3850 3850
3812 3851 4067
3990 4041 3585
3989 4041 3582
3986 4041 3576
3982 4042 3591
3978 4046 3646
3971 4051 3717
3957 4059 3804
3925 4071 3915
3921 4071 4071
4095 0 0
4095 0 0
4095 0 695
4095 0 1653
4095 0 2462
4095 0 3117
4095 0 3577
4095 0 3896
4088 51 4088
4095 444 0
4095 444 0
4095 444 674
4095 444 1644
4095 444 2456
4095 443 3114
4095 444 3575
4094 459 3894
4089 509 4089
4095 1117 0
4095 1117 0
4095 1117 622
4095 1117 1619
4095 1117 2441
4095 1117 3105
4091 1136 3568
4087 1163 3886
4083 1193 4083
4082 1865 205
4082 1865 205
4089 1845 583
4088 1848 1597
4087 1853 2424
4084 1863 3088
4081 1876 3554
4078 1894 3874
4075 1914 4075
4057 2574 715
4057 2574 715
4071 2554 727
4073 2551 1628
4074 2552 2420
4073 2557 3074
4070 2566 3539
4068 2579 3859
4065 2593 4065
4046 3143 1102
4046 3143 1102
4047 3142 1103
4055 3138 1763
4058 3138 2467
4063 3137 3075
4062 3142 3530
4060 3150 3847
4058 3160 4058
4033 3559 1718
4033 3559 1718
4033 3559 1718
4036 3559 2114
4041 3560 2640
4049 3560 3134
4059 3559 3535
4059 3564 3843
4058 3570 4058
4023 3850 2676
4023 3850 2676
4023 3850 2676
4025 3852 2805
4031 3854 3067
4039 3857 3342
4051 3859 3604
4068 3859 3851
4069 3864 4069
4053 4053 3745
4053 4053 3745
4053 4053 3745
4054 4054 3759
4058 4058 3808
4064 4064 3868
4073 4073 3938
4083 4083 4014
4095 4095 4095
