Log/Raw - Easy.3dl
#25pt 3DLUT created by 3D LUT Creator Pro (c) Oleg Sharonov
#Copyright Oleg Sharonov
#INPUTGAMMA sRGB IEC61966-2.1 v.2.10
#IMAGEPROFILE sRGB IEC61966-2.1 v.2.10
#OUTPUTGAMMA sRGB IEC61966-2.1 v.2.10
0 43 86 128 171 214 256 299 341 384 427 469 512 555 597 640 682 725 768 810 853 896 938 981 1023 
0 0 0
0 17 122
0 44 255
0 85 404
0 141 572
0 207 760
0 276 962
0 353 1174
0 436 1391
0 527 1609
0 628 1823
0 738 2030
0 857 2228
0 983 2412
0 1116 2582
0 1255 2735
0 1401 2870
0 1551 2986
101 1705 3092
368 1861 3189
604 2019 3279
850 2175 3361
1105 2331 3436
1368 2481 3505
1632 2626 3568
0 105 0
0 112 128
0 135 258
0 171 406
0 216 574
0 268 762
0 331 964
0 399 1176
0 478 1392
0 567 1610
0 665 1824
0 772 2031
0 887 2228
0 1011 2413
0 1141 2582
0 1279 2735
0 1422 2870
0 1570 2986
128 1722 3092
384 1877 3189
618 2032 3279
863 2188 3361
1117 2341 3436
1378 2490 3505
1641 2634 3568
0 227 0
0 229 131
0 237 263
0 262 410
0 296 576
0 343 764
0 397 966
0 460 1177
0 535 1393
0 619 1610
0 713 1825
0 816 2032
0 928 2229
0 1047 2413
0 1176 2583
0 1310 2735
0 1450 2870
0 1596 2986
161 1746 3092
405 1897 3189
637 2051 3279
880 2204 3361
1133 2355 3436
1393 2503 3505
1654 2644 3568
0 363 0
0 363 124
0 364 268
0 377 413
0 404 581
0 442 767
0 490 969
0 547 1179
0 616 1396
0 694 1613
0 783 1826
0 881 2033
0 987 2230
0 1103 2414
0 1226 2583
0 1356 2736
0 1493 2870
0 1634 2986
205 1780 3092
436 1928 3189
665 2079 3279
906 2228 3361
1157 2377 3436
1415 2521 3505
1674 2660 3567
0 514 0
0 515 115
0 514 266
0 518 419
0 535 586
0 566 772
0 607 973
0 659 1184
0 720 1399
0 793 1616
0 875 1828
0 967 2035
0 1068 2231
0 1176 2415
0 1294 2584
0 1418 2736
0 1549 2870
0 1686 2987
260 1826 3092
478 1970 3189
703 2115 3278
940 2261 3361
1189 2405 3436
1444 2546 3504
1702 2681 3567
0 685 0
0 687 105
0 685 263
0 686 422
0 692 594
0 713 778
0 747 979
0 792 1189
0 848 1404
0 913 1620
0 987 1832
0 1072 2038
0 1165 2234
0 1268 2417
0 1378 2585
0 1496 2737
0 1620 2871
87 1750 2987
324 1885 3092
531 2023 3189
751 2162 3278
986 2303 3360
1231 2442 3435
1482 2578 3504
1736 2708 3567
0 869 0
0 872 101
0 870 258
0 869 423
0 872 600
0 883 789
0 907 987
0 945 1196
0 992 1410
0 1050 1625
0 1118 1837
0 1194 2041
0 1280 2236
0 1375 2419
0 1477 2587
0 1588 2738
0 1704 2872
195 1827 2987
395 1954 3092
595 2086 3189
811 2219 3278
1040 2352 3360
1282 2486 3435
1529 2616 3504
1779 2741 3566
0 1064 0
0 1069 101
0 1066 258
0 1064 423
0 1065 604
0 1071 798
0 1084 1000
0 1112 1205
0 1152 1418
0 1203 1632
0 1262 1842
0 1331 2046
0 1409 2240
0 1495 2422
0 1589 2589
0 1691 2740
96 1800 2873
294 1915 2988
475 2034 3093
669 2157 3190
880 2283 3278
1105 2410 3360
1341 2536 3435
1584 2659 3503
1829 2778 3566
22 1265 0
0 1271 110
0 1269 263
0 1266 428
0 1266 610
0 1269 807
0 1277 1012
0 1293 1219
0 1323 1429
0 1366 1641
0 1418 1850
0 1479 2053
0 1549 2246
0 1627 2426
0 1713 2593
57 1806 2742
232 1906 2875
393 2012 2990
564 2123 3094
752 2237 3190
960 2355 3279
1180 2474 3360
1411 2592 3435
1648 2708 3503
1887 2819 3566
55 1469 4
22 1477 128
0 1475 275
0 1472 436
0 1470 618
0 1470 817
0 1475 1024
0 1487 1236
0 1506 1445
0 1538 1653
0 1583 1860
0 1636 2061
0 1697 2253
0 1767 2432
73 1844 2597
214 1928 2746
350 2019 2878
496 2116 2991
662 2218 3095
846 2324 3191
1047 2433 3279
1263 2543 3360
1488 2653 3435
1720 2761 3503
1952 2864 3566
108 1672 44
69 1682 159
48 1679 295
22 1677 451
0 1675 631
0 1673 829
0 1676 1038
0 1683 1251
0 1696 1463
0 1718 1670
0 1753 1873
9 1798 2072
57 1851 2262
139 1913 2439
237 1981 2603
344 2057 2751
466 2139 2881
607 2226 2994
768 2319 3097
949 2416 3193
1145 2516 3280
1354 2616 3361
1574 2717 3435
1798 2816 3504
2024 2911 3566
173 1872 101
137 1882 202
119 1880 325
96 1877 476
69 1875 652
42 1873 847
20 1874 1054
11 1878 1268
17 1887 1482
51 1902 1690
119 1926 1891
169 1962 2086
221 2008 2273
288 2061 2449
369 2121 2611
468 2188 2757
587 2261 2886
725 2339 2998
883 2423 3100
1058 2510 3195
1250 2600 3282
1454 2692 3362
1667 2784 3436
1884 2874 3504
2102 2960 3567
243 2065 177
212 2076 254
202 2074 367
186 2071 510
167 2068 681
147 2066 871
133 2066 1077
128 2068 1289
139 2074 1502
171 2085 1711
225 2102 1913
296 2127 2104
353 2164 2288
417 2209 2461
497 2261 2620
596 2320 2764
713 2384 2891
849 2454 3002
1004 2528 3104
1176 2606 3197
1362 2686 3284
1561 2769 3364
1766 2851 3438
1976 2932 3506
2186 3011 3568
320 2249 255
292 2260 317
285 2258 419
275 2256 554
263 2253 718
252 2251 905
246 2249 1106
248 2250 1315
257 2254 1526
287 2261 1734
331 2274 1936
394 2292 2127
476 2318 2306
547 2355 2476
629 2399 2633
729 2450 2774
846 2506 2899
980 2566 3008
1133 2631 3109
1300 2700 3202
1482 2772 3288
1673 2845 3367
1871 2918 3440
2073 2990 3508
2274 3064 3570
405 2421 341
379 2432 392
374 2431 484
368 2429 612
362 2426 768
357 2423 948
354 2422 1143
361 2421 1348
374 2423 1556
400 2428 1762
443 2437 1962
503 2451 2152
583 2470 2330
679 2497 2494
765 2533 2647
866 2576 2786
983 2624 2908
1117 2676 3016
1266 2732 3115
1430 2792 3207
1606 2854 3292
1791 2918 3371
1981 2983 3444
2174 3049 3511
2365 3118 3573
500 2580 435
476 2591 477
473 2590 563
469 2587 682
467 2585 830
466 2583 1002
468 2581 1190
477 2579 1389
495 2580 1592
524 2583 1794
566 2589 1991
626 2600 2179
702 2614 2355
796 2634 2518
906 2660 2665
1009 2696 2800
1127 2736 2920
1259 2780 3025
1406 2829 3123
1565 2880 3214
1734 2933 3298
1913 2989 3376
2095 3048 3448
2278 3109 3515
2459 3173 3576
607 2724 540
588 2733 579
583 2734 654
583 2732 765
583 2730 905
585 2727 1068
591 2725 1248
604 2724 1439
625 2723 1636
657 2725 1833
700 2729 2026
759 2736 2210
834 2747 2384
925 2763 2543
1034 2782 2688
1157 2808 2817
1274 2841 2933
1406 2878 3037
1549 2919 3133
1703 2962 3222
1867 3008 3305
2037 3059 3382
2211 3113 3454
2384 3169 3520
2555 3229 3581
727 2853 659
711 2860 694
705 2862 760
706 2860 863
709 2858 992
715 2856 1146
725 2854 1317
741 2852 1500
765 2851 1689
799 2852 1879
845 2854 2067
903 2859 2246
978 2867 2415
1067 2878 2572
1173 2893 2714
1294 2913 2840
1426 2937 2950
1555 2967 3051
1695 3002 3145
1845 3040 3233
2002 3082 3315
2164 3128 3391
2328 3177 3461
2491 3229 3527
2650 3284 3588
857 2965 789
844 2971 823
838 2973 879
842 2972 973
846 2970 1093
855 2968 1237
868 2966 1398
888 2964 1571
914 2963 1752
950 2963 1934
998 2964 2115
1058 2967 2288
1131 2973 2452
1219 2981 2604
1322 2993 2741
1439 3008 2864
1570 3027 2970
1708 3052 3067
1844 3082 3159
1987 3116 3246
2137 3154 3326
2291 3195 3401
2445 3240 3471
2598 3288 3535
2744 3339 3595
1000 3066 931
989 3071 962
982 3074 1010
987 3073 1096
994 3071 1207
1005 3069 1340
1021 3067 1490
1043 3065 1653
1072 3064 1824
1111 3063 1997
1159 3063 2169
1221 3065 2336
1293 3069 2493
1379 3076 2640
1480 3085 2772
1592 3098 2890
1718 3114 2993
1853 3134 3088
1993 3159 3177
2130 3190 3261
2273 3224 3340
2417 3261 3413
2561 3302 3482
2702 3346 3546
2836 3393 3605
1151 3159 1085
1142 3164 1112
1136 3168 1154
1142 3166 1231
1151 3165 1333
1165 3163 1455
1182 3161 1594
1207 3159 1746
1238 3157 1906
1279 3156 2070
1329 3156 2233
1390 3157 2391
1463 3160 2541
1547 3165 2680
1644 3172 2807
1752 3183 2920
1871 3196 3019
1999 3214 3112
2135 3235 3198
2273 3261 3279
2406 3291 3356
2541 3325 3428
2674 3363 3495
2802 3403 3558
2923 3447 3617
1313 3247 1248
1306 3250 1272
1298 3255 1308
1306 3253 1378
1317 3252 1470
1332 3250 1581
1352 3248 1709
1379 3246 1850
1412 3244 1998
1453 3243 2151
1504 3242 2304
1565 3242 2452
1637 3244 2594
1719 3248 2725
1812 3254 2845
1916 3263 2951
2028 3274 3048
2149 3289 3138
2276 3308 3222
2407 3330 3301
2537 3356 3375
2661 3387 3445
2782 3421 3511
2898 3459 3573
3006 3499 3630
1482 3327 1419
1477 3330 1442
1470 3334 1472
1478 3333 1535
1491 3332 1617
1507 3330 1718
1529 3328 1835
1556 3326 1963
1591 3324 2100
1633 3322 2241
1683 3321 2382
1744 3321 2521
1813 3322 2652
1894 3325 2775
1982 3330 2887
2080 3337 2987
2186 3347 3079
2299 3360 3167
2417 3377 3249
2538 3396 3325
2659 3419 3397
2776 3447 3465
2885 3478 3529
2987 3513 3589
3089 3550 3646
1657 3401 1598
1654 3403 1618
1649 3407 1646
1657 3407 1700
1670 3405 1773
1687 3404 1864
1710 3402 1969
1739 3400 2086
1773 3398 2210
1816 3396 2338
1866 3395 2468
1924 3394 2595
1991 3395 2716
2068 3397 2829
2152 3401 2932
2244 3407 3026
2343 3416 3115
2448 3427 3199
2555 3442 3278
2666 3459 3353
2775 3480 3423
2881 3504 3488
2980 3533 3550
3075 3565 3609
3170 3600 3664
1837 3468 1782
1836 3471 1800
1833 3474 1824
1839 3475 1870
1852 3473 1935
1870 3471 2016
1894 3470 2110
1922 3468 2214
1957 3466 2326
1998 3464 2442
2047 3463 2559
2104 3462 2674
2168 3463 2784
2240 3464 2887
2319 3467 2981
2405 3473 3070
2496 3480 3154
2591 3490 3235
2689 3503 3311
2788 3519 3383
2885 3538 3451
2978 3560 3514
3070 3586 3574
3161 3615 3631
3251 3647 3685
141 28 0
133 0 135
53 11 298
0 60 446
0 126 606
0 198 789
0 272 987
0 350 1195
0 435 1409
0 527 1624
0 629 1837
0 740 2042
0 859 2237
0 986 2421
0 1119 2589
0 1259 2740
0 1406 2874
0 1556 2990
180 1710 3095
416 1866 3192
643 2023 3281
884 2180 3363
1135 2335 3438
1393 2486 3506
1654 2630 3569
149 87 2
119 119 119
35 128 296
0 163 444
0 210 606
0 265 789
0 328 988
0 399 1196
0 478 1410
0 567 1625
0 666 1837
0 774 2043
0 890 2238
0 1014 2421
0 1145 2589
0 1283 2741
0 1427 2874
0 1575 2990
202 1727 3095
430 1881 3192
657 2037 3281
896 2193 3363
1146 2346 3438
1403 2495 3506
1663 2638 3569
154 224 0
101 257 98
17 262 284
0 270 442
0 299 606
0 343 790
0 397 989
0 460 1198
0 536 1411
0 620 1626
0 715 1838
0 818 2043
0 930 2238
0 1051 2421
0 1179 2589
0 1314 2741
0 1455 2874
0 1601 2990
229 1750 3095
450 1902 3192
675 2056 3281
913 2209 3363
1162 2360 3438
1418 2507 3506
1676 2648 3569
147 361 0
75 407 69
2 409 263
0 401 438
0 415 606
0 447 792
0 493 991
0 550 1200
0 618 1413
0 696 1628
0 786 1839
0 884 2044
0 991 2239
0 1106 2422
0 1230 2590
0 1360 2741
0 1497 2875
6 1638 2990
266 1785 3095
479 1933 3192
702 2083 3281
938 2233 3363
1185 2382 3437
1439 2526 3506
1696 2664 3568
143 512 0
60 565 48
9 558 245
0 552 426
0 556 606
0 578 794
0 615 994
0 664 1202
0 725 1416
0 797 1630
0 878 1842
0 970 2046
0 1071 2240
0 1181 2423
0 1298 2590
0 1423 2741
0 1554 2875
78 1691 2990
314 1831 3095
521 1975 3192
739 2121 3281
973 2266 3362
1217 2410 3437
1468 2551 3506
1722 2686 3568
141 683 0
62 728 44
15 726 232
0 720 416
0 720 604
0 732 797
0 760 998
0 800 1206
0 854 1420
0 918 1633
0 992 1844
0 1076 2048
0 1170 2242
0 1272 2424
0 1382 2592
0 1501 2742
0 1625 2875
167 1755 2990
372 1889 3095
571 2027 3192
787 2167 3281
1016 2307 3362
1258 2446 3437
1506 2582 3505
1757 2712 3568
145 867 0
66 907 42
22 908 225
0 902 409
0 901 600
0 906 800
0 923 1003
0 956 1212
0 1001 1425
0 1057 1638
0 1124 1848
0 1200 2052
0 1285 2245
0 1379 2426
0 1482 2593
0 1592 2744
44 1709 2876
255 1831 2991
438 1959 3095
633 2090 3192
844 2223 3280
1071 2357 3362
1308 2490 3436
1552 2620 3505
1799 2745 3567
154 1062 0
80 1097 48
35 1100 224
0 1095 406
0 1092 598
0 1094 802
0 1104 1011
0 1127 1219
0 1163 1432
0 1211 1644
0 1269 1854
0 1337 2056
0 1414 2249
0 1500 2430
0 1594 2596
0 1696 2745
173 1805 2877
344 1919 2992
515 2039 3096
705 2162 3192
912 2287 3281
1134 2414 3362
1367 2540 3436
1606 2663 3505
1849 2781 3567
171 1264 0
105 1294 62
60 1300 229
22 1295 407
0 1291 600
0 1291 806
0 1297 1017
0 1310 1230
0 1337 1441
0 1377 1653
0 1427 1861
0 1487 2062
0 1555 2254
0 1632 2434
0 1718 2599
135 1810 2748
287 1910 2879
436 2016 2993
601 2127 3097
787 2242 3193
990 2359 3281
1207 2478 3362
1435 2596 3436
1670 2711 3504
1906 2823 3567
198 1468 2
141 1495 89
96 1501 241
60 1497 416
20 1493 606
0 1491 812
0 1495 1026
0 1504 1242
0 1520 1454
0 1550 1664
0 1592 1870
0 1644 2070
0 1704 2261
42 1773 2439
149 1849 2603
268 1933 2751
394 2024 2882
536 2121 2995
697 2223 3098
878 2328 3194
1076 2437 3281
1289 2547 3362
1511 2656 3436
1740 2764 3504
1970 2867 3567
234 1671 42
186 1695 131
147 1703 265
117 1699 431
80 1695 618
44 1693 823
11 1694 1036
0 1699 1254
0 1710 1469
20 1730 1678
44 1763 1882
73 1806 2081
128 1858 2269
200 1918 2446
287 1986 2609
387 2061 2756
505 2143 2885
643 2231 2997
801 2323 3100
978 2420 3195
1172 2519 3282
1379 2620 3363
1596 2721 3437
1818 2820 3505
2041 2915 3567
