Log/Raw - Portrait.3dl
#25pt 3DLUT created by 3D LUT Creator Pro (c) Oleg Sharonov
#Copyright Oleg Sharonov
#INPUTGAMMA sRGB IEC61966-2.1 v.2.10
#IMAGEPROFILE sRGB IEC61966-2.1 v.2.10
#OUTPUTGAMMA sRGB IEC61966-2.1 v.2.10
0 256 512 768 1023
0 0 0
0 276 962
0 857 2227
103 1706 3092
1632 2627 3568
0 868 0
0 907 987
0 1280 2236
398 1955 3092
1779 2741 3566
245 2064 177
133 2066 1077
349 2165 2288
1008 2528 3103
2186 3012 3568
859 2964 789
870 2965 1398
1130 2973 2452
1845 3082 3159
2745 3339 3595
1839 3468 1782
1895 3469 2109
2168 3462 2784
2689 3503 3311
3251 3647 3685
1126 13 0
1020 108 1030
483 833 2387
821 1771 3139
1950 2691 3585
1129 875 0
982 982 982
554 1317 2382
970 2019 3138
2070 2799 3584
1191 2058 243
968 2243 937
805 2283 2391
1403 2587 3146
2406 3055 3587
1517 2957 914
1381 3043 1332
1499 3039 2485
2077 3126 3197
2872 3373 3616
2205 3461 1912
2192 3498 2150
2390 3496 2817
2821 3533 3340
3321 3673 3707
2484 457 367
2534 363 1069
2361 987 2376
2148 1914 3253
2653 2867 3646
2478 1102 359
2569 1027 973
2364 1468 2374
2164 2132 3275
2717 2956 3646
2501 2136 664
2553 2234 1023
2402 2402 2402
2344 2726 3266
2900 3182 3652
2610 2971 1361
2610 3037 1637
2572 3129 2559
2689 3247 3295
3175 3475 3685
2893 3459 2311
2903 3492 2479
2931 3579 2917
3133 3625 3427
3514 3754 3779
3284 1407 1319
3312 1424 1680
3303 1712 2582
3246 2529 3255
3342 3181 3702
3279 1767 1385
3305 1793 1727
3330 1943 2589
3257 2685 3264
3363 3235 3717
3276 2509 1633
3299 2559 1893
3334 2664 2642
3300 3028 3303
3444 3415 3734
3310 3098 2236
3331 3136 2395
3365 3240 2862
3404 3404 3404
3594 3655 3786
3427 3523 2907
3444 3550 2988
3493 3631 3221
3596 3725 3594
3807 3888 3896
3713 2642 2598
3722 2695 2740
3736 2872 3086
3740 3231 3477
3815 3631 3818
3709 2776 2656
3719 2822 2790
3744 2950 3100
3752 3273 3496
3828 3667 3831
3706 3077 2831
3716 3111 2934
3735 3189 3168
3763 3407 3550
3871 3771 3873
3726 3416 3119
3737 3444 3187
3746 3504 3332
3804 3663 3658
3958 3924 3958
3779 3703 3452
3786 3720 3488
3814 3774 3594
3908 3896 3838
4095 4095 4095
