Log/Raw - Portrait.3dl
#25pt 3DLUT created by 3D LUT Creator Pro (c) Oleg Sharonov
#Copyright Oleg Sharonov
#INPUTGAMMA sRGB IEC61966-2.1 v.2.10
#IMAGEPROFILE sRGB IEC61966-2.1 v.2.10
#OUTPUTGAMMA sRGB IEC61966-2.1 v.2.10
0 128 256 384 512 640 768 896 1023
0 0 0
0 85 404
0 276 962
0 527 1608
0 857 2227
0 1256 2735
103 1706 3092
850 2176 3361
1632 2627 3568
0 362 0
0 377 413
0 490 969
0 694 1612
0 988 2229
0 1357 2735
209 1781 3092
907 2229 3360
1674 2661 3567
0 868 0
0 869 423
0 907 987
0 1050 1624
0 1280 2236
0 1588 2738
398 1955 3092
1042 2353 3360
1779 2741 3566
57 1468 4
0 1472 436
0 1476 1024
0 1539 1654
0 1697 2253
219 1928 2745
665 2218 3095
1264 2543 3360
1953 2864 3566
245 2064 177
188 2071 510
133 2066 1077
167 2086 1712
349 2165 2288
597 2320 2764
1008 2528 3103
1562 2769 3364
2186 3012 3568
502 2580 435
472 2587 682
468 2581 1191
524 2583 1794
698 2615 2356
1008 2696 2801
1407 2828 3123
1915 2989 3375
2460 3173 3576
859 2964 789
843 2971 973
870 2965 1398
950 2963 1934
1130 2973 2452
1438 3008 2864
1845 3082 3159
2293 3195 3400
2745 3339 3595
1314 3246 1248
1308 3253 1377
1354 3247 1709
1453 3242 2152
1636 3244 2594
1915 3263 2951
2276 3307 3222
2662 3387 3445
3007 3499 3630
1839 3468 1782
1840 3474 1869
1895 3469 2109
1999 3464 2442
2168 3462 2784
2405 3473 3070
2689 3503 3311
2978 3560 3514
3251 3647 3685
478 0 0
426 0 430
87 207 1082
0 518 1681
0 864 2271
0 1272 2759
374 1726 3105
996 2197 3369
1728 2645 3572
478 361 0
399 399 399
71 481 1076
0 697 1681
0 999 2272
0 1374 2759
436 1801 3105
1047 2250 3368
1768 2679 3572
476 864 0
345 969 332
33 982 1057
0 1076 1686
0 1299 2276
154 1606 2761
583 1975 3105
1171 2372 3368
1867 2758 3571
501 1463 0
344 1579 313
190 1563 1021
122 1591 1700
207 1725 2289
425 1949 2767
817 2237 3107
1377 2561 3368
2031 2879 3571
591 2060 191
470 2135 425
388 2132 1050
368 2136 1728
495 2199 2318
738 2342 2784
1128 2545 3115
1657 2784 3372
2252 3024 3573
777 2576 460
692 2622 636
656 2623 1165
684 2619 1797
823 2644 2373
1111 2717 2818
1501 2843 3134
1990 3001 3383
2512 3184 3582
1075 2962 824
1023 2987 960
1019 2989 1383
1082 2984 1936
1240 2991 2463
1523 3024 2876
1914 3095 3170
2349 3206 3408
2784 3349 3601
1475 3244 1285
1450 3260 1389
1470 3263 1707
1558 3257 2157
1725 3257 2603
1986 3275 2961
2330 3318 3231
2701 3396 3453
3033 3507 3636
1953 3466 1819
1946 3476 1894
1980 3480 2118
2076 3474 2452
2234 3472 2794
2458 3482 3079
2728 3512 3319
3005 3568 3522
3271 3655 3691
1126 13 0
1158 0 384
1020 108 1030
693 411 1805
483 833 2387
539 1296 2820
821 1771 3139
1318 2248 3389
1950 2691 3585
1123 393 0
1199 310 282
1007 446 1014
664 604 1829
503 985 2385
575 1402 2820
864 1845 3138
1360 2299 3389
1984 2723 3585
1129 875 0
1167 933 154
982 982 982
664 1082 1801
554 1317 2382
667 1642 2820
970 2019 3138
1462 2420 3388
2070 2799 3584
1142 1466 2
1115 1554 251
958 1622 945
686 1680 1766
651 1780 2382
825 1995 2823
1151 2282 3139
1636 2603 3388
2212 2914 3584
1191 2058 243
1142 2124 434
968 2243 937
761 2270 1742
805 2283 2391
1051 2394 2834
1403 2587 3146
1874 2819 3392
2406 3055 3587
1308 2571 535
1264 2613 688
1095 2723 1052
1046 2712 1783
1109 2717 2411
1347 2768 2860
1718 2879 3163
2164 3030 3404
2635 3211 3596
1517 2957 914
1485 2981 1038
1381 3043 1332
1391 3040 1925
1499 3039 2485
1726 3064 2906
2077 3126 3197
2481 3232 3429
2872 3373 3616
1822 3239 1382
1806 3255 1478
1756 3295 1707
1803 3294 2164
1935 3291 2623
2156 3305 2983
2457 3346 3254
2793 3420 3473
3098 3529 3652
2205 3461 1912
2202 3472 1982
2192 3498 2150
2257 3499 2474
2390 3496 2817
2583 3504 3100
2821 3533 3340
3068 3588 3540
3321 3673 3707
1842 179 82
1893 42 389
1867 48 1004
1708 445 1722
1448 820 2431
1248 1251 2933
1413 1825 3201
1781 2329 3427
2279 2767 3609
1839 468 48
1886 415 362
1918 270 981
1704 670 1716
1441 945 2451
1264 1372 2931
1441 1901 3200
1812 2378 3426
2306 2797 3608
1840 955 0
1877 968 273
1888 933 906
1696 1120 1703
1455 1321 2438
1304 1646 2927
1509 2080 3199
1888 2495 3426
2372 2867 3608
1852 1501 163
1877 1543 337
1858 1615 856
1693 1693 1693
1490 1825 2423
1384 2037 2922
1632 2346 3198
2018 2672 3426
2484 2973 3609
1882 2075 381
1883 2125 507
1846 2227 903
1715 2270 1705
1564 2347 2415
1514 2467 2921
1811 2651 3202
2201 2878 3429
2637 3107 3612
1947 2577 688
1936 2613 809
1884 2706 1104
1786 2755 1764
1700 2793 2435
1704 2853 2930
2047 2937 3215
2428 3080 3440
2818 3259 3622
2076 2957 1085
2065 2978 1189
2023 3034 1439
1934 3102 1903
1916 3119 2501
2043 3134 2951
2329 3181 3244
2681 3278 3465
3006 3415 3643
2280 3235 1559
2274 3250 1642
2254 3288 1841
2192 3356 2159
2260 3353 2647
2418 3358 3019
2653 3393 3294
2932 3461 3508
3202 3565 3680
2550 3457 2076
2551 3467 2137
2551 3492 2283
2543 3538 2514
2628 3539 2854
2774 3544 3137
2960 3570 3376
3172 3623 3574
3404 3706 3736
2484 457 367
2511 416 572
2534 363 1069
2484 641 1689
2361 987 2376
2205 1432 2908
2148 1914 3253
2304 2423 3487
2653 2867 3646
2482 670 364
2508 642 567
2563 537 1029
2515 713 1701
2361 1138 2375
2207 1508 2920
2148 1970 3263
2324 2471 3486
2672 2893 3646
2478 1102 359
2501 1094 552
2569 1027 973
2528 1049 1732
2364 1468 2374
2226 1769 2917
2164 2132 3275
2373 2585 3485
2717 2956 3646
2483 1619 445
2503 1639 592
2556 1675 918
2499 1717 1696
2373 1922 2379
2263 2141 2914
2234 2414 3270
2458 2756 3484
2794 3055 3647
2501 2136 664
2516 2164 774
2553 2234 1023
2495 2304 1709
2402 2402 2402
2332 2543 2918
2344 2726 3266
2581 2952 3487
2900 3182 3652
2539 2609 961
2547 2638 1047
2559 2709 1257
2520 2765 1823
2463 2818 2457
2440 2898 2937
2497 3006 3272
2737 3149 3496
3026 3326 3663
2610 2971 1361
2611 2989 1441
2610 3037 1637
2588 3101 2012
2572 3129 2559
2595 3175 2983
2689 3247 3295
2914 3342 3519
3175 3475 3685
2729 3241 1825
2730 3255 1892
2731 3289 2052
2721 3349 2311
2733 3379 2717
2791 3408 3065
2903 3457 3346
3100 3521 3560
3340 3620 3722
2893 3459 2311
2897 3468 2361
2903 3492 2479
2912 3535 2666
2931 3579 2917
3005 3598 3188
3133 3625 3427
3310 3675 3622
3514 3754 3779
2957 866 771
2969 856 923
3006 798 1267
2986 923 1862
2940 1396 2361
2878 1729 2890
2825 2182 3241
2863 2620 3500
3004 2984 3695
2955 1023 782
2967 1016 931
3003 974 1271
2999 1035 1853
2957 1441 2373
2881 1821 2891
2830 2225 3250
2869 2651 3507
3011 3004 3699
2951 1365 812
2963 1365 955
2996 1347 1282
3035 1300 1816
2975 1623 2403
2887 2031 2896
2846 2379 3251
2885 2732 3518
3036 3060 3702
2950 1836 869
2961 1843 1000
2990 1852 1302
3030 1843 1801
2976 1983 2461
2900 2337 2906
2877 2605 3255
2929 2883 3519
3084 3153 3703
2957 2279 1086
2967 2297 1184
2992 2339 1413
3020 2403 1821
2969 2489 2476
2927 2674 2930
2926 2858 3265
2995 3056 3523
3156 3275 3708
2976 2688 1387
2984 2706 1463
3005 2750 1643
3023 2815 1985
2989 2882 2542
2973 2973 2973
2997 3092 3288
3085 3239 3536
3250 3412 3720
3014 3013 1752
3020 3028 1809
3035 3066 1949
3049 3125 2216
3037 3164 2677
3046 3224 3043
3095 3309 3331
3200 3419 3563
3365 3554 3742
3078 3268 2176
3083 3280 2225
3092 3310 2344
3106 3362 2536
3118 3400 2852
3151 3441 3146
3221 3501 3399
3337 3585 3610
3499 3691 3780
3180 3478 2601
3184 3486 2637
3195 3508 2725
3212 3547 2863
3236 3592 3049
3288 3622 3282
3372 3667 3495
3493 3732 3681
3641 3816 3833
3284 1407 1319
3292 1415 1427
3312 1424 1680
3317 1507 2105
3303 1712 2582
3261 2229 2914
3246 2529 3255
3258 2882 3511
3342 3181 3702
3283 1518 1337
3290 1526 1444
3310 1537 1693
3325 1589 2102
3310 1780 2585
3270 2268 2920
3249 2576 3257
3263 2903 3517
3348 3197 3707
3279 1767 1385
3286 1776 1488
3305 1793 1727
3344 1793 2093
3330 1943 2589
3289 2368 2936
3257 2685 3264
3277 2971 3521
3363 3235 3717
3275 2126 1473
3282 2137 1568
3300 2159 1791
3336 2179 2134
3340 2264 2602
3299 2566 2973
3273 2846 3278
3303 3078 3529
3395 3313 3723
3276 2509 1633
3282 2524 1710
3299 2559 1893
3331 2593 2200
3334 2664 2642
3312 2807 3029
3300 3028 3303
3343 3215 3545
3444 3415 3734
3286 2832 1912
3292 2845 1974
3308 2876 2121
3337 2925 2350
3340 2995 2714
3328 3080 3075
3342 3219 3344
3400 3366 3572
3510 3532 3754
3310 3098 2236
3316 3109 2283
3331 3136 2395
3358 3183 2570
3365 3240 2862
3371 3311 3152
3404 3404 3404
3477 3520 3614
3594 3655 3786
3356 3328 2580
3361 3338 2613
3375 3363 2692
3399 3407 2817
3415 3452 3031
3438 3504 3269
3488 3574 3487
3574 3665 3675
3695 3775 3833
3427 3523 2907
3432 3530 2931
3444 3550 2988
3465 3585 3082
3493 3631 3221
3532 3670 3412
3596 3725 3594
3689 3798 3757
3807 3888 3896
3531 2033 1963
3535 2048 2036
3546 2084 2206
3564 2147 2472
3551 2331 2812
3542 2599 3086
3529 2929 3318
3551 3153 3556
3608 3400 3741
3529 2104 1984
3533 2119 2055
3544 2154 2222
3567 2206 2479
3556 2377 2817
3548 2626 3093
3535 2948 3323
3554 3173 3559
3613 3411 3745
3526 2269 2035
3530 2283 2103
3541 2317 2264
3563 2367 2510
3569 2486 2827
3563 2690 3112
3548 2997 3337
3563 3222 3568
3626 3447 3752
3522 2513 2126
3526 2526 2189
3537 2556 2338
3559 2604 2567
3593 2660 2841
3580 2826 3139
3558 3102 3360
3580 3301 3584
3648 3506 3764
3520 2787 2261
3525 2798 2317
3536 2824 2449
3557 2865 2652
3593 2914 2893
3581 3033 3178
3579 3222 3403
3607 3405 3610
3682 3585 3783
3526 3024 2469
3530 3035 2512
3541 3060 2614
3562 3104 2771
3596 3155 2970
3591 3243 3234
3608 3363 3463
3647 3525 3649
3730 3679 3813
3543 3235 2719
3547 3244 2751
3559 3267 2827
3580 3307 2944
3613 3362 3093
3618 3438 3315
3645 3529 3527
3701 3650 3702
3792 3780 3856
3577 3429 2964
3582 3437 2986
3594 3457 3040
3615 3493 3129
3646 3544 3251
3665 3602 3435
3705 3679 3612
3773 3773 3773
3870 3883 3913
3633 3602 3199
3638 3609 3216
3650 3626 3258
3672 3658 3327
3703 3702 3426
3734 3749 3574
3786 3811 3722
3861 3889 3860
3959 3982 3984
3713 2642 2598
3715 2657 2641
3722 2695 2740
3735 2757 2892
3736 2872 3086
3734 3025 3295
3740 3231 3477
3760 3443 3652
3815 3631 3818
3712 2682 2615
3714 2697 2656
3721 2733 2754
3734 2793 2903
3740 2897 3092
3738 3045 3301
3744 3244 3484
3764 3454 3657
3819 3641 3822
3709 2776 2656
3712 2789 2696
3719 2822 2790
3732 2876 2930
3744 2950 3100
3742 3087 3309
3752 3273 3496
3775 3482 3669
3828 3667 3831
3707 2915 2729
3709 2926 2765
3717 2954 2850
3731 3000 2978
3740 3043 3118
3740 3143 3313
3754 3309 3509
3788 3539 3690
3845 3711 3847
3706 3077 2831
3709 3087 2862
3716 3111 2934
3731 3154 3048
3735 3189 3168
3739 3249 3332
3763 3407 3550
3806 3613 3721
3871 3771 3873
3711 3254 2956
3714 3262 2981
3722 3284 3043
3733 3318 3137
3736 3349 3237
3745 3406 3390
3777 3533 3596
3835 3697 3765
3909 3844 3910
3726 3416 3119
3729 3424 3140
3737 3444 3187
3740 3469 3249
3746 3504 3332
3762 3562 3467
3804 3663 3658
3874 3789 3823
3958 3924 3958
3748 3568 3289
3749 3573 3301
3753 3587 3332
3759 3611 3385
3771 3644 3456
3795 3698 3575
3847 3786 3738
3924 3891 3890
4020 4009 4020
3779 3703 3452
3781 3708 3462
3786 3720 3488
3797 3742 3533
3814 3774 3594
3848 3823 3699
3908 3896 3838
3991 3988 3971
4095 4095 4095
