Log/Raw - Neutral.3dl
#25pt 3DLUT created by 3D LUT Creator Pro (c) Oleg Sharonov
#Copyright Oleg Sharonov
#INPUTGAMMA sRGB IEC61966-2.1 v.2.10
#IMAGEPROFILE sRGB IEC61966-2.1 v.2.10
#OUTPUTGAMMA sRGB IEC61966-2.1 v.2.10
0 256 512 768 1023
0 0 0
0 0 1184
0 0 2631
0 0 3629
0 0 4095
0 1117 0
0 1117 1139
0 1117 2610
0 1117 3623
0 1117 4095
0 2515 0
0 2515 972
0 2515 2551
0 2514 3604
0 2515 4095
473 3526 473
477 3526 864
522 3526 2479
614 3527 3555
1048 3523 4047
2512 4023 2512
2512 4023 2512
2588 4023 3080
2744 4023 3653
2968 4024 4024
1222 0 0
1119 0 1166
718 0 2621
0 0 3626
0 0 4095
1220 1117 0
1117 1117 1117
237 1051 3044
0 1117 3620
0 1117 4095
1216 2515 0
1022 2528 835
560 2525 2554
0 2515 3602
0 2515 4095
1388 3526 515
1300 3526 864
993 3527 2473
611 3527 3553
1048 3523 4047
2780 4023 2588
2747 4023 2578
2685 4024 3083
2743 4023 3652
2968 4024 4024
2685 0 0
2648 0 1097
2517 0 2595
2233 0 3618
1653 0 4095
2685 1117 0
2820 971 871
2636 981 2702
2397 627 3888
1651 1117 4095
2683 2515 0
2650 2516 779
2515 2515 2515
2213 2511 3615
1648 2515 4095
2726 3528 639
2691 3528 874
2576 3529 2467
2332 3530 3546
1934 3528 4056
3351 4023 2841
3335 4023 2831
3255 4031 3151
3215 4032 3668
3209 4030 4030
3671 0 0
3659 0 954
3621 0 2544
3540 0 3602
3392 0 4095
3671 1117 0
3761 815 459
3704 856 2557
3600 906 3656
3391 1117 4095
3668 2516 0
3657 2516 713
3616 2518 2465
3532 2523 3570
3386 2525 4085
3658 3535 906
3647 3535 953
3612 3536 2470
3538 3538 3538
3407 3541 4063
3827 4030 3299
3820 4030 3289
3799 4036 3432
3734 4053 3706
3723 4053 4053
4095 0 0
4095 0 695
4095 0 2462
4095 0 3577
4088 51 4088
4095 1117 0
4095 1117 622
4095 1117 2441
4091 1136 3568
4083 1193 4083
4057 2574 715
4071 2554 727
4074 2552 2420
4070 2566 3539
4065 2593 4065
4033 3559 1718
4033 3559 1718
4041 3560 2640
4059 3559 3535
4058 3570 4058
4053 4053 3745
4053 4053 3745
4058 4058 3808
4073 4073 3938
4095 4095 4095
