Log/Raw - Easy.3dl
#25pt 3DLUT created by 3D LUT Creator Pro (c) Oleg Sharonov
#Copyright Oleg Sharonov
#INPUTGAMMA sRGB IEC61966-2.1 v.2.10
#IMAGEPROFILE sRGB IEC61966-2.1 v.2.10
#OUTPUTGAMMA sRGB IEC61966-2.1 v.2.10
0 256 512 768 1023
0 0 0
0 276 962
0 857 2228
101 1705 3092
1632 2626 3568
0 869 0
0 907 987
0 1280 2236
395 1954 3092
1779 2741 3566
243 2065 177
133 2066 1077
353 2164 2288
1004 2528 3104
2186 3011 3568
857 2965 789
868 2966 1398
1131 2973 2452
1844 3082 3159
2744 3339 3595
1837 3468 1782
1894 3470 2110
2168 3463 2784
2689 3503 3311
3251 3647 3685
1059 210 0
1018 110 1030
484 833 2386
820 1771 3139
1950 2691 3585
1071 788 262
982 982 982
557 1317 2381
969 2019 3138
2070 2798 3584
1191 2058 245
969 2242 939
808 2281 2390
1402 2587 3146
2405 3054 3587
1516 2958 912
1379 3043 1332
1498 3039 2485
2077 3126 3197
2872 3373 3616
2204 3462 1912
2191 3499 2150
2390 3496 2817
2820 3533 3340
3321 3673 3707
2383 757 372
2463 961 745
2360 990 2375
2148 1914 3253
2653 2867 3646
2358 1204 599
2484 1317 868
2362 1470 2374
2164 2131 3276
2717 2956 3646
2410 2002 1154
2496 2117 1360
2402 2402 2402
2345 2727 3265
2900 3182 3652
2608 2966 1382
2610 3036 1641
2573 3128 2559
2691 3247 3295
3175 3475 3685
2893 3460 2310
2903 3493 2478
2931 3579 2917
3133 3625 3427
3514 3754 3779
3208 1691 1356
3249 1794 1569
3250 2155 2403
3246 2530 3254
3342 3181 3702
3195 1950 1517
3236 2043 1713
3281 2335 2403
3257 2686 3264
3363 3235 3717
3181 2509 1967
3218 2581 2119
3290 2807 2571
3299 3029 3303
3444 3415 3734
3237 3023 2568
3267 3068 2669
3342 3197 2955
3404 3404 3404
3594 3655 3786
3414 3494 2978
3435 3529 3037
3494 3631 3221
3596 3725 3594
3807 3888 3896
3655 2747 2659
3672 2808 2759
3710 2997 3025
3724 3282 3456
3815 3630 3818
3649 2850 2739
3667 2904 2830
3714 3051 3060
3736 3326 3473
3828 3667 3831
3640 3094 2951
3658 3136 3020
3698 3235 3183
3747 3460 3521
3871 3771 3873
3657 3399 3251
3675 3430 3300
3701 3497 3404
3792 3678 3656
3958 3924 3958
3730 3672 3552
3742 3691 3579
3781 3749 3661
3898 3888 3857
4095 4095 4095
