Log/Raw - Gritty.3dl
#25pt 3DLUT created by 3D LUT Creator Pro (c) Oleg Sharonov
#Copyright Oleg Sharonov
#INPUTGAMMA sRGB IEC61966-2.1 v.2.10
#IMAGEPROFILE sRGB IEC61966-2.1 v.2.10
#OUTPUTGAMMA sRGB IEC61966-2.1 v.2.10
0 128 256 384 512 640 768 896 1023
0 0 0
0 0 474
0 0 1063
0 0 1594
0 0 2098
0 0 2582
5 5 3050
114 116 3501
246 255 3929
0 450 0
0 452 470
0 432 1065
0 430 1598
0 451 2104
0 497 2595
5 566 3058
118 661 3496
254 766 3939
0 986 0
0 990 446
0 1005 1057
0 1003 1584
0 1017 2086
0 1048 2573
6 1095 3043
122 1165 3497
262 1252 3948
0 1479 0
0 1485 443
0 1506 1048
0 1522 1594
0 1531 2098
0 1553 2584
6 1587 3054
125 1647 3505
269 1724 3958
0 1951 0
0 1962 469
0 1987 1061
0 2006 1600
0 2020 2108
0 2037 2595
6 2064 3065
129 2117 3519
276 2187 3972
0 2409 0
0 2429 523
0 2456 1097
0 2475 1620
0 2492 2122
0 2506 2604
6 2528 3076
132 2576 3531
283 2638 3985
6 2857 6
6 2890 603
6 2916 1147
6 2935 1655
6 2953 2147
6 2967 2623
6 2979 3084
135 3023 3540
287 3079 3995
135 3333 134
132 3364 697
132 3387 1210
134 3405 1701
135 3423 2181
136 3438 2648
136 3450 3103
137 3460 3548
292 3514 4004
282 3814 281
284 3840 801
285 3861 1291
288 3879 1768
290 3896 2236
292 3910 2694
294 3922 3141
295 3932 3580
296 3942 4012
466 0 0
462 0 467
438 0 1062
434 0 1594
455 0 2098
500 0 2582
567 5 3035
653 120 3472
749 263 3920
463 452 0
285 280 302
290 274 1105
321 311 1675
390 381 2148
493 489 2581
625 627 2995
778 792 3413
789 806 3922
443 989 0
298 934 308
296 979 1100
323 978 1634
395 1019 2115
502 1090 2571
638 1185 3005
796 1299 3433
804 1293 3939
442 1484 0
334 1423 339
329 1475 1073
331 1515 1666
402 1543 2141
511 1596 2588
651 1671 3019
811 1768 3452
816 1765 3954
468 1960 0
410 1879 414
404 1936 1100
407 1977 1664
408 2008 2167
520 2058 2614
664 2128 3050
827 2215 3478
827 2225 3969
524 2427 0
524 2335 527
520 2391 1165
523 2430 1693
526 2465 2184
528 2493 2639
674 2558 3073
841 2640 3502
838 2674 3985
604 2886 6
669 2793 672
670 2843 1253
673 2879 1750
678 2913 2226
681 2941 2673
684 2965 3094
854 3045 3523
847 3111 3999
698 3362 132
837 3256 838
841 3298 1359
845 3332 1836
851 3363 2292
856 3390 2729
860 3413 3143
863 3432 3539
855 3540 4009
803 3840 283
838 3844 837
842 3868 1328
846 3889 1804
851 3908 2267
855 3924 2721
858 3937 3163
860 3950 3595
862 3961 4019
1039 0 0
1036 0 443
1026 0 1042
1013 0 1562
1022 0 2058
1049 0 2537
1088 5 2998
1147 123 3455
1226 268 3914
1042 431 0
1042 274 302
1023 283 1062
997 318 1590
1027 389 2070
1087 500 2528
1170 640 2968
1273 807 3404
1269 816 3922
1043 1004 0
1058 977 303
1036 1022 1074
1027 1009 1634
1066 1058 2117
1149 1152 2560
1261 1276 2980
1330 1353 3422
1318 1339 3926
1040 1504 0
1051 1474 333
1051 1526 1080
1070 1580 1685
1099 1607 2154
1183 1673 2597
1294 1767 3017
1357 1825 3453
1336 1811 3948
1057 1984 0
1085 1932 409
1110 1973 1130
1121 2029 1703
1136 2076 2205
1213 2132 2638
1324 2213 3054
1383 2271 3481
1353 2267 3965
1094 2452 0
1156 2387 525
1209 2406 1223
1218 2461 1760
1231 2510 2243
1241 2551 2680
1351 2627 3094
1405 2693 3512
1367 2710 3984
1148 2911 6
1249 2841 674
1337 2835 1345
1346 2886 1847
1357 2932 2307
1369 2972 2735
1376 3006 3127
1425 3091 3538
1381 3142 4000
1210 3384 133
1358 3296 844
1403 3316 1406
1412 3357 1886
1421 3392 2337
1430 3423 2767
1437 3449 3174
1442 3472 3560
1392 3563 4014
1293 3859 285
1329 3866 842
1371 3868 1371
1378 3892 1846
1384 3913 2305
1390 3932 2752
1395 3948 3187
1398 3962 3611
1402 3974 4026
1558 0 0
1558 0 439
1538 0 1028
1538 0 1562
1536 0 2057
1547 0 2534
1573 6 2996
1621 126 3451
1692 274 3912
1565 429 0
1587 309 332
1538 316 1028
1545 322 1595
1544 394 2065
1576 507 2513
1642 650 2955
1731 819 3398
1735 826 3923
1562 1000 0
1580 975 329
1576 1008 1056
1596 1043 1644
1603 1086 2109
1654 1178 2553
1737 1300 2978
1793 1373 3424
1783 1352 3931
1581 1519 0
1632 1510 335
1641 1578 1096
1667 1651 1712
1683 1675 2187
1740 1747 2618
1809 1828 3024
1862 1889 3452
1841 1866 3938
1593 2001 0
1645 1971 411
1674 2029 1140
1721 2096 1757
1746 2155 2252
1792 2211 2671
1855 2281 3074
1898 2335 3489
1865 2318 3962
1618 2471 0
1683 2425 527
1740 2460 1234
1803 2512 1827
1822 2572 2303
1842 2622 2730
1895 2691 3120
1930 2749 3524
1884 2754 3983
1657 2929 6
1747 2876 677
1836 2885 1358
1885 2925 1899
1901 2978 2358
1918 3024 2779
1931 3063 3160
1958 3140 3555
1903 3179 4004
1705 3401 134
1835 3329 850
1882 3354 1417
1938 3376 1943
1951 3416 2392
1963 3451 2812
1974 3481 3209
1982 3507 3582
1918 3590 4020
1773 3877 288
1806 3887 847
1847 3892 1380
1898 3894 1899
1907 3919 2353
1914 3941 2791
1921 3959 3218
1926 3975 3631
1931 3990 4034
2052 0 0
2052 0 462
2026 0 1035
2026 0 1559
2026 0 2057
2030 0 2534
2046 6 2996
2086 129 3453
2148 279 3915
2064 450 0
2053 379 402
2000 388 1050
2009 395 1585
2013 399 2069
2038 514 2518
2089 660 2961
2167 832 3403
2189 835 3925
2058 1013 0
2050 1014 400
2049 1057 1093
2055 1087 1643
2075 1113 2129
2108 1203 2565
2173 1324 2984
2229 1392 3428
2235 1365 3935
2081 1527 0
2102 1537 408
2103 1603 1121
2132 1675 1721
2158 1720 2209
2194 1787 2630
2250 1862 3035
2299 1916 3462
2289 1882 3946
2099 2015 0
2144 2002 413
2171 2076 1156
2211 2155 1782
2250 2235 2296
2284 2287 2709
2338 2356 3097
2381 2408 3495
2356 2381 3954
2119 2486 0
2174 2457 530
2224 2507 1248
2279 2571 1849
2329 2640 2359
2355 2698 2776
2395 2762 3152
2424 2815 3539
2384 2810 3982
2150 2945 6
2224 2908 683
2300 2930 1370
2346 2978 1919
2404 3028 2422
2425 3081 2833
2444 3125 3202
2460 3194 3575
2406 3221 4004
2187 3418 136
2297 3360 857
2337 3390 1428
2389 3417 1960
2452 3443 2459
2468 3483 2870
2483 3518 3254
2494 3549 3610
2427 3620 4026
2243 3893 292
2272 3906 853
2308 3913 1387
2354 3919 1909
2412 3923 2413
2422 3948 2842
2431 3970 3256
2438 3989 3656
2445 4006 4044
2528 0 0
2523 0 510
2498 0 1063
2498 0 1572
2498 0 2062
2498 0 2534
2507 6 2996
2541 131 3454
2596 283 3918
2548 494 0
2489 486 506
2456 497 1110
2457 506 1612
2464 513 2085
2468 520 2523
2516 669 2968
2587 842 3409
2633 843 3930
2540 1045 0
2506 1086 510
2489 1151 1176
2492 1179 1690
2510 1205 2155
2523 1225 2578
2579 1346 2998
2643 1409 3439
2674 1375 3941
2565 1547 0
2548 1590 518
2544 1668 1204
2562 1745 1776
2579 1785 2239
2604 1824 2655
2654 1893 3053
2708 1939 3473
2722 1897 3953
2584 2030 0
2590 2051 526
2605 2130 1233
2632 2209 1825
2664 2286 2326
2690 2336 2736
2737 2396 3116
2783 2438 3511
2781 2400 3964
2602 2499 0
2628 2484 533
2662 2547 1260
2706 2622 1871
2745 2697 2387
2792 2779 2829
2835 2842 3190
2874 2894 3554
2856 2878 3976
2626 2958 6
2672 2935 687
2729 2969 1382
2768 3023 1937
2816 3081 2445
2877 3143 2900
2901 3195 3250
2923 3259 3600
2886 3275 4005
2654 3431 137
2734 3385 862
2768 3419 1437
2810 3449 1973
2863 3481 2477
2930 3514 2940
2948 3554 3304
2964 3590 3640
2913 3655 4030
2702 3906 294
2727 3921 857
2756 3931 1394
2794 3940 1918
2843 3947 2425
2906 3952 2908
2918 3978 3305
2928 4001 3686
2936 4022 4052
2990 5 6
2972 5 580
2955 5 1104
2955 6 1598
2955 6 2078
2955 6 2543
2955 6 2996
2985 133 3455
3035 287 3920
3008 562 6
2916 623 640
2901 639 1193
2901 650 1671
2909 661 2130
2915 669 2562
2919 675 2971
2987 850 3414
3068 849 3934
3011 1090 6
2948 1181 650
2912 1272 1287
2919 1300 1770
2931 1325 2214
2945 1345 2628
2955 1362 3008
3039 1423 3448
3103 1385 3947
3034 1581 6
2983 1666 660
2968 1763 1318
2974 1826 1842
2989 1861 2288
3007 1892 2695
3023 1919 3069
3095 1960 3486
3143 1910 3961
3055 2057 6
3026 2123 673
3023 2212 1345
3037 2279 1883
3058 2356 2375
3078 2398 2776
3099 2434 3140
3159 2467 3527
3190 2418 3974
3073 2519 6
3063 2551 682
3077 2622 1370
3098 2687 1920
3125 2760 2423
3158 2842 2867
3182 2888 3215
3233 2928 3573
3251 2900 3989
3088 2969 6
3093 2957 691
3121 3000 1391
3151 3060 1951
3187 3124 2466
3230 3193 2925
3280 3271 3306
3325 3337 3627
3329 3348 4003
3110 3443 138
3150 3406 866
3177 3444 1445
3209 3478 1985
3248 3515 2493
3297 3553 2960
3360 3597 3372
3380 3639 3677
3364 3701 4035
3151 3917 296
3170 3934 861
3193 3946 1399
3222 3958 1926
3258 3969 2435
3306 3978 2921
3371 3986 3373
3384 4014 3726
3396 4040 4063
3441 114 121
3422 119 665
3412 123 1163
3415 125 1643
3417 129 2113
3419 131 2571
3420 133 3018
3421 135 3457
3467 291 3922
3452 656 122
3349 788 795
3347 804 1297
3347 818 1758
3355 830 2201
3362 840 2625
3368 850 3030
3372 858 3419
3494 855 3938
3464 1160 125
3384 1294 810
3374 1350 1353
3381 1371 1820
3389 1391 2259
3400 1408 2678
3408 1423 3076
3415 1436 3455
3522 1394 3953
3487 1642 129
3417 1764 825
3418 1822 1379
3414 1886 1889
3426 1914 2328
3438 1937 2739
3451 1959 3129
3460 1977 3496
3552 1921 3967
3509 2112 132
3458 2209 840
3460 2269 1401
3464 2331 1922
3467 2405 2409
3483 2438 2813
3498 2465 3189
3510 2489 3540
3587 2432 3983
3527 2569 135
3493 2634 852
3501 2690 1421
3508 2746 1949
3519 2814 2447
3531 2894 2900
3548 2928 3258
3565 2960 3591
3630 2920 4000
3543 3015 136
3523 3037 862
3535 3086 1438
3550 3136 1974
3567 3192 2478
3588 3256 2943
3611 3335 3347
3631 3375 3650
3682 3373 4018
3555 3453 138
3547 3425 870
3564 3466 1451
3583 3504 1994
3607 3546 2506
3634 3589 2978
3667 3640 3395
3710 3704 3726
3757 3770 4039
3590 3927 298
3603 3946 864
3618 3960 1404
3637 3975 1932
3660 3988 2444
3689 4001 2933
3727 4014 3388
3784 4029 3786
3800 4062 4076
3884 252 256
3880 261 763
3879 268 1243
3880 274 1710
3884 279 2170
3887 283 2621
3890 288 3063
3891 291 3497
3893 294 3924
3904 763 262
3888 804 802
3891 815 1285
3894 825 1753
3899 834 2209
3903 841 2655
3908 849 3092
3911 855 3520
3913 860 3940
3923 1248 269
3914 1290 815
3900 1336 1333
3906 1351 1801
3911 1363 2253
3918 1375 2694
3924 1384 3124
3929 1393 3544
3932 1401 3956
3943 1720 276
3936 1763 827
3928 1808 1350
3917 1863 1859
3926 1881 2308
3933 1896 2741
3941 1909 3163
3947 1921 3572
3952 1931 3973
3964 2182 282
3960 2222 837
3953 2264 1365
3948 2316 1879
3938 2379 2374
3948 2399 2799
3956 2415 3208
3965 2431 3605
3972 2445 3990
3982 2633 288
3981 2669 846
3978 2708 1378
3975 2753 1897
3971 2807 2398
3964 2877 2872
3974 2899 3266
3985 2919 3644
3994 2936 4010
3998 3075 292
3999 3107 854
4000 3139 1390
4001 3176 1913
4000 3220 2418
3999 3274 2900
3994 3347 3344
4006 3372 3695
4019 3396 4031
4011 3509 296
4014 3536 861
4018 3560 1399
4022 3587 1926
4026 3618 2436
4030 3655 2923
4032 3701 3375
4033 3769 3768
4049 3800 4057
4023 3936 299
4029 3956 867
4034 3972 1408
4042 3989 1938
4049 4004 2451
4058 4021 2943
4067 4039 3401
4078 4061 3804
4095 4095 4095
