Log/Raw - Gritty.3dl
#25pt 3DLUT created by 3D LUT Creator Pro (c) Oleg Sharonov
#Copyright Oleg Sharonov
#INPUTGAMMA sRGB IEC61966-2.1 v.2.10
#IMAGEPROFILE sRGB IEC61966-2.1 v.2.10
#OUTPUTGAMMA sRGB IEC61966-2.1 v.2.10
0 256 512 768 1023
0 0 0
0 0 1063
0 0 2098
5 5 3050
246 255 3929
0 986 0
0 1005 1057
0 1017 2086
6 1095 3043
262 1252 3948
0 1951 0
0 1987 1061
0 2020 2108
6 2064 3065
276 2187 3972
6 2857 6
6 2916 1147
6 2953 2147
6 2979 3084
287 3079 3995
282 3814 281
285 3861 1291
290 3896 2236
294 3922 3141
296 3942 4012
1039 0 0
1026 0 1042
1022 0 2058
1088 5 2998
1226 268 3914
1043 1004 0
1036 1022 1074
1066 1058 2117
1261 1276 2980
1318 1339 3926
1057 1984 0
1110 1973 1130
1136 2076 2205
1324 2213 3054
1353 2267 3965
1148 2911 6
1337 2835 1345
1357 2932 2307
1376 3006 3127
1381 3142 4000
1293 3859 285
1371 3868 1371
1384 3913 2305
1395 3948 3187
1402 3974 4026
2052 0 0
2026 0 1035
2026 0 2057
2046 6 2996
2148 279 3915
2058 1013 0
2049 1057 1093
2075 1113 2129
2173 1324 2984
2235 1365 3935
2099 2015 0
2171 2076 1156
2250 2235 2296
2338 2356 3097
2356 2381 3954
2150 2945 6
2300 2930 1370
2404 3028 2422
2444 3125 3202
2406 3221 4004
2243 3893 292
2308 3913 1387
2412 3923 2413
2431 3970 3256
2445 4006 4044
2990 5 6
2955 5 1104
2955 6 2078
2955 6 2996
3035 287 3920
3011 1090 6
2912 1272 1287
2931 1325 2214
2955 1362 3008
3103 1385 3947
3055 2057 6
3023 2212 1345
3058 2356 2375
3099 2434 3140
3190 2418 3974
3088 2969 6
3121 3000 1391
3187 3124 2466
3280 3271 3306
3329 3348 4003
3151 3917 296
3193 3946 1399
3258 3969 2435
3371 3986 3373
3396 4040 4063
3884 252 256
3879 268 1243
3884 279 2170
3890 288 3063
3893 294 3924
3923 1248 269
3900 1336 1333
3911 1363 2253
3924 1384 3124
3932 1401 3956
3964 2182 282
3953 2264 1365
3938 2379 2374
3956 2415 3208
3972 2445 3990
3998 3075 292
4000 3139 1390
4000 3220 2418
3994 3347 3344
4019 3396 4031
4023 3936 299
4034 3972 1408
4049 4004 2451
4067 4039 3401
4095 4095 4095
