Log/Raw - Portrait.3dl
#25pt 3DLUT created by 3D LUT Creator Pro (c) Oleg Sharonov
#Copyright Oleg Sharonov
#INPUTGAMMA sRGB IEC61966-2.1 v.2.10
#IMAGEPROFILE sRGB IEC61966-2.1 v.2.10
#OUTPUTGAMMA sRGB IEC61966-2.1 v.2.10
0 43 86 128 171 214 256 299 341 384 427 469 512 555 597 640 682 725 768 810 853 896 938 981 1023 
0 0 0
0 17 124
0 44 255
0 85 404
0 141 572
0 207 760
0 276 962
0 353 1173
0 436 1391
0 527 1608
0 629 1823
0 738 2030
0 857 2227
0 983 2412
0 1116 2582
0 1256 2735
0 1402 2869
0 1552 2986
103 1706 3092
369 1862 3189
605 2019 3279
850 2176 3361
1105 2331 3436
1368 2482 3505
1632 2627 3568
0 105 0
0 112 128
0 135 260
0 169 406
0 216 574
0 268 762
0 331 964
0 399 1175
0 478 1392
0 567 1609
0 665 1823
0 772 2030
0 887 2228
0 1011 2412
0 1142 2582
0 1280 2735
0 1423 2869
0 1571 2986
131 1723 3092
386 1877 3189
619 2033 3279
864 2189 3361
1118 2342 3436
1378 2491 3505
1641 2635 3567
0 227 0
0 229 131
0 238 263
0 262 410
0 296 577
0 343 764
0 397 965
0 460 1176
0 535 1393
0 619 1610
0 713 1824
0 816 2031
0 928 2228
0 1048 2413
0 1176 2582
0 1311 2735
0 1451 2870
0 1596 2986
163 1746 3091
406 1898 3189
638 2051 3279
880 2204 3361
1133 2356 3436
1393 2503 3504
1654 2645 3567
0 362 0
0 363 124
0 366 268
0 377 413
0 404 581
0 442 767
0 490 969
0 547 1179
0 616 1395
0 694 1612
0 783 1825
0 881 2032
0 988 2229
0 1103 2413
0 1226 2583
0 1357 2735
0 1493 2870
0 1635 2986
209 1781 3092
438 1929 3189
666 2079 3278
907 2229 3360
1157 2377 3436
1415 2522 3504
1674 2661 3567
0 514 0
0 515 115
0 515 266
0 520 419
0 535 586
0 566 773
0 607 973
0 659 1183
0 721 1398
0 793 1615
0 875 1828
0 967 2034
0 1068 2231
0 1177 2414
0 1294 2583
0 1419 2736
0 1550 2870
0 1686 2986
263 1827 3092
479 1971 3189
704 2116 3278
941 2262 3360
1190 2406 3435
1445 2547 3504
1702 2682 3567
0 684 0
0 687 108
0 685 262
0 686 422
0 693 594
0 713 779
0 748 980
0 792 1189
0 848 1404
0 913 1619
0 987 1831
0 1072 2037
0 1165 2233
0 1268 2416
0 1379 2584
0 1496 2736
0 1621 2870
91 1750 2986
325 1885 3092
533 2023 3189
753 2163 3278
987 2303 3360
1231 2442 3435
1483 2578 3504
1737 2709 3567
0 868 0
0 872 101
0 870 258
0 869 423
0 872 600
0 884 789
0 907 987
0 945 1196
0 992 1410
0 1050 1624
0 1118 1836
0 1194 2040
0 1280 2236
0 1375 2418
0 1477 2586
0 1588 2738
0 1705 2871
198 1827 2987
398 1955 3092
597 2086 3189
812 2219 3278
1042 2353 3360
1282 2486 3435
1529 2616 3503
1779 2741 3566
0 1063 0
0 1069 101
0 1066 258
0 1065 423
0 1065 604
0 1072 799
0 1085 1000
0 1112 1206
0 1152 1418
0 1203 1632
0 1262 1842
0 1331 2046
0 1409 2239
0 1495 2421
0 1589 2589
0 1692 2739
101 1800 2873
298 1915 2988
477 2034 3092
671 2158 3189
882 2284 3278
1107 2410 3360
1342 2536 3434
1585 2660 3503
1829 2778 3566
22 1264 0
0 1271 110
0 1269 265
0 1266 428
0 1266 610
0 1269 808
0 1278 1012
0 1294 1220
0 1324 1430
0 1367 1641
0 1419 1850
0 1479 2052
0 1549 2245
0 1627 2426
0 1713 2592
64 1806 2742
237 1906 2874
397 2012 2989
567 2123 3093
755 2238 3190
961 2355 3278
1182 2474 3360
1412 2593 3434
1649 2708 3503
1887 2820 3566
57 1468 4
22 1477 128
0 1474 276
0 1472 436
0 1470 618
0 1471 817
0 1476 1024
0 1487 1236
0 1506 1445
0 1539 1654
0 1583 1861
0 1636 2061
0 1697 2253
0 1767 2432
80 1844 2597
219 1928 2745
355 2019 2877
501 2116 2991
665 2218 3095
849 2325 3190
1050 2433 3279
1264 2543 3360
1489 2653 3434
1720 2761 3503
1953 2864 3566
108 1672 44
71 1681 159
51 1678 296
22 1676 452
0 1675 631
0 1674 829
0 1676 1038
0 1683 1251
0 1697 1463
0 1719 1670
0 1753 1874
6 1798 2073
57 1852 2262
141 1913 2439
240 1981 2603
348 2057 2750
470 2139 2880
612 2226 2993
772 2319 3097
951 2416 3192
1147 2516 3280
1356 2617 3360
1575 2718 3435
1800 2817 3503
2024 2912 3566
173 1872 103
139 1882 202
122 1879 325
96 1877 476
69 1875 652
42 1873 847
20 1874 1054
9 1878 1268
15 1888 1482
44 1903 1691
110 1927 1891
163 1963 2087
217 2008 2274
287 2061 2449
371 2121 2610
470 2188 2756
590 2261 2885
729 2339 2997
887 2423 3099
1062 2510 3194
1252 2600 3281
1456 2692 3362
1668 2784 3436
1885 2874 3504
2103 2961 3567
245 2064 177
214 2075 255
204 2073 367
188 2071 510
167 2068 681
147 2067 871
133 2066 1077
128 2068 1289
137 2074 1503
167 2086 1712
219 2103 1913
291 2128 2105
349 2165 2288
416 2210 2461
497 2261 2620
597 2320 2764
716 2384 2891
853 2454 3002
1008 2528 3103
1180 2605 3197
1365 2686 3283
1562 2769 3364
1768 2851 3437
1977 2932 3505
2186 3012 3568
321 2248 255
295 2259 319
287 2257 419
276 2255 554
265 2252 719
252 2250 905
245 2249 1106
246 2250 1315
258 2253 1526
284 2261 1735
327 2274 1936
389 2293 2128
472 2319 2306
543 2356 2476
628 2400 2633
729 2450 2774
847 2506 2899
983 2566 3008
1136 2631 3108
1304 2700 3201
1485 2772 3287
1675 2845 3366
1873 2918 3440
2074 2990 3507
2274 3064 3570
406 2421 341
382 2432 392
377 2430 484
369 2428 612
363 2425 769
357 2423 949
354 2422 1143
359 2421 1348
374 2423 1556
400 2428 1762
441 2437 1962
500 2452 2152
577 2471 2331
676 2497 2494
764 2534 2648
866 2576 2786
984 2623 2908
1119 2676 3015
1269 2732 3114
1433 2792 3206
1609 2854 3291
1793 2918 3370
1983 2983 3443
2175 3049 3510
2366 3118 3572
502 2580 435
478 2590 477
475 2589 563
472 2587 682
468 2585 831
466 2582 1003
468 2581 1191
477 2580 1389
494 2580 1592
524 2583 1794
566 2590 1991
623 2600 2180
698 2615 2356
792 2635 2518
903 2661 2665
1008 2696 2801
1127 2736 2920
1260 2780 3025
1407 2828 3123
1568 2880 3213
1738 2933 3297
1915 2989 3375
2097 3048 3447
2280 3109 3514
2460 3173 3576
610 2724 541
590 2733 581
585 2733 654
584 2732 765
584 2729 905
586 2727 1069
592 2725 1249
603 2724 1439
625 2724 1636
656 2725 1833
701 2729 2026
758 2736 2211
832 2748 2384
922 2763 2544
1031 2783 2689
1154 2808 2818
1274 2841 2933
1406 2878 3037
1550 2918 3133
1706 2961 3222
1870 3008 3305
2039 3059 3382
2213 3113 3453
2386 3169 3520
2555 3229 3581
729 2852 659
713 2860 694
707 2861 760
708 2859 863
711 2857 993
716 2856 1146
726 2853 1317
741 2852 1501
765 2851 1689
798 2852 1879
844 2854 2067
903 2859 2246
976 2867 2416
1065 2879 2572
1171 2894 2714
1292 2913 2840
1425 2937 2950
1556 2967 3051
1696 3001 3145
1847 3040 3232
2004 3082 3314
2166 3128 3390
2330 3177 3461
2493 3229 3526
2651 3284 3587
859 2964 789
846 2970 823
840 2972 879
843 2971 973
849 2969 1093
857 2967 1237
870 2965 1398
888 2964 1572
914 2963 1752
950 2963 1934
997 2964 2114
1058 2967 2288
1130 2973 2452
1217 2981 2604
1319 2993 2742
1438 3008 2864
1568 3028 2970
1708 3052 3067
1845 3082 3159
1989 3116 3245
2140 3154 3325
2293 3195 3400
2447 3240 3470
2599 3288 3535
2745 3339 3595
1001 3065 931
991 3070 962
983 3074 1010
989 3072 1096
996 3071 1207
1007 3069 1340
1023 3067 1491
1043 3065 1654
1072 3063 1825
1110 3063 1997
1159 3063 2169
1220 3066 2336
1293 3069 2493
1379 3076 2640
1478 3085 2773
1591 3098 2891
1716 3114 2993
1853 3134 3088
1993 3159 3177
2132 3190 3261
2274 3224 3339
2419 3261 3413
2562 3302 3481
2703 3346 3545
2836 3393 3605
1153 3159 1085
1145 3164 1112
1137 3167 1154
1144 3166 1231
1153 3164 1333
1166 3163 1455
1184 3161 1594
1208 3159 1747
1239 3157 1907
1278 3156 2070
1329 3156 2233
1390 3157 2391
1462 3160 2541
1547 3165 2680
1643 3172 2807
1751 3183 2920
1870 3197 3019
1999 3214 3112
2136 3235 3198
2274 3261 3279
2408 3291 3356
2543 3325 3428
2675 3363 3495
2803 3403 3558
2924 3447 3616
1314 3246 1248
1307 3250 1272
1300 3254 1307
1308 3253 1377
1319 3252 1470
1334 3249 1581
1354 3247 1709
1380 3245 1850
1413 3244 1999
1453 3242 2152
1504 3242 2304
1565 3242 2452
1636 3244 2594
1719 3248 2725
1811 3254 2845
1915 3263 2951
2028 3274 3048
2149 3289 3138
2276 3307 3222
2408 3330 3301
2538 3356 3374
2662 3387 3445
2783 3421 3511
2899 3459 3572
3007 3499 3630
1483 3326 1419
1478 3330 1441
1472 3334 1471
1480 3333 1534
1492 3331 1617
1509 3330 1718
1530 3328 1835
1558 3325 1963
1592 3324 2100
1633 3322 2241
1684 3321 2383
1744 3321 2521
1813 3322 2652
1893 3325 2775
1982 3330 2887
2080 3337 2987
2186 3347 3080
2299 3360 3167
2417 3377 3249
2539 3396 3325
2660 3419 3397
2776 3447 3465
2885 3478 3529
2988 3512 3589
3089 3550 3646
1659 3400 1598
1655 3403 1618
1651 3407 1645
1658 3407 1699
1672 3405 1773
1689 3403 1864
1712 3401 1969
1740 3399 2086
1774 3397 2210
1816 3396 2338
1866 3395 2468
1924 3394 2595
1991 3395 2716
2067 3397 2829
2152 3401 2932
2244 3407 3026
2343 3416 3115
2448 3427 3199
2556 3442 3278
2666 3459 3353
2776 3480 3423
2882 3504 3488
2980 3533 3550
3075 3564 3609
3171 3599 3664
1839 3468 1782
1837 3471 1800
1835 3474 1824
1840 3474 1869
1854 3473 1935
1872 3471 2016
1895 3469 2109
1923 3467 2214
1958 3465 2326
1999 3464 2442
2048 3463 2559
2104 3462 2674
2168 3462 2784
2240 3464 2887
2319 3468 2981
2405 3473 3070
2496 3480 3154
2591 3490 3235
2689 3503 3311
2788 3519 3383
2885 3538 3450
2978 3560 3514
3071 3585 3574
3161 3615 3631
3251 3647 3685
154 0 0
133 0 135
51 11 299
0 60 446
0 126 607
0 198 789
0 272 987
0 350 1195
0 435 1409
0 527 1624
0 629 1836
0 740 2042
0 859 2237
0 986 2420
0 1120 2588
0 1260 2740
0 1406 2874
0 1556 2989
182 1710 3095
417 1866 3192
644 2024 3281
884 2181 3363
1135 2336 3438
1393 2487 3506
1654 2631 3569
156 103 0
119 119 119
33 128 296
0 163 445
0 209 607
0 265 789
0 328 988
0 399 1196
0 478 1410
0 567 1625
0 666 1837
0 774 2042
0 890 2237
0 1014 2420
0 1145 2589
0 1283 2740
0 1427 2874
0 1575 2989
204 1727 3095
431 1882 3192
658 2038 3281
896 2193 3363
1147 2347 3438
1404 2496 3506
1663 2639 3569
154 225 0
101 257 98
17 263 284
0 270 443
0 299 606
0 343 790
0 397 989
0 460 1198
0 536 1411
0 620 1626
0 715 1838
0 818 2043
0 930 2238
0 1051 2421
0 1179 2589
0 1315 2740
0 1455 2874
0 1601 2989
230 1750 3094
451 1902 3192
676 2056 3281
913 2210 3362
1162 2361 3437
1418 2508 3506
1676 2649 3568
147 361 0
75 407 66
2 410 263
0 403 438
0 416 607
0 447 792
0 493 991
0 550 1199
0 619 1413
0 696 1628
0 786 1839
0 884 2043
0 991 2239
0 1107 2421
0 1231 2589
0 1361 2740
0 1498 2874
11 1639 2989
268 1785 3095
482 1933 3191
703 2083 3281
939 2234 3362
1185 2382 3437
1439 2526 3506
1696 2665 3568
143 512 0
60 565 46
9 559 245
0 553 426
0 557 606
0 578 795
0 615 994
0 664 1203
0 725 1416
0 797 1629
0 878 1841
0 970 2045
0 1071 2240
0 1181 2422
0 1298 2590
0 1423 2741
0 1554 2874
82 1691 2990
316 1831 3095
522 1975 3191
740 2121 3280
974 2266 3362
1218 2411 3437
1468 2551 3505
1722 2686 3568
143 682 0
62 728 44
13 726 232
0 720 416
0 721 604
0 733 798
0 760 998
0 801 1207
0 854 1420
0 918 1633
0 992 1844
0 1076 2047
0 1170 2241
0 1272 2424
0 1383 2591
0 1501 2742
0 1625 2875
171 1755 2990
374 1890 3095
573 2028 3191
788 2168 3280
1017 2308 3362
1258 2447 3436
1506 2582 3505
1757 2713 3568
145 866 0
69 907 44
22 908 225
0 902 409
0 901 600
0 907 800
0 924 1004
0 956 1213
0 1001 1425
0 1057 1638
0 1124 1848
0 1200 2051
0 1285 2245
0 1379 2426
0 1482 2593
0 1592 2743
51 1709 2875
258 1832 2990
441 1959 3095
635 2090 3191
846 2224 3280
1072 2358 3361
1309 2490 3436
1553 2620 3504
1799 2745 3567
156 1062 0
82 1096 48
37 1100 224
0 1096 406
0 1092 598
0 1095 802
0 1105 1011
0 1127 1220
0 1163 1432
0 1211 1645
0 1269 1854
0 1337 2056
0 1414 2248
0 1500 2429
0 1594 2595
0 1696 2744
177 1805 2877
346 1919 2991
518 2039 3095
707 2162 3192
913 2288 3280
1136 2415 3361
1368 2540 3436
1607 2663 3504
1849 2782 3567
173 1263 0
105 1293 62
62 1299 229
22 1295 407
0 1291 599
0 1291 806
0 1298 1018
0 1311 1231
0 1338 1442
0 1377 1653
0 1427 1861
0 1487 2062
0 1555 2254
0 1632 2433
0 1718 2598
141 1810 2747
291 1910 2878
439 2016 2992
604 2127 3096
789 2242 3192
991 2360 3280
1208 2478 3361
1436 2596 3436
1670 2712 3504
1906 2823 3567
198 1467 2
141 1494 89
98 1501 241
62 1497 416
20 1493 605
0 1492 812
0 1495 1026
0 1504 1242
0 1521 1455
0 1551 1664
0 1592 1871
0 1644 2071
0 1704 2261
44 1772 2438
154 1849 2602
272 1933 2750
398 2024 2881
540 2121 2994
701 2223 3097
881 2329 3193
1079 2437 3281
1290 2547 3362
1512 2657 3436
1741 2764 3504
1970 2868 3567
235 1671 44
186 1694 131
147 1702 265
117 1698 431
80 1695 618
42 1693 822
11 1694 1036
0 1700 1254
0 1712 1470
11 1731 1679
37 1763 1883
69 1806 2081
126 1858 2270
200 1918 2446
288 1986 2608
389 2061 2755
509 2143 2884
647 2231 2997
805 2323 3099
981 2420 3194
1174 2520 3282
1381 2620 3362
1597 2721 3436
1819 2820 3504
2042 2915 3567
