Log/Raw - Vivid.3dl
#27pt 3DLUT created by 3D LUT Creator Pro (c) Oleg Sharonov
#Copyright Oleg Sharonov
#INPUTGAMMA sRGB IEC61966-2.1 v.2.10
#IMAGEPROFILE sRGB IEC61966-2.1 v.2.10
#OUTPUTGAMMA sRGB IEC61966-2.1 v.2.10
0 40 79 119 158 197 237 276 315 355 394 433 473 512 551 591 630 669 709 748 787 827 866 905 945 984 1023 
0 0 0
0 0 0
0 0 99
0 0 286
0 36 488
0 115 700
0 195 915
0 281 1141
0 367 1363
0 456 1592
0 548 1818
0 642 2040
0 736 2257
0 833 2466
0 932 2668
0 1030 2856
0 1130 3031
0 1232 3191
0 1333 3333
0 1434 3462
0 1537 3577
0 1638 3681
0 1740 3776
0 1841 3863
0 1943 3944
0 2042 4021
0 2141 4095
0 0 0
0 15 0
0 50 95
0 96 283
0 149 485
0 211 698
0 283 918
0 356 1139
0 434 1366
0 517 1591
0 603 1817
0 690 2039
0 782 2256
0 875 2467
0 970 2667
0 1066 2856
0 1164 3031
0 1262 3191
0 1362 3334
0 1462 3462
0 1562 3577
0 1662 3682
0 1762 3776
0 1863 3863
0 1962 3944
0 2061 4021
0 2159 4095
0 147 0
0 167 0
0 191 95
0 222 284
0 267 488
0 318 699
0 376 915
0 442 1140
0 512 1364
0 588 1592
0 668 1818
0 752 2040
0 838 2257
0 927 2467
0 1018 2668
0 1111 2856
0 1205 3031
0 1301 3190
0 1398 3333
0 1496 3462
0 1594 3577
0 1692 3681
0 1791 3776
0 1889 3863
0 1987 3944
0 2084 4021
0 2181 4095
0 314 0
0 327 0
0 347 95
0 372 284
0 408 487
0 450 699
0 499 915
0 556 1140
0 618 1364
0 686 1592
0 760 1818
0 837 2040
0 917 2257
0 1001 2466
0 1087 2667
0 1175 2856
0 1266 3031
0 1358 3190
0 1451 3333
0 1546 3462
0 1641 3577
0 1737 3681
0 1833 3776
0 1928 3863
0 2024 3944
0 2119 4021
0 2213 4095
0 491 0
0 503 0
0 517 92
0 538 284
0 565 485
0 601 697
0 644 916
0 693 1139
0 748 1365
0 809 1592
0 873 1817
0 945 2041
0 1018 2257
0 1096 2467
0 1176 2667
0 1259 2856
0 1345 3031
0 1432 3191
0 1521 3334
0 1612 3462
0 1703 3577
0 1796 3682
0 1888 3776
0 1980 3863
0 2073 3944
0 2166 4021
0 2257 4095
0 677 0
0 684 0
0 697 92
0 715 284
0 738 487
0 769 698
0 805 917
0 847 1139
0 896 1365
0 948 1591
0 1007 1817
0 1071 2039
0 1139 2257
0 1210 2467
0 1284 2667
0 1361 2856
0 1441 3031
0 1524 3191
0 1608 3334
0 1693 3462
0 1781 3577
0 1869 3681
0 1957 3776
0 2046 3863
0 2135 3944
0 2224 4021
0 2312 4095
0 867 0
0 875 0
0 886 95
0 901 284
0 921 487
0 946 698
0 977 915
0 1016 1140
0 1057 1365
0 1105 1591
0 1157 1818
0 1213 2040
0 1275 2257
0 1339 2466
0 1408 2667
0 1480 2856
0 1553 3031
0 1631 3191
0 1710 3334
0 1790 3462
0 1872 3577
0 1954 3681
0 2039 3776
0 2123 3863
0 2208 3944
0 2293 4021
0 2377 4095
0 1064 0
0 1071 0
0 1080 95
0 1093 284
0 1111 487
0 1133 698
0 1160 916
0 1192 1139
0 1230 1365
0 1271 1592
0 1318 1818
0 1369 2040
0 1424 2257
0 1483 2466
0 1546 2667
0 1611 2856
0 1679 3031
0 1751 3191
0 1824 3334
0 1899 3462
0 1976 3577
0 2053 3681
0 2132 3776
0 2212 3863
0 2292 3944
0 2372 4021
0 2452 4095
0 1265 0
0 1271 0
0 1278 92
0 1290 284
0 1305 487
0 1324 698
0 1348 916
0 1376 1139
0 1410 1365
0 1447 1592
0 1489 1818
0 1534 2040
0 1584 2257
0 1637 2467
0 1693 2667
0 1753 2856
0 1816 3031
0 1881 3191
0 1949 3333
0 2018 3462
0 2089 3577
0 2162 3681
0 2236 3776
0 2310 3863
0 2386 3944
0 2461 4021
0 2537 4095
0 1467 0
0 1472 0
0 1479 95
0 1489 284
0 1502 487
0 1519 698
0 1540 916
0 1566 1139
0 1595 1365
0 1628 1592
0 1665 1818
0 1706 2040
0 1750 2257
0 1798 2466
0 1850 2667
0 1904 2856
0 1961 3031
0 2021 3191
0 2083 3333
0 2147 3462
0 2213 3577
0 2279 3681
0 2348 3776
0 2417 3863
0 2487 3944
0 2558 4021
0 2628 4095
0 1670 0
0 1675 0
0 1681 95
0 1689 284
0 1700 487
0 1716 698
0 1734 916
0 1757 1139
0 1783 1365
0 1813 1592
0 1845 1817
0 1882 2040
0 1922 2257
0 1965 2467
0 2011 2667
0 2060 2856
0 2112 3032
0 2167 3191
0 2223 3334
0 2281 3462
0 2342 3577
0 2404 3681
0 2467 3776
0 2531 3863
0 2595 3944
0 2660 4021
0 2725 4095
0 1872 0
0 1876 0
0 1882 95
0 1889 284
0 1899 487
0 1912 698
0 1929 916
0 1949 1139
0 1972 1365
0 1998 1592
0 2027 1818
0 2060 2040
0 2096 2257
0 2134 2467
0 2176 2667
0 2220 2856
0 2267 3031
0 2316 3191
0 2367 3334
0 2421 3462
0 2476 3577
0 2532 3681
0 2590 3776
0 2648 3863
0 2708 3944
0 2767 4021
0 2827 4095
0 2071 0
0 2074 0
0 2079 95
0 2086 284
0 2095 487
0 2107 698
0 2121 916
0 2139 1139
0 2160 1365
0 2182 1592
0 2209 1818
0 2238 2040
0 2270 2257
0 2304 2466
0 2342 2667
0 2381 2856
0 2424 3031
0 2468 3191
0 2514 3333
0 2562 3462
0 2612 3577
0 2663 3681
0 2715 3776
0 2769 3863
0 2822 3944
0 2877 4021
0 2931 4085
0 2266 0
0 2269 0
0 2273 95
0 2279 284
0 2287 487
0 2298 698
0 2311 916
0 2326 1139
0 2344 1365
0 2364 1591
0 2388 1818
0 2414 2040
0 2442 2257
0 2473 2467
0 2506 2667
0 2542 2856
0 2579 3031
0 2619 3191
0 2661 3334
0 2704 3462
0 2748 3577
0 2794 3681
0 2841 3776
0 2890 3863
0 2938 3942
0 2985 4010
74 3034 4075
0 2455 0
0 2458 0
0 2461 95
0 2467 284
0 2474 487
0 2483 698
0 2494 916
0 2508 1139
0 2524 1365
0 2542 1592
0 2563 1818
0 2585 2040
0 2611 2257
0 2638 2467
0 2667 2667
0 2699 2856
0 2733 3031
0 2768 3191
0 2805 3334
0 2843 3462
0 2883 3577
0 2924 3681
0 2967 3776
0 3008 3858
0 3050 3932
98 3092 4001
255 3135 4066
0 2638 0
0 2640 0
0 2643 95
0 2647 284
0 2653 487
0 2662 698
0 2672 916
0 2684 1139
0 2698 1365
0 2713 1592
0 2732 1818
0 2752 2040
0 2774 2257
0 2798 2467
0 2824 2667
0 2852 2856
0 2881 3031
0 2912 3191
0 2945 3334
0 2979 3462
0 3014 3577
0 3049 3678
0 3085 3768
0 3121 3850
135 3158 3924
274 3195 3993
412 3233 4059
0 2810 0
0 2813 0
0 2815 95
0 2819 284
0 2825 487
0 2832 698
0 2840 916
0 2851 1139
0 2863 1365
0 2877 1592
0 2893 1818
0 2910 2040
0 2929 2257
0 2951 2467
0 2973 2667
0 2997 2856
0 3023 3031
0 3051 3191
0 3079 3333
0 3107 3459
0 3137 3571
0 3167 3671
58 3198 3761
178 3229 3843
302 3261 3918
426 3294 3988
554 3327 4053
0 2973 0
0 2975 0
0 2977 95
0 2981 284
0 2986 487
0 2992 698
0 2999 916
0 3008 1139
0 3019 1365
0 3031 1592
0 3045 1818
0 3060 2040
0 3076 2257
0 3094 2467
0 3114 2667
0 3134 2856
0 3155 3030
0 3178 3188
0 3202 3329
0 3226 3454
14 3251 3566
117 3277 3667
223 3304 3757
333 3331 3838
446 3359 3914
563 3387 3983
684 3417 4049
0 3124 0
0 3126 0
0 3128 95
0 3131 284
0 3134 487
0 3140 698
0 3146 916
0 3154 1139
0 3163 1365
0 3173 1592
0 3184 1819
0 3196 2043
0 3210 2261
0 3225 2471
0 3240 2670
0 3258 2857
0 3276 3030
0 3295 3187
0 3316 3327
76 3336 3452
168 3358 3564
264 3380 3664
365 3403 3754
469 3427 3836
579 3452 3911
691 3476 3980
807 3502 4046
0 3259 0
0 3260 1
0 3262 157
0 3264 337
0 3267 530
0 3272 737
0 3277 952
0 3283 1172
0 3290 1395
0 3298 1620
0 3308 1842
0 3318 2061
0 3329 2275
0 3342 2480
0 3356 2677
25 3371 2861
66 3387 3033
109 3403 3188
154 3421 3327
211 3439 3452
300 3458 3563
394 3477 3663
492 3497 3753
595 3517 3835
701 3539 3909
811 3560 3979
925 3582 4045
0 3379 90
0 3380 196
0 3381 312
0 3383 460
0 3386 631
0 3389 819
0 3394 1019
0 3399 1228
14 3405 1441
35 3412 1658
58 3420 1873
82 3429 2086
111 3439 2295
141 3450 2496
171 3462 2689
206 3474 2870
242 3488 3039
280 3503 3192
320 3518 3329
361 3534 3453
419 3551 3564
512 3567 3664
610 3584 3753
711 3602 3835
817 3620 3910
925 3639 3979
1055 3658 4044
145 3487 293
148 3488 373
152 3489 466
157 3491 591
164 3493 743
171 3496 913
184 3500 1099
196 3504 1295
211 3510 1498
229 3516 1705
249 3523 1913
271 3530 2119
296 3539 2321
321 3548 2518
349 3558 2706
380 3569 2883
412 3581 3048
447 3594 3199
484 3607 3334
522 3621 3456
563 3636 3566
622 3651 3666
721 3666 3755
823 3681 3836
927 3697 3911
1036 3714 3980
1282 3728 4038
340 3585 480
343 3586 545
346 3587 623
350 3588 730
356 3590 864
365 3593 1019
373 3596 1190
386 3600 1374
398 3605 1566
415 3610 1762
432 3616 1961
452 3623 2160
474 3630 2355
498 3638 2545
524 3647 2728
552 3657 2901
583 3667 3062
616 3678 3209
649 3690 3341
687 3702 3461
725 3715 3570
765 3729 3668
827 3742 3758
929 3756 3839
1034 3770 3913
1142 3784 3983
1531 3792 4032
529 3675 662
532 3675 716
534 3676 783
538 3678 877
544 3679 995
551 3682 1135
560 3684 1293
570 3688 1462
583 3692 1643
597 3696 1829
613 3702 2018
633 3708 2208
653 3714 2396
676 3721 2579
699 3729 2756
726 3737 2923
755 3746 3080
785 3756 3222
818 3766 3352
852 3777 3469
889 3789 3576
927 3801 3673
968 3813 3761
1031 3826 3843
1137 3838 3917
1245 3851 3986
1800 3852 4027
716 3757 842
719 3757 889
721 3758 946
725 3759 1029
730 3761 1135
736 3763 1260
745 3765 1404
755 3768 1562
766 3772 1730
780 3776 1905
795 3780 2084
813 3786 2265
832 3791 2444
853 3798 2620
876 3805 2789
901 3812 2951
928 3820 3101
958 3829 3239
988 3838 3365
1021 3848 3479
1056 3858 3584
1093 3869 3679
1131 3880 3766
1171 3892 3846
1237 3903 3921
1346 3915 3990
2095 3908 4023
903 3833 1022
905 3833 1062
908 3834 1113
911 3835 1185
916 3836 1280
923 3838 1393
930 3840 1524
940 3843 1669
951 3846 1826
963 3850 1989
978 3854 2158
995 3858 2329
1013 3863 2499
1032 3869 2667
1054 3875 2829
1078 3882 2983
1103 3889 3128
1131 3897 3260
1160 3905 3382
1192 3914 3493
1225 3923 3594
1260 3933 3687
1297 3943 3772
1336 3954 3851
1376 3965 3925
1444 3976 3995
2411 3960 4021
1090 3903 1203
1093 3904 1238
1094 3904 1282
1098 3905 1346
1103 3906 1430
1108 3908 1533
1116 3910 1652
1125 3912 1785
1135 3915 1929
1147 3918 2081
1161 3922 2240
1177 3926 2400
1194 3931 2561
1213 3936 2719
1234 3941 2873
1256 3947 3021
1281 3954 3158
1307 3961 3285
1335 3968 3402
1365 3976 3509
1397 3985 3607
1430 3994 3697
1466 4003 3780
1566 4011 3857
1912 4013 3925
2222 4015 3983
2748 4006 4021
0 0 0
0 0 0
0 0 300
0 0 785
0 22 625
0 118 699
0 200 915
0 285 1140
0 369 1363
0 459 1592
0 551 1818
0 644 2040
0 739 2257
0 834 2466
0 933 2668
0 1032 2856
0 1132 3031
0 1233 3191
0 1334 3333
0 1436 3462
0 1537 3577
0 1639 3681
0 1742 3776
0 1842 3863
0 1943 3944
0 2043 4021
0 2142 4095
0 0 0
0 22 0
0 56 146
0 99 417
0 155 533
0 216 698
0 285 918
0 358 1139
0 437 1365
0 518 1591
0 604 1817
0 693 2039
0 783 2256
0 876 2466
0 972 2667
0 1067 2856
0 1165 3031
0 1264 3191
0 1363 3334
0 1462 3462
0 1563 3577
0 1663 3682
0 1764 3776
0 1863 3863
0 1963 3944
0 2062 4021
0 2159 4095
0 152 0
0 177 0
0 200 104
0 233 320
0 269 489
0 320 699
0 379 915
0 445 1140
0 514 1364
0 591 1592
0 670 1818
0 753 2040
0 839 2257
0 928 2466
0 1019 2667
0 1112 2856
0 1206 3031
0 1302 3190
0 1399 3333
0 1496 3462
0 1595 3577
0 1693 3681
0 1791 3776
0 1890 3863
0 1988 3944
0 2085 4021
0 2181 4095
0 318 0
0 347 0
0 358 83
0 377 286
0 410 487
0 452 699
0 500 915
0 559 1140
0 620 1364
0 689 1592
0 762 1818
0 838 2040
0 918 2257
0 1002 2466
0 1088 2667
0 1177 2856
0 1267 3031
0 1358 3190
0 1453 3334
0 1546 3462
0 1642 3577
0 1737 3681
0 1833 3776
0 1929 3863
0 2025 3944
0 2120 4021
0 2214 4095
0 493 0
0 508 0
0 518 92
0 541 284
0 569 488
0 603 697
0 647 916
0 695 1139
0 749 1365
0 811 1592
0 875 1817
0 945 2041
0 1020 2257
0 1097 2467
0 1177 2667
0 1261 2856
0 1346 3032
0 1434 3191
0 1523 3334
0 1612 3462
0 1704 3577
0 1796 3681
0 1889 3776
0 1981 3863
0 2074 3944
0 2166 4021
0 2258 4095
0 678 0
0 688 0
0 699 92
0 718 284
0 740 487
0 770 698
0 807 916
0 849 1139
0 897 1365
0 950 1591
0 1009 1817
0 1072 2039
0 1139 2256
0 1211 2467
0 1285 2667
0 1363 2855
0 1442 3031
0 1525 3191
0 1609 3334
0 1695 3462
0 1781 3577
0 1869 3681
0 1957 3776
0 2047 3863
0 2136 3944
0 2224 4021
0 2312 4095
0 869 0
0 876 0
0 888 95
0 902 284
0 922 487
0 948 698
0 979 915
0 1017 1140
0 1059 1365
