Log/Raw - Easy.3dl
#25pt 3DLUT created by 3D LUT Creator Pro (c) Oleg Sharonov
#Copyright Oleg Sharonov
#INPUTGAMMA sRGB IEC61966-2.1 v.2.10
#IMAGEPROFILE sRGB IEC61966-2.1 v.2.10
#OUTPUTGAMMA sRGB IEC61966-2.1 v.2.10
0 128 256 384 512 640 768 896 1023
0 0 0
0 85 404
0 276 962
0 527 1609
0 857 2228
0 1255 2735
101 1705 3092
850 2175 3361
1632 2626 3568
0 363 0
0 377 413
0 490 969
0 694 1613
0 987 2230
0 1356 2736
205 1780 3092
906 2228 3361
1674 2660 3567
0 869 0
0 869 423
0 907 987
0 1050 1625
0 1280 2236
0 1588 2738
395 1954 3092
1040 2352 3360
1779 2741 3566
55 1469 4
0 1472 436
0 1475 1024
0 1538 1653
0 1697 2253
214 1928 2746
662 2218 3095
1263 2543 3360
1952 2864 3566
243 2065 177
186 2071 510
133 2066 1077
171 2085 1711
353 2164 2288
596 2320 2764
1004 2528 3104
1561 2769 3364
2186 3011 3568
500 2580 435
469 2587 682
468 2581 1190
524 2583 1794
702 2614 2355
1009 2696 2800
1406 2829 3123
1913 2989 3376
2459 3173 3576
857 2965 789
842 2972 973
868 2966 1398
950 2963 1934
1131 2973 2452
1439 3008 2864
1844 3082 3159
2291 3195 3401
2744 3339 3595
1313 3247 1248
1306 3253 1378
1352 3248 1709
1453 3243 2151
1637 3244 2594
1916 3263 2951
2276 3308 3222
2661 3387 3445
3006 3499 3630
1837 3468 1782
1839 3475 1870
1894 3470 2110
1998 3464 2442
2168 3463 2784
2405 3473 3070
2689 3503 3311
2978 3560 3514
3251 3647 3685
447 64 0
425 0 431
87 207 1082
0 518 1681
0 864 2271
0 1272 2759
373 1725 3105
995 2197 3369
1728 2645 3573
458 320 37
399 399 399
73 481 1075
0 697 1681
0 1000 2272
0 1374 2759
435 1800 3105
1046 2249 3369
1768 2678 3572
476 864 0
346 968 332
35 981 1057
0 1076 1685
0 1299 2276
147 1606 2761
579 1974 3105
1170 2372 3368
1866 2757 3571
501 1465 0
344 1580 312
191 1562 1021
126 1589 1700
209 1725 2289
423 1949 2768
814 2237 3108
1376 2560 3368
2030 2878 3571
590 2061 190
469 2136 424
389 2131 1051
372 2135 1728
499 2198 2318
738 2342 2784
1125 2545 3116
1654 2784 3372
2252 3024 3574
777 2577 459
691 2623 635
655 2623 1164
684 2619 1798
826 2643 2373
1112 2717 2817
1499 2843 3134
1987 3001 3384
2511 3184 3582
1073 2962 823
1021 2987 960
1018 2990 1382
1083 2984 1936
1240 2991 2463
1525 3024 2876
1913 3095 3170
2347 3206 3409
2783 3349 3601
1474 3244 1285
1448 3261 1389
1468 3264 1707
1558 3257 2156
1726 3257 2603
1987 3274 2961
2330 3318 3231
2700 3396 3453
3033 3508 3636
1952 3466 1819
1945 3477 1895
1978 3480 2118
2075 3474 2452
2234 3472 2794
2458 3481 3079
2728 3512 3319
3004 3568 3522
3271 3655 3691
1059 210 0
1104 289 207
1018 110 1030
694 412 1804
484 833 2386
539 1297 2820
820 1771 3139
1317 2248 3389
1950 2691 3585
1043 436 53
1138 478 198
1006 446 1015
665 605 1828
504 985 2385
575 1402 2820
864 1845 3138
1359 2299 3389
1984 2723 3585
1071 788 262
1136 853 358
982 982 982
666 1083 1800
557 1317 2381
667 1642 2820
969 2019 3138
1462 2419 3388
2070 2798 3584
1142 1449 62
1114 1553 254
960 1621 945
688 1678 1765
655 1780 2380
826 1995 2823
1149 2282 3140
1634 2603 3389
2212 2914 3584
1191 2058 245
1143 2123 435
969 2242 939
763 2269 1742
808 2281 2390
1054 2394 2834
1402 2587 3146
1872 2819 3393
2405 3054 3587
1307 2572 533
1264 2614 687
1094 2724 1051
1047 2712 1783
1113 2716 2411
1350 2768 2860
1717 2879 3163
2162 3030 3404
2634 3211 3597
1516 2958 912
1485 2982 1036
1379 3043 1332
1391 3040 1926
1498 3039 2485
1728 3063 2906
2077 3126 3197
2479 3232 3429
2872 3373 3616
1821 3240 1381
1805 3255 1477
1754 3296 1707
1803 3295 2163
1936 3291 2623
2156 3305 2983
2457 3346 3254
2792 3420 3473
3097 3529 3652
2204 3462 1912
2201 3472 1982
2191 3499 2150
2256 3499 2474
2390 3496 2817
2583 3504 3100
2820 3533 3340
3068 3588 3540
3321 3673 3707
1749 434 75
1815 467 224
1790 570 821
1707 449 1722
1450 823 2429
1247 1250 2933
1413 1825 3201
1781 2329 3427
2279 2766 3609
1735 617 180
1797 654 298
1839 741 751
1703 672 1716
1442 947 2450
1264 1372 2931
1441 1902 3200
1811 2378 3427
2306 2796 3609
1721 963 377
1774 1008 465
1823 1172 749
1695 1121 1704
1456 1323 2437
1306 1646 2926
1510 2080 3199
1887 2495 3426
2372 2866 3608
1768 1377 617
1810 1425 692
1835 1531 1014
1693 1693 1693
1491 1827 2421
1387 2038 2921
1632 2346 3198
2017 2672 3426
2484 2973 3609
1878 2013 547
1885 2079 617
1845 2226 908
1716 2269 1704
1566 2346 2415
1516 2467 2920
1812 2651 3201
2200 2878 3430
2637 3107 3612
1947 2576 691
1936 2612 812
1884 2706 1105
1788 2754 1765
1703 2792 2435
1707 2852 2930
2048 2937 3215
2426 3080 3441
2817 3259 3623
2076 2957 1083
2065 2979 1188
2023 3034 1438
1934 3102 1903
1917 3118 2502
2045 3133 2950
2329 3181 3244
2680 3278 3465
3006 3415 3644
2279 3236 1557
2274 3251 1640
2254 3288 1840
2191 3356 2158
2260 3353 2648
2418 3358 3019
2654 3393 3294
2931 3461 3508
3202 3566 3680
2549 3457 2075
2550 3467 2136
2550 3493 2283
2542 3538 2514
2628 3539 2854
2774 3544 3137
2960 3570 3376
3172 3623 3574
3404 3706 3736
2383 757 372
2422 792 468
2463 961 745
2423 972 1584
2360 990 2375
2206 1435 2907
2148 1914 3253
2304 2423 3487
2653 2867 3646
2374 902 439
2412 937 529
2488 1040 760
2447 1096 1563
2360 1141 2375
2208 1510 2919
2148 1970 3263
2324 2471 3486
2671 2893 3646
2358 1204 599
2393 1241 679
2484 1317 868
2447 1498 1503
2362 1470 2374
2227 1771 2916
2164 2131 3276
2373 2585 3485
2717 2956 3646
2355 1595 860
2385 1630 929
2464 1715 1093
2448 1942 1531
2373 1923 2379
2264 2142 2913
2235 2414 3269
2458 2757 3484
2794 3054 3647
2410 2002 1154
2435 2035 1214
2496 2117 1360
2477 2237 1830
2402 2402 2402
2332 2544 2917
2345 2727 3265
2581 2952 3487
2900 3182 3652
2519 2535 1200
2534 2569 1250
2559 2660 1379
2522 2759 1831
2464 2817 2456
2440 2897 2937
2499 3006 3271
2737 3149 3497
3026 3326 3663
2608 2966 1382
2610 2989 1446
2610 3036 1641
2588 3100 2014
2573 3128 2559
2596 3175 2983
2691 3247 3295
2914 3343 3519
3175 3475 3685
2729 3242 1825
2730 3255 1891
2731 3289 2052
2720 3349 2310
2733 3378 2717
2792 3408 3065
2904 3457 3345
3100 3521 3561
3339 3620 3722
2893 3460 2310
2896 3469 2359
2903 3493 2478
2911 3535 2665
2931 3579 2917
3005 3598 3188
3133 3625 3427
3310 3675 3622
3514 3754 3779
2872 1184 789
2892 1218 867
2943 1292 1053
2926 1517 1582
2915 1521 2335
2878 1732 2889
2825 2184 3241
2863 2620 3500
3004 2984 3695
2867 1293 846
2886 1327 922
2937 1400 1101
2941 1603 1564
2925 1609 2332
2880 1824 2891
2831 2227 3249
2869 2651 3506
3010 3004 3699
2856 1535 984
2875 1567 1053
2923 1640 1220
2978 1796 1527
2931 1868 2322
2886 2033 2896
2847 2380 3250
2885 2733 3518
3036 3059 3702
2845 1873 1211
2864 1902 1273
2909 1972 1421
2970 2098 1687
2920 2301 2297
2899 2338 2907
2878 2606 3254
2929 2883 3519
3084 3153 3703
2851 2233 1522
2867 2259 1575
2907 2323 1703
2961 2434 1936
2939 2629 2375
2926 2674 2930
2927 2859 3264
2995 3056 3523
3156 3274 3708
2898 2576 1843
2912 2598 1889
2944 2651 1999
2991 2737 2204
2979 2844 2611
2973 2973 2973
2997 3092 3288
3085 3240 3535
3250 3412 3720
2987 2939 2023
2989 2970 2050
3014 3015 2134
3046 3088 2308
3039 3159 2683
3046 3224 3043
3096 3308 3331
3200 3419 3563
3365 3554 3742
3072 3246 2255
3078 3261 2289
3090 3299 2376
3106 3361 2538
3118 3400 2853
3151 3441 3146
3222 3501 3399
3337 3585 3610
3499 3691 3780
3180 3478 2600
3184 3487 2637
3195 3509 2724
3212 3547 2862
3236 3593 3048
3288 3622 3282
3373 3667 3496
3493 3732 3681
3641 3816 3833
3208 1691 1356
3219 1722 1418
3249 1794 1569
3269 1983 1854
3250 2155 2403
3261 2229 2914
3246 2530 3254
3258 2882 3511
3342 3181 3702
3204 1770 1403
3215 1800 1463
3245 1869 1610
3276 2027 1877
3259 2208 2404
3270 2269 2920
3249 2577 3257
3263 2903 3517
3348 3196 3707
3195 1950 1517
3207 1977 1574
3236 2043 1713
3290 2141 1937
3281 2335 2403
3278 2405 2931
3257 2686 3264
3277 2971 3521
3363 3235 3717
3186 2213 1709
3197 2237 1760
3225 2297 1884
3276 2388 2087
3295 2581 2411
3271 2672 2941
3272 2847 3278
3303 3079 3529
3395 3313 3723
3181 2509 1967
3191 2530 2012
3218 2581 2119
3265 2661 2295
3290 2807 2571
3275 2948 2956
3299 3029 3303
3343 3215 3545
3444 3415 3734
3192 2787 2275
3202 2803 2312
3226 2844 2400
3269 2909 2544
3301 3009 2767
3309 3145 3031
3342 3219 3344
3400 3367 3572
3510 3532 3754
3237 3023 2568
3245 3036 2598
3267 3068 2669
3304 3123 2783
3342 3197 2955
3365 3291 3182
3404 3404 3404
3477 3520 3614
3594 3655 3786
3317 3255 2798
3324 3267 2819
3343 3298 2869
3369 3364 2939
3409 3427 3075
3439 3500 3272
3489 3574 3487
3574 3665 3675
3695 3775 3833
3414 3494 2978
3420 3504 2995
3435 3529 3037
3460 3573 3109
3494 3631 3221
3532 3670 3412
3596 3725 3594
3689 3798 3757
3807 3888 3896
3462 2236 2019
3469 2262 2065
3488 2322 2176
3519 2426 2362
3514 2621 2674
3509 2783 3020
3529 2929 3318
3551 3152 3556
3608 3399 3741
3459 2289 2054
3467 2313 2099
3485 2372 2208
3520 2464 2385
3520 2654 2680
3514 2809 3025
3535 2948 3323
3554 3173 3559
3613 3411 3745
3453 2411 2142
3460 2434 2184
3479 2488 2287
3514 2573 2454
3534 2733 2695
3529 2873 3037
3548 2998 3337
3563 3221 3568
3626 3447 3752
3445 2595 2287
3452 2614 2325
3471 2661 2419
3505 2736 2569
3555 2833 2764
3548 2984 3061
3558 3102 3360
3580 3301 3584
3648 3506 3764
3439 2807 2482
3446 2823 2515
3464 2861 2595
3497 2922 2723
3549 3000 2885
3553 3153 3105
3566 3253 3391
3607 3406 3610
3682 3585 3783
3442 3010 2707
3449 3023 2734
3467 3054 2797
3498 3106 2898
3547 3177 3028
3565 3299 3212
3590 3416 3434
3647 3525 3649
3730 3679 3813
3461 3200 2935
3468 3211 2954
3485 3238 3001
3515 3284 3080
3560 3349 3189
3593 3442 3344
3636 3558 3507
3701 3650 3702
3792 3780 3856
3511 3379 3138
3517 3388 3154
3533 3412 3194
3561 3452 3260
3601 3510 3353
3645 3582 3483
3703 3670 3624
3773 3773 3773
3870 3883 3913
3591 3549 3328
3597 3557 3341
3612 3577 3373
3638 3613 3428
3675 3666 3505
3725 3733 3603
3785 3809 3725
3861 3889 3860
3959 3982 3984
3655 2747 2659
3660 2764 2689
3672 2808 2759
3695 2878 2872
3710 2997 3025
3711 3135 3239
3724 3282 3456
3760 3443 3652
3815 3630 3818
3653 2777 2682
3658 2795 2711
3670 2837 2780
3694 2904 2889
3712 3014 3037
3715 3151 3246
3728 3296 3461
3764 3454 3657
3819 3641 3822
3649 2850 2739
3654 2866 2766
3667 2904 2830
3690 2965 2932
3714 3051 3060
3720 3185 3257
3736 3326 3473
3775 3482 3669
3828 3667 3831
3644 2959 2831
3649 2973 2855
3661 3006 2912
3685 3062 3003
3706 3121 3102
3720 3232 3263
3738 3363 3483
3788 3539 3690
3845 3711 3847
3640 3094 2951
3645 3106 2972
3658 3136 3020
3682 3186 3102
3698 3235 3183
3717 3314 3302
3747 3460 3521
3806 3613 3721
3871 3771 3873
3643 3245 3093
3648 3255 3110
3661 3281 3152
3681 3323 3218
3694 3364 3285
3719 3437 3395
3765 3571 3573
3831 3703 3763
3909 3844 3910
3657 3399 3251
3662 3408 3265
3675 3430 3300
3685 3458 3343
3701 3497 3404
3732 3564 3504
3792 3678 3656
3869 3800 3817
3958 3924 3958
3683 3544 3410
3686 3550 3419
3693 3565 3441
3705 3591 3480
3725 3627 3533
3764 3688 3623
3834 3784 3755
3921 3895 3888
4020 4009 4020
3730 3672 3552
3733 3677 3559
3742 3691 3579
3757 3714 3613
3781 3749 3661
3826 3805 3743
3898 3888 3857
3989 3985 3976
4095 4095 4095
