Log/Raw - Neutral.3dl
#25pt 3DLUT created by 3D LUT Creator Pro (c) Oleg Sharonov
#Copyright Oleg Sharonov
#INPUTGAMMA sRGB IEC61966-2.1 v.2.10
#IMAGEPROFILE sRGB IEC61966-2.1 v.2.10
#OUTPUTGAMMA sRGB IEC61966-2.1 v.2.10
0 43 86 128 171 214 256 299 341 384 427 469 512 555 597 640 682 725 768 810 853 896 938 981 1023 
0 0 0
0 0 58
0 0 271
0 0 488
0 0 711
0 0 950
0 0 1184
0 0 1434
0 0 1680
0 0 1928
0 0 2168
0 0 2405
0 0 2631
0 0 2839
0 0 3037
0 0 3213
0 0 3368
0 0 3505
0 0 3629
0 0 3738
0 0 3837
0 0 3927
0 0 4012
0 0 4093
0 0 4095
0 51 0
0 51 58
0 51 262
0 51 474
0 51 700
0 51 939
0 51 1185
0 51 1434
0 51 1681
0 51 1929
0 51 2168
0 51 2401
0 51 2628
0 51 2840
0 51 3035
0 51 3211
0 51 3368
0 51 3506
0 51 3628
0 51 3738
0 51 3837
0 51 3928
0 51 4013
0 51 4093
0 51 4095
0 239 0
0 241 41
0 241 250
0 239 466
0 239 695
0 241 934
0 241 1180
0 241 1429
0 241 1677
0 241 1925
0 241 2165
0 241 2403
0 241 2625
0 241 2838
0 241 3033
0 241 3210
0 241 3367
0 241 3505
0 241 3628
0 241 3737
0 241 3837
0 241 3927
0 241 4012
0 241 4093
0 241 4094
0 444 0
0 444 13
0 444 232
0 446 457
0 444 689
0 444 927
0 444 1173
0 444 1422
0 444 1672
0 444 1920
0 444 2162
0 444 2399
0 444 2623
0 444 2836
0 444 3033
0 444 3208
0 444 3366
0 444 3503
0 444 3627
0 444 3736
0 444 3836
0 444 3926
0 444 4011
0 444 4093
0 444 4095
0 659 0
0 659 0
0 659 210
0 661 439
0 661 674
0 661 918
0 659 1164
0 659 1414
0 659 1665
0 659 1914
0 661 2159
0 659 2394
0 661 2621
0 661 2834
0 661 3030
0 661 3208
0 659 3364
0 661 3503
0 661 3626
0 661 3736
0 659 3835
0 661 3926
0 661 4011
0 661 4092
0 661 4095
0 885 0
0 884 0
0 885 176
0 885 416
0 885 658
0 885 903
0 885 1153
0 885 1405
0 885 1658
0 885 1908
0 884 2152
0 885 2390
0 884 2615
0 885 2829
0 885 3027
0 885 3205
0 885 3362
0 885 3501
0 885 3625
0 885 3735
0 885 3834
0 885 3925
0 885 4010
0 885 4091
0 885 4095
0 1117 0
0 1117 0
0 1117 133
0 1117 388
0 1117 636
0 1117 886
0 1117 1139
0 1117 1393
0 1117 1647
0 1117 1899
0 1117 2144
0 1117 2384
0 1117 2610
0 1117 2825
0 1117 3024
0 1117 3201
0 1117 3360
0 1117 3499
0 1117 3623
0 1117 3733
0 1117 3833
0 1117 3924
0 1117 4009
0 1117 4090
0 1117 4095
0 1354 0
0 1354 0
0 1354 71
0 1354 350
0 1354 609
0 1354 864
0 1353 1121
0 1354 1378
0 1353 1635
0 1354 1888
0 1354 2137
0 1354 2375
0 1354 2605
0 1353 2819
0 1354 3019
0 1354 3198
0 1354 3356
0 1354 3497
0 1354 3621
0 1353 3731
0 1354 3831
0 1353 3923
0 1354 4008
0 1354 4089
0 1354 4095
0 1592 0
0 1592 0
0 1592 0
0 1592 305
0 1592 575
0 1592 838
0 1592 1100
0 1592 1361
0 1592 1620
0 1592 1876
0 1592 2125
0 1592 2367
0 1592 2596
0 1592 2813
0 1592 3013
0 1592 3193
0 1592 3353
0 1592 3493
0 1592 3618
0 1592 3730
0 1592 3830
0 1592 3922
0 1592 4007
0 1592 4088
0 1592 4095
0 1829 0
0 1829 0
0 1830 0
0 1830 245
0 1830 535
0 1829 807
0 1830 1075
0 1830 1340
0 1830 1602
0 1830 1861
0 1829 2112
0 1830 2356
0 1829 2587
0 1830 2805
0 1830 3007
0 1829 3188
0 1830 3348
0 1829 3490
0 1830 3616
0 1830 3727
0 1830 3828
0 1830 3920
0 1830 4005
0 1830 4087
0 1830 4095
0 2065 0
0 2065 0
0 2065 0
0 2064 169
0 2064 487
0 2064 771
0 2065 1045
0 2065 1316
0 2065 1582
0 2065 1844
0 2064 2097
0 2065 2343
0 2064 2577
0 2064 2796
0 2064 2999
0 2064 3182
0 2065 3344
0 2064 3486
0 2064 3612
0 2065 3724
0 2065 3826
0 2065 3918
0 2065 4004
0 2065 4085
0 2064 4095
0 2294 0
0 2294 0
0 2294 0
0 2294 64
0 2294 428
0 2293 728
0 2293 1011
0 2294 1288
0 2293 1558
0 2294 1823
0 2293 2081
0 2294 2329
0 2293 2564
0 2293 2786
0 2294 2991
0 2293 3175
0 2294 3338
0 2293 3481
0 2294 3608
0 2293 3721
0 2293 3823
0 2293 3915
0 2294 4001
0 2294 4084
0 2294 4095
0 2515 0
0 2515 0
0 2515 0
0 2515 0
0 2514 356
0 2515 678
0 2515 972
0 2515 1256
0 2515 1532
0 2514 1801
0 2515 2062
0 2514 2312
0 2515 2551
0 2515 2774
0 2515 2981
0 2515 3167
0 2515 3332
0 2515 3476
0 2514 3604
0 2515 3718
0 2515 3820
0 2515 3913
0 2514 3999
0 2515 4081
0 2515 4095
0 2725 0
0 2725 0
0 2725 0
0 2725 0
0 2725 267
0 2725 619
0 2725 928
0 2725 1220
0 2725 1502
0 2725 1776
0 2725 2041
0 2725 2294
0 2725 2535
0 2725 2761
0 2725 2970
0 2725 3159
0 2725 3324
0 2725 3470
0 2725 3599
0 2725 3714
0 2725 3816
0 2725 3910
0 2725 3997
0 2725 4079
0 2725 4095
0 2922 0
0 2922 0
0 2922 0
0 2922 0
0 2922 151
0 2922 550
0 2921 876
0 2922 1179
0 2921 1468
0 2922 1747
0 2921 2016
0 2922 2274
0 2921 2518
0 2921 2747
0 2922 2958
0 2921 3149
0 2922 3317
0 2921 3464
0 2922 3594
0 2921 3709
0 2921 3813
0 2921 3907
0 2921 3992
48 2921 4070
77 2921 4087
0 3103 0
0 3103 0
0 3103 0
0 3103 0
0 3103 0
0 3103 466
0 3103 816
0 3103 1132
0 3103 1430
0 3103 1716
0 3103 1990
0 3103 2251
0 3103 2499
0 3103 2731
0 3103 2945
0 3103 3138
0 3102 3307
0 3102 3455
13 3101 3584
87 3101 3698
166 3100 3799
247 3099 3890
332 3099 3973
420 3099 4051
443 3099 4070
0 3263 0
0 3263 0
0 3263 0
0 3263 0
0 3263 0
0 3263 413
0 3263 781
0 3263 1105
0 3263 1408
13 3263 1697
30 3262 1973
51 3262 2236
68 3262 2484
90 3262 2716
110 3261 2930
133 3261 3124
161 3261 3294
221 3260 3442
283 3260 3571
350 3259 3685
421 3258 3786
497 3258 3877
575 3257 3960
658 3257 4036
683 3257 4058
245 3402 245
245 3402 245
245 3402 245
245 3402 245
245 3402 245
247 3402 465
254 3402 811
260 3402 1123
269 3402 1419
277 3402 1702
287 3402 1973
299 3402 2232
311 3402 2477
324 3402 2708
339 3402 2920
354 3402 3113
372 3402 3283
398 3402 3432
465 3401 3562
535 3400 3676
610 3399 3777
687 3398 3868
767 3398 3950
850 3398 4026
878 3397 4051
473 3526 473
473 3526 473
473 3526 473
473 3526 473
473 3526 473
473 3526 547
477 3526 864
482 3526 1161
488 3526 1445
496 3526 1719
503 3526 1984
512 3527 2237
522 3526 2479
533 3527 2706
545 3527 2916
557 3527 3107
571 3527 3275
585 3527 3424
614 3527 3555
689 3526 3670
767 3525 3771
847 3524 3861
931 3523 3944
1015 3523 4020
1048 3523 4047
683 3637 683
683 3637 683
683 3637 683
683 3637 683
683 3637 683
683 3637 683
687 3637 941
692 3637 1218
696 3637 1488
703 3637 1751
709 3638 2007
717 3638 2253
725 3638 2489
735 3638 2711
744 3638 2917
756 3638 3105
767 3638 3272
780 3639 3419
793 3639 3550
824 3639 3665
905 3638 3767
991 3637 3857
1076 3636 3939
1165 3635 4015
1202 3635 4046
890 3737 890
890 3737 890
890 3737 890
890 3737 890
890 3737 890
890 3737 890
892 3737 1040
896 3737 1295
900 3737 1548
905 3737 1798
912 3737 2043
919 3737 2280
927 3737 2508
934 3738 2724
943 3738 2925
953 3738 3109
964 3739 3273
975 3739 3418
988 3739 3547
1000 3740 3662
1032 3740 3764
1121 3739 3855
1210 3738 3937
1301 3737 4013
1479 3733 4039
1097 3827 1097
1097 3827 1097
1097 3827 1097
1097 3827 1097
1097 3827 1097
1097 3827 1097
1097 3827 1158
1101 3827 1391
1104 3827 1626
1110 3827 1861
1115 3828 2093
1121 3828 2320
1128 3828 2539
1135 3828 2746
1144 3829 2941
1153 3829 3119
1162 3829 3279
1173 3830 3421
1184 3830 3548
1196 3830 3661
1208 3831 3762
1242 3831 3854
1336 3830 3937
1430 3829 4012
1803 3819 4032
1303 3910 1303
1303 3910 1303
1303 3910 1303
1303 3910 1303
1303 3910 1303
1303 3910 1303
1303 3910 1303
1306 3910 1503
1310 3910 1720
1314 3910 1938
1319 3911 2157
1324 3911 2371
1331 3911 2579
1339 3911 2778
1346 3912 2965
1354 3912 3136
1363 3912 3291
1373 3913 3429
1383 3913 3552
1394 3914 3663
1405 3914 3763
1418 3915 3854
1454 3915 3937
1551 3914 4013
2160 3897 4026
1510 3987 1510
1510 3987 1510
1510 3987 1510
1510 3987 1510
1510 3987 1510
1510 3987 1510
1510 3987 1510
1512 3987 1632
1516 3987 1828
1520 3988 2030
1524 3988 2233
1529 3988 2435
1535 3988 2630
1542 3989 2819
1549 3989 2996
1556 3989 3160
1565 3990 3308
1574 3990 3441
1584 3991 3560
1594 3991 3668
1604 3992 3766
1616 3993 3855
1628 3993 3938
1744 3991 4013
2551 3965 4023
2512 4023 2512
2512 4023 2512
2512 4023 2512
2512 4023 2512
2512 4023 2512
2512 4023 2512
2512 4023 2512
2515 4023 2542
2526 4023 2640
2539 4023 2746
2553 4023 2855
2570 4023 2968
2588 4023 3080
2608 4023 3189
2630 4023 3293
2655 4023 3392
2683 4023 3485
2712 4023 3572
2744 4023 3653
2777 4023 3729
2813 4023 3799
2852 4023 3865
2893 4023 3927
2936 4024 3985
2968 4024 4024
77 0 0
48 0 58
16 0 267
0 0 479
0 0 701
0 0 936
0 0 1184
0 0 1434
0 0 1680
0 0 1928
0 0 2168
0 0 2405
0 0 2627
0 0 2839
0 0 3037
0 0 3211
0 0 3368
0 0 3505
0 0 3629
0 0 3738
0 0 3837
0 0 3927
0 0 4012
0 0 4093
0 0 4095
77 51 0
51 51 51
0 44 341
0 30 667
0 48 721
0 51 938
0 51 1185
0 51 1427
0 51 1681
0 51 1923
0 51 2168
0 51 2401
0 51 2628
0 51 2840
0 51 3035
0 51 3211
0 51 3366
0 51 3506
0 51 3628
0 51 3738
0 51 3837
0 51 3928
0 51 4012
0 51 4093
0 51 4095
77 241 0
9 252 0
0 247 254
0 250 527
0 241 704
0 241 933
0 241 1179
0 241 1428
0 241 1676
0 241 1924
0 241 2165
0 241 2403
0 241 2625
0 241 2838
0 241 3033
0 241 3210
0 241 3367
0 241 3505
0 241 3627
0 241 3737
0 241 3836
0 241 3927
0 241 4012
0 241 4093
0 241 4094
74 444 0
0 463 0
0 462 196
0 455 465
0 444 689
0 444 925
0 444 1172
0 444 1421
0 444 1671
0 444 1920
0 444 2161
0 444 2399
0 444 2623
0 444 2835
0 444 3031
0 444 3208
0 444 3366
0 444 3503
0 444 3627
0 444 3736
0 444 3836
0 444 3926
0 444 4011
0 444 4093
0 444 4095
74 661 0
0 673 0
0 679 130
0 669 426
0 661 673
0 661 916
0 659 1162
0 659 1414
0 659 1664
0 661 1914
0 661 2159
0 661 2394
0 661 2621
0 659 2832
0 661 3030
0 661 3208
0 661 3364
0 661 3503
0 661 3626
0 661 3736
0 661 3835
0 659 3926
0 661 4011
0 661 4092
0 661 4095
74 885 0
0 891 0
0 901 74
0 894 391
0 885 655
0 884 901
0 885 1151
0 885 1405
0 885 1656
0 885 1907
0 884 2151
0 885 2390
0 885 2615
0 885 2829
0 885 3027
0 885 3205
0 885 3362
0 885 3500
0 885 3625
0 885 3735
0 885 3834
0 885 3925
0 885 4010
0 885 4091
0 885 4095
71 1117 0
44 1117 0
0 1130 6
0 1125 356
0 1117 634
0 1117 884
0 1117 1137
0 1117 1393
0 1117 1647
0 1117 1898
0 1117 2144
0 1117 2383
0 1117 2610
0 1117 2825
0 1117 3022
0 1117 3201
0 1117 3359
0 1117 3499
0 1117 3623
0 1117 3733
0 1117 3833
0 1117 3924
0 1117 4009
0 1117 4090
0 1117 4095
71 1353 0
44 1354 0
0 1365 0
0 1360 313
0 1354 606
0 1353 862
0 1353 1120
0 1354 1377
0 1353 1634
0 1354 1888
0 1353 2135
0 1354 2375
0 1353 2603
0 1353 2819
0 1354 3019
0 1353 3197
0 1354 3356
0 1353 3496
0 1354 3621
0 1353 3731
0 1354 3831
0 1354 3923
0 1354 4008
0 1354 4089
0 1354 4095
68 1592 0
41 1592 0
0 1600 0
0 1597 260
0 1592 574
0 1592 837
0 1592 1098
0 1592 1360
0 1592 1619
0 1592 1875
0 1592 2124
0 1592 2366
0 1592 2596
0 1592 2812
0 1592 3012
0 1592 3193
0 1592 3353
0 1592 3493
0 1592 3618
0 1592 3729
0 1592 3830
0 1592 3921
0 1592 4007
0 1592 4088
0 1592 4095
64 1830 0
37 1830 0
0 1831 0
0 1834 196
0 1830 533
0 1829 805
0 1830 1074
0 1830 1339
0 1830 1602
0 1830 1860
0 1829 2112
0 1830 2355
0 1829 2586
0 1830 2805
0 1829 3006
0 1830 3187
0 1830 3348
0 1830 3490
0 1830 3615
0 1830 3727
0 1830 3828
0 1830 3920
0 1830 4005
0 1830 4087
0 1830 4095
61 2064 0
34 2065 0
0 2064 0
0 2069 113
0 2064 483
0 2064 768
0 2065 1044
0 2065 1315
0 2065 1581
0 2064 1842
0 2065 2097
0 2064 2342
0 2064 2576
0 2065 2796
0 2064 2999
0 2065 3182
0 2065 3344
0 2065 3486
0 2064 3612
0 2065 3724
0 2065 3826
0 2065 3918
0 2064 4003
0 2065 4085
0 2064 4095
