Log/Raw - Gritty.3dl
#25pt 3DLUT created by 3D LUT Creator Pro (c) Oleg Sharonov
#Copyright Oleg Sharonov
#INPUTGAMMA sRGB IEC61966-2.1 v.2.10
#IMAGEPROFILE sRGB IEC61966-2.1 v.2.10
#OUTPUTGAMMA sRGB IEC61966-2.1 v.2.10
0 43 86 128 171 214 256 299 341 384 427 469 512 555 597 640 682 725 768 810 853 896 938 981 1023 
0 0 0
0 0 128
0 0 273
0 0 474
0 0 674
0 0 871
0 0 1063
0 0 1245
0 0 1421
0 0 1594
0 0 1764
0 0 1932
0 0 2098
0 0 2261
0 0 2422
0 0 2582
0 0 2740
0 0 2896
5 5 3050
38 38 3207
74 75 3362
114 116 3501
156 159 3641
200 205 3783
246 255 3929
0 128 0
0 128 128
0 128 273
0 128 474
0 128 674
0 128 871
0 128 1063
0 128 1245
0 128 1421
0 128 1594
0 128 1764
0 128 1932
0 128 2098
0 128 2261
0 128 2422
0 128 2582
0 139 2741
0 164 2900
5 192 3058
39 225 3215
76 261 3357
115 300 3497
157 342 3640
202 385 3785
248 430 3932
0 268 0
0 268 128
0 269 272
0 258 474
0 255 674
0 255 871
0 255 1063
0 255 1245
0 255 1421
0 255 1594
0 255 1764
0 255 1932
0 259 2098
0 272 2263
0 288 2426
0 306 2588
0 328 2748
0 353 2907
5 380 3065
39 412 3209
76 446 3351
116 483 3496
159 521 3641
204 560 3788
251 600 3935
0 450 0
0 450 128
0 450 259
0 452 470
0 443 666
0 436 869
0 432 1065
0 429 1248
0 428 1425
0 430 1598
0 434 1769
0 441 1937
0 451 2104
0 464 2270
0 479 2433
0 497 2595
0 517 2753
0 540 2907
5 566 3058
39 595 3203
77 627 3349
118 661 3496
161 695 3643
207 730 3790
254 766 3939
0 632 0
0 632 128
0 632 255
0 634 458
0 637 668
0 631 861
0 626 1051
0 623 1237
0 623 1416
0 624 1591
0 627 1764
0 634 1934
0 643 2100
0 655 2264
0 669 2426
0 685 2586
0 703 2744
0 725 2899
5 748 3052
40 775 3200
78 804 3348
119 833 3496
164 864 3644
209 895 3792
257 929 3942
0 811 0
0 811 128
0 811 255
0 815 451
0 819 658
0 822 864
0 818 1053
0 815 1234
0 814 1408
0 815 1581
0 819 1753
0 824 1924
0 832 2091
0 843 2256
0 856 2418
0 870 2579
0 887 2737
0 905 2893
5 926 3047
41 949 3197
79 974 3347
121 1001 3496
165 1028 3645
211 1059 3795
259 1092 3945
0 986 0
0 986 128
0 986 255
0 990 446
0 995 651
0 1000 857
0 1005 1057
0 1003 1238
0 1002 1413
0 1003 1584
0 1005 1753
0 1010 1920
0 1017 2086
0 1026 2250
0 1036 2412
0 1048 2573
0 1062 2732
0 1078 2888
6 1095 3043
41 1117 3195
79 1139 3346
122 1165 3497
167 1192 3647
213 1221 3797
262 1252 3948
0 1154 0
0 1154 128
0 1154 255
0 1159 442
0 1165 649
0 1171 852
0 1177 1052
0 1182 1242
0 1181 1416
0 1182 1588
0 1184 1757
0 1188 1925
0 1194 2090
0 1201 2254
0 1210 2415
0 1220 2575
0 1232 2734
0 1245 2890
5 1261 3045
41 1281 3195
80 1303 3345
123 1327 3497
168 1353 3648
216 1381 3800
264 1410 3951
0 1318 0
0 1318 128
0 1318 255
0 1323 441
0 1330 649
0 1336 850
0 1343 1049
0 1348 1239
0 1353 1419
0 1353 1591
0 1355 1761
0 1359 1929
0 1364 2094
0 1370 2258
0 1378 2420
0 1387 2580
0 1398 2738
0 1410 2895
6 1425 3050
41 1444 3200
81 1465 3350
124 1487 3500
170 1513 3651
218 1539 3802
267 1567 3954
0 1479 0
0 1479 128
0 1479 255
0 1485 443
0 1492 651
0 1500 851
0 1506 1048
0 1512 1238
0 1517 1418
0 1522 1594
0 1523 1764
0 1527 1932
0 1531 2098
0 1538 2262
0 1545 2424
0 1553 2584
0 1563 2742
0 1574 2899
6 1587 3054
42 1605 3204
82 1625 3354
125 1647 3505
171 1670 3656
220 1696 3807
269 1724 3958
0 1638 0
0 1638 128
0 1638 255
0 1645 448
0 1653 656
0 1661 856
0 1668 1050
0 1674 1239
0 1680 1419
0 1685 1594
0 1689 1767
0 1692 1936
0 1697 2102
0 1702 2266
0 1709 2428
0 1716 2588
0 1725 2746
0 1735 2902
6 1748 3058
42 1765 3208
82 1784 3359
126 1805 3510
173 1828 3661
222 1853 3812
271 1879 3963
0 1796 0
0 1796 128
0 1796 255
0 1804 457
0 1813 664
0 1821 862
0 1828 1054
0 1835 1242
0 1841 1421
0 1846 1596
0 1851 1769
0 1856 1939
0 1859 2105
0 1864 2269
0 1870 2431
0 1878 2592
0 1886 2750
0 1895 2906
6 1907 3062
43 1923 3213
83 1941 3363
128 1962 3515
175 1984 3666
224 2008 3817
274 2033 3968
0 1951 0
0 1951 128
0 1952 260
0 1962 469
0 1971 674
0 1980 871
0 1987 1061
0 1994 1248
0 2000 1426
0 2006 1600
0 2011 1771
0 2015 1941
0 2020 2108
0 2025 2272
0 2030 2434
0 2037 2595
0 2045 2753
0 2053 2910
6 2064 3065
44 2080 3217
85 2097 3368
129 2117 3519
176 2138 3670
225 2162 3821
276 2187 3972
0 2105 0
0 2105 128
0 2108 276
0 2118 484
0 2128 687
0 2137 883
0 2145 1071
0 2152 1255
0 2158 1432
0 2164 1605
0 2169 1776
0 2174 1945
0 2179 2111
0 2183 2276
0 2188 2438
0 2195 2598
0 2202 2757
0 2210 2914
6 2220 3069
44 2236 3221
85 2253 3372
130 2272 3523
178 2292 3674
227 2314 3825
278 2338 3976
0 2258 0
0 2258 128
0 2264 296
0 2274 502
0 2284 703
0 2293 897
0 2301 1083
0 2308 1264
0 2314 1440
0 2320 1612
0 2326 1782
0 2331 1950
0 2336 2116
0 2341 2280
0 2346 2441
0 2351 2601
0 2358 2760
0 2365 2917
6 2375 3073
44 2390 3225
86 2406 3376
131 2425 3527
179 2445 3678
229 2465 3829
280 2489 3980
0 2409 0
0 2409 128
0 2418 319
0 2429 523
0 2439 722
0 2448 913
0 2456 1097
0 2463 1275
0 2469 1449
0 2475 1620
0 2482 1789
0 2487 1957
0 2492 2122
0 2497 2285
0 2502 2445
0 2506 2604
0 2512 2763
0 2519 2921
6 2528 3076
44 2542 3228
87 2558 3379
132 2576 3531
180 2596 3682
230 2615 3832
283 2638 3985
0 2559 0
0 2561 141
0 2572 345
0 2583 548
0 2594 743
0 2602 932
0 2610 1112
0 2617 1288
0 2623 1460
0 2630 1630
0 2636 1798
0 2642 1965
0 2647 2129
0 2652 2291
0 2656 2451
0 2661 2610
0 2665 2767
0 2671 2924
6 2680 3079
45 2693 3231
87 2709 3382
133 2726 3534
181 2745 3685
232 2764 3836
284 2786 3988
0 2708 0
0 2715 172
0 2726 375
0 2737 574
0 2747 767
0 2755 952
0 2763 1129
0 2770 1302
0 2776 1473
0 2782 1642
0 2788 1809
0 2795 1974
0 2800 2138
0 2805 2299
0 2809 2458
0 2814 2616
0 2819 2772
0 2822 2927
6 2830 3082
45 2843 3234
87 2858 3385
134 2875 3537
183 2893 3689
234 2912 3840
286 2933 3992
6 2857 6
6 2868 207
6 2880 408
6 2890 603
6 2900 792
6 2908 974
6 2916 1147
6 2923 1318
6 2929 1487
6 2935 1655
6 2941 1821
6 2947 1985
6 2953 2147
6 2957 2307
6 2962 2465
6 2967 2623
6 2971 2778
6 2976 2932
6 2979 3084
45 2992 3236
88 3006 3388
135 3023 3540
184 3041 3692
235 3059 3843
287 3079 3995
47 3016 46
46 3027 246
46 3038 442
45 3048 633
45 3057 818
45 3066 996
45 3073 1166
45 3080 1334
45 3086 1502
45 3092 1668
45 3098 1832
45 3104 1995
46 3109 2156
46 3115 2316
46 3119 2473
46 3124 2629
46 3128 2784
46 3133 2937
46 3137 3089
46 3140 3239
89 3154 3391
135 3169 3543
185 3187 3694
236 3205 3846
289 3225 3998
90 3174 89
89 3185 285
88 3196 477
87 3206 664
87 3215 845
87 3223 1019
87 3230 1187
87 3236 1352
87 3242 1518
88 3248 1683
88 3255 1846
88 3260 2008
88 3266 2168
89 3271 2326
89 3276 2482
89 3281 2638
89 3285 2791
89 3289 2944
89 3293 3095
89 3297 3245
89 3300 3393
136 3315 3545
186 3332 3697
238 3350 3849
290 3370 4001
135 3333 134
133 3344 327
133 3355 515
132 3364 697
132 3373 874
132 3380 1044
132 3387 1210
133 3394 1374
133 3399 1537
134 3405 1701
134 3411 1862
135 3417 2022
135 3423 2181
135 3428 2338
135 3433 2494
136 3438 2648
136 3442 2801
136 3446 2953
136 3450 3103
136 3453 3252
137 3457 3400
137 3460 3548
187 3477 3700
239 3494 3852
292 3514 4004
182 3493 182
181 3504 370
181 3514 554
181 3523 732
181 3531 903
181 3538 1070
182 3545 1235
182 3552 1398
183 3557 1559
183 3563 1721
184 3569 1881
184 3575 2040
185 3580 2197
185 3585 2353
186 3590 2508
186 3595 2662
186 3599 2814
187 3604 2964
187 3608 3114
187 3611 3262
187 3614 3410
188 3618 3557
188 3621 3702
240 3638 3854
294 3657 4007
232 3653 231
231 3663 415
231 3673 594
232 3681 766
232 3689 934
232 3695 1099
233 3702 1262
233 3709 1423
234 3715 1583
235 3721 1743
236 3727 1902
236 3732 2059
237 3738 2215
238 3743 2370
238 3747 2524
239 3752 2677
239 3756 2828
239 3760 2978
240 3764 3126
240 3768 3274
240 3771 3421
241 3775 3567
241 3778 3712
241 3781 3857
295 3800 4009
282 3814 281
283 3824 460
283 3832 633
284 3840 801
284 3847 966
285 3854 1129
285 3861 1291
286 3868 1451
287 3873 1610
288 3879 1768
289 3885 1925
290 3890 2081
290 3896 2236
291 3901 2390
292 3905 2542
292 3910 2694
293 3914 2844
294 3918 2993
294 3922 3141
294 3926 3288
295 3929 3435
295 3932 3580
295 3936 3724
296 3939 3868
296 3942 4012
128 0 0
128 0 128
128 0 273
128 0 474
128 0 674
128 0 871
128 0 1063
128 0 1245
128 0 1421
128 0 1594
128 0 1764
128 0 1932
128 0 2098
128 0 2261
128 0 2422
128 0 2582
139 0 2740
164 0 2896
193 5 3050
225 39 3207
260 76 3348
297 117 3490
336 161 3633
377 208 3778
418 258 3925
128 128 0
0 0 0
43 43 138
64 64 418
77 77 664
85 85 889
91 91 1096
96 96 1283
99 99 1458
102 102 1628
104 104 1795
106 106 1960
108 108 2121
109 109 2279
111 111 2436
112 112 2590
128 128 2745
163 162 2900
201 201 3054
244 244 3190
288 289 3326
334 338 3464
382 390 3604
432 443 3746
431 442 3925
128 268 0
43 124 43
43 125 136
64 134 418
77 153 664
85 170 889
91 182 1096
96 191 1283
99 198 1458
102 204 1628
104 209 1795
106 213 1960
108 221 2121
109 242 2282
111 267 2441
112 293 2598
128 324 2754
164 358 2909
203 395 3045
245 436 3184
289 479 3323
336 524 3464
385 572 3607
436 619 3751
434 613 3929
128 450 0
64 358 64
64 358 136
64 362 407
77 362 647
85 362 884
91 364 1100
96 368 1288
99 373 1464
102 382 1635
104 393 1802
106 406 1967
108 423 2130
109 443 2291
111 466 2451
112 491 2608
129 520 2757
165 551 2898
204 586 3038
246 624 3180
291 664 3323
339 706 3467
389 748 3611
440 790 3755
437 779 3933
128 632 0
77 572 77
77 572 153
77 577 393
77 584 650
85 579 870
91 578 1074
96 579 1269
99 583 1449
102 589 1625
104 598 1795
106 610 1962
108 625 2124
109 643 2284
111 663 2441
112 686 2596
129 712 2746
165 741 2890
204 773 3034
248 808 3179
294 844 3324
342 881 3469
392 917 3614
443 954 3759
441 943 3937
128 811 0
85 769 85
85 769 170
85 777 391
85 785 634
85 792 876
91 789 1079
96 787 1264
99 789 1437
102 793 1608
104 800 1779
106 810 1947
108 823 2110
109 839 2272
111 857 2430
112 876 2586
129 899 2738
166 925 2885
206 954 3032
250 984 3179
296 1015 3325
345 1047 3471
395 1080 3616
447 1117 3763
444 1105 3942
128 986 0
91 954 91
91 954 182
91 962 390
91 971 625
91 980 861
91 990 1085
96 988 1271
99 988 1444
102 990 1613
104 996 1778
106 1004 1942
108 1014 2103
109 1026 2263
111 1041 2422
112 1058 2578
129 1077 2731
166 1100 2881
207 1125 3030
251 1152 3179
297 1180 3326
347 1210 3473
398 1243 3620
450 1277 3767
447 1265 3945
128 1154 0
96 1125 96
96 1125 191
96 1133 390
96 1143 625
96 1153 851
96 1164 1074
96 1172 1277
99 1173 1450
102 1175 1619
104 1179 1785
106 1185 1949
108 1193 2110
109 1204 2269
111 1216 2426
112 1229 2581
129 1246 2733
167 1266 2880
208 1289 3029
252 1315 3178
299 1342 3327
349 1371 3475
401 1402 3623
453 1435 3771
450 1424 3949
128 1318 0
99 1287 99
99 1287 198
99 1295 394
99 1306 627
99 1318 848
99 1328 1066
99 1337 1269
99 1345 1455
102 1346 1624
104 1350 1791
106 1356 1954
108 1364 2116
109 1373 2275
111 1383 2432
112 1396 2587
129 1411 2739
167 1430 2887
209 1452 3034
254 1476 3182
302 1502 3329
352 1530 3477
404 1560 3627
457 1591 3775
453 1581 3953
128 1479 0
102 1446 102
102 1446 204
102 1455 402
102 1466 633
102 1478 850
102 1489 1063
102 1498 1264
102 1506 1450
102 1514 1629
104 1517 1795
106 1522 1960
108 1530 2121
109 1539 2281
111 1548 2438
112 1559 2593
129 1574 2744
168 1592 2892
209 1612 3040
255 1635 3188
303 1660 3335
354 1687 3483
406 1715 3631
459 1745 3779
456 1737 3956
128 1638 0
104 1602 104
104 1602 209
104 1613 414
104 1625 642
104 1637 857
104 1647 1064
104 1657 1263
104 1666 1448
104 1674 1626
104 1680 1800
106 1685 1965
108 1692 2127
109 1700 2286
111 1710 2443
112 1720 2598
130 1734 2750
169 1751 2898
210 1771 3046
256 1793 3194
305 1816 3342
356 1842 3490
409 1870 3638
463 1899 3786
459 1892 3961
