Log/Red RedLogFilm-DragonColor2.3dl
#25pt 3DLUT created by 3D LUT Creator Pro (c) Oleg Sharonov
#Copyright Oleg Sharonov
#IMAGEPROFILE sRGB built-in v.4.30
#INPUTGAMMA RedLogFilm
#OUTPUTGAMMA sRGB built-in v.4.30
0 43 86 128 171 214 256 299 341 384 427 469 512 555 597 640 682 725 768 810 853 896 938 981 1023 
0 0 0
0 0 0
0 0 0
0 0 3
0 0 40
0 3 150
0 3 309
0 6 474
3 12 679
3 20 938
6 32 1259
6 49 1596
9 67 1941
11 93 2337
14 129 2769
20 181 3209
78 277 3617
567 668 3755
997 1078 3861
1498 1566 3931
2079 2128 3959
2589 2621 3972
2985 3005 3977
3280 3294 3977
3504 3513 3976
0 0 0
0 0 0
0 0 0
0 0 3
0 0 40
0 3 150
0 3 309
0 6 474
3 12 679
3 20 938
6 32 1259
6 49 1596
9 67 1941
11 93 2337
14 129 2769
20 181 3209
78 277 3617
567 668 3755
997 1078 3861
1498 1566 3931
2079 2128 3959
2589 2621 3972
2985 3005 3977
3280 3294 3977
3504 3513 3976
0 0 0
0 0 0
0 0 0
0 0 3
0 0 40
0 3 150
0 3 309
0 6 474
3 12 679
3 20 938
6 32 1259
6 49 1596
9 67 1941
11 93 2337
14 129 2769
20 181 3209
78 277 3617
567 668 3755
997 1078 3861
1498 1566 3931
2079 2128 3959
2589 2621 3972
2985 3005 3977
3280 3294 3977
3504 3513 3976
0 9 0
0 9 0
0 9 0
0 6 6
0 9 52
0 12 156
0 12 291
0 14 458
3 12 679
3 20 938
6 32 1254
6 49 1593
9 67 1941
11 93 2337
14 129 2769
20 181 3209
78 277 3617
565 668 3754
997 1078 3861
1498 1566 3931
2079 2128 3959
2589 2621 3972
2985 3005 3977
3280 3294 3977
3504 3513 3976
0 81 0
0 81 0
0 81 0
0 84 3
0 84 84
0 84 217
0 90 353
0 99 509
0 111 698
0 123 923
0 135 1193
0 138 1502
3 129 1868
11 93 2334
14 129 2768
20 181 3207
75 277 3616
565 668 3754
996 1077 3860
1498 1566 3931
2079 2128 3959
2589 2621 3972
2984 3005 3977
3280 3294 3977
3504 3513 3976
0 269 0
0 269 0
0 269 0
0 266 0
0 266 87
0 269 269
0 266 419
0 271 579
0 277 754
0 281 958
0 285 1196
0 289 1472
0 295 1805
0 303 2206
0 307 2657
3 289 3138
75 275 3616
564 667 3754
996 1076 3860
1497 1565 3931
2079 2128 3959
2589 2621 3972
2984 3005 3977
3280 3294 3977
3504 3513 3976
0 433 0
0 433 0
0 433 0
0 431 0
0 431 58
0 430 249
0 427 425
0 420 585
0 419 756
0 419 954
0 422 1188
0 428 1473
0 436 1818
0 448 2209
0 462 2637
0 477 3085
29 492 3529
546 730 3724
995 1075 3860
1497 1564 3931
2078 2127 3959
2589 2621 3972
2984 3005 3977
3280 3294 3977
3504 3513 3976
0 586 0
0 586 0
0 586 0
0 586 0
0 585 14
0 584 207
0 583 393
0 580 578
0 574 757
0 573 962
0 575 1201
0 581 1487
0 590 1833
0 601 2233
0 615 2660
0 637 3089
0 658 3520
551 881 3709
986 1178 3839
1496 1563 3931
2078 2126 3959
2588 2620 3972
2984 3005 3977
3280 3294 3977
3504 3513 3976
0 771 0
0 771 0
0 771 0
0 771 0
0 770 0
0 769 153
0 768 360
0 767 554
0 765 763
0 757 975
0 757 1223
0 761 1515
0 769 1862
0 780 2258
0 795 2684
3 814 3117
0 839 3529
577 1041 3718
1022 1324 3841
1524 1706 3915
2073 2151 3954
2588 2620 3972
2984 3004 3977
3280 3294 3977
3504 3513 3976
0 996 0
0 996 0
0 996 0
0 996 0
0 996 0
0 994 70
0 993 311
0 992 521
0 992 740
0 989 986
0 982 1246
0 981 1549
0 986 1901
0 996 2296
0 1010 2715
0 1027 3136
0 1048 3554
613 1230 3742
1081 1497 3853
1607 1865 3912
2132 2271 3948
2593 2653 3967
2983 3004 3977
3280 3293 3977
3503 3513 3976
0 1273 0
0 1273 0
0 1273 0
0 1273 0
0 1272 0
0 1271 0
0 1271 231
0 1270 471
0 1268 705
0 1267 962
0 1264 1261
0 1256 1578
0 1255 1940
0 1260 2337
0 1270 2750
0 1285 3161
0 1305 3565
648 1461 3772
1197 1725 3862
1726 2056 3914
2223 2410 3946
2649 2744 3964
2994 3036 3973
3279 3293 3977
3503 3513 3976
0 1607 0
0 1607 0
0 1607 0
0 1607 0
0 1607 0
0 1606 0
0 1605 76
0 1605 390
0 1603 647
0 1602 919
0 1599 1228
0 1595 1592
0 1585 1967
0 1583 2371
0 1587 2784
0 1596 3188
0 1611 3582
712 1755 3792
1346 1997 3872
1879 2277 3919
2341 2570 3946
2727 2850 3962
3040 3103 3970
3292 3321 3973
3503 3512 3976
0 1992 0
0 1992 0
0 1992 0
0 1992 0
0 1992 0
0 1991 0
0 1990 0
0 1989 240
0 1988 554
0 1986 846
0 1983 1169
0 1979 1542
0 1976 1972
0 1966 2392
0 1967 2815
29 1974 3221
178 1989 3594
811 2097 3807
1516 2302 3884
2058 2522 3925
2482 2748 3948
2822 2972 3961
3100 3182 3968
3327 3371 3972
3515 3536 3974
135 2424 135
135 2424 135
135 2424 135
135 2424 135
132 2423 132
132 2423 132
132 2423 132
132 2422 132
135 2421 464
141 2420 782
147 2419 1117
156 2416 1499
170 2414 1935
186 2410 2406
235 2400 2830
329 2397 3226
472 2401 3589
887 2454 3820
1705 2619 3896
2246 2776 3931
2637 2939 3950
2934 3106 3961
3173 3272 3967
3374 3430 3970
3542 3571 3973
436 2847 436
436 2847 436
436 2847 436
436 2847 436
434 2847 434
434 2847 434
434 2847 434
434 2846 434
434 2845 454
437 2844 766
442 2843 1094
449 2841 1467
458 2838 1894
470 2834 2358
487 2828 2824
596 2814 3220
750 2806 3576
955 2805 3821
1879 2924 3906
2437 3026 3937
2793 3132 3953
3052 3249 3962
3258 3373 3967
3430 3498 3970
3576 3611 3973
797 3216 797
797 3216 797
797 3216 797
797 3216 797
797 3216 797
797 3216 797
797 3216 797
796 3215 796
796 3215 796
796 3214 855
799 3212 1143
804 3210 1480
812 3208 1873
821 3203 2307
834 3198 2753
851 3190 3186
1024 3171 3545
1246 3156 3797
1975 3201 3913
2604 3260 3942
2943 3321 3956
3171 3395 3963
3347 3481 3967
3495 3573 3970
3615 3655 3974
1231 3516 1231
1231 3516 1231
1231 3516 1231
1231 3516 1231
1231 3516 1231
1230 3515 1230
1230 3515 1230
1229 3515 1229
1229 3515 1229
1228 3514 1228
1229 3514 1312
1232 3512 1586
1238 3509 1914
1245 3505 2288
1254 3500 2686
1266 3492 3087
1282 3482 3478
1520 3457 3755
1846 3440 3912
2714 3473 3947
3073 3498 3959
3284 3538 3964
3438 3589 3968
3562 3645 3971
3656 3701 3975
1709 3720 1709
1709 3720 1709
1709 3720 1709
1709 3720 1709
1708 3720 1708
1708 3720 1708
1708 3720 1708
1708 3720 1708
1707 3720 1707
1707 3720 1707
1707 3720 1707
1707 3719 1800
1709 3716 2044
1714 3713 2334
1719 3709 2657
1726 3704 3000
1736 3697 3351
1749 3687 3684
2024 3662 3869
2696 3652 3951
3162 3648 3963
3382 3657 3967
3523 3680 3971
3623 3710 3974
3697 3746 3978
2161 3833 2161
2161 3833 2161
2161 3833 2161
2161 3833 2161
2160 3833 2160
2160 3833 2160
2160 3833 2160
2160 3833 2160
2160 3833 2160
2160 3833 2160
2159 3833 2159
2159 3833 2159
2159 3832 2247
2161 3830 2449
2163 3827 2687
2166 3823 2955
2170 3818 3247
2175 3811 3553
2181 3802 3800
2455 3780 3937
3168 3759 3968
3450 3750 3972
3593 3755 3975
3676 3769 3978
3735 3789 3981
2536 3901 2536
2536 3901 2536
2536 3901 2536
2536 3901 2536
2536 3901 2536
2536 3901 2536
2536 3901 2536
2536 3901 2536
2536 3901 2536
2536 3901 2536
2536 3901 2536
2535 3901 2535
2535 3901 2535
2535 3900 2612
2535 3898 2773
2536 3895 2966
2537 3891 3189
2537 3886 3438
2539 3880 3687
2540 3872 3871
2927 3850 3972
3463 3824 3978
3638 3816 3980
3718 3819 3982
3769 3828 3985
2830 3945 2830
2830 3945 2830
2830 3945 2830
2830 3945 2830
2830 3945 2830
2830 3945 2830
2830 3945 2830
2830 3945 2830
2830 3945 2830
2830 3945 2830
2829 3945 2829
2829 3945 2829
2829 3945 2829
2829 3945 2829
2828 3944 2894
2828 3942 3024
2827 3940 3183
2827 3936 3371
2826 3932 3584
2824 3926 3771
2822 3919 3918
3317 3891 3985
3647 3868 3987
3746 3862 3988
3796 3864 3990
3056 3976 3056
3056 3976 3056
3056 3976 3056
3056 3976 3056
3056 3976 3056
3056 3976 3056
3056 3976 3056
3056 3976 3056
3056 3976 3056
3056 3976 3056
3056 3976 3056
3056 3976 3056
3056 3976 3056
3056 3976 3056
3055 3976 3055
3055 3975 3111
3054 3974 3218
3053 3971 3352
3051 3968 3515
3049 3964 3682
3046 3959 3827
3042 3952 3951
3561 3919 3994
3752 3901 3994
3815 3896 3996
3233 4000 3233
3233 4000 3233
3233 4000 3233
3233 4000 3233
3233 4000 3233
3233 4000 3233
3233 4000 3233
3233 4000 3233
3233 4000 3233
3233 4000 3233
3233 4000 3233
3233 4000 3233
3233 4000 3233
3232 4000 3232
3232 4000 3232
3232 4000 3232
3231 3999 3280
3230 3997 3372
3229 3995 3487
3226 3992 3620
3224 3988 3749
3219 3983 3867
3214 3977 3976
3700 3941 4002
3818 3926 4002
3469 4009 3469
3469 4009 3469
3469 4009 3469
3469 4009 3469
3469 4009 3469
3469 4009 3469
3469 4009 3469
3469 4009 3469
3469 4009 3469
3469 4009 3469
3468 4009 3468
3468 4009 3468
3468 4009 3468
3468 4009 3468
3468 4009 3468
3468 4009 3468
3468 4009 3468
3460 4009 3496
3444 4009 3552
3421 4009 3620
3386 4009 3700
3363 4007 3797
3358 4002 3897
3351 3996 3995
3783 3958 4008
3643 4015 3643
3643 4015 3643
3643 4015 3643
3643 4015 3643
3643 4015 3643
3643 4015 3643
3643 4015 3643
3643 4015 3643
3643 4015 3643
3643 4015 3643
3643 4015 3643
3643 4015 3643
3643 4015 3643
3643 4015 3643
3643 4015 3643
3643 4015 3643
3643 4015 3643
3643 4015 3643
3638 4015 3659
3628 4015 3691
3614 4015 3732
3592 4015 3784
3556 4015 3846
3494 4015 3921
3462 4011 4010
0 0 0
0 0 0
0 0 0
0 0 3
0 0 40
0 3 150
0 3 309
0 6 474
3 12 679
3 20 938
6 32 1259
6 49 1596
9 67 1941
11 93 2337
14 129 2769
20 181 3209
78 277 3617
567 668 3755
997 1078 3861
1498 1566 3931
2079 2128 3959
2589 2621 3972
2985 3005 3977
3280 3294 3977
3504 3513 3976
0 0 0
0 0 0
0 0 0
0 0 3
0 0 40
0 3 150
0 3 309
0 6 474
3 12 679
3 20 938
6 32 1259
6 49 1596
9 67 1941
11 93 2337
14 129 2769
20 181 3209
78 277 3617
567 668 3755
997 1078 3861
1498 1566 3931
2079 2128 3959
2589 2621 3972
2985 3005 3977
3280 3294 3977
3504 3513 3976
0 0 0
0 0 0
0 0 0
0 0 3
0 0 40
0 3 150
0 3 309
0 6 474
3 12 679
3 20 938
6 32 1259
6 49 1596
9 67 1941
11 93 2337
14 129 2769
20 181 3209
78 277 3617
567 668 3755
997 1078 3861
1498 1566 3931
2079 2128 3959
2589 2621 3972
2985 3005 3977
3280 3294 3977
3504 3513 3976
0 9 0
0 9 0
0 9 0
0 6 6
0 9 52
0 12 156
0 12 291
0 14 458
3 12 679
3 20 938
6 32 1254
6 49 1593
9 67 1941
11 93 2337
14 129 2769
20 181 3209
78 277 3617
565 668 3754
997 1078 3861
1498 1566 3931
2079 2128 3959
2589 2621 3972
2985 3005 3977
3280 3294 3977
3504 3513 3976
0 81 0
0 81 0
0 81 0
0 84 3
0 84 84
0 84 217
0 90 353
0 99 509
0 111 698
0 123 923
0 135 1193
0 138 1502
3 129 1868
11 93 2334
14 129 2768
20 181 3207
75 277 3616
565 668 3754
996 1077 3860
1498 1566 3931
2079 2128 3959
2589 2621 3972
2984 3005 3977
3280 3294 3977
3504 3513 3976
0 269 0
0 269 0
0 269 0
0 266 0
0 266 87
0 269 269
0 266 419
0 271 579
0 277 754
0 281 958
0 285 1196
0 289 1472
0 295 1805
0 303 2206
0 307 2657
3 289 3138
75 275 3616
564 667 3754
996 1076 3860
1497 1565 3931
2079 2128 3959
2589 2621 3972
2984 3005 3977
3280 3294 3977
3504 3513 3976
0 433 0
0 433 0
0 433 0
0 431 0
0 431 58
0 430 249
0 427 425
0 420 585
0 419 756
0 419 954
0 422 1188
0 428 1473
0 436 1818
0 448 2209
0 462 2637
0 477 3085
29 492 3529
546 730 3724
995 1075 3860
1497 1564 3931
2078 2127 3959
2589 2621 3972
2984 3005 3977
3280 3294 3977
3504 3513 3976
0 586 0
0 586 0
0 586 0
0 586 0
0 585 14
0 584 207
0 583 393
0 580 578
0 574 757
0 573 962
0 575 1201
0 581 1487
0 590 1833
0 601 2233
0 615 2660
0 637 3089
0 658 3520
551 881 3709
986 1178 3839
1496 1563 3931
2078 2126 3959
2588 2620 3972
2984 3005 3977
3280 3294 3977
3504 3513 3976
0 771 0
0 771 0
0 771 0
0 771 0
0 770 0
0 769 153
0 768 360
0 767 554
0 765 763
0 757 975
0 757 1223
0 761 1515
0 769 1862
0 780 2258
0 795 2684
3 814 3117
0 839 3529
577 1041 3718
1022 1324 3841
1524 1706 3915
2073 2151 3954
2588 2620 3972
2984 3004 3977
3280 3294 3977
3504 3513 3976
0 996 0
0 996 0
0 996 0
0 996 0
0 996 0
0 994 70
0 993 311
0 992 521
0 992 740
0 989 986
0 982 1246
0 981 1549
0 986 1901
0 996 2296
0 1010 2715
0 1027 3136
0 1048 3554
613 1230 3742
1081 1497 3853
1607 1865 3912
2132 2271 3948
2593 2653 3967
2983 3004 3977
3280 3293 3977
3503 3513 3976
0 1273 0
0 1273 0
0 1273 0
0 1273 0
0 1272 0
0 1271 0
0 1271 231
0 1270 471
0 1268 705
0 1267 962
0 1264 1261
0 1256 1578
0 1255 1940
0 1260 2337
0 1270 2750
0 1285 3161
0 1305 3565
648 1461 3772
1197 1725 3862
1726 2056 3914
2223 2410 3946
2649 2744 3964
2994 3036 3973
3279 3293 3977
3503 3513 3976
