Log/Red RedLogFilm-DragonColor2 - OrangeCyan.3dl
#25pt 3DLUT created by 3D LUT Creator Pro (c) Oleg Sharonov
#Copyright Oleg Sharonov
#IMAGEPROFILE sRGB
#INPUTGAMMA RedLogFilm
#OUTPUTGAMMA sRGB
0 128 256 384 512 640 768 896 1023
0 0 0
0 3 6
0 82 137
0 293 434
0 656 935
0 1302 1793
0 2236 2731
702 3015 3346
1922 3509 3699
0 20 0
0 23 20
0 88 140
0 293 434
0 656 935
0 1302 1793
0 2236 2731
702 3015 3346
1922 3509 3699
0 615 0
0 615 0
0 609 603
0 697 849
0 932 1207
0 1428 1870
0 2235 2729
700 3015 3345
1922 3509 3699
3 1525 3
3 1525 3
0 1522 432
0 1507 1497
0 1632 1885
0 1942 2318
0 2464 2857
546 3033 3353
1921 3509 3699
9 2564 9
9 2564 9
9 2563 9
0 2556 1175
0 2537 2527
0 2634 2857
0 2859 3156
121 3201 3473
1794 3529 3713
20 3286 20
20 3286 20
20 3286 20
0 3285 188
0 3275 2039
0 3250 3242
0 3305 3498
508 3441 3653
1665 3629 3791
34 3737 37
34 3737 37
34 3737 37
34 3737 37
0 3735 598
0 3721 2627
0 3684 3676
1383 3693 3840
2305 3750 3889
46 3994 49
46 3994 49
46 3994 49
46 3994 49
46 3994 49
0 3992 848
0 3973 2919
0 3926 3918
2713 3880 3990
2083 4094 2093
2083 4094 2093
2083 4094 2093
2083 4094 2093
2083 4094 2093
2081 4094 2091
1902 4095 2268
943 4095 3143
0 4056 4047
14 3 0
11 6 3
0 79 146
0 293 434
0 656 935
0 1302 1793
0 2236 2731
702 3015 3346
1922 3509 3699
26 17 0
14 20 23
0 88 153
0 293 434
0 656 935
0 1302 1793
0 2236 2731
702 3015 3346
1922 3509 3699
0 615 0
0 615 0
0 606 601
0 697 849
0 930 1206
0 1428 1870
0 2235 2729
700 3015 3345
1922 3509 3699
3 1525 3
3 1525 3
0 1522 432
0 1507 1497
0 1632 1885
0 1941 2318
0 2464 2857
546 3033 3353
1921 3509 3699
9 2564 9
9 2564 9
9 2563 9
0 2556 1175
0 2537 2527
0 2634 2857
0 2859 3156
121 3201 3473
1794 3529 3713
20 3286 20
20 3286 20
20 3286 20
0 3285 188
0 3275 2039
0 3250 3242
0 3305 3498
508 3441 3653
1665 3629 3791
34 3737 37
34 3737 37
34 3737 37
34 3737 37
0 3735 597
0 3721 2627
0 3684 3676
1383 3693 3840
2305 3750 3889
46 3994 49
46 3994 49
46 3994 49
46 3994 49
46 3994 49
0 3992 848
0 3973 2919
0 3926 3918
2713 3880 3990
2083 4094 2093
2083 4094 2093
2083 4094 2093
2083 4094 2093
2083 4094 2093
2081 4094 2091
1902 4095 2268
943 4095 3143
0 4056 4047
434 109 0
434 109 0
391 205 128
182 400 658
131 722 1117
20 1334 1918
0 2235 2732
700 3015 3345
1922 3509 3699
434 109 0
434 109 0
391 205 128
182 398 655
131 722 1117
17 1334 1918
0 2236 2730
700 3015 3345
1922 3509 3699
730 541 23
730 541 23
464 608 638
168 742 955
20 968 1360
0 1437 1975
0 2235 2729
700 3014 3345
1921 3509 3699
452 1505 32
452 1505 32
445 1500 417
284 1505 1512
0 1646 1910
0 1942 2323
0 2458 2853
555 3031 3352
1921 3509 3699
9 2559 9
9 2559 9
9 2559 9
0 2551 1160
0 2533 2523
0 2630 2854
0 2857 3155
121 3200 3472
1795 3528 3713
20 3285 20
20 3285 20
20 3285 20
0 3284 149
0 3274 2032
0 3249 3240
0 3304 3497
506 3440 3653
1666 3629 3791
34 3737 37
34 3737 37
34 3737 37
34 3737 37
0 3735 586
0 3721 2625
0 3684 3676
1383 3692 3840
2304 3750 3889
46 3994 49
46 3994 49
46 3994 49
46 3994 49
46 3994 49
0 3992 842
0 3973 2919
0 3926 3918
2713 3880 3990
2083 4094 2093
2083 4094 2093
2083 4094 2093
2083 4094 2093
2082 4094 2092
2081 4094 2091
1902 4095 2267
943 4095 3143
0 4056 4047
1129 377 0
1129 377 0
1173 398 0
1014 586 419
592 928 1363
452 1472 2141
436 2286 2842
963 3013 3354
1921 3509 3699
1127 377 0
1127 377 0
1173 398 0
1014 586 419
590 927 1362
450 1471 2140
436 2286 2842
960 3013 3354
1921 3509 3699
1483 549 0
1483 549 0
1336 617 441
1164 769 697
635 1069 1568
450 1523 2181
425 2283 2839
952 3012 3353
1921 3509 3699
1760 1351 85
1760 1351 85
1713 1360 437
1167 1499 1565
565 1715 2033
215 2009 2506
115 2484 2957
895 3018 3355
1921 3509 3699
1216 2529 124
1216 2529 124
1212 2529 124
1193 2522 1163
838 2529 2547
0 2658 2894
0 2869 3171
140 3197 3470
1799 3527 3712
398 3280 61
398 3280 61
394 3279 61
381 3279 79
188 3272 2003
0 3247 3240
0 3301 3495
499 3439 3652
1666 3628 3790
34 3736 37
34 3736 37
34 3736 37
34 3736 37
0 3735 549
0 3720 2619
0 3683 3675
1380 3692 3840
2302 3750 3888
46 3994 49
46 3994 49
46 3994 49
46 3994 49
46 3994 49
0 3992 828
0 3973 2917
0 3926 3918
2713 3880 3989
2082 4094 2092
2082 4094 2092
2082 4094 2092
2082 4094 2092
2081 4094 2091
2080 4094 2090
1902 4095 2265
942 4095 3142
0 4056 4047
2160 809 0
2160 809 0
2160 822 0
2250 860 0
1984 1221 889
1242 1787 2339
1032 2423 2996
1435 3047 3396
2130 3508 3699
2160 809 0
2160 809 0
2160 822 0
2250 860 0
1983 1220 889
1241 1787 2339
1032 2423 2996
1435 3047 3396
2130 3508 3699
2198 864 0
2198 864 0
2220 848 52
2304 875 0
1989 1232 910
1232 1781 2336
1026 2421 2994
1430 3046 3395
2128 3508 3699
2693 1252 0
2693 1252 0
2691 1249 0
2448 1447 1238
2231 1686 1642
1361 2097 2655
1057 2540 3068
1417 3044 3393
2121 3508 3699
2770 2352 228
2770 2352 228
2769 2351 228
2686 2371 1264
2113 2508 2577
1143 2696 2960
739 2901 3271
1289 3196 3483
2073 3519 3706
2102 3243 291
2102 3243 291
2100 3243 291
2096 3242 291
2046 3234 2016
1521 3234 3253
0 3322 3530
583 3448 3660
1693 3627 3789
797 3728 128
797 3728 128
795 3728 128
789 3728 128
776 3727 473
519 3717 2596
0 3683 3678
1380 3691 3839
2298 3749 3888
46 3993 49
46 3993 49
46 3993 49
46 3993 49
46 3993 49
0 3991 786
0 3973 2913
0 3926 3917
2712 3879 3989
2080 4094 2090
2080 4094 2090
2080 4094 2090
2080 4094 2090
2079 4094 2089
2078 4094 2087
1903 4095 2259
939 4095 3141
0 4055 4047
3081 1529 0
3081 1529 0
3080 1529 0
3087 1563 0
3157 1611 0
2910 2125 1641
2129 2687 3114
2059 3138 3479
2411 3528 3712
3081 1529 0
3081 1529 0
3080 1529 0
3087 1563 0
3157 1611 0
2910 2125 1641
2129 2687 3114
2059 3138 3479
2411 3528 3712
3078 1526 0
3078 1526 0
3078 1526 0
3084 1559 0
3154 1609 0
2908 2122 1638
2125 2685 3114
2056 3138 3478
2410 3528 3712
3173 1713 0
3173 1713 0
3172 1711 0
3160 1730 601
3251 1718 330
2948 2218 1829
2133 2705 3136
2050 3136 3477
2407 3528 3712
3499 2161 0
3499 2161 0
3498 2160 0
3504 2155 0
3264 2404 2213
3072 2621 2601
2248 2942 3363
2113 3229 3531
2401 3530 3713
3431 3072 415
3431 3072 415
3430 3072 415
3430 3071 415
3344 3089 2129
2856 3193 3252
1822 3330 3561
1944 3449 3659
2348 3621 3774
2680 3679 448
2680 3679 448
2679 3680 448
2679 3679 448
2676 3679 446
2618 3667 2593
2082 3657 3677
1633 3699 3847
2400 3751 3890
1067 3983 182
1067 3983 182
1067 3984 182
1064 3984 182
1057 3983 182
1043 3982 699
726 3968 2891
79 3925 3920
2715 3879 3989
2074 4094 2084
2074 4094 2084
2074 4094 2083
2074 4094 2083
2073 4094 2083
2072 4094 2081
1905 4095 2242
934 4095 3136
0 4055 4047
3711 2415 895
3711 2415 895
3711 2415 895
3711 2414 893
3781 2363 91
3828 2410 315
3540 2882 2480
2828 3299 3564
2751 3582 3740
3711 2415 895
3711 2415 895
3711 2415 895
3711 2414 893
3781 2363 91
3828 2410 315
3540 2882 2480
2828 3299 3564
2751 3582 3740
3711 2413 891
3711 2413 891
3711 2413 891
3710 2413 888
3780 2362 85
3827 2408 302
3540 2881 2478
2827 3298 3563
2751 3582 3740
3709 2410 878
3709 2410 878
3709 2410 878
3709 2410 877
3778 2358 67
3826 2404 265
3539 2878 2472
2824 3297 3563
2750 3581 3740
3846 2532 0
3846 2532 0
3846 2532 0
3845 2531 0
3782 2603 1543
3867 2577 1204
3578 2957 2635
2835 3321 3582
2746 3580 3739
4070 2839 0
4070 2839 0
4070 2838 0
4069 2838 0
4073 2836 149
3813 3046 2897
3609 3211 3199
2886 3468 3681
2795 3636 3772
3839 3487 590
3839 3487 590
3839 3487 590
3839 3487 590
3838 3486 590
3745 3501 2666
3273 3591 3648
2689 3689 3817
2849 3748 3857
2964 3924 559
2964 3924 559
2964 3924 559
2964 3924 559
2963 3924 559
2959 3923 671
2901 3908 2879
2388 3890 3910
2847 3877 3988
2201 4092 1876
2201 4092 1876
2201 4092 1876
2200 4092 1876
2200 4092 1876
2197 4092 1877
2150 4093 2023
1113 4095 3072
156 4054 4049
3943 3160 3033
3943 3160 3033
3943 3160 3033
3943 3160 3033
3943 3159 3032
3986 3147 3017
4009 3176 3098
3777 3394 3383
3182 3664 3800
3943 3160 3033
3943 3160 3033
3943 3160 3033
3943 3160 3033
3943 3159 3032
3986 3147 3017
4009 3176 3098
3777 3394 3383
3182 3664 3800
3943 3159 3032
3943 3159 3032
3943 3159 3032
3943 3159 3032
3943 3159 3032
3986 3147 3016
4009 3176 3097
3777 3394 3383
3182 3663 3800
3943 3159 3031
3943 3159 3031
3943 3159 3031
3943 3159 3031
3943 3158 3031
3986 3147 3015
4009 3175 3095
3777 3393 3382
3181 3663 3800
3942 3157 3028
3942 3157 3028
3942 3157 3028
3942 3157 3028
3942 3157 3027
3985 3144 3010
4008 3173 3091
3777 3391 3380
3180 3663 3799
3996 3259 3019
3996 3259 3019
3996 3259 3019
3996 3259 3018
3995 3258 3018
3976 3265 3212
4019 3265 3237
3787 3444 3444
3179 3680 3803
4095 3415 3020
4095 3415 3020
4095 3415 3020
4095 3415 3020
4095 3415 3020
4095 3419 3071
3991 3474 3472
3814 3557 3747
3170 3767 3825
4067 3708 710
4067 3708 710
4067 3708 710
4067 3708 710
4067 3708 710
4067 3708 710
3967 3720 2927
3488 3804 3862
3217 3863 3940
3103 4054 624
3103 4054 624
3103 4054 624
3103 4054 624
3103 4054 624
3101 4054 623
3097 4054 791
3040 4037 3019
2540 4014 4035
3969 3574 3574
3969 3574 3574
3969 3574 3574
3969 3574 3574
3969 3574 3574
3969 3574 3574
3990 3572 3583
3988 3591 3632
3709 3707 3930
3969 3574 3574
3969 3574 3574
3969 3574 3574
3969 3574 3574
3969 3574 3574
3969 3574 3574
3990 3572 3583
3988 3591 3632
3709 3707 3930
3969 3574 3574
3969 3574 3574
3969 3574 3574
3969 3574 3574
3969 3574 3574
3969 3574 3574
3990 3572 3583
3988 3591 3632
3708 3707 3930
3969 3574 3574
3969 3574 3574
3969 3574 3574
3969 3574 3574
3969 3574 3574
3969 3573 3573
3990 3572 3583
3988 3590 3632
3708 3707 3930
3969 3573 3573
3969 3573 3573
3969 3573 3573
3969 3573 3573
3969 3573 3573
3969 3573 3573
3990 3571 3582
3988 3590 3631
3708 3706 3930
3969 3572 3572
3969 3572 3572
3969 3572 3572
3969 3572 3572
3969 3572 3572
3969 3572 3572
3990 3570 3580
3989 3589 3630
3708 3706 3929
4011 3615 3588
4011 3615 3588
4011 3615 3588
4011 3615 3588
4011 3615 3588
4011 3615 3588
3958 3637 3638
3978 3639 3679
3724 3729 3953
4086 3692 3589
4086 3692 3589
4086 3692 3589
4086 3692 3589
4086 3692 3589
4086 3692 3589
4072 3698 3608
3928 3748 3748
3711 3805 3979
4095 3832 2627
4095 3832 2627
4095 3832 2627
4095 3832 2627
4095 3832 2627
4095 3832 2627
4095 3832 2627
4086 3836 3054
3599 3918 3977
