Log/Red RedLogFilm-DragonColor2 - OrangeCyan.3dl
#25pt 3DLUT created by 3D LUT Creator Pro (c) Oleg Sharonov
#Copyright Oleg Sharonov
#IMAGEPROFILE sRGB
#INPUTGAMMA RedLogFilm
#OUTPUTGAMMA sRGB
0 256 512 768 1023
0 0 0
0 82 137
0 656 935
0 2236 2731
1922 3509 3699
0 615 0
0 609 603
0 932 1207
0 2235 2729
1922 3509 3699
9 2564 9
9 2563 9
0 2537 2527
0 2859 3156
1794 3529 3713
34 3737 37
34 3737 37
0 3735 598
0 3684 3676
2305 3750 3889
2083 4094 2093
2083 4094 2093
2083 4094 2093
1902 4095 2268
0 4056 4047
434 109 0
391 205 128
131 722 1117
0 2235 2732
1922 3509 3699
730 541 23
464 608 638
20 968 1360
0 2235 2729
1921 3509 3699
9 2559 9
9 2559 9
0 2533 2523
0 2857 3155
1795 3528 3713
34 3737 37
34 3737 37
0 3735 586
0 3684 3676
2304 3750 3889
2083 4094 2093
2083 4094 2093
2082 4094 2092
1902 4095 2267
0 4056 4047
2160 809 0
2160 822 0
1984 1221 889
1032 2423 2996
2130 3508 3699
2198 864 0
2220 848 52
1989 1232 910
1026 2421 2994
2128 3508 3699
2770 2352 228
2769 2351 228
2113 2508 2577
739 2901 3271
2073 3519 3706
797 3728 128
795 3728 128
776 3727 473
0 3683 3678
2298 3749 3888
2080 4094 2090
2080 4094 2090
2079 4094 2089
1903 4095 2259
0 4055 4047
3711 2415 895
3711 2415 895
3781 2363 91
3540 2882 2480
2751 3582 3740
3711 2413 891
3711 2413 891
3780 2362 85
3540 2881 2478
2751 3582 3740
3846 2532 0
3846 2532 0
3782 2603 1543
3578 2957 2635
2746 3580 3739
3839 3487 590
3839 3487 590
3838 3486 590
3273 3591 3648
2849 3748 3857
2201 4092 1876
2201 4092 1876
2200 4092 1876
2150 4093 2023
156 4054 4049
3969 3574 3574
3969 3574 3574
3969 3574 3574
3990 3572 3583
3709 3707 3930
3969 3574 3574
3969 3574 3574
3969 3574 3574
3990 3572 3583
3708 3707 3930
3969 3573 3573
3969 3573 3573
3969 3573 3573
3990 3571 3582
3708 3706 3930
4011 3615 3588
4011 3615 3588
4011 3615 3588
3958 3637 3638
3724 3729 3953
4095 3832 2627
4095 3832 2627
4095 3832 2627
4095 3832 2627
3599 3918 3977
