Log/Red RedLogFilm-DragonColor2.3dl
#25pt 3DLUT created by 3D LUT Creator Pro (c) Oleg Sharonov
#Copyright Oleg Sharonov
#IMAGEPROFILE sRGB built-in v.4.30
#INPUTGAMMA RedLogFilm
#OUTPUTGAMMA sRGB built-in v.4.30
0 256 512 768 1023
0 0 0
0 3 309
9 67 1941
997 1078 3861
3504 3513 3976
0 433 0
0 427 425
0 436 1818
995 1075 3860
3504 3513 3976
0 1992 0
0 1990 0
0 1976 1972
1516 2302 3884
3515 3536 3974
2161 3833 2161
2160 3833 2160
2159 3832 2247
2181 3802 3800
3735 3789 3981
3643 4015 3643
3643 4015 3643
3643 4015 3643
3638 4015 3659
3462 4011 4010
388 0 0
405 14 431
214 87 2080
1006 1067 3868
3504 3513 3976
408 409 0
638 638 638
400 412 2192
994 1074 3860
3504 3513 3976
0 1985 0
0 1984 0
0 1969 1965
1511 2296 3884
3514 3535 3974
2160 3833 2160
2160 3833 2160
2158 3832 2244
2180 3802 3800
3735 3789 3981
3643 4015 3643
3643 4015 3643
3643 4015 3643
3638 4015 3659
3462 4011 4010
1984 0 0
1984 0 240
1964 170 2070
1660 1363 3943
3520 3521 3979
1977 173 0
2056 173 192
1990 245 2094
1652 1359 3943
3520 3521 3979
1925 1928 32
1923 1925 32
2426 2426 2426
2362 2376 3973
3529 3532 3978
2281 3828 2155
2281 3828 2155
2279 3830 2219
2259 3801 3800
3734 3788 3981
3643 4015 3643
3643 4015 3643
3643 4015 3643
3637 4015 3658
3462 4011 4010
3941 1809 1809
3941 1809 1809
3939 1827 2279
3897 2136 3941
3670 3645 3981
3940 1806 1806
3940 1805 1805
3939 1824 2270
3897 2133 3940
3670 3645 3981
3940 2267 1911
3940 2266 1910
3960 2307 2321
3911 2404 3951
3668 3643 3981
3742 3743 2175
3742 3743 2175
3741 3743 2172
3741 3741 3741
3796 3797 3988
3652 4015 3621
3652 4015 3621
3652 4015 3621
3647 4015 3635
3494 4009 4008
3992 3784 3784
3992 3784 3784
3992 3783 3783
3992 3787 3813
3984 3818 3997
3992 3784 3784
3992 3784 3784
3992 3783 3783
3992 3787 3813
3984 3818 3997
3992 3783 3783
3992 3783 3783
3992 3783 3783
3992 3787 3812
3984 3818 3997
3996 3824 3805
3996 3824 3805
3996 3824 3804
3996 3825 3825
3988 3838 3999
3975 3976 3405
3975 3975 3404
3975 3975 3404
3975 3975 3404
3958 3958 3958
