Log/Red RedLogFilm-DragonColor2.3dl
#25pt 3DLUT created by 3D LUT Creator Pro (c) Oleg Sharonov
#Copyright Oleg Sharonov
#IMAGEPROFILE sRGB built-in v.4.30
#INPUTGAMMA RedLogFilm
#OUTPUTGAMMA sRGB built-in v.4.30
0 128 256 384 512 640 768 896 1023
0 0 0
0 0 3
0 3 309
3 20 938
9 67 1941
20 181 3209
997 1078 3861
2589 2621 3972
3504 3513 3976
0 9 0
0 6 6
0 12 291
3 20 938
9 67 1941
20 181 3209
997 1078 3861
2589 2621 3972
3504 3513 3976
0 433 0
0 431 0
0 427 425
0 419 954
0 436 1818
0 477 3085
995 1075 3860
2589 2621 3972
3504 3513 3976
0 996 0
0 996 0
0 993 311
0 989 986
0 986 1901
0 1027 3136
1081 1497 3853
2593 2653 3967
3503 3513 3976
0 1992 0
0 1992 0
0 1990 0
0 1986 846
0 1976 1972
29 1974 3221
1516 2302 3884
2822 2972 3961
3515 3536 3974
797 3216 797
797 3216 797
797 3216 797
796 3214 855
812 3208 1873
851 3190 3186
1975 3201 3913
3171 3395 3963
3615 3655 3974
2161 3833 2161
2161 3833 2161
2160 3833 2160
2160 3833 2160
2159 3832 2247
2166 3823 2955
2181 3802 3800
3450 3750 3972
3735 3789 3981
3056 3976 3056
3056 3976 3056
3056 3976 3056
3056 3976 3056
3056 3976 3056
3055 3975 3111
3051 3968 3515
3042 3952 3951
3815 3896 3996
3643 4015 3643
3643 4015 3643
3643 4015 3643
3643 4015 3643
3643 4015 3643
3643 4015 3643
3638 4015 3659
3592 4015 3784
3462 4011 4010
6 0 0
6 0 6
3 3 331
3 20 938
9 67 1941
20 181 3209
997 1078 3861
2589 2621 3972
3504 3513 3976
6 6 0
32 32 32
6 9 346
3 20 938
9 67 1941
20 181 3209
997 1078 3861
2589 2621 3972
3504 3513 3976
0 431 0
0 431 0
0 427 425
0 419 953
0 436 1819
0 475 3085
995 1075 3860
2589 2621 3972
3504 3513 3976
0 996 0
0 996 0
0 993 311
0 989 986
0 985 1900
0 1027 3136
1081 1497 3853
2593 2653 3967
3503 3513 3976
0 1992 0
0 1992 0
0 1990 0
0 1986 846
0 1975 1971
29 1974 3221
1516 2302 3884
2822 2972 3961
3515 3536 3974
797 3216 797
797 3216 797
797 3216 797
796 3214 855
811 3207 1873
851 3190 3186
1975 3201 3913
3171 3395 3963
3615 3655 3974
2161 3833 2161
2161 3833 2161
2160 3833 2160
2160 3833 2160
2159 3832 2247
2166 3823 2955
2181 3802 3800
3450 3750 3972
3735 3789 3981
3056 3976 3056
3056 3976 3056
3056 3976 3056
3056 3976 3056
3056 3976 3056
3055 3975 3111
3051 3968 3515
3042 3952 3951
3815 3896 3996
3643 4015 3643
3643 4015 3643
3643 4015 3643
3643 4015 3643
3643 4015 3643
3643 4015 3643
3638 4015 3659
3592 4015 3784
3462 4011 4010
388 0 0
388 0 0
405 14 431
314 70 1123
214 87 2080
117 108 3334
1006 1067 3868
2589 2621 3972
3504 3513 3976
385 0 0
385 0 0
405 14 431
314 70 1123
212 87 2081
117 108 3332
1005 1067 3868
2589 2621 3972
3504 3513 3976
408 409 0
408 409 0
638 638 638
530 534 1358
400 412 2192
285 326 3333
994 1074 3860
2588 2620 3972
3504 3513 3976
314 987 0
314 987 0
395 1218 372
383 1219 1217
240 1046 2039
111 1028 3174
1077 1488 3852
2591 2650 3968
3503 3513 3976
0 1985 0
0 1985 0
0 1984 0
0 1980 836
0 1969 1965
23 1967 3218
1511 2296 3884
2820 2969 3961
3514 3535 3974
795 3214 795
795 3214 795
794 3213 794
793 3212 843
809 3206 1867
848 3188 3184
1973 3199 3913
3170 3394 3963
3614 3655 3974
2160 3833 2160
2160 3833 2160
2160 3833 2160
2159 3833 2159
2158 3832 2244
2165 3823 2954
2180 3802 3800
3450 3750 3972
3735 3789 3981
3056 3976 3056
3056 3976 3056
3056 3976 3056
3056 3976 3056
3056 3976 3056
3055 3975 3110
3051 3968 3514
3041 3952 3951
3815 3896 3996
3643 4015 3643
3643 4015 3643
3643 4015 3643
3643 4015 3643
3643 4015 3643
3643 4015 3643
3638 4015 3659
3592 4015 3784
3462 4011 4010
1024 0 0
1024 0 0
1019 0 393
993 55 1052
799 221 2124
620 283 3398
1167 1140 3911
2625 2630 3979
3504 3513 3976
1024 0 0
1024 0 0
1017 0 392
993 55 1052
799 221 2124
620 283 3398
1167 1140 3911
2625 2630 3979
3504 3513 3976
992 351 0
992 351 0
1297 465 470
1248 482 1305
865 467 2260
645 387 3419
1159 1135 3910
2622 2628 3979
3504 3513 3976
962 963 0
962 962 0
1133 1134 279
1404 1404 1404
1264 1270 2597
1012 1033 3569
1434 1459 3938
2626 2637 3977
3503 3513 3976
841 1967 0
841 1967 0
839 1966 0
1025 2370 991
1008 2356 2353
807 2100 3371
1677 2320 3899
2816 2963 3961
3513 3534 3974
911 3208 794
911 3208 794
908 3207 793
903 3211 816
910 3221 1869
902 3194 3191
1967 3194 3912
3168 3392 3963
3613 3654 3974
2157 3832 2157
2157 3832 2157
2157 3832 2157
2156 3832 2156
2155 3831 2235
2163 3822 2949
2178 3801 3799
3449 3749 3972
3734 3788 3981
3056 3976 3056
3056 3976 3056
3056 3976 3056
3056 3976 3056
3055 3976 3055
3054 3975 3108
3051 3968 3513
3041 3952 3951
3814 3896 3996
3643 4015 3643
3643 4015 3643
3643 4015 3643
3643 4015 3643
3643 4015 3643
3643 4015 3643
3638 4015 3659
3592 4015 3783
3462 4011 4010
1984 0 0
1984 0 0
1984 0 240
1985 0 953
1964 170 2070
1636 484 3446
1660 1363 3943
2746 2733 3982
3520 3521 3979
1984 0 0
1984 0 0
1983 0 238
1985 0 953
1962 167 2069
1635 484 3446
1659 1363 3943
2746 2733 3982
3520 3521 3979
1977 173 0
1977 173 0
2056 173 192
2045 147 968
1990 245 2094
1624 482 3441
1652 1359 3943
2744 2731 3982
3520 3521 3979
1980 893 0
1980 893 0
1979 890 0
2517 1162 1168
2432 1180 2515
1799 1117 3605
1812 1622 3956
2738 2726 3982
3519 3520 3978
1925 1928 32
1925 1928 32
1923 1925 32
2261 2263 874
2426 2426 2426
2279 2287 3673
2362 2376 3973
2981 2989 3980
3529 3532 3978
1867 3185 830
1867 3185 830
1865 3184 829
1861 3183 827
2024 3359 1983
2002 3333 3330
2398 3230 3933
3224 3400 3964
3614 3653 3974
2281 3828 2155
2281 3828 2155
2281 3828 2155
2278 3828 2154
2279 3830 2219
2276 3823 2945
2259 3801 3800
3448 3748 3972
3734 3788 3981
3054 3976 3054
3054 3976 3054
3054 3976 3054
3054 3976 3054
3054 3976 3054
3053 3975 3104
3049 3968 3511
3040 3952 3951
3814 3896 3996
3643 4015 3643
3643 4015 3643
3643 4015 3643
3643 4015 3643
3643 4015 3643
3642 4015 3642
3637 4015 3658
3592 4015 3783
3462 4011 4010
3314 0 0
3314 0 0
3313 0 0
3312 0 766
3309 0 1926
3252 411 3365
2762 1822 3951
3032 2937 3982
3569 3565 3979
3313 0 0
3313 0 0
3313 0 0
3312 0 765
3309 0 1926
3252 411 3364
2762 1821 3951
3032 2937 3982
3569 3565 3979
3310 0 0
3309 0 0
3309 0 0
3308 0 741
3305 0 1913
3248 408 3360
2758 1818 3951
3031 2936 3982
3569 3565 3979
3299 657 0
3299 657 0
3298 654 0
3435 685 710
3419 660 1990
3324 817 3429
2772 1886 3954
3026 2932 3982
3568 3564 3979
3251 1834 387
3251 1834 387
3251 1833 385
3308 1881 660
3583 2143 2151
3483 2165 3558
2958 2529 3976
3152 3099 3982
3569 3565 3979
3117 3120 908
3117 3120 908
3117 3120 908
3116 3118 906
3256 3257 1852
3283 3283 3283
3230 3235 3979
3419 3423 3978
3661 3663 3980
2937 3805 2166
2937 3805 2166
2937 3805 2165
2936 3805 2165
2934 3805 2173
2969 3822 2944
2943 3800 3799
3547 3749 3974
3748 3790 3982
3126 3973 3050
3126 3973 3050
3126 3973 3050
3126 3973 3050
3125 3973 3050
3124 3973 3092
3115 3966 3503
3089 3950 3949
3814 3895 3996
3642 4015 3642
3642 4015 3642
3642 4015 3642
3642 4015 3642
3642 4015 3642
3641 4015 3641
3637 4015 3657
3591 4015 3782
3461 4011 4010
3941 1809 1809
3941 1809 1809
3941 1809 1809
3940 1807 1807
3939 1827 2279
3937 1876 3130
3897 2136 3941
3522 3234 3978
3670 3645 3981
3941 1809 1809
3941 1809 1809
3940 1808 1808
3940 1807 1807
3939 1827 2279
3937 1876 3130
3897 2136 3941
3522 3234 3978
3670 3645 3981
3940 1806 1806
3940 1806 1806
3940 1805 1805
3940 1805 1805
3939 1824 2270
3937 1872 3126
3897 2133 3940
3521 3233 3979
3670 3645 3981
3940 1797 1797
3940 1797 1797
3940 1797 1797
3940 1796 1796
3939 1814 2246
3936 1863 3116
3896 2123 3940
3519 3231 3979
3669 3644 3981
3940 2267 1911
3940 2267 1911
3940 2266 1910
3940 2263 1909
3960 2307 2321
3955 2302 3162
3911 2404 3951
3536 3275 3979
3668 3643 3981
3922 3019 1836
3922 3019 1836
3922 3018 1835
3922 3017 1834
3933 3040 2099
3958 3114 3119
3908 3122 3938
3630 3510 3979
3714 3701 3983
3742 3743 2175
3742 3743 2175
3742 3743 2175
3742 3743 2174
3741 3743 2172
3756 3757 2825
3741 3741 3741
3741 3742 3984
3796 3797 3988
3493 3955 3036
3493 3955 3036
3493 3955 3036
3492 3955 3036
3492 3955 3036
3491 3955 3049
3490 3953 3474
3463 3937 3936
3837 3896 3997
3652 4015 3621
3652 4015 3621
3652 4015 3621
3652 4015 3621
3652 4015 3621
3651 4015 3621
3647 4015 3635
3600 4015 3771
3494 4009 4008
3978 3340 3340
3978 3340 3340
3978 3340 3340
3978 3340 3340
3978 3339 3339
3978 3352 3464
3978 3381 3710
3955 3471 3978
3815 3746 3986
3978 3340 3340
3978 3340 3340
3978 3340 3340
3978 3340 3340
3978 3339 3339
3978 3352 3464
3978 3381 3710
3955 3471 3978
3815 3746 3986
3978 3340 3340
3978 3340 3340
3978 3340 3340
3978 3339 3339
3978 3339 3339
3978 3351 3463
3978 3381 3709
3955 3470 3978
3815 3746 3986
3978 3339 3339
3978 3339 3339
3978 3339 3339
3978 3338 3338
3978 3338 3338
3978 3350 3461
3978 3379 3708
3955 3469 3978
3815 3746 3986
3978 3336 3336
3978 3336 3336
3978 3336 3336
3978 3336 3336
3978 3335 3335
3978 3347 3453
3978 3377 3705
3955 3467 3978
3814 3745 3986
3979 3497 3412
3979 3497 3412
3979 3497 3412
3979 3496 3412
3979 3495 3411
3980 3500 3504
3980 3509 3722
3959 3551 3980
3821 3760 3987
3986 3722 3452
3986 3722 3452
3986 3722 3452
3985 3722 3452
3985 3721 3451
3986 3721 3505
3987 3718 3720
3971 3714 3988
3853 3823 3993
3910 3911 2992
3910 3911 2992
3910 3911 2992
3910 3911 2992
3910 3911 2991
3910 3911 2991
3908 3908 3369
3893 3893 3893
3893 3894 4003
3733 4013 3461
3733 4013 3461
3733 4013 3461
3733 4013 3461
3733 4013 3461
3733 4013 3461
3732 4013 3472
3726 4009 3718
3707 3995 3995
3992 3784 3784
3992 3784 3784
3992 3784 3784
3992 3784 3784
3992 3783 3783
3992 3783 3783
3992 3787 3813
3994 3795 3879
3984 3818 3997
3992 3784 3784
3992 3784 3784
3992 3784 3784
3992 3784 3784
3992 3783 3783
3992 3783 3783
3992 3787 3813
3994 3795 3879
3984 3818 3997
3992 3784 3784
3992 3784 3784
3992 3784 3784
3992 3783 3783
3992 3783 3783
3992 3783 3783
3992 3787 3813
3994 3795 3879
3984 3818 3997
3992 3783 3783
3992 3783 3783
3992 3783 3783
3992 3783 3783
3992 3783 3783
3992 3783 3783
3992 3787 3813
3994 3795 3879
3984 3818 3997
3992 3783 3783
3992 3783 3783
3992 3783 3783
3992 3783 3783
3992 3783 3783
3992 3783 3783
3992 3787 3812
3994 3795 3878
3984 3818 3997
3992 3783 3783
3992 3783 3783
3992 3783 3783
3992 3783 3783
3992 3782 3782
3992 3782 3782
3992 3786 3811
3994 3794 3877
3984 3817 3997
3996 3824 3805
3996 3824 3805
3996 3824 3805
3996 3824 3805
3996 3824 3804
3996 3824 3804
3996 3825 3825
3997 3827 3885
3988 3838 3999
4005 3888 3816
4005 3888 3816
4005 3888 3816
4005 3888 3816
4005 3888 3816
4005 3888 3816
4005 3888 3829
4006 3886 3887
3998 3885 4007
3975 3976 3405
3975 3976 3405
3975 3975 3404
3975 3975 3404
3975 3975 3404
3975 3975 3404
3975 3975 3404
3971 3971 3647
3958 3958 3958
