Log/Red RedLogFilm-DragonColor2 - OrangeCyan.3dl
#25pt 3DLUT created by 3D LUT Creator Pro (c) Oleg Sharonov
#Copyright Oleg Sharonov
#IMAGEPROFILE sRGB
#INPUTGAMMA RedLogFilm
#OUTPUTGAMMA sRGB
0 43 86 128 171 214 256 299 341 384 427 469 512 555 597 640 682 725 768 810 853 896 938 981 1023 
0 0 0
0 0 0
0 0 0
0 3 6
0 14 23
0 40 70
0 82 137
0 137 221
0 210 319
0 293 434
0 392 568
0 511 732
0 656 935
0 832 1180
0 1045 1469
0 1302 1793
0 1597 2129
0 1918 2449
0 2236 2731
0 2533 2978
300 2792 3179
702 3015 3346
1125 3207 3486
1550 3371 3603
1922 3509 3699
0 0 0
0 0 0
0 0 0
0 3 6
0 14 23
0 40 70
0 82 137
0 137 221
0 210 319
0 293 434
0 392 568
0 511 732
0 656 935
0 832 1180
0 1045 1469
0 1302 1793
0 1597 2129
0 1918 2449
0 2236 2731
0 2533 2978
300 2792 3179
702 3015 3346
1125 3207 3486
1550 3371 3603
1922 3509 3699
0 0 0
0 0 0
0 0 0
0 3 6
0 14 23
0 40 70
0 82 137
0 137 221
0 210 319
0 293 434
0 392 568
0 511 732
0 656 935
0 832 1180
0 1045 1469
0 1302 1793
0 1597 2129
0 1918 2449
0 2236 2731
0 2533 2978
300 2792 3179
702 3015 3346
1125 3207 3486
1550 3371 3603
1922 3509 3699
0 20 0
0 20 0
0 20 0
0 23 20
0 32 43
0 52 79
0 88 140
0 137 218
0 210 319
0 293 434
0 392 568
0 511 732
0 656 935
0 832 1180
0 1045 1469
0 1302 1793
0 1597 2129
0 1918 2449
0 2236 2731
0 2533 2978
300 2792 3179
702 3015 3346
1125 3207 3486
1550 3371 3603
1922 3509 3699
0 156 0
0 156 0
0 156 0
0 156 6
0 153 149
0 171 213
0 205 270
0 243 328
0 295 400
0 359 489
0 439 603
0 538 746
0 659 929
0 832 1180
0 1045 1469
0 1302 1793
0 1597 2129
0 1916 2448
0 2236 2731
0 2533 2978
300 2792 3179
700 3015 3345
1125 3207 3486
1550 3371 3603
1922 3509 3699
0 381 0
0 381 0
0 381 0
0 381 0
0 379 112
0 377 373
0 394 446
0 421 508
0 459 575
0 511 655
0 579 754
0 665 879
0 778 1042
0 920 1244
0 1098 1493
0 1315 1787
0 1596 2128
0 1916 2448
0 2236 2730
0 2533 2978
300 2792 3179
700 3015 3345
1125 3207 3486
1550 3371 3603
1922 3509 3699
0 615 0
0 615 0
0 615 0
0 615 0
0 614 64
0 611 336
0 609 603
0 628 693
0 655 767
0 697 849
0 754 944
0 830 1061
0 932 1207
0 1061 1389
0 1226 1613
0 1428 1870
0 1666 2153
0 1931 2442
0 2235 2729
0 2532 2977
300 2792 3179
700 3015 3345
1123 3207 3486
1549 3370 3603
1922 3509 3699
3 878 3
3 878 3
3 878 3
3 878 3
3 877 3
0 874 286
0 870 563
0 867 860
0 888 970
0 921 1062
0 969 1160
0 1036 1275
0 1122 1410
0 1238 1573
0 1386 1769
0 1568 1995
0 1784 2242
0 2025 2494
0 2278 2736
0 2532 2977
300 2791 3179
700 3014 3345
1123 3207 3486
1549 3370 3603
1921 3509 3699
3 1182 3
3 1182 3
3 1182 3
3 1182 3
3 1181 3
0 1180 210
0 1176 511
0 1173 814
0 1167 1159
0 1191 1289
0 1228 1398
0 1283 1513
0 1357 1641
0 1456 1787
0 1582 1955
0 1740 2146
0 1927 2356
0 2137 2575
0 2363 2786
0 2588 2991
146 2803 3182
699 3014 3345
1123 3206 3486
1549 3370 3603
1921 3509 3699
3 1525 3
3 1525 3
3 1525 3
3 1525 3
3 1525 3
0 1523 70
0 1522 432
0 1518 749
0 1514 1102
0 1507 1497
0 1532 1643
0 1575 1765
0 1632 1885
0 1711 2016
0 1813 2159
0 1942 2318
0 2095 2492
0 2271 2676
0 2464 2857
0 2662 3037
0 2857 3211
546 3033 3353
1122 3206 3485
1548 3370 3603
1921 3509 3699
6 1890 6
6 1890 6
6 1890 6
6 1890 6
6 1890 6
6 1889 6
0 1887 311
0 1885 656
0 1881 1017
0 1875 1426
0 1868 1858
0 1894 2008
0 1934 2129
0 1991 2247
0 2068 2370
0 2166 2501
0 2285 2643
0 2425 2794
0 2582 2943
0 2749 3097
0 2919 3250
392 3080 3384
967 3227 3497
1548 3370 3603
1921 3509 3699
6 2244 6
6 2244 6
6 2244 6
6 2244 6
6 2244 6
6 2244 6
0 2243 70
0 2240 523
0 2237 902
0 2232 1320
0 2227 1771
0 2220 2209
0 2242 2352
0 2279 2465
0 2331 2573
0 2401 2683
0 2487 2799
0 2592 2924
0 2715 3045
0 2851 3171
0 2994 3302
270 3136 3424
867 3267 3524
1400 3392 3616
1921 3509 3699
9 2564 9
9 2564 9
9 2564 9
9 2564 9
9 2564 9
9 2563 9
9 2563 9
0 2562 300
0 2559 742
0 2556 1175
0 2552 1645
0 2546 2112
0 2537 2527
0 2557 2659
0 2589 2761
0 2634 2857
0 2693 2955
0 2768 3058
0 2859 3156
0 2964 3258
0 3081 3366
121 3201 3473
802 3314 3559
1327 3425 3640
1794 3529 3713
11 2842 14
11 2842 14
11 2842 14
11 2842 14
11 2842 14
11 2842 14
11 2842 14
11 2841 14
0 2839 499
0 2837 978
0 2833 1470
0 2828 1968
0 2822 2421
0 2813 2804
0 2829 2923
0 2856 3015
0 2894 3103
0 2945 3190
0 3009 3273
0 3087 3355
0 3177 3440
0 3276 3530
747 3370 3601
1281 3465 3670
1735 3557 3734
17 3081 17
17 3081 17
17 3081 17
17 3081 17
17 3081 17
17 3081 17
17 3081 17
17 3080 17
17 3080 17
0 3078 694
0 3075 1227
0 3071 1765
0 3066 2263
0 3059 2687
0 3049 3040
0 3062 3150
0 3084 3235
0 3116 3315
0 3159 3389
0 3215 3456
0 3282 3523
100 3358 3592
691 3434 3650
1246 3511 3705
1698 3590 3760
20 3286 20
20 3286 20
20 3286 20
20 3286 20
20 3286 20
20 3286 20
20 3286 20
20 3286 20
20 3286 20
0 3285 188
0 3283 889
0 3279 1480
0 3275 2039
0 3269 2518
0 3261 2911
0 3250 3242
0 3260 3345
0 3278 3425
0 3305 3498
0 3342 3555
0 3390 3609
508 3441 3653
829 3501 3701
1209 3565 3748
1665 3629 3791
26 3462 26
26 3462 26
26 3462 26
26 3462 26
26 3462 26
26 3462 26
26 3462 26
26 3462 26
26 3462 26
26 3462 26
0 3461 351
0 3458 1082
0 3455 1717
0 3450 2276
0 3443 2728
0 3433 3097
0 3421 3413
0 3428 3512
0 3443 3587
0 3465 3648
321 3494 3688
845 3527 3717
1137 3570 3751
1350 3620 3790
1816 3668 3824
29 3612 32
29 3612 32
29 3612 32
29 3612 32
29 3612 32
29 3612 32
29 3612 32
29 3612 32
29 3612 32
29 3611 32
29 3611 32
0 3610 484
0 3607 1263
0 3603 1927
0 3598 2471
0 3590 2898
0 3579 3249
0 3565 3556
0 3569 3653
0 3580 3724
508 3595 3763
1154 3611 3780
1448 3639 3803
1627 3676 3831
2059 3709 3857
34 3737 37
34 3737 37
34 3737 37
34 3737 37
34 3737 37
34 3737 37
34 3737 37
34 3737 37
34 3737 37
34 3737 37
34 3737 37
34 3737 37
0 3735 598
0 3732 1426
0 3727 2102
0 3721 2627
0 3712 3034
0 3700 3373
0 3684 3676
0 3686 3770
109 3694 3834
1383 3693 3840
1734 3708 3854
1894 3732 3873
2305 3750 3889
40 3841 40
40 3841 40
40 3841 40
40 3841 40
40 3841 40
40 3841 40
40 3841 40
40 3841 40
40 3841 40
40 3841 40
40 3840 40
40 3840 40
40 3840 40
0 3839 696
0 3835 1565
0 3830 2242
0 3823 2749
0 3813 3142
0 3800 3474
0 3782 3774
0 3782 3867
1365 3772 3897
1952 3772 3903
2167 3785 3913
2498 3793 3922
43 3925 46
43 3925 46
43 3925 46
43 3925 46
43 3925 46
43 3925 46
43 3925 46
43 3925 46
43 3925 46
43 3925 46
43 3925 46
43 3925 46
43 3925 46
43 3925 46
0 3923 779
0 3919 1680
0 3914 2354
0 3906 2845
0 3895 3227
0 3881 3554
0 3862 3853
0 3860 3948
2018 3835 3949
2318 3837 3954
2637 3837 3956
46 3994 49
46 3994 49
46 3994 49
46 3994 49
46 3994 49
46 3994 49
46 3994 49
46 3994 49
46 3994 49
46 3994 49
46 3994 49
46 3994 49
46 3994 49
46 3994 49
46 3994 49
0 3992 848
0 3987 1774
0 3981 2440
0 3973 2919
0 3962 3294
0 3947 3618
0 3926 3918
1385 3907 3993
2397 3886 3992
2713 3880 3990
49 4050 52
49 4050 52
49 4050 52
49 4050 52
49 4050 52
49 4050 52
49 4050 52
49 4050 52
49 4050 52
49 4050 52
49 4050 52
49 4050 52
49 4050 52
49 4050 52
49 4050 52
49 4049 52
0 4047 905
0 4043 1849
0 4036 2509
0 4028 2978
0 4016 3348
0 4000 3670
0 3978 3970
2116 3943 4026
2694 3924 4024
106 4095 109
106 4095 109
106 4095 109
106 4095 109
106 4095 109
106 4095 109
106 4095 109
106 4095 109
103 4095 109
103 4095 106
103 4095 106
100 4095 106
100 4095 103
97 4095 100
94 4095 97
88 4095 91
79 4095 85
0 4093 950
0 4088 1909
0 4081 2563
0 4072 3025
0 4060 3390
0 4043 3712
0 4021 4012
2501 3973 4054
2083 4094 2093
2083 4094 2093
2083 4094 2093
2083 4094 2093
2083 4094 2093
2083 4094 2093
2083 4094 2093
2083 4094 2093
2083 4094 2093
2083 4094 2093
2083 4094 2093
2083 4094 2093
2083 4094 2093
2082 4094 2092
2082 4094 2092
2081 4094 2091
2080 4094 2090
2079 4094 2089
1902 4095 2268
1664 4095 2561
1391 4095 2860
943 4095 3143
0 4095 3427
0 4079 3746
0 4056 4047
0 0 0
0 0 0
0 0 0
0 3 6
0 14 23
0 40 70
0 82 137
0 137 221
0 210 319
0 293 434
0 392 568
0 511 732
0 656 935
0 832 1180
0 1045 1469
0 1302 1793
0 1597 2129
0 1918 2449
0 2236 2731
0 2533 2978
300 2792 3179
702 3015 3346
1125 3207 3486
1550 3371 3603
1922 3509 3699
0 0 0
0 0 0
0 0 0
0 3 6
0 14 23
0 40 70
0 82 137
0 137 221
0 210 319
0 293 434
0 392 568
0 511 732
0 656 935
0 832 1180
0 1045 1469
0 1302 1793
0 1597 2129
0 1918 2449
0 2236 2731
0 2533 2978
300 2792 3179
702 3015 3346
1125 3207 3486
1550 3371 3603
1922 3509 3699
0 0 0
0 0 0
0 0 0
0 3 6
0 14 23
0 40 70
0 82 137
0 137 221
0 210 319
0 293 434
0 392 568
0 511 732
0 656 935
0 832 1180
0 1045 1469
0 1302 1793
0 1597 2129
0 1918 2449
0 2236 2731
0 2533 2978
300 2792 3179
702 3015 3346
1125 3207 3486
1550 3371 3603
1922 3509 3699
0 20 0
0 20 0
0 20 0
0 23 20
0 32 43
0 52 79
0 88 140
0 137 218
0 210 319
0 293 434
0 392 568
0 511 732
0 656 935
0 832 1180
0 1045 1469
0 1302 1793
0 1597 2129
0 1918 2449
0 2236 2731
0 2533 2978
300 2792 3179
702 3015 3346
1125 3207 3486
1550 3371 3603
1922 3509 3699
0 156 0
0 156 0
0 156 0
0 156 6
0 153 149
0 171 213
0 205 270
0 243 328
0 295 400
0 359 489
0 439 603
0 538 746
0 659 929
0 832 1180
0 1045 1469
0 1302 1793
0 1597 2129
0 1916 2448
0 2236 2731
0 2533 2978
300 2792 3179
700 3015 3345
1125 3207 3486
1550 3371 3603
1922 3509 3699
0 381 0
0 381 0
0 381 0
0 381 0
0 379 112
0 377 373
0 394 446
0 421 508
0 459 575
0 511 655
0 579 754
0 665 879
0 778 1042
0 920 1244
0 1098 1493
0 1315 1787
0 1596 2128
0 1916 2448
0 2236 2730
0 2533 2978
300 2792 3179
700 3015 3345
1125 3207 3486
1550 3371 3603
1922 3509 3699
0 615 0
0 615 0
0 615 0
0 615 0
0 614 64
0 611 336
0 609 603
0 628 693
0 655 767
0 697 849
0 754 944
0 830 1061
0 932 1207
0 1061 1389
0 1226 1613
0 1428 1870
0 1666 2153
0 1931 2442
0 2235 2729
0 2532 2977
300 2792 3179
700 3015 3345
1123 3207 3486
1549 3370 3603
1922 3509 3699
3 878 3
3 878 3
3 878 3
3 878 3
3 877 3
0 874 286
0 870 563
0 867 860
0 888 970
0 921 1062
0 969 1160
0 1036 1275
0 1122 1410
0 1238 1573
0 1386 1769
0 1568 1995
0 1784 2242
0 2025 2494
0 2278 2736
0 2532 2977
300 2791 3179
700 3014 3345
1123 3207 3486
1549 3370 3603
1921 3509 3699
3 1182 3
3 1182 3
3 1182 3
3 1182 3
3 1181 3
0 1180 210
0 1176 511
0 1173 814
0 1167 1159
0 1191 1289
0 1228 1398
0 1283 1513
0 1357 1641
0 1456 1787
0 1582 1955
0 1740 2146
0 1927 2356
0 2137 2575
0 2363 2786
0 2588 2991
146 2803 3182
699 3014 3345
1123 3206 3486
1549 3370 3603
1921 3509 3699
3 1525 3
3 1525 3
3 1525 3
3 1525 3
3 1525 3
0 1523 70
0 1522 432
0 1518 749
0 1514 1102
0 1507 1497
0 1532 1643
0 1575 1765
0 1632 1885
0 1711 2016
0 1813 2159
0 1942 2318
0 2095 2492
0 2271 2676
0 2464 2857
0 2662 3037
0 2857 3211
546 3033 3353
1122 3206 3485
1548 3370 3603
1921 3509 3699
6 1890 6
6 1890 6
6 1890 6
6 1890 6
6 1890 6
6 1889 6
0 1887 311
0 1885 656
0 1881 1017
0 1875 1426
0 1868 1858
0 1894 2008
0 1934 2129
0 1991 2247
0 2068 2370
0 2166 2501
0 2285 2643
0 2425 2794
0 2582 2943
0 2749 3097
0 2919 3250
392 3080 3384
967 3227 3497
1548 3370 3603
1921 3509 3699
