Log/Sony S-Log2.3dl
#25pt 3DLUT created by 3D LUT Creator Pro (c) Oleg Sharonov
#Copyright Oleg Sharonov
#IMAGEPROFILE sRGB built-in v.4.30
#INPUTGAMMA SLog2
#OUTPUTGAMMA sRGB built-in v.4.30
0 43 86 128 171 214 256 299 341 384 427 469 512 555 597 640 682 725 768 810 853 896 938 981 1023 
0 0 0
0 0 0
0 0 0
0 18 242
0 46 441
0 82 629
0 127 825
0 178 1050
0 233 1309
0 292 1619
0 357 1983
0 431 2384
0 514 2789
0 609 3171
0 719 3524
0 848 3859
302 1041 4095
837 1368 4095
1286 1727 4095
1758 2116 4095
2232 2496 4095
2649 2830 4095
2981 3103 4095
3234 3317 4095
3423 3483 4095
0 0 0
0 0 0
0 0 0
0 18 242
0 46 441
0 82 629
0 127 825
0 178 1050
0 233 1309
0 292 1619
0 357 1983
0 431 2384
0 514 2789
0 609 3171
0 719 3524
0 848 3859
302 1041 4095
837 1368 4095
1286 1727 4095
1758 2116 4095
2232 2496 4095
2649 2830 4095
2981 3103 4095
3234 3317 4095
3423 3483 4095
0 0 0
0 0 0
0 0 0
0 18 242
0 46 441
0 82 629
0 127 825
0 178 1050
0 233 1309
0 292 1619
0 357 1983
0 431 2384
0 514 2789
0 609 3171
0 719 3524
0 848 3859
302 1041 4095
837 1368 4095
1286 1727 4095
1758 2116 4095
2232 2496 4095
2649 2830 4095
2981 3103 4095
3234 3317 4095
3423 3483 4095
0 230 7
0 230 7
0 230 7
0 242 250
0 258 446
0 280 633
0 304 829
0 335 1049
0 372 1311
0 416 1621
0 467 1985
0 529 2386
0 602 2790
0 688 3172
0 791 3525
0 914 3859
311 1100 4095
851 1415 4095
1304 1766 4095
1777 2146 4095
2248 2517 4095
2660 2843 4095
2989 3111 4095
3238 3322 4095
3426 3486 4095
0 420 15
0 420 15
0 420 15
0 428 255
0 439 452
0 453 635
0 471 831
0 493 1054
0 521 1312
0 556 1622
0 599 1986
0 652 2387
0 716 2791
0 794 3172
0 890 3525
0 1006 3859
325 1184 4095
871 1483 4095
1330 1822 4095
1805 2189 4095
2271 2546 4095
2676 2862 4095
2998 3123 4095
3244 3329 4095
3429 3490 4095
0 597 29
0 597 29
0 597 29
0 603 263
0 612 457
0 622 640
0 637 835
0 655 1056
0 679 1315
0 708 1625
0 745 1988
0 791 2388
0 848 2792
0 920 3173
0 1009 3526
0 1120 3860
341 1289 4095
897 1567 4095
1363 1892 4095
1838 2242 4095
2299 2583 4095
2696 2886 4095
3011 3137 4095
3251 3338 4095
3434 3495 4095
0 783 46
0 783 46
0 783 46
0 788 272
0 795 463
0 805 645
0 817 839
0 833 1060
0 853 1319
0 879 1629
0 911 1991
0 953 2391
0 1006 2793
0 1072 3174
0 1156 3527
0 1261 3861
348 1414 4095
929 1673 4095
1405 1978 4095
1882 2307 4095
2334 2628 4095
2720 2915 4095
3026 3155 4095
3261 3349 4095
3439 3502 4095
0 991 67
0 991 67
0 991 67
0 996 285
0 1002 471
0 1011 651
0 1022 845
0 1036 1065
0 1054 1323
0 1077 1633
0 1107 1994
0 1145 2393
0 1194 2796
0 1257 3176
0 1335 3528
0 1435 3861
354 1569 4095
968 1804 4095
1458 2084 4095
1935 2387 4095
2378 2684 4095
2751 2951 4095
3046 3178 4095
3273 3363 4095
3446 3510 4095
0 1234 94
0 1234 94
0 1234 94
0 1239 300
0 1244 481
0 1252 659
0 1262 852
0 1276 1071
0 1292 1329
0 1314 1638
0 1341 1999
0 1377 2397
0 1423 2799
0 1481 3178
0 1555 3529
0 1641 3853
355 1758 4095
1017 1963 4095
1524 2212 4095
2001 2482 4095
2431 2750 4095
2788 2995 4095
3069 3206 4095
3287 3380 4095
3455 3520 4095
0 1525 129
0 1525 129
0 1525 129
0 1528 318
0 1534 494
0 1541 670
0 1550 861
0 1562 1079
0 1578 1337
0 1598 1645
0 1624 2006
0 1657 2402
0 1699 2803
0 1750 3178
0 1810 3520
0 1885 3842
347 1983 4095
1074 2150 4095
1603 2360 4095
2081 2594 4095
2494 2829 4095
2832 3047 4095
3098 3239 4095
3306 3401 4095
3466 3533 4095
0 1868 170
0 1868 170
0 1868 170
0 1872 341
0 1876 511
0 1883 684
0 1891 873
0 1902 1090
0 1916 1347
0 1933 1654
0 1953 2010
0 1978 2400
0 2011 2793
0 2051 3163
0 2102 3505
0 2164 3826
309 2240 4095
1138 2362 4095
1697 2528 4095
2174 2720 4095
2569 2919 4095
2884 3109 4095
3132 3279 4095
3327 3426 4095
3480 3549 4095
0 2241 212
0 2241 212
0 2241 212
0 2243 367
0 2247 529
0 2251 696
0 2257 881
0 2264 1094
0 2274 1345
0 2286 1646
0 2302 1997
0 2322 2384
0 2347 2774
0 2378 3143
0 2417 3485
0 2464 3805
192 2520 4095
1206 2591 4095
1805 2711 4095
2280 2859 4095
2653 3019 4095
2944 3178 4095
3172 3326 4095
3353 3457 4095
3496 3568 4095
0 2611 257
0 2611 257
0 2611 257
0 2613 396
0 2615 547
0 2618 708
0 2622 887
0 2627 1094
0 2634 1340
0 2642 1634
0 2653 1978
0 2667 2359
0 2684 2746
0 2706 3114
0 2732 3454
0 2763 3773
0 2802 4078
1263 2828 4095
1920 2900 4095
2395 3005 4095
2744 3128 4095
3010 3256 4095
3217 3379 4095
3383 3492 4095
3515 3592 4095
0 2954 304
0 2954 304
0 2954 304
0 2955 427
0 2956 567
0 2958 720
0 2960 892
0 2964 1092
0 2968 1329
0 2973 1614
0 2979 1948
0 2987 2320
0 2997 2703
0 3010 3070
0 3026 3410
0 3044 3727
0 3066 4029
1281 3060 4095
2030 3090 4095
2511 3155 4095
2839 3242 4095
3080 3339 4095
3267 3438 4095
3416 3532 4095
3537 3618 4095
0 3252 352
0 3252 352
0 3252 352
0 3253 460
0 3253 588
0 3254 731
0 3255 893
0 3257 1083
0 3259 1309
0 3261 1580
0 3264 1900
0 3268 2262
0 3273 2639
0 3279 3003
0 3287 3344
0 3296 3660
0 3306 3961
1196 3282 4095
2110 3273 4095
2617 3303 4095
2931 3357 4095
3151 3426 4095
3319 3501 4095
3453 3577 4095
3563 3649 4095
0 3503 399
0 3503 399
0 3503 399
0 3503 492
0 3503 607
0 3503 738
0 3504 888
0 3504 1064
0 3505 1276
0 3505 1530
0 3506 1831
0 3507 2177
0 3509 2545
0 3510 2909
0 3512 3251
0 3514 3569
0 3516 3869
827 3497 4095
2120 3447 4095
2699 3445 4095
3014 3471 4095
3220 3514 4095
3372 3567 4095
3492 3625 4095
3590 3682 4095
0 3707 442
0 3707 442
0 3707 442
0 3707 521
0 3707 622
0 3707 739
0 3707 875
0 3707 1036
0 3706 1228
0 3706 1461
0 3705 1739
0 3705 2064
0 3704 2420
0 3702 2780
0 3701 3125
0 3698 3447
0 3695 3749
0 3691 4038
1954 3615 4095
2730 3580 4095
3076 3580 4095
3280 3601 4095
3422 3634 4095
3530 3675 4095
3618 3719 4095
0 3871 480
0 3871 480
0 3871 480
0 3871 546
0 3871 633
0 3870 735
0 3870 855
0 3869 998
0 3869 1170
0 3868 1378
0 3866 1629
0 3864 1926
0 3862 2262
0 3860 2617
0 3856 2965
0 3851 3292
0 3845 3600
0 3837 3891
1258 3790 4095
2656 3710 4095
3104 3684 4095
3325 3684 4095
3465 3700 4095
3567 3726 4095
3647 3758 4095
0 4000 513
0 4000 513
0 4000 513
0 4000 567
0 4000 640
0 3999 726
0 3999 830
0 3998 955
0 3997 1105
0 3995 1287
0 3994 1508
0 3992 1774
0 3989 2083
0 3986 2423
0 3981 2770
0 3976 3106
0 3968 3420
0 3959 3717
0 3948 4001
2274 3848 4095
3064 3785 4095
3345 3764 4095
3497 3765 4095
3599 3777 4095
3674 3797 4095
305 4095 660
305 4095 660
305 4095 660
296 4095 693
282 4095 740
265 4095 799
235 4095 869
197 4095 958
138 4095 1068
40 4095 1203
0 4094 1386
0 4092 1617
0 4089 1893
0 4086 2209
0 4081 2548
0 4075 2888
0 4068 3212
0 4059 3518
0 4047 3807
0 4033 4086
2847 3893 4095
3319 3844 4095
3511 3827 4095
3622 3827 4095
3697 3836 4095
1807 4095 1949
1807 4095 1949
1807 4095 1949
1805 4095 1962
1802 4095 1980
1799 4095 2005
1794 4095 2035
1786 4095 2072
1777 4095 2121
1766 4095 2183
1750 4095 2260
1731 4095 2356
1704 4095 2473
1668 4095 2611
1621 4095 2774
1555 4095 2958
1467 4095 3161
1342 4095 3382
1159 4095 3617
880 4095 3871
1607 4050 4095
3178 3930 4095
3491 3889 4095
3631 3876 4095
3714 3876 4095
2584 4095 2663
2584 4095 2663
2584 4095 2663
2584 4095 2669
2582 4095 2676
2581 4095 2687
2578 4095 2699
2576 4095 2716
2571 4095 2737
2566 4095 2764
2560 4095 2797
2551 4095 2840
2540 4095 2894
2524 4095 2959
2505 4095 3040
2477 4095 3136
2440 4095 3250
2389 4095 3384
2315 4095 3538
2208 4095 3713
2046 4095 3912
2466 4057 4095
3391 3959 4095
3614 3926 4095
3720 3915 4095
3014 4095 3061
3014 4095 3061
3014 4095 3061
3014 4095 3064
3014 4095 3068
3012 4095 3072
3012 4095 3078
3010 4095 3085
3008 4095 3095
3006 4095 3108
3003 4095 3124
3000 4095 3146
2994 4095 3172
2987 4095 3205
2979 4095 3247
2967 4095 3299
2951 4095 3363
2929 4095 3442
2899 4095 3537
2858 4095 3650
2796 4095 3785
2705 4095 3944
2943 4064 4095
3539 3982 4095
3707 3955 4095
3278 4095 3309
3278 4095 3309
3278 4095 3309
3277 4095 3310
3277 4095 3312
3277 4095 3314
3276 4095 3317
3275 4095 3321
3274 4095 3326
3273 4095 3333
3272 4095 3342
3270 4095 3353
3267 4095 3367
3264 4095 3385
3259 4095 3408
3254 4095 3437
3246 4095 3474
3235 4095 3519
3221 4095 3577
3202 4095 3648
3175 4095 3735
3136 4095 3841
3080 4095 3970
3229 4069 4095
3648 4001 4095
3456 4095 3478
3456 4095 3478
3456 4095 3478
3456 4095 3479
3456 4095 3480
3455 4095 3481
3455 4095 3483
3454 4095 3485
3454 4095 3488
3453 4095 3491
3453 4095 3496
3451 4095 3502
3450 4095 3510
3448 4095 3521
3446 4095 3534
3443 4095 3551
3438 4095 3572
3433 4095 3599
3426 4095 3634
3416 4095 3678
3402 4095 3732
3383 4095 3801
3357 4095 3885
3318 4095 3991
3421 4073 4095
0 0 0
0 0 0
0 0 0
0 18 242
0 46 441
0 82 629
0 127 825
0 178 1050
0 233 1309
0 292 1619
0 357 1983
0 431 2384
0 514 2789
0 609 3171
0 719 3524
0 848 3859
302 1041 4095
837 1368 4095
1286 1727 4095
1758 2116 4095
2232 2496 4095
2649 2830 4095
2981 3103 4095
3234 3317 4095
3423 3483 4095
0 0 0
0 0 0
0 0 0
0 18 242
0 46 441
0 82 629
0 127 825
0 178 1050
0 233 1309
0 292 1619
0 357 1983
0 431 2384
0 514 2789
0 609 3171
0 719 3524
0 848 3859
302 1041 4095
837 1368 4095
1286 1727 4095
1758 2116 4095
2232 2496 4095
2649 2830 4095
2981 3103 4095
3234 3317 4095
3423 3483 4095
0 0 0
0 0 0
0 0 0
0 18 242
0 46 441
0 82 629
0 127 825
0 178 1050
0 233 1309
0 292 1619
0 357 1983
0 431 2384
0 514 2789
0 609 3171
0 719 3524
0 848 3859
302 1041 4095
837 1368 4095
1286 1727 4095
1758 2116 4095
2232 2496 4095
2649 2830 4095
2981 3103 4095
3234 3317 4095
3423 3483 4095
0 230 7
0 230 7
0 230 7
0 242 250
0 258 446
0 280 633
0 304 829
0 335 1049
0 372 1311
0 416 1621
0 467 1985
0 529 2386
0 602 2790
0 688 3172
0 791 3525
0 914 3859
311 1100 4095
851 1415 4095
1304 1766 4095
1777 2146 4095
2248 2517 4095
2660 2843 4095
2989 3111 4095
3238 3322 4095
3426 3486 4095
0 420 15
0 420 15
0 420 15
0 428 255
0 439 452
0 453 635
0 471 831
0 493 1054
0 521 1312
0 556 1622
0 599 1986
0 652 2387
0 716 2791
0 794 3172
0 890 3525
0 1006 3859
325 1184 4095
871 1483 4095
1330 1822 4095
1805 2189 4095
2271 2546 4095
2676 2862 4095
2998 3123 4095
3244 3329 4095
3429 3490 4095
0 597 29
0 597 29
0 597 29
0 603 263
0 612 457
0 622 640
0 637 835
0 655 1056
0 679 1315
0 708 1625
0 745 1988
0 791 2388
0 848 2792
0 920 3173
0 1009 3526
0 1120 3860
341 1289 4095
897 1567 4095
1363 1892 4095
1838 2242 4095
2299 2583 4095
2696 2886 4095
3011 3137 4095
3251 3338 4095
3434 3495 4095
0 783 46
0 783 46
0 783 46
0 788 272
0 795 463
0 805 645
0 817 839
0 833 1060
0 853 1319
0 879 1629
0 911 1991
0 953 2391
0 1006 2793
0 1072 3174
0 1156 3527
0 1261 3861
348 1414 4095
929 1673 4095
1405 1978 4095
1882 2307 4095
2334 2628 4095
2720 2915 4095
3026 3155 4095
3261 3349 4095
3439 3502 4095
0 991 67
0 991 67
0 991 67
0 996 285
0 1002 471
0 1011 651
0 1022 845
0 1036 1065
0 1054 1323
0 1077 1633
0 1107 1994
0 1145 2393
0 1194 2796
0 1257 3176
0 1335 3528
0 1435 3861
354 1569 4095
968 1804 4095
1458 2084 4095
1935 2387 4095
2378 2684 4095
2751 2951 4095
3046 3178 4095
3273 3363 4095
3446 3510 4095
0 1234 94
0 1234 94
0 1234 94
0 1239 300
0 1244 481
0 1252 659
0 1262 852
0 1276 1071
0 1292 1329
0 1314 1638
0 1341 1999
0 1377 2397
0 1423 2799
0 1481 3178
0 1555 3529
0 1641 3853
355 1758 4095
1017 1963 4095
1524 2212 4095
2001 2482 4095
2431 2750 4095
2788 2995 4095
3069 3206 4095
3287 3380 4095
3455 3520 4095
0 1525 129
0 1525 129
0 1525 129
0 1528 318
0 1534 494
0 1541 670
0 1550 861
0 1562 1079
0 1578 1337
0 1598 1645
0 1624 2006
0 1657 2402
0 1699 2803
0 1750 3178
0 1810 3520
0 1885 3842
347 1983 4095
1074 2150 4095
1603 2360 4095
2081 2594 4095
2494 2829 4095
2832 3047 4095
3098 3239 4095
3306 3401 4095
3466 3533 4095
0 1868 170
0 1868 170
0 1868 170
0 1872 341
0 1876 511
0 1883 684
0 1891 873
0 1902 1090
0 1916 1347
0 1933 1654
0 1953 2010
0 1978 2400
0 2011 2793
0 2051 3163
0 2102 3505
0 2164 3826
309 2240 4095
1138 2362 4095
1697 2528 4095
2174 2720 4095
2569 2919 4095
2884 3109 4095
3132 3279 4095
3327 3426 4095
3480 3549 4095
