Log/Sony S-Log2 S-Gamut3.Cine - Neutral.3dl
#25pt 3DLUT created by 3D LUT Creator Pro (c) Oleg Sharonov
#Copyright Oleg Sharonov
#IMAGEPROFILE 
#INPUTGAMMA SLog2
#OUTPUTGAMMA 
0 128 256 384 512 640 768 896 1023
0 0 0
10 0 97
61 6 468
174 19 855
349 45 1329
583 103 1966
902 220 2829
1347 720 3682
1983 1662 3912
0 155 0
0 136 119
55 13 618
174 19 855
349 45 1329
583 103 1966
902 220 2829
1347 720 3681
1983 1662 3912
0 610 3
0 604 52
3 572 527
78 460 1090
326 87 1632
582 100 1961
900 220 2825
1346 718 3681
1982 1661 3912
0 1066 13
0 1064 13
0 1046 471
6 1009 941
142 889 1620
352 295 2750
898 217 2820
1345 715 3680
1981 1660 3912
0 1639 29
0 1637 29
0 1627 295
0 1605 861
19 1556 1457
260 1404 2352
523 713 3917
1341 709 3678
1979 1658 3911
0 2399 68
0 2398 68
0 2392 68
0 2378 684
0 2350 1344
42 2282 2143
431 2081 3355
1358 1526 4095
1974 1651 3910
0 3432 149
0 3431 149
0 3427 149
0 3419 149
0 3401 1129
0 3362 1985
90 3269 3075
1842 2963 4095
2649 2700 4095
3418 4095 3420
3417 4095 3419
3415 4095 3417
3410 4095 3412
3398 4095 3401
3378 4095 3459
3322 4095 3591
3132 4095 3989
3794 3907 4095
3947 4095 3948
3947 4095 3948
3947 4095 3947
3947 4095 3947
3946 4095 3947
3945 4095 3945
3941 4095 3958
3932 4095 3985
3899 4095 4071
192 0 0
171 0 116
107 3 494
171 19 847
349 45 1329
583 103 1966
902 220 2829
1347 720 3681
1983 1662 3912
113 129 0
97 113 103
58 10 533
171 19 847
349 45 1329
582 100 1964
901 220 2827
1347 719 3681
1983 1662 3912
0 602 3
0 596 32
3 564 522
78 449 1090
330 84 1608
582 100 1961
900 220 2825
1346 718 3681
1982 1661 3912
0 1063 13
0 1060 13
0 1043 462
6 1004 937
142 884 1619
365 291 2737
897 217 2818
1345 715 3680
1981 1660 3912
0 1636 29
0 1635 29
0 1624 284
0 1603 858
19 1553 1455
262 1401 2351
522 704 3918
1341 709 3678
1979 1657 3911
0 2397 68
0 2397 68
0 2390 68
0 2377 678
0 2348 1342
42 2280 2142
433 2079 3354
1357 1523 4095
1974 1651 3910
0 3431 149
0 3430 149
0 3427 149
0 3418 149
0 3400 1127
0 3361 1984
90 3268 3075
1841 2962 4095
2648 2699 4095
3417 4095 3419
3417 4095 3419
3414 4095 3417
3409 4095 3411
3398 4095 3400
3378 4095 3458
3321 4095 3591
3131 4095 3989
3794 3907 4095
3947 4095 3948
3947 4095 3948
3947 4095 3947
3947 4095 3947
3946 4095 3947
3945 4095 3945
3941 4095 3958
3932 4095 3985
3899 4095 4071
691 6 3
692 3 19
657 3 522
606 0 933
493 32 1380
580 100 1958
900 220 2825
1346 718 3681
1982 1661 3912
670 10 3
666 3 6
635 0 520
578 0 926
465 36 1367
580 100 1958
899 220 2824
1346 718 3681
1982 1661 3912
518 556 0
512 551 0
464 516 486
401 391 1036
343 61 1461
578 100 1952
899 220 2822
1345 716 3680
1981 1660 3912
0 1038 13
0 1036 13
0 1018 417
6 979 917
149 852 1614
422 269 2657
896 217 2814
1344 713 3680
1981 1659 3912
0 1622 29
0 1620 29
0 1610 214
0 1588 838
16 1538 1443
267 1383 2346
520 654 3929
1340 707 3678
1978 1656 3911
0 2389 68
0 2388 68
0 2381 68
0 2368 649
0 2339 1330
42 2271 2135
436 2068 3352
1350 1505 4095
1973 1650 3910
0 3426 149
0 3425 149
0 3421 149
0 3412 149
0 3394 1110
0 3355 1976
90 3262 3070
1833 2956 4095
2643 2692 4095
3414 4095 3416
3413 4095 3416
3411 4095 3413
3406 4095 3408
3394 4095 3397
3374 4095 3454
3317 4095 3588
3125 4095 3989
3792 3906 4095
3947 4095 3947
3947 4095 3947
3947 4095 3947
3946 4095 3947
3946 4095 3946
3945 4095 3945
3941 4095 3957
3931 4095 3985
3899 4095 4071
1196 23 13
1191 23 13
1176 19 433
1143 6 934
1082 0 1448
930 48 2082
896 217 2816
1344 713 3679
1981 1659 3911
1182 23 13
1179 23 13
1162 19 427
1131 3 932
1067 0 1444
916 52 2077
896 217 2814
1344 713 3680
1981 1659 3911
1117 439 52
1115 433 48
1090 393 391
1050 269 917
982 0 1432
827 65 2040
895 217 2813
1343 713 3679
1980 1659 3911
927 984 0
922 981 0
898 961 299
840 920 877
770 780 1569
590 318 2368
893 217 2805
1341 710 3679
1979 1658 3911
16 1592 0
0 1590 3
0 1578 26
0 1556 793
16 1504 1417
278 1343 2338
513 526 3955
1338 703 3676
1977 1655 3911
0 2370 65
0 2368 65
0 2362 65
0 2348 578
0 2319 1304
39 2251 2119
443 2044 3345
1335 1466 4095
1972 1649 3910
0 3413 149
0 3413 149
0 3409 149
0 3400 145
0 3382 1072
0 3343 1960
90 3249 3060
1816 2942 4095
2631 2678 4095
3406 4095 3409
3406 4095 3409
3404 4095 3406
3398 4095 3401
3386 4095 3389
3366 4095 3445
3308 4095 3581
3112 4095 3988
3789 3903 4095
3947 4095 3947
3947 4095 3947
3946 4095 3947
3946 4095 3947
3946 4095 3946
3944 4095 3945
3941 4095 3957
3931 4095 3984
3898 4095 4071
1825 55 32
1823 55 32
1820 32 116
1789 52 829
1751 13 1449
1668 0 2135
1474 84 3006
1339 705 3677
1978 1656 3911
1818 55 32
1816 55 32
1812 32 103
1783 52 827
1742 10 1446
1661 0 2133
1465 87 3004
1339 705 3677
1978 1656 3911
1774 52 29
1771 52 29
1768 29 32
1737 48 808
1697 6 1438
1612 0 2121
1408 100 2991
1338 703 3677
1977 1655 3911
1689 849 155
1687 845 155
1675 823 149
1642 780 768
1589 651 1418
1520 103 2140
1289 129 2946
1336 700 3675
1976 1654 3911
1437 1520 3
1434 1518 3
1419 1507 0
1390 1481 670
1312 1428 1365
1223 1248 2281
991 697 3388
1333 694 3674
1974 1651 3910
406 2330 0
396 2329 0
339 2322 0
0 2313 243
0 2275 1245
36 2205 2083
458 1990 3333
1303 1372 4095
1969 1644 3909
0 3388 145
0 3387 145
0 3383 145
0 3374 145
0 3355 985
0 3316 1925
87 3221 3038
1779 2913 4095
2605 2645 4095
3390 4095 3393
3390 4095 3392
3387 4095 3390
3382 4095 3384
3369 4095 3372
3347 4095 3425
3287 4095 3566
3083 4095 3987
3782 3898 4095
3946 4095 3946
3946 4095 3946
3946 4095 3946
3945 4095 3946
3945 4095 3945
3944 4095 3944
3940 4095 3956
3930 4095 3983
3897 4095 4071
2661 126 71
2660 126 71
2654 126 71
2649 81 526
2608 123 1312
2557 26 2131
2444 0 3070
2086 788 3897
1971 1647 3909
2656 126 71
2655 126 71
2649 123 71
2644 81 521
2603 123 1310
2552 26 2130
2439 0 3068
2080 788 3896
1971 1647 3909
2629 123 68
2628 123 68
2622 123 68
2617 78 490
2575 119 1299
2524 23 2125
2411 0 3059
2050 781 3891
1971 1647 3909
2577 468 100
2576 461 97
2567 422 90
2558 299 416
2513 113 1276
2461 10 2113
2347 0 3041
1983 768 3881
1970 1645 3909
2455 1346 330
2453 1344 330
2446 1330 326
2430 1302 411
2386 1248 1225
2314 1084 2085
2223 497 3073
1840 738 3845
1968 1643 3909
2115 2232 6
2113 2230 6
2104 2224 3
2083 2209 3
2046 2174 1102
1938 2102 2013
1821 1862 3256
1604 1364 4095
1963 1636 3908
787 3334 0
783 3333 0
754 3329 0
690 3319 0
312 3307 583
0 3255 1845
81 3159 2990
1699 2846 4095
2548 2573 4095
3352 4095 3355
3352 4095 3355
3349 4095 3352
3343 4095 3346
3329 4095 3333
3304 4095 3376
3240 4095 3531
3014 4095 3984
3767 3886 4095
3944 4095 3945
3944 4095 3945
3944 4095 3945
3944 4095 3944
3943 4095 3944
3942 4095 3942
3939 4095 3953
3928 4095 3982
3895 4095 4071
3797 260 158
3797 260 158
3792 260 158
3783 257 155
3777 183 937
3721 257 1948
3652 61 3059
3304 921 4065
2648 2004 4017
3795 260 158
3794 260 158
3790 260 155
3781 257 155
3773 183 934
3718 257 1947
3649 58 3058
3301 919 4064
2646 2003 4018
3777 257 155
3777 257 155
3773 257 155
3764 255 155
3756 180 919
3701 255 1940
3631 55 3055
3287 909 4062
2634 1996 4017
3740 252 152
3740 252 152
3735 252 152
3726 250 152
3719 174 883
3663 250 1926
3592 42 3047
3256 888 4057
2608 1980 4014
3672 876 240
3671 872 240
3666 852 235
3655 805 225
3640 681 794
3578 347 1894
3506 19 3030
3184 845 4045
2549 1946 4009
3501 1998 562
3500 1997 560
3495 1989 558
3485 1972 552
3463 1933 791
3403 1860 1826
3304 1643 2992
3005 1266 4028
2420 1869 3993
3036 3199 13
3035 3198 13
3029 3194 10
3016 3185 10
2988 3164 3
2937 3116 1663
2790 3018 2894
2697 2739 4095
2572 2486 4095
3309 4095 3256
3309 4095 3255
3304 4095 3252
3294 4095 3244
3272 4095 3227
3230 4095 3250
3115 4095 3439
2828 4095 3976
3726 3854 4095
3940 4095 3941
3940 4095 3941
3940 4095 3941
3940 4095 3941
3939 4095 3940
3938 4095 3939
3935 4095 3948
3924 4095 3978
3889 4095 4071
4078 2170 2161
4078 2170 2161
4078 2168 2158
4078 2163 2153
4078 2151 2142
4084 2146 2304
4078 2168 2785
4091 2190 3609
3624 2672 4087
4078 2169 2159
4078 2168 2159
4078 2166 2157
4078 2161 2152
4078 2150 2140
4084 2144 2302
4078 2166 2784
4091 2188 3610
3623 2671 4087
4078 2159 2150
4078 2159 2149
4078 2156 2147
4078 2151 2142
4078 2140 2131
4084 2134 2292
4078 2155 2779
4091 2176 3612
3618 2665 4087
4078 2138 2129
4078 2138 2129
4078 2135 2126
4078 2130 2121
4078 2118 2110
4084 2111 2270
4078 2133 2769
4092 2151 3617
3607 2651 4086
4078 2091 2082
4078 2090 2082
4078 2088 2079
4078 2083 2074
4078 2071 2062
4083 2062 2220
4077 2082 2746
4092 2094 3629
3583 2621 4085
4085 2322 2181
4085 2320 2179
4085 2312 2173
4084 2294 2158
4084 2254 2127
4086 2178 2207
4076 2038 2714
4093 1961 3661
3527 2555 4080
4094 3202 2757
4094 3201 2755
4095 3196 2748
4094 3185 2732
4094 3159 2698
4095 3109 2689
4088 3030 3011
4095 2804 3821
3466 2760 4077
3930 4094 1934
3929 4094 1933
3928 4094 1923
3926 4094 1901
3919 4094 1852
3905 4095 1732
3852 4082 2231
3698 3995 3834
3867 3872 4095
3938 4095 3927
3938 4095 3927
3937 4095 3927
3937 4095 3927
3936 4095 3926
3934 4095 3925
3929 4095 3932
3915 4095 3968
3875 4095 4070
4091 3709 3707
4091 3709 3707
4091 3709 3706
4091 3707 3705
4091 3704 3701
4091 3697 3694
4093 3704 3726
4093 3738 3826
4094 3793 3998
4091 3709 3707
4091 3709 3706
4091 3708 3706
4091 3707 3704
4091 3704 3701
4091 3697 3694
4093 3704 3725
4093 3737 3826
4094 3793 3998
4091 3706 3704
4091 3706 3704
4091 3706 3703
4091 3704 3701
4091 3701 3698
4091 3694 3691
4093 3701 3722
4093 3735 3824
4094 3791 3998
4091 3700 3698
4091 3700 3697
4091 3700 3697
4091 3698 3695
4091 3695 3692
4091 3688 3685
4093 3694 3716
4093 3729 3820
4094 3787 3997
4091 3687 3684
4091 3687 3684
4091 3686 3683
4091 3685 3682
4091 3681 3678
4091 3674 3671
4093 3680 3702
4093 3717 3811
4094 3777 3996
4091 3655 3652
4091 3655 3652
4091 3654 3651
4091 3653 3650
4091 3649 3646
4091 3640 3637
4093 3646 3669
4093 3687 3790
4094 3755 3994
4093 3794 3776
4093 3793 3776
4093 3792 3774
4093 3788 3770
4093 3780 3762
4092 3760 3743
4094 3726 3728
4093 3670 3775
4094 3698 3990
4095 3987 3944
4095 3987 3944
4095 3987 3944
4095 3987 3943
4095 3985 3942
4095 3982 3939
4095 3977 3938
4094 3968 3966
4095 3942 4057
4052 4095 3689
4052 4095 3689
4052 4095 3689
4051 4095 3689
4051 4095 3688
4050 4095 3686
4047 4095 3681
4034 4094 3723
3928 4095 4004
