Log/Sony S-Log3 S-Gamut.3dl
#32pt 3DLUT created by 3D LUT Creator Pro (c) Oleg Sharonov
#Copyright Oleg Sharonov
#IMAGEPROFILE sRGB
#INPUTGAMMA SLog3
#OUTPUTGAMMA sRGB
0 33 66 99 132 165 198 231 264 297 330 363 396 429 462 495 528 561 594 627 660 693 726 759 792 825 858 891 924 957 990 1023 
0 0 0
0 0 0
0 0 0
0 0 0
0 0 123
0 0 222
0 0 327
0 0 425
0 0 540
0 0 669
0 0 824
0 0 1002
0 0 1228
0 0 1502
0 0 1838
0 0 2233
0 0 2653
0 0 3068
0 0 3453
0 0 3820
189 189 4095
631 631 4095
999 999 4095
1388 1388 4095
1822 1822 4095
2277 2277 4095
2691 2691 4095
3028 3028 4095
3285 3285 4095
3477 3477 4095
3618 3618 4095
3722 3722 4095
0 0 0
0 0 0
0 0 0
0 0 0
0 0 123
0 0 222
0 0 327
0 0 425
0 0 540
0 0 669
0 0 824
0 0 1002
0 0 1228
0 0 1502
0 0 1838
0 0 2233
0 0 2653
0 0 3068
0 0 3453
0 0 3820
189 189 4095
631 631 4095
999 999 4095
1388 1388 4095
1822 1822 4095
2277 2277 4095
2691 2691 4095
3028 3028 4095
3285 3285 4095
3477 3477 4095
3618 3618 4095
3722 3722 4095
0 0 0
0 0 0
0 0 0
0 0 0
0 0 123
0 0 222
0 0 327
0 0 425
0 0 540
0 0 669
0 0 824
0 0 1002
0 0 1228
0 0 1502
0 0 1838
0 0 2233
0 0 2653
0 0 3068
0 0 3453
0 0 3820
189 189 4095
631 631 4095
999 999 4095
1388 1388 4095
1822 1822 4095
2277 2277 4095
2691 2691 4095
3028 3028 4095
3285 3285 4095
3477 3477 4095
3618 3618 4095
3722 3722 4095
0 15 0
0 15 0
0 15 0
0 13 13
0 0 123
0 0 222
0 0 327
0 0 425
0 0 540
0 0 669
0 0 824
0 0 1002
0 0 1221
0 0 1496
0 0 1838
0 0 2233
0 0 2653
0 0 3068
0 0 3453
0 0 3820
189 189 4095
631 631 4095
999 999 4095
1388 1388 4095
1822 1822 4095
2277 2277 4095
2691 2691 4095
3028 3028 4095
3285 3285 4095
3477 3477 4095
3618 3618 4095
3722 3722 4095
0 151 0
0 151 0
0 151 0
0 151 0
0 138 121
0 123 217
0 103 314
0 73 415
0 38 536
0 0 660
0 0 816
0 0 994
0 0 1221
0 0 1496
0 0 1833
0 0 2228
0 0 2653
0 0 3066
0 0 3453
0 0 3819
185 185 4095
630 630 4095
999 999 4095
1388 1388 4095
1822 1822 4095
2276 2276 4095
2691 2691 4095
3028 3028 4095
3285 3285 4095
3477 3477 4095
3618 3618 4095
3722 3722 4095
0 249 0
0 249 0
0 249 0
0 247 0
0 239 103
0 229 205
0 216 304
0 197 412
0 170 528
0 125 657
0 60 811
0 0 994
0 0 1215
0 0 1490
0 0 1833
0 0 2228
0 0 2650
0 0 3066
0 0 3452
0 0 3819
185 185 4095
629 629 4095
999 999 4095
1388 1388 4095
1822 1822 4095
2276 2276 4095
2691 2691 4095
3028 3028 4095
3285 3285 4095
3477 3477 4095
3618 3618 4095
3722 3722 4095
0 348 0
0 348 0
0 348 0
0 346 0
0 339 80
0 332 189
0 322 292
0 308 401
0 289 519
0 261 653
0 220 804
0 155 990
0 42 1213
0 0 1490
0 0 1827
0 0 2223
0 0 2650
0 0 3063
0 0 3452
0 0 3818
184 184 4095
629 629 4095
998 998 4095
1388 1388 4095
1822 1822 4095
2276 2276 4095
2691 2691 4095
3028 3028 4095
3285 3285 4095
3477 3477 4095
3618 3618 4095
3722 3722 4095
0 456 0
0 456 0
0 456 0
0 456 0
0 450 49
0 444 166
0 437 276
0 426 389
0 410 509
0 389 642
0 360 798
0 317 983
0 253 1207
0 140 1484
0 0 1821
0 0 2218
0 0 2646
0 0 3060
0 0 3450
0 0 3816
182 182 4095
628 628 4095
997 997 4095
1387 1387 4095
1821 1821 4095
2276 2276 4095
2691 2691 4095
3028 3028 4095
3285 3285 4095
3476 3476 4095
3618 3618 4095
3722 3722 4095
0 577 0
0 577 0
0 577 0
0 577 0
0 573 9
0 567 131
0 561 253
0 551 370
0 539 493
0 522 631
0 499 788
0 466 972
0 419 1196
0 350 1473
0 237 1815
0 0 2213
0 0 2638
0 0 3058
0 0 3446
0 0 3815
180 180 4095
627 627 4095
997 997 4095
1386 1386 4095
1821 1821 4095
2275 2275 4095
2690 2690 4095
3027 3027 4095
3285 3285 4095
3476 3476 4095
3618 3618 4095
3722 3722 4095
0 716 0
0 716 0
0 716 0
0 716 0
0 712 0
0 708 78
0 702 217
0 694 345
0 684 474
0 669 613
0 650 772
0 622 959
0 585 1184
0 532 1462
0 456 1804
0 334 2202
0 73 2632
0 0 3053
0 0 3444
0 0 3812
177 177 4095
626 626 4095
995 995 4095
1386 1386 4095
1820 1820 4095
2275 2275 4095
2690 2690 4095
3027 3027 4095
3285 3285 4095
3476 3476 4095
3618 3618 4095
3722 3722 4095
0 880 0
0 880 0
0 880 0
0 880 0
0 876 0
0 872 4
0 867 164
0 860 309
0 851 446
0 838 590
0 820 752
0 798 941
0 766 1168
0 723 1447
0 661 1790
0 573 2192
0 438 2624
0 175 3045
0 0 3439
0 0 3808
173 173 4095
624 624 4095
994 994 4095
1385 1385 4095
1819 1819 4095
2274 2274 4095
2690 2690 4095
3027 3027 4095
3285 3285 4095
3476 3476 4095
3618 3618 4095
3722 3722 4095
0 1077 0
0 1077 0
0 1077 0
0 1076 0
0 1073 0
0 1070 0
0 1065 73
0 1059 254
0 1050 406
0 1038 558
0 1023 725
0 1002 917
0 974 1146
0 937 1428
0 884 1772
0 812 2177
0 709 2612
0 554 3038
0 272 3434
0 0 3804
168 168 4095
622 622 4095
993 993 4095
1383 1383 4095
1818 1818 4095
2274 2274 4095
2689 2689 4095
3026 3026 4095
3285 3285 4095
3476 3476 4095
3618 3618 4095
3722 3722 4095
0 1318 0
0 1318 0
0 1318 0
0 1318 0
0 1314 0
0 1312 0
0 1307 0
0 1302 164
0 1294 347
0 1283 513
0 1269 688
0 1250 885
0 1225 1117
0 1190 1400
0 1143 1747
0 1080 2156
0 992 2597
0 868 3026
0 686 3425
0 372 3800
157 157 4095
619 619 4095
990 990 4095
1381 1381 4095
1816 1816 4095
2272 2272 4095
2688 2688 4095
3026 3026 4095
3284 3284 4095
3476 3476 4095
3617 3617 4095
3722 3722 4095
0 1617 0
0 1617 0
0 1617 0
0 1617 0
0 1614 0
0 1611 0
0 1607 0
0 1602 0
0 1595 255
0 1585 448
0 1572 635
0 1554 840
0 1531 1077
0 1499 1364
0 1457 1714
0 1399 2128
0 1319 2575
0 1211 3012
0 1060 3415
0 841 3792
173 529 4095
614 614 4095
987 987 4095
1379 1379 4095
1814 1814 4095
2271 2271 4095
2687 2687 4095
3026 3026 4095
3284 3284 4095
3476 3476 4095
3617 3617 4095
3722 3722 4095
0 1980 0
0 1980 0
0 1980 0
0 1979 0
0 1976 0
0 1974 0
0 1971 0
0 1966 0
0 1959 69
0 1951 348
0 1939 561
0 1924 778
0 1903 1023
0 1874 1315
0 1836 1669
0 1785 2089
0 1714 2546
0 1617 2991
0 1482 3401
0 1295 3782
214 1050 4095
694 902 4095
982 982 4095
1375 1375 4095
1811 1811 4095
2269 2269 4095
2686 2686 4095
3025 3025 4095
3283 3283 4095
3476 3476 4095
3617 3617 4095
3722 3722 4095
0 2366 0
0 2366 0
0 2366 0
0 2366 0
0 2363 0
0 2361 0
0 2359 0
0 2356 0
0 2350 0
0 2344 159
0 2335 444
0 2322 684
0 2306 939
0 2283 1235
0 2252 1591
0 2210 2017
0 2152 2484
0 2071 2943
0 1960 3364
0 1801 3753
187 1582 4095
850 1425 4095
1116 1289 4095
1371 1371 4095
1807 1807 4095
2265 2265 4095
2684 2684 4095
3024 3024 4095
3283 3283 4095
3475 3475 4095
3617 3617 4095
3722 3722 4095
0 2749 0
0 2749 0
0 2749 0
0 2749 0
0 2748 0
0 2747 0
0 2745 0
0 2742 0
0 2739 0
0 2734 0
0 2728 243
0 2719 547
0 2706 821
0 2689 1124
0 2667 1482
0 2636 1910
0 2593 2389
0 2534 2865
0 2450 3302
0 2330 3701
0 2156 4080
999 1980 4095
1366 1840 4095
1563 1712 4095
1802 1802 4095
2262 2262 4095
2681 2681 4095
3022 3022 4095
3282 3282 4095
3475 3475 4095
3617 3617 4095
3722 3722 4095
0 3099 0
0 3099 0
0 3099 0
0 3098 0
0 3097 0
0 3096 0
0 3095 0
0 3094 0
0 3091 0
0 3088 0
0 3084 0
0 3078 325
0 3070 657
0 3058 973
0 3042 1334
0 3021 1762
0 2992 2252
0 2951 2751
0 2894 3210
0 2813 3623
0 2696 4010
1124 2528 4095
1642 2393 4095
1912 2278 4095
2048 2167 4095
2257 2257 4095
2678 2678 4095
3020 3020 4095
3281 3281 4095
3474 3474 4095
3616 3616 4095
3721 3721 4095
0 3396 0
0 3396 0
0 3396 0
0 3396 0
0 3395 0
0 3395 0
0 3394 0
0 3393 0
0 3391 0
0 3390 0
0 3387 0
0 3384 0
0 3378 403
0 3370 769
0 3359 1136
0 3345 1559
0 3325 2054
0 3297 2579
0 3259 3069
0 3206 3505
0 3131 3904
1127 2994 4095
1901 2865 4095
2257 2769 4095
2433 2684 4095
2514 2597 4095
2674 2674 4095
3018 3018 4095
3279 3279 4095
3473 3473 4095
3616 3616 4095
3721 3721 4095
0 3640 0
0 3640 0
0 3640 0
0 3640 0
0 3640 0
0 3639 0
0 3639 0
0 3638 0
0 3638 0
0 3636 0
0 3635 0
0 3633 0
0 3630 0
0 3625 477
0 3617 880
0 3607 1298
0 3593 1785
0 3574 2329
0 3548 2859
0 3513 3330
0 3463 3750
658 3377 4095
2057 3235 4095
2540 3146 4095
2754 3079 4095
2856 3018 4095
2900 2954 4095
3014 3014 4095
3277 3277 4095
3472 3472 4095
3615 3615 4095
3721 3721 4095
0 3834 0
0 3834 0
0 3834 0
0 3834 0
0 3834 0
0 3834 0
0 3834 0
0 3833 0
0 3833 0
0 3832 0
0 3831 0
0 3830 0
0 3828 0
0 3826 0
0 3821 543
0 3814 982
0 3804 1450
0 3791 1990
0 3773 2560
0 3748 3081
0 3713 3536
0 3666 3948
1914 3531 4095
2709 3429 4095
2983 3366 4095
3109 3319 4095
3171 3276 4095
3195 3230 4095
3275 3275 4095
3471 3471 4095
3615 3615 4095
3721 3721 4095
0 3984 0
0 3984 0
0 3984 0
0 3984 0
0 3984 0
0 3984 0
0 3984 0
0 3984 0
0 3984 0
0 3983 0
0 3983 0
0 3982 0
0 3981 0
0 3980 0
0 3978 0
0 3973 598
0 3966 1071
0 3957 1582
0 3944 2162
0 3926 2740
0 3902 3250
0 3868 3693
298 3818 4095
2679 3654 4095
3113 3579 4095
3279 3535 4095
3358 3501 4095
3398 3470 4095
3412 3437 4095
3469 3469 4095
3614 3614 4095
3720 3720 4095
244 4095 244
244 4095 244
244 4095 244
244 4095 244
239 4095 239
239 4095 239
235 4095 235
229 4095 229
219 4095 219
208 4095 208
197 4095 197
173 4095 173
142 4095 142
96 4095 96
24 4095 24
0 4094 0
0 4089 644
0 4082 1144
0 4073 1691
0 4060 2298
0 4043 2876
0 4019 3375
0 3986 3811
1908 3874 4095
3111 3749 4095
3372 3693 4095
3480 3660 4095
3535 3635 4095
3562 3613 4095
3571 3589 4095
3612 3612 4095
3719 3719 4095
1906 4095 1906
1906 4095 1906
1906 4095 1906
1906 4095 1906
1904 4095 1904
1904 4095 1904
1904 4095 1904
1903 4095 1903
1901 4095 1901
1900 4095 1900
1897 4095 1897
1894 4095 1894
1890 4095 1890
1884 4095 1884
1877 4095 1877
1866 4095 1866
1853 4095 1853
1798 4095 1992
1713 4095 2197
1589 4095 2452
1407 4095 2756
1122 4095 3101
600 4095 3482
0 4075 3900
2704 3919 4095
3372 3821 4095
3546 3779 4095
3622 3754 4095
3662 3736 4095
3681 3719 4095
3688 3701 4095
3718 3718 4095
2698 4095 2698
2698 4095 2698
2698 4095 2698
2698 4095 2698
2698 4095 2698
2697 4095 2697
2697 4095 2697
2697 4095 2697
2696 4095 2696
2695 4095 2695
2694 4095 2694
2693 4095 2693
2691 4095 2691
2689 4095 2689
2687 4095 2687
2683 4095 2683
2678 4095 2678
2671 4095 2671
2642 4095 2745
2597 4095 2850
2532 4095 2985
2436 4095 3155
2280 4095 3364
2016 4095 3622
1519 4095 3946
3124 3953 4095
3544 3876 4095
3668 3844 4095
3725 3825 4095
3754 3811 4095
3769 3798 4095
3775 3785 4095
3115 4095 3115
3115 4095 3115
3115 4095 3115
3115 4095 3115
3115 4095 3115
3115 4095 3115
3115 4095 3115
3115 4095 3115
3114 4095 3114
3114 4095 3114
3113 4095 3113
3113 4095 3113
3112 4095 3112
3111 4095 3111
3110 4095 3110
3109 4095 3109
3106 4095 3106
3103 4095 3103
3099 4095 3099
3083 4095 3142
3058 4095 3205
3022 4095 3287
2969 4095 3395
2886 4095 3537
2747 4095 3723
2484 4095 3974
3375 3980 4095
3665 3919 4095
3758 3893 4095
3801 3878 4095
3824 3867 4095
3836 3858 4095
3366 4095 3366
3366 4095 3366
3366 4095 3366
3366 4095 3366
3366 4095 3366
3366 4095 3366
3366 4095 3366
3366 4095 3366
3365 4095 3365
3365 4095 3365
3365 4095 3365
3365 4095 3365
3364 4095 3364
3364 4095 3364
3363 4095 3363
3363 4095 3363
3362 4095 3362
3360 4095 3360
3358 4095 3358
3356 4095 3356
3345 4095 3384
3329 4095 3425
3306 4095 3481
3273 4095 3556
3221 4095 3658
3139 4095 3799
2990 4095 3997
3542 4001 4095
3755 3952 4095
3826 3932 4095
3859 3920 4095
3877 3911 4095
3534 4095 3534
3534 4095 3534
3534 4095 3534
3534 4095 3534
3534 4095 3534
3534 4095 3534
3534 4095 3534
3534 4095 3534
3534 4095 3534
3534 4095 3534
3533 4095 3533
3533 4095 3533
3533 4095 3533
3533 4095 3533
3533 4095 3533
3533 4095 3533
3532 4095 3532
3531 4095 3531
3530 4095 3530
3529 4095 3529
3527 4095 3527
3519 4095 3547
3509 4095 3576
3492 4095 3617
3469 4095 3672
3435 4095 3749
3379 4095 3857
3284 4095 4014
3661 4018 4095
3822 3979 4095
3878 3962 4095
3905 3953 4095
3655 4095 3655
3655 4095 3655
3655 4095 3655
3655 4095 3655
