Log/Sony S-Log2 S-Gamut.3dl
#25pt 3DLUT created by 3D LUT Creator Pro (c) Oleg Sharonov
#Copyright Oleg Sharonov
#IMAGEPROFILE 
#INPUTGAMMA SLog2
#OUTPUTGAMMA 
0 128 256 384 512 640 768 896 1023
0 0 0
0 0 210
0 0 728
0 0 1304
0 0 2029
0 0 2916
0 0 3960
1328 1328 4095
2339 2339 4095
0 215 0
0 191 171
0 25 722
0 0 1296
0 0 2029
0 0 2913
0 0 3960
1328 1328 4095
2339 2339 4095
0 780 0
0 771 34
0 718 676
0 591 1271
0 134 2011
0 0 2906
0 0 3955
1326 1326 4095
2339 2339 4095
0 1383 0
0 1378 0
0 1349 565
0 1284 1214
0 1127 1980
0 677 2888
0 0 3946
1322 1322 4095
2337 2337 4095
0 2143 0
0 2140 0
0 2123 202
0 2087 1077
0 2004 1906
0 1805 2849
0 1233 3925
1313 1313 4095
2333 2333 4095
0 2987 0
0 2985 0
0 2978 0
0 2961 677
0 2920 1686
0 2827 2706
0 2601 3820
1777 2178 4095
2325 2325 4095
0 3724 0
0 3723 0
0 3721 0
0 3715 0
0 3699 1072
0 3658 2264
0 3563 3424
2411 3264 4095
2872 3022 4095
1652 4095 1652
1652 4095 1652
1645 4095 1645
1630 4095 1630
1595 4095 1595
1416 4095 1895
617 4095 2656
0 4013 3862
3343 3670 4095
3173 4095 3173
3173 4095 3173
3172 4095 3172
3171 4095 3171
3168 4095 3168
3162 4095 3162
3130 4095 3227
3031 4095 3441
2683 4095 3994
290 0 0
277 0 191
215 0 727
46 0 1303
0 0 2029
0 0 2916
0 0 3960
1328 1328 4095
2339 2339 4095
186 191 0
171 162 168
93 0 725
0 0 1296
0 0 2025
0 0 2913
0 0 3960
1328 1328 4095
2339 2339 4095
0 771 0
0 762 28
0 708 674
0 579 1270
0 105 2010
0 0 2906
0 0 3955
1326 1326 4095
2339 2339 4095
0 1378 0
0 1373 0
0 1344 563
0 1278 1213
0 1121 1979
0 668 2888
0 0 3945
1322 1322 4095
2337 2337 4095
0 2140 0
0 2137 0
0 2120 197
0 2084 1077
0 2001 1905
0 1802 2849
0 1227 3924
1313 1313 4095
2333 2333 4095
0 2985 0
0 2984 0
0 2976 0
0 2959 675
0 2918 1686
0 2826 2706
0 2599 3820
1776 2176 4095
2325 2325 4095
0 3723 0
0 3723 0
0 3720 0
0 3715 0
0 3699 1071
0 3657 2264
0 3562 3424
2410 3264 4095
2871 3022 4095
1651 4095 1651
1651 4095 1651
1643 4095 1643
1628 4095 1628
1594 4095 1594
1416 4095 1895
613 4095 2656
0 4013 3862
3343 3670 4095
3173 4095 3173
3173 4095 3173
3172 4095 3172
3171 4095 3171
3168 4095 3168
3162 4095 3162
3130 4095 3227
3031 4095 3441
2683 4095 3994
953 0 0
950 0 168
930 0 722
883 0 1296
775 0 2026
473 0 2914
0 0 3960
1328 1328 4095
2339 2339 4095
921 22 0
916 0 143
895 0 713
848 0 1294
736 0 2025
407 0 2912
0 0 3958
1328 1328 4095
2339 2339 4095
704 718 0
700 708 3
672 652 666
610 510 1266
449 0 2010
0 0 2904
0 0 3954
1326 1326 4095
2339 2339 4095
0 1348 0
0 1343 0
0 1314 553
0 1246 1209
0 1085 1977
0 606 2886
0 0 3945
1322 1322 4095
2337 2337 4095
0 2123 0
0 2121 0
0 2104 174
0 2066 1071
0 1982 1902
0 1780 2848
0 1194 3924
1312 1312 4095
2333 2333 4095
0 2978 0
0 2976 0
0 2969 0
0 2951 668
0 2911 1684
0 2817 2706
0 2589 3820
1767 2163 4095
2325 2325 4095
0 3721 0
0 3720 0
0 3718 0
0 3712 0
0 3696 1068
0 3654 2263
0 3559 3425
2409 3260 4095
2868 3018 4095
1645 4095 1645
1643 4095 1643
1636 4095 1636
1621 4095 1621
1586 4095 1586
1407 4095 1888
589 4095 2654
0 4012 3863
3342 3669 4095
3172 4095 3172
3172 4095 3172
3171 4095 3171
3170 4095 3170
3167 4095 3167
3161 4095 3161
3129 4095 3227
3030 4095 3441
2681 4095 3995
1660 0 0
1658 0 115
1647 0 703
1623 0 1287
1568 0 2022
1438 0 2911
1103 0 3957
1327 1327 4095
2339 2339 4095
1642 0 0
1639 0 90
1628 0 695
1604 0 1282
1548 0 2019
1417 0 2908
1075 0 3957
1327 1327 4095
2339 2339 4095
1532 588 0
1531 576 0
1519 507 647
1491 316 1255
1430 0 2003
1286 0 2900
895 0 3952
1325 1325 4095
2338 2338 4095
1259 1282 0
1257 1277 0
1242 1245 530
1208 1174 1198
1130 1001 1971
940 449 2883
261 0 3943
1321 1321 4095
2336 2336 4095
25 2086 0
9 2084 0
0 2066 121
0 2028 1059
0 1942 1896
0 1733 2845
0 1117 3921
1312 1312 4095
2333 2333 4095
0 2961 0
0 2960 0
0 2952 0
0 2935 651
0 2893 1678
0 2798 2705
0 2566 3822
1750 2135 4095
2325 2325 4095
0 3715 0
0 3715 0
0 3712 0
0 3707 0
0 3690 1061
0 3648 2263
0 3553 3428
2405 3252 4095
2860 3008 4095
1630 4095 1630
1628 4095 1628
1621 4095 1621
1605 4095 1605
1569 4095 1569
1387 4095 1874
534 4095 2650
0 4011 3866
3341 3668 4095
3171 4095 3171
3171 4095 3171
3170 4095 3170
3169 4095 3169
3166 4095 3166
3160 4095 3160
3127 4095 3225
3028 4095 3440
2677 4095 3996
2515 0 0
2513 0 0
2508 0 662
2494 0 1265
2465 0 2008
2399 0 2903
2245 0 3954
1928 1482 4095
2339 2339 4095
2505 0 0
2504 0 0
2497 0 654
2484 0 1260
2455 0 2006
2388 0 2902
2233 0 3953
1920 1479 4095
2339 2339 4095
2448 118 0
2446 87 0
2440 0 605
2426 0 1234
2395 0 1991
2326 0 2894
2163 0 3949
1869 1462 4095
2338 2338 4095
2313 1124 0
2312 1117 0
2306 1081 478
2290 998 1174
2257 789 1958
2180 0 2876
1998 0 3939
1752 1424 4095
2336 2336 4095
1971 2002 0
1969 1999 0
1960 1981 0
1940 1940 1032
1897 1848 1882
1797 1623 2838
1551 932 3918
1449 1340 4095
2332 2332 4095
563 2922 0
558 2921 0
526 2913 0
451 2895 611
231 2853 1666
0 2755 2703
0 2513 3824
1710 2071 4095
2325 2325 4095
0 3703 0
0 3703 0
0 3700 0
0 3694 0
0 3678 1044
0 3635 2263
0 3537 3433
2396 3235 4095
2843 2988 4095
1594 4095 1594
1592 4095 1592
1585 4095 1585
1569 4095 1569
1533 4095 1533
1342 4095 1843
392 4095 2640
0 4007 3872
3339 3664 4095
3168 4095 3168
3168 4095 3168
3167 4095 3167
3165 4095 3165
3163 4095 3163
3156 4095 3156
3124 4095 3222
3025 4095 3439
2670 4095 3999
3506 0 0
3506 0 0
3503 0 568
3495 0 1216
3480 0 1981
3446 0 2888
3367 0 3943
2762 1778 4095
2730 2535 4095
3501 0 0
3501 0 0
3497 0 558
3490 0 1211
3475 0 1978
3441 0 2887
3362 0 3942
2757 1776 4095
2728 2534 4095
3471 0 0
3470 0 0
3467 0 499
3460 0 1183
3444 0 1963
3409 0 2879
3331 0 3940
2733 1763 4095
2714 2526 4095
3403 663 0
3402 654 0
3399 593 345
3392 434 1121
3375 0 1929
3339 0 2861
3258 0 3930
2678 1736 4095
2681 2507 4095
3233 1791 0
3232 1787 0
3230 1767 0
3223 1721 967
3207 1615 1846
3172 1347 2819
3086 275 3910
2549 1676 4095
2607 2466 4095
2757 2796 0
2757 2795 0
2753 2786 0
2746 2768 506
2725 2723 1613
2680 2620 2662
2574 2362 3791
2349 2056 4095
2424 2370 4095
960 3665 0
958 3665 0
942 3663 0
910 3657 0
833 3641 1004
631 3600 2257
0 3503 3445
2376 3197 4095
2805 2942 4095
1513 4095 1513
1512 4095 1512
1503 4095 1503
1486 4095 1486
1446 4095 1446
1240 4095 1772
0 4093 2626
0 3998 3885
3335 3655 4095
3162 4095 3162
3161 4095 3161
3161 4095 3161
3160 4095 3160
3156 4095 3156
3150 4095 3150
3117 4095 3216
3016 4095 3436
2652 4095 4004
4095 1560 1560
4095 1560 1560
4095 1558 1587
4095 1560 1792
4095 1562 2156
4095 1564 2730
4095 1554 3544
3659 2202 4095
3275 2853 4095
4095 1556 1556
4095 1556 1556
4095 1554 1580
4095 1555 1787
4095 1557 2152
4095 1559 2729
4095 1549 3545
3657 2201 4095
3274 2852 4095
4095 1531 1531
4095 1530 1530
4095 1528 1541
4095 1529 1756
4095 1531 2134
4095 1531 2723
4095 1519 3551
3646 2194 4095
3267 2847 4095
4095 1474 1474
4095 1473 1473
4095 1470 1470
4095 1470 1687
4095 1471 2092
4095 1470 2710
4095 1450 3565
3622 2177 4095
3250 2836 4095
4095 1747 1417
4095 1744 1415
4095 1724 1409
4095 1682 1574
4095 1590 2019
4095 1357 2684
4095 1281 3598
3569 2138 4095
3213 2811 4095
4095 2529 757
4095 2527 756
4095 2518 754
4095 2497 803
4095 2445 1633
4095 2322 2580
4095 1991 3684
3448 2150 4095
3124 2752 4095
3415 3459 0
3415 3458 0
3414 3456 0
3414 3450 0
3410 3433 860
3393 3389 2145
3356 3287 3336
3261 3142 4095
3103 2988 4095
1551 4095 959
1549 4095 957
1538 4095 946
1515 4095 926
1463 4095 874
1221 4095 1382
870 4066 2627
0 3978 3915
3323 3635 4095
3147 4095 3147
3147 4095 3147
3147 4095 3147
3145 4095 3145
3142 4095 3142
3135 4095 3135
3102 4095 3201
2996 4095 3429
2611 4095 4018
4095 2893 2893
4095 2893 2893
4095 2892 2892
4095 2893 2910
4095 2898 2971
4095 2908 3095
4095 2928 3334
4095 2963 3761
3841 3196 4095
4095 2892 2892
4095 2892 2892
4095 2892 2892
4095 2892 2909
4095 2897 2970
4095 2907 3094
4095 2927 3334
4095 2962 3762
3841 3195 4095
4095 2887 2887
4095 2887 2887
4095 2886 2886
4095 2887 2902
4095 2892 2964
4095 2902 3089
4095 2922 3332
4095 2957 3763
3838 3193 4095
4095 2875 2875
4095 2875 2875
4095 2875 2875
4095 2875 2887
4095 2880 2950
4095 2890 3079
4095 2910 3326
4095 2946 3765
3831 3188 4095
4095 2849 2849
4095 2849 2849
4095 2848 2848
4095 2847 2852
4095 2852 2920
4095 2863 3055
4095 2884 3315
4095 2920 3771
3817 3178 4095
4095 2990 2898
4095 2989 2897
4095 2985 2895
4095 2977 2889
4095 2961 2934
4095 2930 3054
4095 2857 3298
4095 2861 3786
3784 3154 4095
4095 3344 2941
4095 3343 2941
4095 3341 2940
4095 3337 2938
4095 3328 2950
4095 3308 3084
4095 3262 3351
4095 3149 3856
3716 3157 4095
3785 3833 0
3785 3833 0
3786 3832 0
3787 3830 0
3789 3827 0
3789 3813 1077
3776 3772 2457
3749 3675 3727
3672 3620 4095
3157 4095 3063
3157 4095 3063
3156 4095 3063
3154 4095 3062
3150 4095 3059
3141 4095 3054
3103 4095 3128
2976 4095 3393
2514 4095 4050
4095 3514 3514
4095 3514 3514
4095 3514 3514
4095 3513 3513
4095 3514 3522
4095 3517 3547
4095 3522 3599
4095 3532 3705
4095 3549 3915
4095 3514 3514
4095 3514 3514
4095 3513 3513
4095 3513 3513
4095 3514 3522
4095 3516 3547
4095 3521 3599
4095 3531 3705
4095 3549 3915
4095 3512 3512
4095 3512 3512
4095 3512 3512
4095 3512 3512
4095 3513 3521
4095 3515 3545
4095 3520 3597
4095 3531 3705
4095 3548 3915
4095 3510 3510
4095 3510 3510
4095 3510 3510
4095 3510 3510
4095 3510 3518
4095 3513 3543
4095 3518 3595
4095 3528 3704
4095 3546 3916
4095 3505 3505
4095 3505 3505
4095 3505 3505
4095 3504 3504
4095 3505 3511
4095 3507 3537
4095 3513 3590
4095 3523 3701
4095 3541 3917
4095 3493 3493
4095 3493 3493
4095 3493 3493
4095 3492 3492
4095 3492 3496
4095 3495 3523
4095 3501 3579
4095 3512 3695
4095 3531 3920
4095 3560 3522
4095 3560 3522
4095 3559 3521
4095 3557 3520
4095 3553 3517
4095 3547 3536
4095 3534 3584
4095 3503 3687
4095 3505 3927
4095 3716 3547
4095 3716 3547
4095 3716 3546
4095 3715 3546
4095 3713 3545
4095 3709 3551
4095 3700 3604
4095 3680 3719
4095 3631 3966
3963 4012 0
3963 4012 0
3963 4012 0
3964 4011 0
3966 4010 0
3969 4008 0
3970 3995 1187
3960 3955 2606
3937 3861 3915
