Log/Sony S-Log2 S-Gamut3.Cine - Neutral.3dl
#25pt 3DLUT created by 3D LUT Creator Pro (c) Oleg Sharonov
#Copyright Oleg Sharonov
#IMAGEPROFILE 
#INPUTGAMMA SLog2
#OUTPUTGAMMA 
0 43 86 128 171 214 256 299 341 384 427 469 512 555 597 640 682 725 768 810 853 896 938 981 1023 
0 0 0
0 0 0
0 0 0
10 0 97
19 3 222
39 3 354
61 6 468
90 10 595
126 13 719
174 19 855
225 26 997
284 32 1158
349 45 1329
419 58 1522
497 78 1733
583 103 1966
678 132 2224
784 174 2511
902 220 2829
1031 271 3182
1177 336 3570
1347 720 3682
1538 1039 3773
1749 1348 3848
1983 1662 3912
0 0 0
0 0 0
0 0 0
10 0 97
19 3 222
39 3 354
61 6 468
90 10 595
126 13 719
174 19 855
225 26 997
284 32 1158
349 45 1329
419 58 1522
497 78 1733
583 103 1966
678 132 2224
784 174 2511
902 220 2829
1031 271 3182
1177 336 3570
1347 720 3682
1538 1039 3773
1749 1348 3848
1983 1662 3912
0 0 0
0 0 0
0 0 0
10 0 97
19 3 222
39 3 354
61 6 468
90 10 595
126 13 719
174 19 855
225 26 997
284 32 1158
349 45 1329
419 58 1522
497 78 1733
583 103 1966
678 132 2224
784 174 2511
902 220 2829
1031 271 3182
1177 336 3570
1347 720 3682
1538 1039 3773
1749 1348 3848
1983 1662 3912
0 155 0
0 155 0
0 155 0
0 136 119
6 107 318
16 52 535
55 13 618
87 10 584
126 13 719
174 19 855
225 26 997
284 32 1158
349 45 1329
419 58 1522
497 78 1733
583 103 1966
678 132 2224
784 174 2511
902 220 2829
1031 271 3182
1177 336 3571
1347 720 3681
1538 1039 3773
1749 1348 3849
1983 1662 3912
0 322 0
0 322 0
0 322 0
0 312 100
0 297 269
3 273 437
26 230 620
39 149 833
71 39 1027
171 26 966
225 26 997
282 32 1152
349 45 1329
417 58 1518
496 78 1730
582 100 1964
677 132 2222
783 174 2509
901 220 2827
1031 271 3182
1176 334 3570
1347 719 3681
1537 1039 3773
1749 1348 3848
1983 1662 3912
0 468 3
0 468 3
0 468 3
0 460 78
0 452 238
3 436 399
0 416 564
26 379 735
61 314 953
68 206 1200
165 65 1347
284 45 1280
347 45 1325
417 58 1518
496 78 1730
582 100 1964
677 132 2222
783 174 2509
901 220 2827
1031 271 3180
1176 334 3570
1346 719 3681
1537 1039 3773
1749 1348 3849
1983 1662 3912
0 610 3
0 610 3
0 610 3
0 604 52
0 595 233
0 587 360
3 572 527
0 551 695
26 517 871
78 460 1090
100 367 1350
116 165 1662
326 87 1632
420 65 1559
494 78 1726
582 100 1961
676 132 2219
783 174 2507
900 220 2825
1030 271 3179
1176 332 3570
1346 718 3681
1537 1038 3773
1748 1347 3848
1982 1661 3912
0 753 6
0 753 6
0 753 6
0 750 13
0 743 198
0 735 358
0 726 479
3 710 658
0 689 834
26 655 1021
94 600 1248
145 508 1527
161 343 1853
349 145 1988
497 107 1898
580 100 1958
675 132 2217
782 171 2505
899 220 2824
1030 271 3177
1175 330 3569
1346 718 3681
1536 1038 3773
1748 1347 3848
1982 1661 3912
0 904 10
0 904 10
0 904 10
0 901 10
0 896 152
0 890 339
0 881 478
0 873 602
6 855 795
0 831 983
26 798 1184
116 740 1423
198 646 1728
214 492 2074
358 217 2357
576 161 2255
674 132 2214
781 171 2503
899 220 2822
1029 271 3176
1175 330 3569
1346 717 3681
1536 1037 3772
1748 1346 3848
1982 1661 3912
0 1066 13
0 1066 13
0 1066 13
0 1064 13
0 1060 90
0 1054 299
0 1046 471
0 1038 600
0 1028 730
6 1009 941
0 984 1144
23 948 1363
142 889 1620
257 788 1954
273 634 2329
352 295 2750
656 228 2630
782 177 2525
898 217 2820
1028 269 3174
1174 328 3567
1345 715 3680
1535 1036 3772
1747 1346 3848
1981 1660 3912
0 1241 16
0 1241 16
0 1241 16
0 1238 16
0 1235 16
0 1230 240
0 1224 430
0 1216 597
0 1208 728
0 1197 867
10 1176 1098
0 1149 1319
23 1111 1560
177 1047 1839
316 940 2204
337 780 2614
370 409 3136
744 299 3034
902 240 2912
1027 269 3171
1173 328 3566
1344 713 3679
1535 1035 3771
1747 1345 3848
1981 1659 3911
0 1430 23
0 1430 23
0 1430 23
0 1429 23
0 1426 23
0 1422 152
0 1417 376
0 1410 558
0 1402 725
0 1393 865
0 1381 1015
13 1357 1269
0 1328 1512
19 1287 1777
214 1218 2082
372 1104 2479
408 933 2935
443 563 3503
841 376 3472
1034 306 3335
1171 326 3562
1343 712 3679
1534 1034 3771
1746 1344 3847
1980 1659 3911
0 1639 29
0 1639 29
0 1639 29
0 1637 29
0 1634 29
0 1631 29
0 1627 295
0 1621 504
0 1614 692
0 1605 861
0 1596 1011
0 1582 1179
19 1556 1457
0 1524 1725
16 1479 2016
260 1404 2352
437 1282 2788
485 1095 3293
523 713 3917
948 458 3950
1179 379 3794
1341 709 3678
1533 1032 3771
1745 1342 3847
1979 1658 3911
0 1867 39
0 1867 39
0 1867 39
0 1866 39
0 1864 39
0 1861 39
0 1858 158
0 1853 425
0 1847 633
0 1839 831
0 1829 1008
0 1818 1172
0 1803 1358
23 1774 1663
0 1739 1959
10 1690 2281
310 1608 2651
510 1475 3131
571 1272 3692
612 867 4095
1072 563 4095
1372 817 3902
1531 1029 3770
1743 1341 3847
1978 1656 3911
0 2120 52
0 2120 52
0 2120 52
0 2119 52
0 2117 52
0 2114 52
0 2111 52
0 2107 302
0 2102 553
0 2095 769
0 2087 981
0 2076 1169
0 2064 1348
0 2048 1554
32 2015 1891
0 1977 2218
3 1923 2576
367 1833 2985
592 1687 3513
666 1463 4095
904 1141 4095
1378 1099 4095
1591 1180 3966
1741 1338 3846
1976 1654 3911
0 2399 68
0 2399 68
0 2399 68
0 2398 68
0 2397 68
0 2395 68
0 2392 68
0 2388 68
0 2384 431
0 2378 684
0 2371 913
0 2361 1142
0 2350 1344
0 2337 1541
0 2318 1771
42 2282 2143
0 2239 2505
0 2180 2902
431 2081 3355
683 1921 3940
953 1704 4095
1358 1526 4095
1692 1515 4095
1834 1523 4010
1974 1651 3910
0 2708 87
0 2708 87
0 2708 87
0 2707 87
0 2706 87
0 2704 87
0 2702 87
0 2699 87
0 2695 201
0 2691 558
0 2684 822
0 2676 1068
0 2665 1318
0 2652 1537
0 2638 1754
0 2617 2010
55 2578 2422
0 2530 2824
0 2464 3264
504 2355 3767
890 2182 4095
1517 2030 4095
1822 1931 4095
2011 1891 4095
2102 1866 4039
0 3051 116
0 3051 116
0 3051 116
0 3050 116
0 3049 113
0 3048 113
0 3046 113
0 3043 113
0 3040 113
0 3036 337
0 3030 689
0 3024 969
0 3014 1237
0 3002 1511
0 2989 1750
0 2972 1990
0 2949 2274
71 2905 2732
0 2853 3178
0 2779 3666
620 2658 4095
1684 2496 4095
2065 2389 4095
2238 2313 4095
2347 2264 4095
0 3432 149
0 3432 149
0 3432 149
0 3431 149
0 3430 149
0 3429 149
0 3427 149
0 3425 149
0 3422 149
0 3419 149
0 3414 465
0 3408 827
0 3401 1129
0 3390 1422
0 3377 1724
0 3362 1985
0 3344 2251
0 3318 2568
90 3269 3075
0 3211 3571
0 3130 4095
1842 2963 4095
2344 2841 4095
2552 2762 4095
2649 2700 4095
0 3855 192
0 3855 192
0 3855 192
0 3855 192
0 3854 192
0 3853 192
0 3851 192
0 3849 192
0 3847 192
0 3844 192
0 3840 192
0 3834 592
0 3828 975
0 3820 1304
0 3808 1625
0 3793 1959
0 3777 2245
0 3756 2540
0 3728 2894
119 3673 3457
0 3608 4008
2113 3427 4095
2686 3300 4095
2927 3217 4095
3033 3159 4095
2293 4095 2304
2293 4095 2304
2293 4095 2304
2290 4095 2302
2287 4095 2298
2283 4095 2294
2277 4095 2289
2270 4095 2281
2260 4095 2272
2248 4095 2259
2231 4095 2243
2210 4095 2222
2189 4095 2260
2164 4095 2332
2131 4095 2425
2086 4095 2546
2022 4095 2703
1890 4095 2842
1682 4095 3016
1347 4095 3290
377 4095 3860
2623 3864 4095
3183 3734 4095
3386 3666 4095
3479 3618 4095
3418 4095 3420
3418 4095 3420
3418 4095 3420
3417 4095 3419
3417 4095 3419
3416 4095 3418
3415 4095 3417
3414 4095 3416
3412 4095 3414
3410 4095 3412
3407 4095 3409
3403 4095 3406
3398 4095 3401
3393 4095 3412
3387 4095 3432
3378 4095 3459
3367 4095 3495
3351 4095 3544
3322 4095 3591
3280 4095 3653
3224 4095 3754
3132 4095 3989
3525 3991 4095
3717 3935 4095
3794 3907 4095
3738 4095 3739
3738 4095 3739
3738 4095 3739
3738 4095 3739
3738 4095 3739
3738 4095 3739
3738 4095 3739
3737 4095 3738
3737 4095 3738
3736 4095 3737
3735 4095 3736
3734 4095 3735
3733 4095 3734
3731 4095 3732
3729 4095 3739
3726 4095 3748
3722 4095 3762
3717 4095 3780
3709 4095 3805
3696 4095 3829
3676 4095 3861
3651 4095 3914
3609 4095 4037
3798 4038 4095
3896 4009 4095
3875 4095 3875
3875 4095 3875
3875 4095 3875
3875 4095 3875
3874 4095 3875
3874 4095 3875
3874 4095 3875
3874 4095 3875
3874 4095 3875
3874 4095 3874
3874 4095 3874
3873 4095 3874
3873 4095 3873
3872 4095 3873
3871 4095 3872
3870 4095 3876
3868 4095 3882
3866 4095 3890
3863 4095 3901
3858 4095 3916
3850 4095 3931
3839 4095 3950
3824 4095 3983
3800 4095 4059
3913 4060 4095
3947 4095 3948
3947 4095 3948
3947 4095 3948
3947 4095 3948
3947 4095 3948
3947 4095 3947
3947 4095 3947
3947 4095 3947
3947 4095 3947
3947 4095 3947
3947 4095 3947
3946 4095 3947
3946 4095 3947
3946 4095 3946
3945 4095 3946
3945 4095 3945
3944 4095 3948
3943 4095 3952
3941 4095 3958
3940 4095 3965
3937 4095 3975
3932 4095 3985
3924 4095 3998
3915 4095 4020
3899 4095 4071
0 0 0
0 0 0
0 0 0
10 0 97
19 3 222
39 3 354
61 6 468
90 10 595
126 13 719
174 19 855
225 26 997
284 32 1158
349 45 1329
419 58 1522
497 78 1733
583 103 1966
678 132 2224
784 174 2511
902 220 2829
1031 271 3182
1177 336 3570
1347 720 3682
1538 1039 3773
1749 1348 3848
1983 1662 3912
0 0 0
0 0 0
0 0 0
10 0 97
19 3 222
39 3 354
61 6 468
90 10 595
126 13 719
174 19 855
225 26 997
284 32 1158
349 45 1329
419 58 1522
497 78 1733
583 103 1966
678 132 2224
784 174 2511
902 220 2829
1031 271 3182
1177 336 3570
1347 720 3682
1538 1039 3773
1749 1348 3848
1983 1662 3912
0 0 0
0 0 0
0 0 0
10 0 97
19 3 222
39 3 354
61 6 468
90 10 595
126 13 719
174 19 855
225 26 997
284 32 1158
349 45 1329
419 58 1522
497 78 1733
583 103 1966
678 132 2224
784 174 2511
902 220 2829
1031 271 3182
1177 336 3570
1347 720 3682
1538 1039 3773
1749 1348 3848
1983 1662 3912
0 155 0
0 155 0
0 155 0
0 136 119
6 107 318
16 52 535
55 13 618
87 10 584
126 13 719
174 19 855
225 26 997
284 32 1158
349 45 1329
419 58 1522
497 78 1733
583 103 1966
678 132 2224
784 174 2511
902 220 2829
1031 271 3182
1177 336 3571
1347 720 3681
1538 1039 3773
1749 1348 3849
1983 1662 3912
0 322 0
0 322 0
0 322 0
0 312 100
0 297 269
3 273 437
26 230 620
39 149 833
71 39 1027
171 26 966
225 26 997
282 32 1152
349 45 1329
417 58 1518
496 78 1730
582 100 1964
677 132 2222
783 174 2509
901 220 2827
1031 271 3182
1176 334 3570
1347 719 3681
1537 1039 3773
1749 1348 3848
1983 1662 3912
0 468 3
0 468 3
0 468 3
0 460 78
0 452 238
3 436 399
0 416 564
26 379 735
61 314 953
68 206 1200
165 65 1347
284 45 1280
347 45 1325
417 58 1518
496 78 1730
582 100 1964
677 132 2222
783 174 2509
901 220 2827
1031 271 3180
1176 334 3570
1346 719 3681
1537 1039 3773
1749 1348 3849
1983 1662 3912
0 610 3
0 610 3
0 610 3
0 604 52
0 595 233
0 587 360
3 572 527
0 551 695
26 517 871
78 460 1090
100 367 1350
116 165 1662
326 87 1632
420 65 1559
494 78 1726
582 100 1961
676 132 2219
783 174 2507
900 220 2825
1030 271 3179
1176 332 3570
1346 718 3681
1537 1038 3773
1748 1347 3848
1982 1661 3912
0 753 6
0 753 6
0 753 6
0 750 13
0 743 198
0 735 358
0 726 479
3 710 658
0 689 834
26 655 1021
94 600 1248
145 508 1527
161 343 1853
349 145 1988
497 107 1898
580 100 1958
675 132 2217
782 171 2505
899 220 2824
1030 271 3177
1175 330 3569
1346 718 3681
1536 1038 3773
1748 1347 3848
1982 1661 3912
0 904 10
0 904 10
0 904 10
0 901 10
0 896 152
0 890 339
0 881 478
0 873 602
6 855 795
0 831 983
26 798 1184
116 740 1423
198 646 1728
214 492 2074
358 217 2357
576 161 2255
674 132 2214
781 171 2503
899 220 2822
1029 271 3176
1175 330 3569
1346 717 3681
1536 1037 3772
1748 1346 3848
1982 1661 3912
0 1066 13
0 1066 13
0 1066 13
0 1064 13
0 1060 90
0 1054 299
0 1046 471
0 1038 600
0 1028 730
6 1009 941
0 984 1144
23 948 1363
142 889 1620
257 788 1954
273 634 2329
352 295 2750
656 228 2630
782 177 2525
898 217 2820
1028 269 3174
1174 328 3567
1345 715 3680
1535 1036 3772
1747 1346 3848
1981 1660 3912
0 1241 16
0 1241 16
0 1241 16
0 1238 16
0 1235 16
0 1230 240
0 1224 430
0 1216 597
0 1208 728
0 1197 867
10 1176 1098
0 1149 1319
23 1111 1560
177 1047 1839
316 940 2204
337 780 2614
370 409 3136
744 299 3034
902 240 2912
1027 269 3171
1173 328 3566
1344 713 3679
1535 1035 3771
1747 1345 3848
1981 1659 3911
