Log/Sony S-Log2.3dl
#25pt 3DLUT created by 3D LUT Creator Pro (c) Oleg Sharonov
#Copyright Oleg Sharonov
#IMAGEPROFILE sRGB built-in v.4.30
#INPUTGAMMA SLog2
#OUTPUTGAMMA sRGB built-in v.4.30
0 256 512 768 1023
0 0 0
0 127 825
0 514 2789
1286 1727 4095
3423 3483 4095
0 783 46
0 817 839
0 1006 2793
1405 1978 4095
3439 3502 4095
0 2611 257
0 2622 887
0 2684 2746
1920 2900 4095
3515 3592 4095
0 4000 513
0 3999 830
0 3989 2083
0 3948 4001
3674 3797 4095
3456 4095 3478
3455 4095 3483
3450 4095 3510
3426 4095 3634
3421 4073 4095
948 55 0
863 175 820
35 533 2785
1289 1736 4095
3424 3483 4095
920 798 18
831 831 831
0 1019 2790
1408 1985 4095
3439 3502 4095
717 2611 239
617 2624 878
0 2689 2742
1921 2903 4095
3515 3592 4095
0 4000 506
0 3999 826
0 3989 2080
0 3948 4000
3674 3797 4095
3456 4095 3478
3455 4095 3483
3450 4095 3510
3426 4095 3634
3420 4073 4095
3097 302 0
3069 365 775
2885 640 2768
1837 1857 4095
3426 3487 4095
3087 883 0
3059 915 787
2864 1091 2763
1915 2088 4095
3442 3505 4095
2917 2590 110
2883 2601 816
2665 2665 2665
2234 2935 4095
3517 3594 4095
1830 3956 460
1793 3956 781
1571 3955 2019
205 3949 3991
3674 3798 4095
3457 4095 3478
3456 4095 3483
3451 4095 3510
3426 4095 3634
3416 4074 4095
4095 2437 2350
4095 2443 2392
4095 2487 2849
4095 2603 4019
3562 3554 4095
4095 2558 2401
4095 2562 2443
4095 2599 2878
4095 2690 4021
3571 3568 4095
4095 3025 2580
4095 3027 2622
4095 3039 2973
4095 3042 4033
3616 3636 4095
4024 3740 229
4016 3740 586
3971 3741 1705
3745 3745 3745
3719 3807 4095
3544 4095 3353
3543 4095 3359
3534 4095 3398
3493 4095 3561
3405 4077 4095
4095 3736 3726
4095 3736 3726
4095 3738 3736
4095 3746 3797
4095 3769 4070
4095 3740 3728
4095 3740 3728
4095 3742 3738
4095 3750 3799
4095 3771 4070
4095 3762 3740
4095 3762 3740
4095 3763 3749
4095 3770 3807
4095 3786 4071
4095 3834 3770
4095 3834 3770
4095 3835 3779
4095 3837 3827
4095 3838 4074
4095 3986 3444
4095 3986 3444
4095 3986 3445
4095 3987 3454
3986 3986 3986
