Log/Sony S-Log2 S-Gamut3.Cine - Neutral.3dl
#25pt 3DLUT created by 3D LUT Creator Pro (c) Oleg Sharonov
#Copyright Oleg Sharonov
#IMAGEPROFILE 
#INPUTGAMMA SLog2
#OUTPUTGAMMA 
0 256 512 768 1023
0 0 0
61 6 468
349 45 1329
902 220 2829
1983 1662 3912
0 610 3
3 572 527
326 87 1632
900 220 2825
1982 1661 3912
0 1639 29
0 1627 295
19 1556 1457
523 713 3917
1979 1658 3911
0 3432 149
0 3427 149
0 3401 1129
90 3269 3075
2649 2700 4095
3947 4095 3948
3947 4095 3947
3946 4095 3947
3941 4095 3958
3899 4095 4071
691 6 3
657 3 522
493 32 1380
900 220 2825
1982 1661 3912
518 556 0
464 516 486
343 61 1461
899 220 2822
1981 1660 3912
0 1622 29
0 1610 214
16 1538 1443
520 654 3929
1978 1656 3911
0 3426 149
0 3421 149
0 3394 1110
90 3262 3070
2643 2692 4095
3947 4095 3947
3947 4095 3947
3946 4095 3946
3941 4095 3957
3899 4095 4071
1825 55 32
1820 32 116
1751 13 1449
1474 84 3006
1978 1656 3911
1774 52 29
1768 29 32
1697 6 1438
1408 100 2991
1977 1655 3911
1437 1520 3
1419 1507 0
1312 1428 1365
991 697 3388
1974 1651 3910
0 3388 145
0 3383 145
0 3355 985
87 3221 3038
2605 2645 4095
3946 4095 3946
3946 4095 3946
3945 4095 3945
3940 4095 3956
3897 4095 4071
3797 260 158
3792 260 158
3777 183 937
3652 61 3059
2648 2004 4017
3777 257 155
3773 257 155
3756 180 919
3631 55 3055
2634 1996 4017
3672 876 240
3666 852 235
3640 681 794
3506 19 3030
2549 1946 4009
3036 3199 13
3029 3194 10
2988 3164 3
2790 3018 2894
2572 2486 4095
3940 4095 3941
3940 4095 3941
3939 4095 3940
3935 4095 3948
3889 4095 4071
4091 3709 3707
4091 3709 3706
4091 3704 3701
4093 3704 3726
4094 3793 3998
4091 3706 3704
4091 3706 3703
4091 3701 3698
4093 3701 3722
4094 3791 3998
4091 3687 3684
4091 3686 3683
4091 3681 3678
4093 3680 3702
4094 3777 3996
4093 3794 3776
4093 3792 3774
4093 3780 3762
4094 3726 3728
4094 3698 3990
4052 4095 3689
4052 4095 3689
4051 4095 3688
4047 4095 3681
3928 4095 4004
