Log/Sony S-Log2 S-Gamut.3dl
#25pt 3DLUT created by 3D LUT Creator Pro (c) Oleg Sharonov
#Copyright Oleg Sharonov
#IMAGEPROFILE 
#INPUTGAMMA SLog2
#OUTPUTGAMMA 
0 256 512 768 1023
0 0 0
0 0 728
0 0 2029
0 0 3960
2339 2339 4095
0 780 0
0 718 676
0 134 2011
0 0 3955
2339 2339 4095
0 2143 0
0 2123 202
0 2004 1906
0 1233 3925
2333 2333 4095
0 3724 0
0 3721 0
0 3699 1072
0 3563 3424
2872 3022 4095
3173 4095 3173
3172 4095 3172
3168 4095 3168
3130 4095 3227
2683 4095 3994
953 0 0
930 0 722
775 0 2026
0 0 3960
2339 2339 4095
704 718 0
672 652 666
449 0 2010
0 0 3954
2339 2339 4095
0 2123 0
0 2104 174
0 1982 1902
0 1194 3924
2333 2333 4095
0 3721 0
0 3718 0
0 3696 1068
0 3559 3425
2868 3018 4095
3172 4095 3172
3171 4095 3171
3167 4095 3167
3129 4095 3227
2681 4095 3995
2515 0 0
2508 0 662
2465 0 2008
2245 0 3954
2339 2339 4095
2448 118 0
2440 0 605
2395 0 1991
2163 0 3949
2338 2338 4095
1971 2002 0
1960 1981 0
1897 1848 1882
1551 932 3918
2332 2332 4095
0 3703 0
0 3700 0
0 3678 1044
0 3537 3433
2843 2988 4095
3168 4095 3168
3167 4095 3167
3163 4095 3163
3124 4095 3222
2670 4095 3999
4095 1560 1560
4095 1558 1587
4095 1562 2156
4095 1554 3544
3275 2853 4095
4095 1531 1531
4095 1528 1541
4095 1531 2134
4095 1519 3551
3267 2847 4095
4095 1747 1417
4095 1724 1409
4095 1590 2019
4095 1281 3598
3213 2811 4095
3415 3459 0
3414 3456 0
3410 3433 860
3356 3287 3336
3103 2988 4095
3147 4095 3147
3147 4095 3147
3142 4095 3142
3102 4095 3201
2611 4095 4018
4095 3514 3514
4095 3514 3514
4095 3514 3522
4095 3522 3599
4095 3549 3915
4095 3512 3512
4095 3512 3512
4095 3513 3521
4095 3520 3597
4095 3548 3915
4095 3505 3505
4095 3505 3505
4095 3505 3511
4095 3513 3590
4095 3541 3917
4095 3560 3522
4095 3559 3521
4095 3553 3517
4095 3534 3584
4095 3505 3927
3963 4012 0
3963 4012 0
3966 4010 0
3970 3995 1187
3937 3861 3915
