Log/Sony S-Log2.3dl
#25pt 3DLUT created by 3D LUT Creator Pro (c) Oleg Sharonov
#Copyright Oleg Sharonov
#IMAGEPROFILE sRGB built-in v.4.30
#INPUTGAMMA SLog2
#OUTPUTGAMMA sRGB built-in v.4.30
0 128 256 384 512 640 768 896 1023
0 0 0
0 18 242
0 127 825
0 292 1619
0 514 2789
0 848 3859
1286 1727 4095
2649 2830 4095
3423 3483 4095
0 230 7
0 242 250
0 304 829
0 416 1621
0 602 2790
0 914 3859
1304 1766 4095
2660 2843 4095
3426 3486 4095
0 783 46
0 788 272
0 817 839
0 879 1629
0 1006 2793
0 1261 3861
1405 1978 4095
2720 2915 4095
3439 3502 4095
0 1525 129
0 1528 318
0 1550 861
0 1598 1645
0 1699 2803
0 1885 3842
1603 2360 4095
2832 3047 4095
3466 3533 4095
0 2611 257
0 2613 396
0 2622 887
0 2642 1634
0 2684 2746
0 2763 3773
1920 2900 4095
3010 3256 4095
3515 3592 4095
0 3503 399
0 3503 492
0 3504 888
0 3505 1530
0 3509 2545
0 3514 3569
2120 3447 4095
3220 3514 4095
3590 3682 4095
0 4000 513
0 4000 567
0 3999 830
0 3995 1287
0 3989 2083
0 3976 3106
0 3948 4001
3345 3764 4095
3674 3797 4095
2584 4095 2663
2584 4095 2669
2578 4095 2699
2566 4095 2764
2540 4095 2894
2477 4095 3136
2315 4095 3538
2466 4057 4095
3720 3915 4095
3456 4095 3478
3456 4095 3479
3455 4095 3483
3453 4095 3491
3450 4095 3510
3443 4095 3551
3426 4095 3634
3383 4095 3801
3421 4073 4095
289 9 0
258 26 243
11 136 826
0 297 1620
0 517 2788
0 850 3859
1286 1729 4095
2650 2830 4095
3423 3483 4095
279 236 2
247 247 247
0 309 829
0 418 1619
0 605 2789
0 916 3859
1304 1768 4095
2661 2843 4095
3426 3486 4095
214 785 42
177 790 270
0 819 838
0 880 1627
0 1008 2793
0 1262 3861
1406 1980 4095
2720 2915 4095
3439 3502 4095
15 1526 127
0 1530 316
0 1552 860
0 1599 1644
0 1700 2802
0 1887 3842
1603 2361 4095
2832 3048 4095
3466 3534 4095
0 2612 254
0 2614 394
0 2623 886
0 2643 1633
0 2685 2745
0 2765 3773
1920 2900 4095
3010 3256 4095
3515 3592 4095
0 3503 398
0 3503 490
0 3504 887
0 3505 1529
0 3509 2545
0 3514 3568
2120 3448 4095
3220 3514 4095
3590 3682 4095
0 4000 512
0 4000 566
0 3999 830
0 3995 1286
0 3989 2082
0 3976 3105
0 3948 4001
3345 3764 4095
3674 3797 4095
2584 4095 2663
2584 4095 2669
2579 4095 2700
2566 4095 2764
2540 4095 2894
2477 4095 3136
2315 4095 3537
2466 4057 4095
3720 3915 4095
3456 4095 3478
3456 4095 3479
3455 4095 3483
3453 4095 3491
3450 4095 3510
3443 4095 3551
3426 4095 3634
3384 4095 3801
3421 4073 4095
948 55 0
937 76 227
863 175 820
688 322 1614
35 533 2785
0 862 3858
1289 1736 4095
2652 2833 4095
3424 3483 4095
945 265 0
932 275 232
858 333 821
683 438 1615
18 619 2786
0 928 3858
1307 1774 4095
2662 2846 4095
3426 3486 4095
920 798 18
907 803 257
831 831 831
652 893 1623
0 1019 2790
0 1273 3859
1408 1985 4095
2722 2918 4095
3439 3502 4095
863 1535 103
851 1539 304
772 1561 854
582 1609 1639
0 1710 2800
0 1895 3840
1605 2366 4095
2834 3050 4095
3467 3534 4095
717 2611 239
703 2613 382
617 2624 878
394 2646 1626
0 2689 2742
0 2768 3771
1921 2903 4095
3011 3257 4095
3515 3592 4095
331 3502 388
309 3502 483
153 3504 881
0 3507 1524
0 3510 2541
0 3515 3567
2118 3449 4095
3220 3515 4095
3590 3683 4095
0 4000 506
0 4000 561
0 3999 826
0 3996 1283
0 3989 2080
0 3976 3104
0 3948 4000
3345 3765 4095
3674 3797 4095
2586 4095 2664
2585 4095 2669
2579 4095 2699
2567 4095 2764
2541 4095 2894
2478 4095 3136
2317 4095 3537
2461 4058 4095
3720 3915 4095
3456 4095 3478
3456 4095 3479
3455 4095 3483
3453 4095 3491
3450 4095 3510
3443 4095 3551
3426 4095 3634
3383 4095 3800
3420 4073 4095
1881 155 0
1872 172 192
1817 247 806
1695 371 1603
1417 569 2780
703 888 3856
1295 1750 4095
2656 2838 4095
3424 3484 4095
1878 320 0
1868 331 197
1814 382 807
1693 478 1605
1413 652 2781
698 953 3856
1313 1790 4095
2666 2851 4095
3427 3487 4095
1859 826 0
1849 830 223
1795 859 818
1672 919 1613
1392 1044 2785
667 1295 3857
1414 1999 4095
2726 2922 4095
3440 3503 4095
1817 1556 49
1808 1560 275
1753 1582 840
1628 1628 1628
1339 1721 2784
591 1909 3834
1609 2376 4095
2836 3053 4095
3467 3535 4095
1668 2605 203
1659 2607 356
1601 2618 859
1475 2639 1603
1190 2685 2721
403 2775 3765
1923 2909 4095
3012 3259 4095
3516 3592 4095
1317 3485 365
1308 3485 461
1255 3487 861
1137 3492 1500
866 3501 2521
0 3518 3563
2115 3451 4095
3221 3516 4095
3590 3683 4095
707 3991 493
699 3991 549
650 3991 814
536 3990 1271
177 3989 2072
0 3977 3100
0 3949 3998
3345 3765 4095
3674 3797 4095
2588 4095 2664
2587 4095 2670
2581 4095 2700
2570 4095 2765
2542 4095 2893
2480 4095 3135
2319 4095 3536
2452 4059 4095
3720 3915 4095
3456 4095 3478
3456 4095 3479
3455 4095 3483
3454 4095 3492
3450 4095 3510
3443 4095 3550
3426 4095 3634
3384 4095 3800
3419 4073 4095
3097 302 0
3093 311 89
3069 365 775
3014 465 1580
2885 640 2768
2534 940 3841
1837 1857 4095
2664 2849 4095
3426 3487 4095
3096 423 0
3092 430 96
3068 473 777
3012 558 1581
2883 717 2768
2530 1001 3839
1849 1893 4095
2675 2862 4095
3429 3490 4095
3087 883 0
3084 888 133
3059 915 787
3003 973 1589
2864 1091 2763
2500 1325 3827
1915 2088 4095
2733 2931 4095
3442 3505 4095
3043 1580 0
3038 1584 200
3011 1604 800
2950 1646 1580
2807 1735 2737
2434 1915 3798
2042 2437 4095
2842 3061 4095
3469 3537 4095
2917 2590 110
2912 2591 296
2883 2601 816
2818 2622 1550
2665 2665 2665
2272 2751 3721
2234 2935 4095
3016 3264 4095
3517 3594 4095
2574 3447 311
2569 3448 414
2536 3450 818
2464 3454 1444
2297 3463 2455
1889 3482 3512
2281 3455 4095
3222 3519 4095
3591 3684 4095
1830 3956 460
1824 3956 516
1793 3956 781
1724 3956 1232
1571 3955 2019
1225 3953 3064
205 3949 3991
3344 3766 4095
3674 3798 4095
2669 4095 2571
2667 4095 2578
2658 4095 2614
2641 4095 2692
2599 4095 2845
2506 4095 3121
2325 4095 3535
2432 4060 4095
3720 3915 4095
3457 4095 3478
3456 4095 3479
3456 4095 3483
3454 4095 3492
3451 4095 3510
3443 4095 3550
3426 4095 3634
3385 4095 3800
3416 4074 4095
4090 500 0
4089 506 0
4077 543 689
4052 617 1491
3996 759 2674
3865 1019 3762
3205 2184 4095
2981 2970 4095
3431 3492 4095
4087 585 0
4086 592 0
4074 624 690
4049 692 1490
3992 825 2672
3861 1075 3759
3207 2212 4095
2987 2980 4095
3433 3494 4095
4068 973 0
4067 978 0
4055 1002 696
4030 1053 1485
3972 1158 2657
3840 1371 3743
3218 2359 4095
3022 3036 4095
3446 3510 4095
4025 1610 0
4023 1613 0
4011 1631 706
3985 1669 1471
3926 1750 2622
3790 1912 3706
3237 2620 4095
3087 3141 4095
3472 3541 4095
3917 2540 0
3915 2542 131
3903 2551 721
3875 2570 1432
3814 2609 2531
3673 2687 3614
3255 3003 4095
3195 3312 4095
3520 3598 4095
3656 3363 182
3654 3364 308
3641 3366 728
3612 3370 1330
3547 3379 2311
3398 3398 3398
3175 3439 4095
3327 3536 4095
3593 3686 4095
3103 3884 390
3101 3884 448
3086 3884 716
3055 3883 1152
2983 3883 1912
2816 3882 2964
2381 3881 3910
3394 3769 4095
3675 3799 4095
2879 4095 2201
2878 4095 2210
2870 4095 2260
2852 4095 2366
2812 4095 2573
2720 4095 2936
2494 4095 3466
2402 4064 4095
3720 3916 4095
3481 4095 3449
3481 4095 3450
3480 4095 3454
3477 4095 3465
3472 4095 3487
3460 4095 3533
3435 4095 3627
3386 4095 3799
3411 4075 4095
4095 2437 2350
4095 2438 2349
4095 2443 2392
4095 2457 2552
4095 2487 2849
4095 2540 3330
4095 2603 4019
3608 3238 4095
3562 3554 4095
4095 2456 2357
4095 2457 2357
4095 2461 2400
4095 2475 2558
4095 2505 2854
4095 2556 3332
4095 2616 4020
3609 3243 4095
3563 3556 4095
4095 2558 2401
4095 2558 2400
4095 2562 2443
4095 2574 2594
4095 2599 2878
4095 2643 3342
4095 2690 4021
3616 3273 4095
3571 3568 4095
4095 2742 2478
4095 2742 2478
4095 2746 2520
4095 2754 2659
4095 2772 2921
4095 2802 3360
4095 2826 4026
3629 3331 4095
3587 3592 4095
4095 3025 2580
4095 3025 2579
4095 3027 2622
4095 3031 2742
4095 3039 2973
4095 3050 3378
4095 3042 4033
3651 3433 4095
3616 3636 4095
4095 3365 2541
4095 3365 2539
4095 3366 2592
4095 3366 2701
4095 3365 2919
4095 3360 3322
4095 3315 4044
3677 3583 4095
3663 3709 4095
4024 3740 229
4023 3740 302
4016 3740 586
4002 3740 1003
3971 3741 1705
3902 3743 2757
3745 3745 3745
3659 3764 4095
3719 3807 4095
3337 4086 428
3336 4086 460
3330 4085 613
3316 4085 878
3284 4084 1348
3215 4081 2167
3051 4076 3191
2622 4064 4094
3742 3917 4095
3544 4095 3353
3544 4095 3354
3543 4095 3359
3540 4095 3371
3534 4095 3398
3522 4095 3452
3493 4095 3561
3430 4095 3766
3405 4077 4095
4095 3378 3354
4095 3378 3354
4095 3379 3354
4095 3381 3374
4095 3388 3421
4095 3401 3517
4095 3425 3702
4095 3456 4051
3838 3677 4095
4095 3381 3356
4095 3381 3356
4095 3382 3355
4095 3385 3376
4095 3391 3422
4095 3404 3518
4095 3427 3703
4095 3458 4051
3838 3678 4095
4095 3399 3366
4095 3399 3366
4095 3399 3365
4095 3402 3385
4095 3408 3431
4095 3420 3524
4095 3442 3706
4095 3470 4051
3840 3684 4095
4095 3434 3385
4095 3434 3385
4095 3434 3384
4095 3437 3404
4095 3442 3447
4095 3452 3537
4095 3471 3713
4095 3493 4053
3843 3696 4095
4095 3499 3418
4095 3499 3418
4095 3499 3418
4095 3501 3437
4095 3504 3476
4095 3512 3558
4095 3525 3724
4095 3538 4055
3850 3720 4095
4095 3601 3461
4095 3601 3461
4095 3601 3463
4095 3602 3479
4095 3604 3513
4095 3607 3585
4095 3613 3737
4095 3612 4059
3861 3762 4095
4095 3734 3460
4095 3734 3460
4095 3734 3465
4095 3734 3479
4095 3734 3508
4095 3734 3573
4095 3732 3716
4095 3713 4066
3872 3828 4095
4095 3905 2559
4095 3905 2559
4095 3905 2561
4095 3905 2566
4095 3906 2576
4095 3907 2598
4066 3908 2960
3904 3904 3904
3861 3913 4095
3699 4095 2913
3698 4095 2915
3697 4095 2926
3694 4095 2949
3687 4095 2997
3671 4095 3097
3635 4095 3286
3553 4095 3613
3457 4078 4095
4095 3736 3726
4095 3736 3726
4095 3736 3726
4095 3736 3727
4095 3738 3736
4095 3741 3756
4095 3746 3797
4095 3756 3884
4095 3769 4070
4095 3737 3727
4095 3737 3727
4095 3737 3726
4095 3737 3727
4095 3738 3736
4095 3741 3756
4095 3747 3797
4095 3756 3885
4095 3769 4070
4095 3740 3728
4095 3740 3728
4095 3740 3728
4095 3741 3729
4095 3742 3738
4095 3744 3758
4095 3750 3799
4095 3759 3885
4095 3771 4070
4095 3748 3732
4095 3748 3732
4095 3748 3732
4095 3748 3733
4095 3749 3742
4095 3751 3761
4095 3756 3802
4095 3765 3887
4095 3776 4070
4095 3762 3740
4095 3762 3740
4095 3762 3740
4095 3762 3741
4095 3763 3749
4095 3765 3768
4095 3770 3807
4095 3777 3890
4095 3786 4071
4095 3789 3753
4095 3789 3753
4095 3789 3753
4095 3790 3755
4095 3790 3762
4095 3792 3779
4095 3795 3816
4095 3800 3895
4095 3805 4072
4095 3834 3770
4095 3834 3770
4095 3834 3770
4095 3835 3772
4095 3835 3779
4095 3836 3794
4095 3837 3827
4095 3839 3900
4095 3838 4074
4095 3897 3766
4095 3897 3766
4095 3897 3766
4095 3897 3769
4095 3897 3775
4095 3897 3788
4095 3897 3818
4095 3895 3888
4095 3886 4078
4095 3986 3444
4095 3986 3444
4095 3986 3444
4095 3986 3444
4095 3986 3445
4095 3987 3448
4095 3987 3454
4095 3989 3467
3986 3986 3986
