Log/Sony S-Log2 S-Gamut.3dl
#25pt 3DLUT created by 3D LUT Creator Pro (c) Oleg Sharonov
#Copyright Oleg Sharonov
#IMAGEPROFILE 
#INPUTGAMMA SLog2
#OUTPUTGAMMA 
0 43 86 128 171 214 256 299 341 384 427 469 512 555 597 640 682 725 768 810 853 896 938 981 1023 
0 0 0
0 0 0
0 0 0
0 0 210
0 0 382
0 0 562
0 0 728
0 0 911
0 0 1092
0 0 1304
0 0 1524
0 0 1767
0 0 2029
0 0 2310
0 0 2605
0 0 2916
0 0 3243
0 0 3590
0 0 3960
511 511 4095
953 953 4095
1328 1328 4095
1689 1689 4095
2020 2020 4095
2339 2339 4095
0 0 0
0 0 0
0 0 0
0 0 210
0 0 382
0 0 562
0 0 728
0 0 911
0 0 1092
0 0 1304
0 0 1524
0 0 1767
0 0 2029
0 0 2310
0 0 2605
0 0 2916
0 0 3243
0 0 3590
0 0 3960
511 511 4095
953 953 4095
1328 1328 4095
1689 1689 4095
2020 2020 4095
2339 2339 4095
0 0 0
0 0 0
0 0 0
0 0 210
0 0 382
0 0 562
0 0 728
0 0 911
0 0 1092
0 0 1304
0 0 1524
0 0 1767
0 0 2029
0 0 2310
0 0 2605
0 0 2916
0 0 3243
0 0 3590
0 0 3960
511 511 4095
953 953 4095
1328 1328 4095
1689 1689 4095
2020 2020 4095
2339 2339 4095
0 215 0
0 215 0
0 215 0
0 191 171
0 149 374
0 93 548
0 25 722
0 0 900
0 0 1092
0 0 1296
0 0 1524
0 0 1767
0 0 2029
0 0 2306
0 0 2602
0 0 2913
0 0 3241
0 0 3590
0 0 3960
510 510 4095
952 952 4095
1328 1328 4095
1689 1689 4095
2020 2020 4095
2339 2339 4095
0 420 0
0 420 0
0 420 0
0 406 140
0 384 356
0 352 536
0 306 709
0 243 893
0 134 1085
0 0 1288
0 0 1517
0 0 1762
0 0 2025
0 0 2303
0 0 2599
0 0 2911
0 0 3239
0 0 3588
0 0 3958
509 509 4095
952 952 4095
1328 1328 4095
1688 1688 4095
2020 2020 4095
2339 2339 4095
0 600 0
0 600 0
0 600 0
0 589 93
0 574 328
0 552 517
0 521 696
0 481 880
0 423 1075
0 337 1282
0 191 1507
0 0 1756
0 0 2020
0 0 2299
0 0 2596
0 0 2909
0 0 3237
0 0 3587
0 0 3957
507 507 4095
951 951 4095
1327 1327 4095
1688 1688 4095
2019 2019 4095
2339 2339 4095
0 780 0
0 780 0
0 780 0
0 771 34
0 759 290
0 741 491
0 718 676
0 689 864
0 647 1061
0 591 1271
0 509 1499
0 382 1746
0 134 2011
0 0 2295
0 0 2593
0 0 2906
0 0 3235
0 0 3583
0 0 3955
506 506 4095
950 950 4095
1326 1326 4095
1687 1687 4095
2019 2019 4095
2339 2339 4095
0 967 0
0 967 0
0 967 0
0 959 0
0 949 233
0 935 455
0 917 649
0 893 842
0 861 1043
0 819 1258
0 760 1488
0 676 1738
0 552 2005
0 339 2289
0 0 2587
0 0 2901
0 0 3231
0 0 3582
0 0 3953
503 503 4095
948 948 4095
1325 1325 4095
1687 1687 4095
2018 2018 4095
2338 2338 4095
0 1167 0
0 1167 0
0 1167 0
0 1160 0
0 1152 143
0 1141 406
0 1126 614
0 1106 814
0 1081 1021
0 1046 1238
0 1000 1474
0 937 1724
0 848 1993
0 719 2279
0 511 2581
0 3 2894
0 0 3227
0 0 3577
0 0 3950
501 501 4095
946 946 4095
1324 1324 4095
1685 1685 4095
2017 2017 4095
2338 2338 4095
0 1383 0
0 1383 0
0 1383 0
0 1378 0
0 1371 15
0 1361 334
0 1349 565
0 1333 776
0 1312 990
0 1284 1214
0 1246 1452
0 1196 1708
0 1127 1980
0 1032 2268
0 894 2571
0 677 2888
0 221 3221
0 0 3572
0 0 3946
495 495 4095
944 944 4095
1322 1322 4095
1684 1684 4095
2016 2016 4095
2337 2337 4095
0 1618 0
0 1618 0
0 1618 0
0 1614 0
0 1607 0
0 1600 215
0 1590 495
0 1576 726
0 1558 950
0 1535 1181
0 1505 1426
0 1464 1685
0 1409 1962
0 1334 2253
0 1231 2559
0 1081 2879
0 850 3214
0 406 3566
0 0 3941
490 490 4095
941 941 4095
1319 1319 4095
1683 1683 4095
2015 2015 4095
2336 2336 4095
0 1871 0
0 1871 0
0 1871 0
0 1867 0
0 1862 0
0 1856 3
0 1848 389
0 1837 654
0 1822 895
0 1804 1137
0 1778 1389
0 1744 1656
0 1701 1938
0 1642 2234
0 1560 2543
0 1447 2866
0 1284 3203
0 1034 3557
0 574 3934
483 483 4095
936 936 4095
1317 1317 4095
1681 1681 4095
2014 2014 4095
2335 2335 4095
0 2143 0
0 2143 0
0 2143 0
0 2140 0
0 2136 0
0 2130 0
0 2123 202
0 2114 549
0 2102 819
0 2087 1077
0 2067 1342
0 2040 1617
0 2004 1906
0 1957 2208
0 1893 2523
0 1805 2849
0 1683 3190
0 1505 3547
0 1233 3925
543 911 4095
931 931 4095
1313 1313 4095
1678 1678 4095
2011 2011 4095
2333 2333 4095
0 2428 0
0 2428 0
0 2428 0
0 2426 0
0 2423 0
0 2419 0
0 2413 0
0 2407 379
0 2397 709
0 2385 995
0 2369 1276
0 2347 1564
0 2319 1863
0 2281 2174
0 2230 2495
0 2163 2828
0 2069 3172
0 1937 3533
0 1746 3912
680 1520 4095
1060 1310 4095
1308 1308 4095
1674 1674 4095
2008 2008 4095
2331 2331 4095
0 2707 0
0 2707 0
0 2707 0
0 2705 0
0 2703 0
0 2700 0
0 2695 0
0 2690 0
0 2682 531
0 2673 867
0 2660 1172
0 2643 1477
0 2621 1788
0 2592 2109
0 2553 2439
0 2501 2778
0 2431 3129
0 2335 3495
0 2198 3881
799 2023 4095
1301 1860 4095
1497 1684 4095
1669 1669 4095
2005 2005 4095
2329 2329 4095
0 2987 0
0 2987 0
0 2987 0
0 2985 0
0 2983 0
0 2981 0
0 2978 0
0 2974 0
0 2968 183
0 2961 677
0 2950 1029
0 2937 1358
0 2920 1686
0 2897 2020
0 2867 2359
0 2827 2706
0 2774 3063
0 2701 3432
0 2601 3820
815 2459 4095
1513 2316 4095
1777 2178 4095
1883 2025 4095
2001 2001 4095
2325 2325 4095
0 3257 0
0 3257 0
0 3257 0
0 3256 0
0 3255 0
0 3253 0
0 3251 0
0 3248 0
0 3243 0
0 3238 345
0 3230 818
0 3220 1190
0 3207 1544
0 3189 1894
0 3166 2247
0 3135 2604
0 3094 2967
0 3040 3341
0 2966 3731
573 2858 4095
1695 2717 4095
2045 2599 4095
2196 2484 4095
2244 2350 4095
2321 2321 4095
0 3506 0
0 3506 0
0 3506 0
0 3506 0
0 3504 0
0 3503 0
0 3502 0
0 3499 0
0 3497 0
0 3493 0
0 3488 475
0 3480 951
0 3470 1346
0 3456 1720
0 3438 2090
0 3415 2460
0 3384 2831
0 3343 3210
0 3288 3602
0 3213 4014
1780 3071 4095
2272 2960 4095
2475 2865 4095
2561 2768 4095
2575 2654 4095
0 3724 0
0 3724 0
0 3724 0
0 3723 0
0 3723 0
0 3722 0
0 3721 0
0 3719 0
0 3718 0
0 3715 0
0 3712 0
0 3707 586
0 3699 1072
0 3689 1485
0 3676 1878
0 3658 2264
0 3635 2647
0 3604 3031
0 3563 3424
0 3508 3833
1561 3391 4095
2411 3264 4095
2695 3177 4095
2822 3101 4095
2872 3022 4095
0 3905 0
0 3905 0
0 3905 0
0 3905 0
0 3904 0
0 3904 0
0 3903 0
0 3902 0
0 3901 0
0 3900 0
0 3898 0
0 3895 0
0 3890 678
0 3882 1175
0 3872 1604
0 3859 2012
0 3841 2409
0 3818 2802
0 3788 3197
0 3747 3603
0 3693 4029
2367 3528 4095
2831 3429 4095
3014 3361 4095
3098 3302 4095
0 4051 0
0 4051 0
0 4051 0
0 4050 0
0 4050 0
0 4050 0
0 4049 0
0 4049 0
0 4048 0
0 4047 0
0 4046 0
0 4045 0
0 4043 0
0 4037 754
0 4030 1261
0 4019 1702
0 4007 2120
0 3989 2526
0 3967 2926
0 3936 3331
0 3896 3748
1597 3796 4095
2830 3640 4095
3127 3563 4095
3255 3511 4095
1652 4095 1652
1652 4095 1652
1652 4095 1652
1652 4095 1652
1649 4095 1649
1648 4095 1648
1645 4095 1645
1640 4095 1640
1636 4095 1636
1630 4095 1630
1621 4095 1621
1610 4095 1610
1595 4095 1595
1575 4095 1575
1512 4095 1711
1416 4095 1895
1275 4095 2111
1051 4095 2364
617 4095 2656
0 4083 3024
0 4053 3436
0 4013 3862
2438 3854 4095
3134 3730 4095
3343 3670 4095
2465 4095 2465
2465 4095 2465
2465 4095 2465
2465 4095 2465
2464 4095 2464
2464 4095 2464
2462 4095 2462
2461 4095 2461
2460 4095 2460
2457 4095 2457
2454 4095 2454
2450 4095 2450
2445 4095 2445
2438 4095 2438
2430 4095 2430
2402 4095 2495
2361 4095 2585
2305 4095 2698
2224 4095 2841
2103 4095 3022
1911 4095 3253
1562 4095 3551
679 4095 3945
2883 3899 4095
3348 3801 4095
2895 4095 2895
2895 4095 2895
2895 4095 2895
2895 4095 2895
2895 4095 2895
2895 4095 2895
2894 4095 2894
2893 4095 2893
2893 4095 2893
2892 4095 2892
2890 4095 2890
2888 4095 2888
2886 4095 2886
2883 4095 2883
2880 4095 2880
2874 4095 2874
2857 4095 2916
2833 4095 2972
2799 4095 3045
2752 4095 3141
2686 4095 3267
2583 4095 3434
2418 4095 3659
2110 4095 3972
3168 3936 4095
3173 4095 3173
3173 4095 3173
3173 4095 3173
3173 4095 3173
3173 4095 3173
3172 4095 3172
3172 4095 3172
3172 4095 3172
3171 4095 3171
3171 4095 3171
3170 4095 3170
3169 4095 3169
3168 4095 3168
3167 4095 3167
3164 4095 3164
3162 4095 3162
3158 4095 3158
3146 4095 3188
3130 4095 3227
3107 4095 3279
3076 4095 3348
3031 4095 3441
2965 4095 3567
2861 4095 3743
2683 4095 3994
0 0 0
0 0 0
0 0 0
0 0 210
0 0 382
0 0 562
0 0 728
0 0 911
0 0 1092
0 0 1304
0 0 1524
0 0 1767
0 0 2029
0 0 2310
0 0 2605
0 0 2916
0 0 3243
0 0 3590
0 0 3960
511 511 4095
953 953 4095
1328 1328 4095
1689 1689 4095
2020 2020 4095
2339 2339 4095
0 0 0
0 0 0
0 0 0
0 0 210
0 0 382
0 0 562
0 0 728
0 0 911
0 0 1092
0 0 1304
0 0 1524
0 0 1767
0 0 2029
0 0 2310
0 0 2605
0 0 2916
0 0 3243
0 0 3590
0 0 3960
511 511 4095
953 953 4095
1328 1328 4095
1689 1689 4095
2020 2020 4095
2339 2339 4095
0 0 0
0 0 0
0 0 0
0 0 210
0 0 382
0 0 562
0 0 728
0 0 911
0 0 1092
0 0 1304
0 0 1524
0 0 1767
0 0 2029
0 0 2310
0 0 2605
0 0 2916
0 0 3243
0 0 3590
0 0 3960
511 511 4095
953 953 4095
1328 1328 4095
1689 1689 4095
2020 2020 4095
2339 2339 4095
0 215 0
0 215 0
0 215 0
0 191 171
0 149 374
0 93 548
0 25 722
0 0 900
0 0 1092
0 0 1296
0 0 1524
0 0 1767
0 0 2029
0 0 2306
0 0 2602
0 0 2913
0 0 3241
0 0 3590
0 0 3960
510 510 4095
952 952 4095
1328 1328 4095
1689 1689 4095
2020 2020 4095
2339 2339 4095
0 420 0
0 420 0
0 420 0
0 406 140
0 384 356
0 352 536
0 306 709
0 243 893
0 134 1085
0 0 1288
0 0 1517
0 0 1762
0 0 2025
0 0 2303
0 0 2599
0 0 2911
0 0 3239
0 0 3588
0 0 3958
509 509 4095
952 952 4095
1328 1328 4095
1688 1688 4095
2020 2020 4095
2339 2339 4095
0 600 0
0 600 0
0 600 0
0 589 93
0 574 328
0 552 517
0 521 696
0 481 880
0 423 1075
0 337 1282
0 191 1507
0 0 1756
0 0 2020
0 0 2299
0 0 2596
0 0 2909
0 0 3237
0 0 3587
0 0 3957
507 507 4095
951 951 4095
1327 1327 4095
1688 1688 4095
2019 2019 4095
2339 2339 4095
0 780 0
0 780 0
0 780 0
0 771 34
0 759 290
0 741 491
0 718 676
0 689 864
0 647 1061
0 591 1271
0 509 1499
0 382 1746
0 134 2011
0 0 2295
0 0 2593
0 0 2906
0 0 3235
0 0 3583
0 0 3955
506 506 4095
950 950 4095
1326 1326 4095
1687 1687 4095
2019 2019 4095
2339 2339 4095
0 967 0
0 967 0
0 967 0
0 959 0
0 949 233
0 935 455
0 917 649
0 893 842
0 861 1043
0 819 1258
0 760 1488
0 676 1738
0 552 2005
0 339 2289
0 0 2587
0 0 2901
0 0 3231
0 0 3582
0 0 3953
503 503 4095
948 948 4095
1325 1325 4095
1687 1687 4095
2018 2018 4095
2338 2338 4095
0 1167 0
0 1167 0
0 1167 0
0 1160 0
0 1152 143
0 1141 406
0 1126 614
0 1106 814
0 1081 1021
0 1046 1238
0 1000 1474
0 937 1724
0 848 1993
0 719 2279
0 511 2581
0 3 2894
0 0 3227
0 0 3577
0 0 3950
501 501 4095
946 946 4095
1324 1324 4095
1685 1685 4095
2017 2017 4095
2338 2338 4095
0 1383 0
0 1383 0
0 1383 0
0 1378 0
0 1371 15
0 1361 334
0 1349 565
0 1333 776
0 1312 990
0 1284 1214
0 1246 1452
0 1196 1708
0 1127 1980
0 1032 2268
0 894 2571
0 677 2888
0 221 3221
0 0 3572
0 0 3946
495 495 4095
944 944 4095
1322 1322 4095
1684 1684 4095
2016 2016 4095
2337 2337 4095
0 1618 0
0 1618 0
0 1618 0
0 1614 0
0 1607 0
0 1600 215
0 1590 495
0 1576 726
0 1558 950
0 1535 1181
0 1505 1426
0 1464 1685
0 1409 1962
0 1334 2253
0 1231 2559
0 1081 2879
0 850 3214
0 406 3566
0 0 3941
490 490 4095
941 941 4095
1319 1319 4095
1683 1683 4095
2015 2015 4095
2336 2336 4095
