Grading Edition presets/AB - Lab B almost = A.3dl
#25pt 3DLUT created by 3D LUT Creator Pro (c) Oleg Sharonov
#Copyright Oleg Sharonov
#IMAGEPROFILE sRGB IEC61966-2.1 v.2.10
#INPUTGAMMA sRGB IEC61966-2.1 v.2.10
#OUTPUTGAMMA sRGB IEC61966-2.1 v.2.10
0 256 512 768 1023
0 0 0
540 0 267
1177 0 566
1813 0 914
2444 0 1265
0 967 1057
0 1000 1244
1476 790 1407
2435 0 1530
2917 0 1695
0 1948 2068
0 1956 2202
0 2004 2446
1932 1858 2616
3184 1475 2708
0 2931 3068
0 2934 3159
0 2955 3374
0 3007 3670
2145 2916 3848
0 3913 4064
0 3915 4095
1845 3848 4095
2533 3810 4095
3029 3807 4095
883 201 0
1165 0 369
1535 0 684
2043 0 992
2606 0 1318
957 1008 835
1024 1024 1024
1788 796 1328
2607 0 1514
3052 0 1714
0 2019 2057
0 2024 2223
876 2027 2384
2167 1866 2541
3306 1484 2672
0 2972 3067
0 2975 3170
0 2993 3402
273 3037 3674
2397 2913 3790
0 3941 4065
39 3942 4095
1906 3870 4095
2628 3824 4095
3098 3823 4095
1924 352 0
2128 0 367
2310 0 807
2639 0 1134
3066 0 1441
2043 1014 470
2140 978 785
2525 759 1180
3086 0 1480
3444 0 1750
1842 2040 1702
1908 2032 1860
2048 2048 2048
2794 1863 2373
3645 1526 2579
819 3084 2967
1083 3068 3081
1462 3053 3281
1964 3047 3429
3008 2907 3626
0 4035 4047
0 4034 4095
2068 3942 4095
2849 3876 4095
3256 3880 4095
2922 554 0
3142 0 287
3246 0 823
3458 0 1226
3762 0 1557
3069 1023 123
3154 957 609
3363 804 1059
3702 465 1439
4067 0 1768
3006 2043 1308
3036 2039 1486
3195 2007 1793
3628 1849 2163
4095 1657 2457
2680 3085 2567
2742 3073 2689
2901 3055 2895
3071 3071 3071
3815 2898 3408
1917 4095 3827
1936 4095 3920
2242 4091 4095
3156 3986 4095
3601 3970 4095
3892 814 0
4095 0 110
4095 417 840
4095 865 1358
4095 1282 1780
4055 1091 0
4095 950 433
4095 1095 1064
4095 1325 1586
4095 1604 1990
4072 2043 985
4085 2047 1181
4095 2051 1661
4095 2149 2156
4095 2304 2530
3912 3084 2164
3942 3077 2289
4035 3064 2526
4095 3075 2879
4095 3161 3282
3550 4095 3467
3570 4095 3532
3694 4095 3721
3910 4078 3926
4095 4095 4095
