Grading Edition presets/AB - Lab B almost = A.3dl
#25pt 3DLUT created by 3D LUT Creator Pro (c) Oleg Sharonov
#Copyright Oleg Sharonov
#IMAGEPROFILE sRGB IEC61966-2.1 v.2.10
#INPUTGAMMA sRGB IEC61966-2.1 v.2.10
#OUTPUTGAMMA sRGB IEC61966-2.1 v.2.10
0 128 256 384 512 640 768 896 1023
0 0 0
225 0 126
540 0 267
862 0 394
1177 0 566
1493 0 740
1813 0 914
2127 0 1088
2444 0 1265
0 475 560
0 499 643
667 409 731
1200 103 815
1493 0 863
1745 0 963
2016 0 1091
2297 0 1237
2589 0 1389
0 967 1057
0 974 1129
0 1000 1244
800 954 1342
1476 790 1407
2055 442 1467
2435 0 1530
2668 0 1593
2917 0 1695
0 1457 1562
0 1460 1624
0 1474 1715
0 1502 1846
830 1483 1962
1710 1338 2008
2398 1086 2058
2842 864 2118
3260 510 2190
0 1948 2068
0 1950 2114
0 1956 2202
0 1975 2310
0 2004 2446
751 2007 2579
1932 1858 2616
2662 1664 2655
3184 1475 2708
0 2439 2568
0 2440 2604
0 2445 2680
0 2455 2788
0 2476 2907
0 2506 3049
478 2530 3196
2054 2390 3233
2905 2208 3254
0 2931 3068
0 2931 3097
0 2934 3159
0 2942 3254
0 2955 3374
0 2978 3508
0 3007 3670
94 3040 3817
2145 2916 3848
0 3422 3566
0 3422 3589
0 3424 3645
0 3430 3727
0 3440 3834
0 3456 3965
10 3477 4095
1360 3464 4095
1808 3474 4095
0 3913 4064
0 3913 4083
0 3915 4095
1325 3878 4095
1845 3848 4095
2220 3825 4095
2533 3810 4095
2808 3803 4095
3029 3807 4095
414 68 0
600 0 110
778 0 295
1015 0 449
1293 0 607
1580 0 771
1880 0 939
2183 0 1108
2491 0 1281
452 504 446
512 512 512
923 383 672
1317 110 796
1580 0 872
1819 0 979
2080 0 1108
2349 0 1251
2634 0 1402
26 1011 1047
186 1007 1132
449 1013 1195
1039 942 1283
1576 790 1381
2116 448 1453
2484 0 1525
2712 0 1597
2953 0 1700
0 1485 1564
0 1487 1629
0 1500 1736
225 1519 1847
1064 1476 1918
1796 1338 1984
2452 1086 2042
2882 868 2108
3292 522 2184
0 1968 2069
0 1970 2118
0 1975 2212
0 1993 2322
0 2021 2467
1006 2003 2546
2013 1857 2593
2714 1663 2640
3219 1477 2698
0 2454 2569
0 2455 2608
0 2459 2684
0 2469 2796
0 2490 2918
0 2518 3063
830 2527 3169
2133 2389 3213
2951 2208 3241
0 2942 3068
0 2943 3097
0 2946 3163
0 2953 3259
0 2966 3384
0 2988 3515
0 3016 3676
607 3040 3794
2220 2915 3831
0 3431 3566
0 3432 3591
0 3434 3648
0 3439 3730
0 3449 3837
0 3465 3971
16 3485 4095
1367 3472 4095
1841 3479 4095
0 3921 4065
0 3922 4085
23 3922 4095
1296 3888 4095
1853 3855 4095
2257 3829 4095
2566 3813 4095
2800 3811 4095
3052 3811 4095
883 201 0
1077 0 58
1165 0 369
1324 0 533
1535 0 684
1777 0 836
2043 0 992
2320 0 1153
2606 0 1318
1015 506 243
1074 490 389
1320 339 592
1586 74 758
1784 0 888
1990 0 1011
2223 0 1143
2476 0 1285
2745 0 1432
957 1008 835
962 1012 933
1024 1024 1024
1423 920 1192
1788 796 1328
2257 471 1423
2607 0 1514
2818 0 1604
3052 0 1714
634 1524 1480
674 1521 1553
819 1515 1647
985 1523 1716
1471 1460 1820
1990 1340 1931
2574 1096 2006
2980 880 2085
3369 553 2170
0 2019 2057
0 2019 2117
0 2024 2223
430 2026 2323
876 2027 2384
1440 1992 2467
2167 1866 2541
2839 1661 2605
3306 1484 2672
0 2492 2567
0 2493 2611
0 2496 2694
0 2504 2815
0 2523 2940
668 2533 3036
1335 2519 3105
2316 2386 3165
3065 2206 3209
0 2972 3067
0 2973 3099
0 2975 3170
0 2982 3270
0 2993 3402
0 3015 3537
273 3037 3674
1141 3042 3738
2397 2913 3790
0 3456 3566
0 3456 3592
0 3458 3650
0 3464 3737
0 3472 3849
0 3487 3990
126 3506 4095
1459 3488 4095
1917 3492 4095
0 3941 4065
0 3942 4086
39 3942 4095
1358 3904 4095
1906 3870 4095
2306 3843 4095
2628 3824 4095
2855 3822 4095
3098 3823 4095
1417 264 0
1580 0 78
1629 0 393
1736 0 593
1890 0 761
2081 0 912
2302 0 1064
2542 0 1218
2802 0 1375
1535 510 58
1601 460 297
1753 318 518
1954 19 721
2094 0 902
2261 0 1050
2460 0 1190
2685 0 1332
2925 0 1477
1522 1009 633
1519 1018 744
1600 1004 896
1869 893 1088
2133 773 1252
2480 513 1384
2811 0 1500
3000 0 1612
3212 0 1731
1402 1524 1267
1425 1520 1343
1459 1524 1450
1536 1536 1536
1929 1440 1708
2288 1338 1852
2766 1119 1953
3149 894 2049
3498 611 2148
1080 2043 1915
1130 2037 1974
1213 2031 2067
1361 2026 2159
1507 2034 2231
1940 1975 2346
2432 1870 2469
3037 1660 2550
3450 1499 2632
78 2559 2528
235 2556 2577
525 2549 2664
809 2542 2764
1158 2534 2841
1430 2537 2909
1880 2506 3002
2591 2383 3086
3251 2205 3156
0 3026 3053
0 3027 3090
0 3028 3172
0 3033 3283
412 3036 3407
891 3039 3494
1299 3042 3572
1755 3033 3649
2669 2909 3720
0 3500 3560
0 3501 3589
0 3502 3650
0 3505 3747
0 3514 3865
0 3527 4018
741 3533 4095
1557 3520 4095
2070 3513 4095
0 3979 4063
0 3979 4084
458 3973 4095
1404 3937 4095
2004 3896 4095
2396 3866 4095
2708 3846 4095
2940 3843 4095
3163 3846 4095
1924 352 0
2090 0 58
2128 0 367
2199 0 617
2310 0 807
2459 0 977
2639 0 1134
2842 0 1287
3066 0 1441
2036 528 0
2107 442 217
2208 320 464
2360 29 688
2476 0 898
2608 0 1080
2775 0 1233
2966 0 1382
3177 0 1530
2043 1014 470
2046 1021 590
2140 978 785
2318 882 987
2525 759 1180
2770 573 1342
3086 0 1480
3251 0 1617
3444 0 1750
1987 1526 1060
2004 1523 1142
2018 1531 1264
2120 1517 1406
2403 1419 1593
2671 1325 1758
3013 1161 1892
3382 913 2005
3674 701 2120
1842 2040 1702
1858 2038 1761
1908 2032 1860
1962 2036 1965
2048 2048 2048
2437 1956 2222
2794 1863 2373
3278 1677 2481
3645 1526 2579
1503 2565 2347
1537 2560 2395
1628 2549 2484
1738 2542 2581
1888 2536 2670
2024 2545 2745
2426 2488 2867
2901 2391 2997
3496 2207 3086
819 3084 2967
937 3077 3003
1083 3068 3081
1265 3059 3180
1462 3053 3281
1747 3043 3356
1964 3047 3429
2350 3019 3529
3008 2907 3626
0 3567 3530
0 3568 3563
0 3567 3634
0 3570 3747
748 3560 3845
1317 3544 3928
1575 3547 4016
1865 3551 4095
2330 3535 4095
0 4035 4047
0 4034 4070
0 4034 4095
1510 3984 4095
2068 3942 4095
2533 3900 4095
2849 3876 4095
3052 3875 4095
3256 3880 4095
2430 442 0
2587 0 19
2639 0 336
2686 0 605
2770 0 824
2882 0 1018
3027 0 1192
3198 0 1348
3393 0 1505
2523 578 0
2606 445 119
2688 306 419
2787 123 653
2911 0 878
3009 0 1088
3147 0 1264
3309 0 1425
3493 0 1579
2554 1022 316
2565 1020 462
2654 960 693
2766 894 904
2936 771 1117
3113 643 1301
3382 203 1458
3564 0 1614
3729 0 1764
2537 1524 885
2540 1526 971
2554 1533 1103
2670 1493 1286
2869 1409 1479
3081 1317 1666
3323 1202 1827
3653 962 1959
3900 802 2090
2433 2047 1491
2449 2043 1553
2490 2036 1661
2521 2043 1781
2637 2029 1916
2930 1938 2101
3203 1854 2268
3545 1719 2404
3907 1545 2518
2260 2563 2134
2285 2558 2184
2328 2551 2274
2401 2544 2379
2469 2548 2479
2559 2559 2559
2946 2471 2736
3304 2382 2891
3787 2215 3005
1923 3087 2779
1946 3083 2818
2012 3074 2898
2135 3060 2998
2259 3052 3094
2409 3048 3182
2540 3056 3258
2921 3001 3384
3390 2905 3520
1356 3606 3399
1386 3603 3433
1513 3593 3500
1684 3580 3592
1862 3569 3695
2047 3562 3794
2302 3552 3870
2489 3557 3945
2835 3531 4051
0 4095 4001
26 4095 4023
0 4095 4089
1277 4074 4095
2236 3996 4095
2662 3954 4095
2991 3924 4095
3215 3916 4095
3415 3919 4095
2922 554 0
3080 29 0
3142 0 287
3187 0 566
3246 0 823
3339 0 1036
3458 0 1226
3599 0 1396
3762 0 1557
2982 694 0
3114 433 10
3175 310 365
3242 209 619
3360 0 846
3446 0 1081
3558 0 1279
3695 0 1457
3857 0 1616
3069 1023 123
3088 1011 349
3154 957 609
3241 894 841
3363 804 1059
3512 682 1259
3702 465 1439
3924 0 1602
4067 0 1768
3053 1531 727
3057 1534 817
3082 1531 971
3195 1474 1181
3318 1423 1378
3499 1328 1583
3677 1247 1762
3950 1048 1914
4095 994 2064
3006 2043 1308
3020 2038 1372
3036 2039 1486
3063 2046 1618
3195 2007 1793
3411 1927 1981
3628 1849 2163
3867 1758 2324
4095 1657 2457
2877 2567 1923
2887 2565 1971
2920 2558 2066
2982 2549 2181
3025 2556 2298
3152 2541 2428
3453 2454 2611
3730 2375 2779
4075 2254 2918
2680 3085 2567
2692 3083 2606
2742 3073 2689
2810 3064 2791
2901 3055 2895
2977 3060 2992
3071 3071 3071
3457 2984 3249
3815 2898 3408
2336 3610 3210
2357 3606 3244
2405 3599 3314
2501 3587 3410
2643 3571 3512
2778 3563 3607
2927 3559 3693
3054 3568 3771
3421 3514 3900
1917 4095 3827
1896 4095 3856
1936 4095 3920
2062 4095 4007
2242 4091 4095
2827 4021 4095
3156 3986 4095
3423 3966 4095
3601 3970 4095
3408 682 0
3533 363 0
3658 0 186
3692 0 532
3741 0 798
3819 0 1039
3908 0 1239
4033 0 1426
4095 284 1604
3466 782 0
3594 513 0
3666 330 291
3722 230 587
3808 6 826
3911 0 1065
3999 0 1273
4095 0 1476
4095 594 1674
3586 1021 0
3607 1000 209
3653 958 525
3722 902 782
3801 858 1004
3933 735 1220
4085 578 1418
4095 773 1642
4095 1039 1844
3575 1532 573
3578 1535 671
3609 1522 862
3698 1468 1087
3792 1425 1298
3928 1352 1508
4079 1277 1699
4095 1358 1915
4095 1510 2109
3548 2041 1142
3549 2043 1207
3560 2046 1328
3602 2040 1480
3730 1987 1679
3866 1939 1868
4053 1859 2068
4095 1889 2272
4095 1988 2456
3461 2564 1735
3472 2561 1785
3502 2553 1883
3535 2552 2006
3572 2558 2133
3717 2520 2301
3947 2443 2487
4095 2397 2675
4095 2469 2854
3316 3087 2357
3325 3085 2396
3354 3079 2479
3399 3072 2585
3478 3061 2699
3532 3068 2813
3666 3053 2940
3973 2969 3122
4095 2959 3288
3109 3604 3003
3117 3603 3035
3141 3599 3104
3213 3587 3204
3300 3576 3309
3404 3567 3411
3486 3572 3505
3583 3583 3583
3967 3497 3761
2811 4095 3648
2803 4095 3673
2831 4095 3735
2879 4095 3823
2998 4095 3925
3152 4083 4026
3295 4074 4095
3617 4035 4095
3810 4032 4095
3892 814 0
3992 591 0
4095 0 110
4095 0 522
4095 417 840
4095 652 1127
4095 865 1358
4095 1073 1583
4095 1282 1780
3936 907 0
4063 644 0
4095 377 195
4095 545 612
4095 665 900
4095 835 1184
4095 1015 1423
4095 1201 1649
4095 1376 1839
4055 1091 0
4095 995 16
4095 950 433
4095 1018 782
4095 1095 1064
4095 1208 1338
4095 1325 1586
4095 1459 1796
4095 1604 1990
4091 1534 403
4094 1537 520
4095 1512 758
4095 1516 1050
4095 1564 1327
4095 1638 1584
4095 1713 1825
4095 1809 2036
4095 1917 2222
4072 2043 985
4075 2044 1053
4085 2047 1181
4095 2034 1365
4095 2051 1661
4095 2090 1909
4095 2149 2156
4095 2216 2354
4095 2304 2530
4017 2562 1561
4026 2559 1612
4044 2555 1714
4064 2558 1844
4095 2551 1991
4095 2566 2276
4095 2604 2513
4095 2656 2729
4095 2722 2892
3912 3084 2164
3920 3082 2204
3942 3077 2289
3988 3067 2402
4035 3064 2526
4081 3070 2648
4095 3075 2879
4095 3110 3120
4095 3161 3282
3753 3606 2792
3761 3605 2825
3781 3600 2895
3828 3592 2996
3889 3584 3105
3976 3574 3217
4039 3580 3327
4095 3583 3484
4095 3620 3686
3550 4095 3467
3550 4095 3480
3570 4095 3532
3603 4095 3614
3694 4095 3721
3795 4088 3826
3910 4078 3926
3996 4084 4018
4095 4095 4095
