Grading Edition presets/AB - Lab B=A.3dl
#25pt 3DLUT created by 3D LUT Creator Pro (c) Oleg Sharonov
#Copyright Oleg Sharonov
#IMAGEPROFILE sRGB IEC61966-2.1 v.2.10
#INPUTGAMMA sRGB IEC61966-2.1 v.2.10
#OUTPUTGAMMA sRGB IEC61966-2.1 v.2.10
0 43 86 128 171 214 256 299 341 384 427 469 512 555 597 640 682 725 768 810 853 896 938 981 1023 
0 0 0
55 3 0
90 16 0
152 32 0
233 55 0
314 84 0
398 123 0
486 165 0
569 212 0
662 252 0
775 278 0
890 302 0
1005 322 0
1120 341 0
1236 360 0
1346 381 0
1461 396 0
1571 417 0
1685 431 0
1794 451 0
1903 470 0
2011 490 0
2119 512 0
2226 533 0
2331 558 0
0 152 206
0 168 222
100 161 186
284 145 97
428 129 0
479 161 0
540 195 0
606 230 0
692 257 0
792 278 0
889 299 0
992 320 0
1096 337 0
1201 356 0
1312 370 0
1419 388 0
1526 404 0
1632 422 0
1734 445 0
1841 462 0
1948 481 0
2054 500 0
2159 520 0
2260 547 0
2364 569 0
0 314 389
0 324 399
0 336 412
126 336 391
351 320 316
528 299 192
682 276 39
781 273 0
858 291 0
944 304 0
1033 318 0
1124 334 0
1218 349 0
1313 365 0
1415 377 0
1512 394 0
1615 406 0
1714 425 0
1809 451 0
1907 472 0
2010 489 0
2110 512 0
2213 530 0
2311 556 0
2412 578 0
0 472 593
0 478 602
0 486 612
0 500 629
90 509 623
399 494 533
596 478 443
759 458 358
908 434 267
1048 406 155
1184 372 32
1289 362 0
1375 370 0
1458 386 0
1549 396 0
1636 414 0
1729 427 0
1822 442 0
1917 457 0
2013 474 0
2108 492 0
2204 510 0
2300 532 0
2400 548 0
2481 595 0
0 632 782
0 637 789
0 645 798
0 654 809
0 667 826
26 682 839
428 668 751
657 652 661
839 634 572
999 614 486
1146 592 403
1286 565 320
1421 535 235
1553 500 129
1684 458 23
1795 433 0
1877 448 0
1961 464 0
2049 475 0
2135 494 0
2226 510 0
2313 532 0
2404 552 0
2496 572 0
2584 601 0
0 793 970
0 798 975
0 803 983
0 811 993
0 821 1006
0 835 1023
0 852 1045
439 842 967
704 827 877
907 810 788
1081 792 700
1238 771 614
1386 748 531
1526 723 448
1662 694 367
1796 661 282
1926 624 192
2056 580 90
2185 531 0
2283 520 0
2363 538 0
2446 559 0
2528 583 0
2611 606 0
2698 627 0
0 955 1159
0 958 1164
0 963 1170
0 969 1178
0 977 1188
0 989 1203
0 1003 1221
0 1020 1243
428 1015 1185
739 1000 1095
963 984 1005
1152 967 916
1321 948 828
1478 928 743
1625 904 659
1767 880 577
1904 852 494
2038 821 412
2170 786 326
2301 747 233
2430 703 123
2558 653 19
2672 617 0
2751 640 0
2830 662 0
0 1116 1348
0 1119 1352
0 1122 1357
0 1128 1364
0 1136 1374
0 1145 1385
0 1156 1400
0 1170 1417
0 1187 1441
396 1188 1401
760 1174 1312
1010 1159 1222
1215 1142 1133
1396 1124 1044
1561 1105 957
1717 1084 871
1865 1061 788
2007 1036 705
2145 1010 624
2280 980 541
2414 947 458
2545 911 370
2675 871 273
2804 826 158
2933 776 32
0 1277 1537
0 1279 1540
0 1283 1545
0 1287 1550
0 1294 1559
0 1302 1569
0 1312 1580
0 1324 1597
0 1338 1615
0 1355 1637
332 1360 1618
770 1347 1529
1047 1332 1439
1269 1316 1349
1463 1299 1260
1638 1281 1172
1802 1261 1085
1956 1241 1000
2104 1218 916
2247 1193 833
2386 1167 751
2522 1138 669
2656 1106 587
2789 1072 501
2920 1035 411
0 1438 1726
0 1441 1730
0 1443 1733
0 1447 1738
0 1453 1746
0 1460 1755
0 1469 1765
0 1479 1778
0 1492 1795
0 1506 1812
0 1522 1834
209 1533 1834
766 1520 1746
1074 1506 1656
1315 1491 1567
1522 1474 1477
1708 1457 1388
1880 1438 1300
2041 1418 1214
2195 1397 1128
2343 1374 1045
2487 1350 962
2626 1324 880
2763 1296 798
2899 1265 716
0 1600 1916
0 1601 1918
0 1604 1922
0 1607 1927
0 1612 1934
0 1618 1940
0 1626 1949
0 1636 1962
0 1647 1976
0 1659 1991
0 1674 2009
0 1690 2031
0 1707 2051
748 1693 1963
1092 1679 1874
1354 1664 1784
1575 1648 1694
1771 1632 1605
1952 1614 1516
2121 1595 1429
2281 1575 1342
2434 1554 1257
2582 1531 1174
2726 1507 1091
2867 1481 1008
0 1761 2106
0 1762 2107
0 1764 2110
0 1768 2114
0 1772 2120
0 1778 2128
0 1784 2135
0 1792 2145
0 1803 2159
0 1814 2172
0 1827 2189
0 1841 2206
0 1857 2227
0 1875 2251
713 1866 2180
1101 1852 2091
1385 1838 2001
1620 1822 1911
1829 1806 1821
2019 1789 1732
2195 1771 1644
2362 1752 1557
2521 1731 1470
2673 1710 1386
2821 1687 1302
0 1922 2294
0 1923 2296
0 1925 2298
0 1928 2302
0 1932 2308
0 1937 2315
0 1943 2322
0 1951 2330
0 1959 2342
0 1970 2356
0 1982 2370
0 1994 2385
0 2009 2404
0 2025 2425
0 2042 2449
659 2039 2397
1101 2026 2308
1408 2011 2218
1660 1996 2128
1880 1980 2038
2079 1964 1949
2264 1946 1860
2437 1928 1772
2602 1909 1685
2760 1888 1599
0 2083 2484
0 2085 2485
0 2086 2487
0 2088 2489
0 2093 2496
0 2097 2501
0 2103 2509
0 2110 2518
0 2117 2527
0 2127 2539
0 2137 2552
0 2149 2566
0 2162 2583
0 2177 2602
0 2192 2622
0 2210 2647
577 2212 2613
1088 2199 2525
1424 2185 2436
1693 2170 2346
1926 2154 2256
2135 2138 2166
2328 2121 2077
2508 2104 1988
2679 2085 1901
0 2244 2671
0 2245 2672
0 2247 2676
0 2249 2679
0 2252 2683
0 2257 2689
0 2262 2695
0 2268 2703
0 2275 2713
0 2284 2723
0 2293 2735
0 2304 2748
0 2317 2764
0 2329 2779
0 2344 2799
0 2360 2820
0 2377 2843
454 2385 2830
1067 2372 2742
1433 2358 2652
1720 2343 2563
1966 2328 2473
2186 2312 2383
2387 2296 2293
2574 2279 2204
0 2406 2861
0 2407 2862
0 2408 2864
0 2410 2866
0 2413 2871
0 2417 2877
0 2422 2883
0 2427 2889
0 2434 2898
0 2442 2909
0 2451 2920
0 2460 2931
0 2471 2945
0 2484 2961
0 2497 2977
0 2512 2996
0 2528 3017
0 2545 3040
235 2558 3046
1031 2545 2958
1433 2531 2870
1741 2517 2780
2001 2502 2690
2231 2487 2600
2441 2470 2510
0 2567 3049
0 2568 3050
0 2569 3052
0 2571 3054
0 2574 3059
0 2577 3065
0 2582 3072
0 2587 3077
0 2593 3085
0 2600 3094
0 2609 3105
0 2618 3116
0 2628 3129
0 2639 3142
0 2652 3159
0 2665 3175
0 2680 3194
0 2695 3213
0 2713 3237
0 2730 3260
981 2718 3175
1426 2704 3087
1755 2690 2997
2030 2676 2907
2272 2660 2817
0 2728 3238
0 2729 3239
0 2730 3240
0 2731 3242
0 2734 3247
0 2737 3251
0 2741 3257
0 2747 3265
0 2753 3273
0 2759 3280
0 2767 3290
0 2775 3299
0 2784 3311
0 2795 3324
0 2807 3340
0 2819 3355
0 2833 3373
0 2847 3391
0 2863 3410
0 2880 3435
0 2898 3459
914 2891 3392
1410 2877 3303
1764 2864 3214
2055 2849 3124
0 2889 3428
0 2890 3429
0 2891 3430
0 2893 3432
0 2895 3435
0 2898 3439
0 2902 3446
0 2907 3452
0 2912 3458
0 2918 3467
0 2925 3476
0 2933 3486
0 2942 3496
0 2952 3509
0 2962 3522
0 2974 3536
0 2987 3552
0 3000 3569
0 3015 3589
0 3031 3608
0 3048 3632
0 3065 3655
822 3064 3608
1384 3051 3520
1766 3037 3431
0 3050 3616
0 3051 3616
0 3052 3617
0 3054 3621
0 3056 3624
0 3058 3627
0 3062 3633
0 3067 3640
0 3072 3647
0 3077 3653
0 3084 3662
0 3091 3671
0 3100 3682
0 3109 3693
0 3119 3706
0 3130 3720
0 3141 3733
0 3155 3750
0 3168 3767
0 3183 3786
0 3198 3805
0 3216 3829
0 3233 3853
695 3237 3825
1349 3224 3737
0 3211 3805
0 3212 3806
0 3213 3807
0 3214 3809
0 3216 3811
0 3219 3816
0 3222 3820
0 3227 3827
0 3231 3833
0 3236 3839
0 3243 3848
0 3250 3857
0 3258 3867
0 3266 3878
0 3276 3889
0 3286 3902
0 3297 3916
0 3309 3931
0 3322 3947
0 3336 3964
0 3351 3984
0 3366 4002
0 3383 4027
0 3400 4049
509 3410 4041
0 3373 3995
0 3373 3995
0 3374 3996
0 3375 3998
0 3377 4000
0 3380 4005
0 3383 4008
0 3386 4012
0 3392 4021
0 3396 4027
0 3402 4035
0 3409 4043
0 3416 4053
0 3424 4061
0 3432 4072
0 3442 4082
0 3451 4092
16 3462 4095
103 3474 4095
195 3486 4095
552 3494 4095
776 3503 4095
885 3514 4095
1106 3522 4095
1234 3533 4095
776 3518 4095
777 3519 4095
778 3520 4095
782 3521 4095
856 3520 4095
861 3522 4095
866 3525 4095
873 3528 4095
952 3529 4095
1032 3531 4095
1101 3533 4095
1160 3536 4095
1170 3543 4095
1234 3547 4095
1289 3552 4095
1349 3558 4095
1401 3565 4095
1458 3572 4095
1509 3580 4095
1602 3586 4095
1650 3596 4095
1734 3604 4095
1785 3615 4095
1860 3624 4095
1965 3631 4095
1785 3623 4095
1786 3624 4095
1787 3625 4095
1788 3626 4095
1790 3627 4095
1822 3627 4095
1825 3629 4095
1829 3632 4095
1865 3633 4095
1898 3635 4095
1932 3637 4095
1938 3642 4095
1976 3645 4095
2010 3649 4095
2047 3654 4095
2082 3659 4095
2117 3665 4095
2154 3672 4095
2190 3680 4095
2228 3688 4095
2264 3696 4095
2326 3703 4095
2362 3714 4095
2423 3722 4095
2460 3734 4095
2400 3727 4095
2400 3727 4095
2401 3728 4095
2402 3729 4095
2404 3730 4095
2406 3732 4095
2433 3732 4095
2436 3735 4095
2440 3738 4095
2484 3737 4095
2489 3741 4095
2515 3744 4095
2542 3747 4095
2548 3753 4095
2579 3757 4095
2607 3762 4095
2638 3767 4095
2667 3773 4095
2696 3780 4095
2728 3788 4095
2758 3796 4095
2810 3802 4095
2841 3811 4095
2894 3819 4095
2926 3830 4095
113 19 0
145 26 0
177 39 0
233 55 0
308 74 0
377 103 0
448 142 0
523 186 0
602 230 0
700 262 0
812 284 0
924 306 0
1038 324 0
1146 345 0
1260 362 0
1369 381 0
1478 401 0
1592 416 0
1701 434 0
1809 452 0
1917 472 0
2024 493 0
2131 513 0
2237 535 0
2338 565 0
68 180 212
171 171 171
282 158 110
404 142 19
467 155 0
517 183 0
573 214 0
643 245 0
733 264 0
824 287 0
924 304 0
1019 326 0
1122 343 0
1225 360 0
1330 376 0
1436 393 0
1541 409 0
1648 425 0
1754 443 0
1855 465 0
1961 484 0
2066 503 0
2171 521 0
2271 548 0
2375 570 0
0 341 419
0 349 430
119 343 399
297 334 349
455 318 264
601 299 139
736 273 6
817 280 0
893 293 0
972 310 0
1060 322 0
1150 337 0
1243 352 0
1336 367 0
1432 383 0
1533 394 0
1622 422 0
1720 440 0
1823 454 0
1921 475 0
2024 490 0
2122 514 0
2224 531 0
2322 558 0
2419 585 0
0 490 615
0 497 623
0 505 634
0 517 649
291 506 578
496 493 499
661 477 417
808 457 337
947 434 248
1081 406 136
1212 372 19
1312 363 0
1393 376 0
1481 384 0
1565 401 0
1656 412 0
1744 431 0
1837 445 0
1931 460 0
2026 475 0
2121 493 0
2216 513 0
2312 533 0
2407 556 0
2488 602 0
0 647 798
0 652 805
0 658 813
0 668 825
0 681 842
252 680 803
523 667 721
719 652 637
885 634 553
1035 614 471
1177 591 391
1312 565 310
1444 535 225
1574 499 123
1702 457 16
1809 437 0
1891 451 0
1974 465 0
2063 477 0
2148 496 0
2238 510 0
2324 533 0
2415 552 0
2503 579 0
2594 602 0
0 805 984
0 808 988
0 814 995
0 822 1005
0 832 1018
0 845 1036
168 853 1025
535 840 942
764 826 857
950 809 771
1115 791 686
1267 771 603
1410 748 521
1548 722 440
1682 694 360
1813 661 276
1942 624 186
2070 580 84
2198 530 0
2295 521 0
2375 540 0
2457 559 0
2538 583 0
2621 607 0
2704 633 0
0 964 1170
0 967 1175
0 971 1180
0 978 1188
0 986 1198
0 998 1213
0 1011 1231
16 1026 1247
530 1013 1163
797 999 1076
1005 984 990
1185 967 903
1348 948 817
1500 927 734
1645 904 651
1785 880 570
1920 852 489
2053 820 408
2184 786 322
2314 747 228
2442 703 119
2569 653 16
2679 624 0
2757 646 0
2836 668 0
0 1124 1356
0 1127 1361
0 1130 1365
0 1136 1373
0 1143 1383
0 1153 1394
0 1164 1409
0 1178 1426
0 1194 1448
504 1187 1383
819 1173 1296
1050 1158 1208
1247 1142 1120
1422 1124 1033
1583 1105 948
1736 1084 864
1881 1061 781
2022 1036 699
2159 1010 618
2293 980 537
2425 947 454
2556 911 365
2686 871 269
2814 826 152
2942 776 29
0 1284 1545
0 1286 1548
0 1289 1553
0 1294 1558
0 1300 1567
0 1308 1576
0 1318 1589
0 1330 1605
0 1344 1622
0 1361 1644
455 1359 1601
828 1346 1514
1087 1331 1426
1300 1316 1338
1488 1299 1250
1660 1281 1163
1820 1261 1077
1972 1240 994
2118 1217 910
2260 1193 828
2398 1167 747
2533 1138 665
2667 1106 583
2799 1072 499
2929 1035 408
0 1444 1733
0 1446 1735
0 1449 1740
0 1453 1745
0 1458 1753
0 1465 1761
0 1474 1772
0 1485 1785
0 1497 1802
0 1511 1818
0 1527 1840
372 1533 1820
826 1519 1733
1114 1505 1645
1346 1490 1556
1547 1474 1467
1729 1456 1380
1898 1438 1293
2057 1418 1207
2209 1397 1123
2356 1374 1039
2498 1350 957
2637 1324 876
2773 1296 794
2908 1265 713
0 1605 1922
0 1607 1924
0 1609 1927
0 1613 1933
0 1617 1938
0 1623 1946
0 1631 1956
0 1641 1967
0 1651 1981
0 1664 1997
0 1678 2015
0 1695 2038
222 1706 2038
810 1693 1951
1132 1679 1863
1383 1664 1774
1599 1648 1685
1792 1631 1597
1970 1614 1509
2136 1595 1422
2294 1575 1337
2447 1553 1252
2594 1531 1169
2737 1507 1087
2876 1481 1005
