Grading Edition presets/AB - Lab B=A.3dl
#25pt 3DLUT created by 3D LUT Creator Pro (c) Oleg Sharonov
#Copyright Oleg Sharonov
#IMAGEPROFILE sRGB IEC61966-2.1 v.2.10
#INPUTGAMMA sRGB IEC61966-2.1 v.2.10
#OUTPUTGAMMA sRGB IEC61966-2.1 v.2.10
0 256 512 768 1023
0 0 0
398 123 0
1005 322 0
1685 431 0
2331 558 0
0 955 1159
0 1003 1221
1321 948 828
2170 786 326
2830 662 0
0 1922 2294
0 1943 2322
0 2009 2404
1660 1996 2128
2760 1888 1599
0 2889 3428
0 2902 3446
0 2942 3496
0 3015 3589
1766 3037 3431
2400 3727 4095
2433 3732 4095
2542 3747 4095
2696 3780 4095
2926 3830 4095
790 287 0
963 316 0
1380 386 0
1917 475 0
2485 603 0
612 1050 1173
1024 1024 1023
1682 944 683
2372 785 252
2952 702 0
0 1984 2364
0 2005 2392
16 2066 2467
1983 1991 2015
2922 1886 1534
0 2927 3471
0 2939 3487
0 2978 3538
0 3050 3628
2089 3033 3348
2470 3745 4095
2502 3750 4095
2608 3765 4095
2778 3795 4095
3003 3844 4095
1821 509 0
1911 504 0
2141 530 0
2488 605 0
2909 734 0
2002 1033 642
2114 1011 588
2427 938 404
2901 783 13
3285 842 0
1300 2095 2316
1523 2084 2251
2048 2048 2047
2692 1981 1733
3369 1881 1358
0 3043 3601
0 3055 3619
0 3091 3667
1604 3090 3515
2819 3023 3114
2736 3795 4095
2765 3799 4095
2831 3818 4095
3002 3845 4095
3196 3894 4095
2786 783 0
2846 770 0
2978 805 0
3226 842 0
3540 936 0
3066 1027 186
3129 1005 145
3323 935 0
3556 942 0
3835 1026 0
2875 2074 1741
2951 2064 1707
3179 2032 1591
3552 1972 1388
4032 1876 1109
1986 3141 3461
2127 3134 3422
2513 3112 3297
3071 3071 3071
3708 3010 2770
3153 3887 4095
3178 3891 4095
3237 3909 4095
3372 3936 4095
3569 3978 4095
3720 1098 0
3772 1075 0
3866 1096 0
4032 1142 0
4095 1358 328
3985 1192 0
4037 1165 0
4095 1215 0
4095 1366 304
4095 1676 790
4026 2062 1274
4072 2053 1255
4095 2073 1280
4095 2190 1456
4095 2366 1709
3688 3117 2867
3745 3111 2844
3921 3092 2762
4095 3090 2693
4095 3199 2857
3701 4020 4095
3724 4023 4095
3778 4039 4095
3898 4063 4095
4095 4095 4095
