Grading Edition presets/AB - Lab B almost = A.3dl
#25pt 3DLUT created by 3D LUT Creator Pro (c) Oleg Sharonov
#Copyright Oleg Sharonov
#IMAGEPROFILE sRGB IEC61966-2.1 v.2.10
#INPUTGAMMA sRGB IEC61966-2.1 v.2.10
#OUTPUTGAMMA sRGB IEC61966-2.1 v.2.10
0 43 86 128 171 214 256 299 341 384 427 469 512 555 597 640 682 725 768 810 853 896 938 981 1023 
0 0 0
87 0 45
139 0 78
225 0 126
326 0 183
431 0 233
540 0 267
657 0 302
759 0 343
862 0 394
966 0 451
1071 0 508
1177 0 566
1283 0 625
1390 0 682
1493 0 740
1600 0 798
1704 0 855
1813 0 914
1917 0 973
2022 0 1030
2127 0 1088
2233 0 1147
2338 0 1206
2444 0 1265
0 155 189
0 165 228
142 139 278
339 87 347
503 29 394
624 0 409
706 0 406
793 0 417
881 0 448
972 0 492
1066 0 537
1161 0 584
1258 0 633
1356 0 686
1458 0 739
1558 0 792
1659 0 845
1759 0 899
1858 0 955
1960 0 1011
2063 0 1067
2167 0 1123
2271 0 1178
2371 0 1235
2477 0 1293
0 316 367
0 324 388
0 334 423
174 316 468
401 278 503
596 214 533
766 126 564
912 32 596
1019 0 604
1101 0 619
1185 0 651
1270 0 686
1359 0 725
1448 0 766
1542 0 813
1636 0 861
1732 0 909
1827 0 958
1926 0 1009
2022 0 1061
2122 0 1115
2220 0 1168
2323 0 1222
2420 0 1275
2523 0 1331
0 475 560
0 481 577
0 488 601
0 499 643
110 499 685
442 461 704
667 409 731
856 343 762
1008 276 791
1200 103 815
1336 0 823
1410 0 838
1493 0 863
1576 0 891
1661 0 924
1745 0 963
1835 0 1005
1925 0 1047
2016 0 1091
2110 0 1138
2202 0 1186
2297 0 1237
2393 0 1287
2494 0 1338
2589 0 1389
0 639 727
0 643 746
0 647 771
0 655 799
0 665 842
58 672 891
468 639 911
727 594 930
936 537 962
1097 488 989
1299 379 1010
1500 183 1033
1652 0 1052
1727 0 1063
1805 0 1081
1886 0 1103
1967 0 1134
2050 0 1169
2137 0 1205
2222 0 1243
2312 0 1284
2400 0 1329
2491 0 1375
2585 0 1422
2676 0 1469
0 802 891
0 805 909
0 808 936
0 814 968
0 822 997
0 832 1043
13 842 1097
479 815 1117
769 775 1136
1000 725 1161
1179 679 1189
1390 594 1208
1600 467 1228
1791 289 1250
1934 94 1274
2041 0 1291
2120 0 1304
2194 0 1323
2276 0 1350
2358 0 1379
2442 0 1410
2525 0 1445
2609 0 1485
2696 0 1528
2786 0 1571
0 967 1057
0 968 1076
0 970 1099
0 974 1129
0 980 1164
0 990 1197
0 1000 1244
0 1011 1304
474 990 1323
800 954 1342
1056 909 1360
1255 863 1390
1476 790 1407
1695 690 1426
1903 554 1445
2055 442 1467
2198 295 1491
2339 45 1517
2435 0 1530
2508 0 1548
2585 0 1568
2668 0 1593
2750 0 1622
2832 0 1657
2917 0 1695
0 1130 1227
0 1131 1245
0 1133 1264
0 1136 1292
0 1141 1324
0 1147 1362
0 1157 1395
0 1167 1443
0 1179 1506
449 1166 1529
821 1131 1549
1097 1090 1567
1326 1043 1590
1558 977 1607
1784 891 1624
1999 783 1642
2173 681 1662
2317 586 1684
2461 464 1708
2603 289 1733
2738 3 1759
2820 0 1773
2902 0 1792
2980 0 1813
3057 0 1840
0 1294 1394
0 1294 1412
0 1296 1433
0 1297 1456
0 1302 1484
0 1307 1519
0 1314 1558
0 1324 1593
0 1335 1644
0 1346 1705
401 1340 1735
831 1307 1755
1130 1268 1774
1384 1222 1792
1636 1159 1807
1870 1083 1824
2091 989 1841
2288 889 1859
2435 814 1880
2580 726 1901
2723 618 1924
2865 479 1949
3000 297 1974
3134 0 2002
3213 0 2016
0 1457 1562
0 1458 1579
0 1458 1598
0 1460 1624
0 1463 1650
0 1468 1681
0 1474 1715
0 1482 1755
0 1492 1794
0 1502 1846
0 1514 1905
316 1514 1941
830 1483 1962
1155 1446 1981
1424 1404 1999
1710 1338 2008
1952 1268 2024
2180 1185 2040
2398 1086 2058
2550 1020 2077
2696 948 2097
2842 864 2118
3001 742 2141
3125 650 2165
3260 510 2190
0 1621 1731
0 1621 1745
0 1622 1763
0 1623 1786
0 1625 1817
0 1629 1845
0 1634 1877
0 1642 1913
0 1649 1953
0 1659 1993
0 1669 2045
0 1681 2103
174 1688 2146
817 1658 2168
1173 1623 2187
1459 1583 2206
1786 1513 2209
2030 1450 2223
2265 1374 2240
2489 1285 2256
2662 1214 2274
2811 1151 2294
2958 1081 2314
3124 975 2335
3254 900 2358
0 1784 1900
0 1785 1913
0 1785 1927
0 1786 1948
0 1788 1976
0 1791 2009
0 1795 2040
0 1801 2074
0 1808 2111
0 1817 2150
0 1826 2195
0 1836 2245
0 1848 2304
90 1857 2353
792 1833 2373
1183 1799 2393
1487 1761 2412
1867 1684 2412
2106 1629 2423
2348 1558 2439
2577 1477 2455
2773 1400 2473
2923 1344 2491
3072 1282 2511
3241 1191 2531
0 1948 2068
0 1948 2080
0 1948 2093
0 1950 2114
0 1951 2137
0 1954 2168
0 1956 2202
0 1961 2237
0 1968 2272
0 1975 2310
0 1984 2350
0 1993 2394
0 2004 2446
0 2016 2505
0 2026 2561
751 2007 2579
1184 1975 2600
1509 1938 2619
1932 1858 2616
2188 1803 2625
2427 1740 2639
2662 1664 2655
2881 1582 2672
3033 1531 2690
3184 1475 2708
0 2112 2236
0 2112 2247
0 2112 2260
0 2113 2277
0 2114 2301
0 2116 2327
0 2119 2360
0 2123 2397
0 2128 2435
0 2135 2470
0 2142 2508
0 2151 2549
0 2161 2597
0 2172 2648
0 2183 2705
0 2195 2768
691 2182 2785
1176 2150 2806
1528 2114 2825
1976 2036 2822
2271 1974 2828
2505 1919 2839
2745 1848 2855
2975 1768 2871
3142 1713 2888
0 2275 2401
0 2275 2411
0 2276 2425
0 2276 2443
0 2277 2464
0 2279 2489
0 2282 2518
0 2285 2552
0 2289 2592
0 2294 2632
0 2301 2669
0 2309 2708
0 2318 2751
0 2327 2800
0 2339 2847
0 2350 2905
0 2362 2969
605 2356 2990
1161 2325 3012
1546 2289 3030
2017 2214 3027
2353 2145 3030
2590 2092 3041
2826 2029 3054
3061 1954 3070
0 2439 2568
0 2439 2577
0 2440 2589
0 2440 2604
0 2441 2627
0 2442 2652
0 2445 2680
0 2447 2710
0 2451 2747
0 2455 2788
0 2461 2830
0 2468 2867
0 2476 2907
0 2485 2951
0 2494 3006
0 2506 3049
0 2518 3108
0 2530 3171
478 2530 3196
1134 2500 3218
1558 2464 3236
2054 2390 3233
2433 2315 3233
2675 2264 3243
2905 2208 3254
0 2603 2734
0 2603 2742
0 2603 2753
0 2603 2767
0 2605 2788
0 2606 2813
0 2608 2842
0 2610 2870
0 2613 2903
0 2617 2941
0 2622 2984
0 2627 3029
0 2635 3067
0 2643 3107
0 2652 3151
0 2661 3208
0 2673 3257
0 2685 3307
0 2696 3367
349 2702 3402
1096 2675 3423
1565 2638 3441
2088 2566 3438
2510 2485 3435
2759 2435 3446
0 2766 2900
0 2767 2907
0 2767 2917
0 2767 2931
0 2768 2951
0 2769 2974
0 2771 3000
0 2773 3031
0 2776 3062
0 2779 3096
0 2783 3135
0 2788 3179
0 2794 3226
0 2802 3265
0 2810 3307
0 2820 3352
0 2829 3414
0 2839 3460
0 2852 3510
0 2864 3570
252 2871 3609
1046 2849 3629
1570 2811 3646
2118 2741 3643
2557 2662 3640
0 2931 3068
0 2931 3075
0 2931 3084
0 2931 3097
0 2931 3113
0 2933 3135
0 2934 3159
0 2936 3189
0 2938 3220
0 2942 3254
0 2946 3291
0 2950 3331
0 2955 3374
0 2961 3425
0 2969 3465
0 2978 3508
0 2986 3553
0 2995 3616
0 3007 3670
0 3019 3716
0 3031 3767
94 3040 3817
979 3023 3835
1567 2985 3851
2145 2916 3848
0 3094 3234
0 3094 3241
0 3094 3249
0 3095 3262
0 3095 3278
0 3096 3298
0 3098 3322
0 3099 3348
0 3102 3378
0 3104 3412
0 3108 3446
0 3112 3484
0 3117 3527
0 3123 3572
0 3128 3621
0 3136 3665
0 3145 3707
0 3154 3758
0 3162 3818
0 3173 3875
0 3185 3921
0 3198 3970
0 3209 4024
891 3198 4041
1561 3159 4056
0 3258 3399
0 3258 3406
0 3258 3413
0 3259 3426
0 3259 3442
0 3260 3461
0 3261 3483
0 3262 3508
0 3265 3537
0 3267 3568
0 3270 3603
0 3274 3640
0 3278 3679
0 3284 3723
0 3289 3769
0 3295 3820
0 3303 3864
0 3311 3907
0 3321 3960
0 3329 4021
0 3339 4079
52 3348 4095
575 3354 4095
1008 3353 4095
1351 3347 4095
0 3422 3566
0 3421 3570
0 3422 3578
0 3422 3589
0 3422 3604
0 3423 3624
0 3424 3645
0 3426 3670
0 3428 3697
0 3430 3727
0 3433 3760
0 3436 3796
0 3440 3834
0 3445 3874
0 3450 3917
0 3456 3965
0 3462 4017
0 3470 4065
10 3477 4095
445 3480 4095
1068 3469 4095
1360 3464 4095
1507 3467 4095
1668 3470 4095
1808 3474 4095
0 3585 3732
0 3586 3737
0 3585 3743
0 3586 3754
0 3587 3769
0 3587 3786
0 3588 3807
0 3589 3832
0 3591 3859
0 3593 3886
0 3596 3918
0 3599 3953
0 3602 3988
0 3606 4029
0 3612 4069
16 3616 4095
580 3613 4095
1053 3603 4095
1344 3596 4095
1554 3591 4095
1731 3587 4095
1911 3582 4095
2045 3580 4095
2158 3583 4095
2263 3587 4095
0 3749 3898
0 3749 3903
0 3750 3910
0 3750 3919
0 3750 3931
0 3751 3947
0 3752 3968
0 3753 3992
0 3754 4019
0 3756 4046
0 3759 4077
0 3761 4095
377 3760 4095
927 3748 4095
1321 3733 4095
1525 3725 4095
1694 3718 4095
1879 3709 4095
2036 3702 4095
2142 3700 4095
2239 3700 4095
2372 3696 4095
2473 3695 4095
2584 3693 4095
2651 3699 4095
0 3913 4064
0 3913 4069
0 3913 4075
0 3913 4083
0 3914 4095
0 3915 4095
0 3915 4095
744 3902 4095
955 3896 4095
1325 3878 4095
1428 3874 4095
1659 3860 4095
1845 3848 4095
1958 3842 4095
2097 3833 4095
2220 3825 4095
2355 3816 4095
2447 3813 4095
2533 3810 4095
2634 3806 4095
2722 3803 4095
2808 3803 4095
2873 3805 4095
2962 3804 4095
3029 3807 4095
142 10 0
245 0 23
276 0 84
334 0 145
430 0 203
517 0 245
610 0 278
704 0 312
800 0 356
898 0 408
1000 0 464
1103 0 520
1206 0 576
1306 0 633
1412 0 691
1514 0 747
1617 0 804
1724 0 862
1827 0 920
1931 0 978
2036 0 1035
2140 0 1093
2246 0 1151
2351 0 1209
2452 0 1268
132 168 149
171 171 171
304 136 243
442 84 318
578 26 369
679 0 384
753 0 399
835 0 423
921 0 458
1006 0 501
1098 0 546
1187 0 593
1282 0 642
1379 0 693
1476 0 745
1576 0 798
1674 0 852
1775 0 904
1876 0 960
1974 0 1015
2077 0 1071
2181 0 1127
2284 0 1183
2384 0 1239
2487 0 1296
81 332 354
119 334 369
168 336 389
330 314 436
500 271 478
673 201 516
822 113 553
958 23 590
1053 0 605
1129 0 623
1211 0 656
1295 0 692
1382 0 731
1470 0 772
1560 0 819
1654 0 866
1748 0 914
1841 0 963
1939 0 1013
2035 0 1066
2136 0 1119
2233 0 1173
2334 0 1225
2432 0 1279
2531 0 1335
0 496 570
0 501 588
39 504 603
123 505 624
314 493 651
545 455 678
735 403 715
907 337 751
1049 269 783
1229 103 810
1359 0 822
1434 0 839
1513 0 865
1596 0 894
1678 0 927
1765 0 967
1849 0 1009
1940 0 1051
2030 0 1095
2122 0 1141
2215 0 1190
2310 0 1240
2405 0 1291
2500 0 1341
2597 0 1392
0 654 734
0 658 756
0 662 780
0 669 811
68 674 840
280 669 863
568 634 888
790 590 916
984 532 950
1134 484 981
1325 377 1004
1523 183 1028
1670 0 1049
1743 0 1062
1820 0 1082
1900 0 1105
1981 0 1136
2062 0 1171
2150 0 1207
2236 0 1246
2325 0 1286
2413 0 1331
2503 0 1378
2592 0 1424
2687 0 1472
0 815 894
0 817 914
0 819 943
0 825 975
0 834 1008
0 842 1053
212 843 1073
578 812 1098
833 771 1119
1046 722 1150
1214 676 1180
1415 593 1202
1621 467 1223
1808 291 1246
1949 94 1272
2055 0 1289
2133 0 1304
2210 0 1324
2290 0 1351
2369 0 1380
2454 0 1412
2538 0 1447
2621 0 1488
2708 0 1530
2793 0 1573
0 977 1059
0 979 1079
0 980 1103
0 984 1137
0 990 1171
0 999 1205
0 1009 1255
174 1012 1285
572 988 1307
862 951 1328
1099 906 1350
1287 861 1381
1500 789 1401
1715 689 1420
1920 554 1441
2069 443 1464
2210 297 1489
2351 48 1515
2442 0 1528
2521 0 1548
2598 0 1569
2679 0 1595
2758 0 1622
2839 0 1658
2921 0 1696
0 1139 1227
0 1140 1246
0 1141 1268
0 1144 1296
0 1149 1331
0 1155 1369
0 1165 1403
0 1175 1452
110 1181 1495
553 1163 1515
880 1129 1536
1141 1087 1556
1357 1041 1582
1580 977 1602
1803 891 1619
2015 783 1638
2186 681 1659
2329 587 1682
2472 465 1705
2613 291 1731
2747 6 1758
2833 0 1774
2909 0 1791
2992 0 1814
3068 0 1842
0 1301 1396
0 1301 1415
0 1303 1435
0 1304 1459
0 1309 1489
0 1314 1525
0 1321 1566
0 1331 1600
0 1341 1653
29 1350 1703
514 1338 1722
890 1305 1744
1173 1266 1764
1417 1220 1783
1657 1159 1802
1888 1082 1819
2107 989 1837
2300 890 1856
2446 815 1877
2590 727 1899
2733 619 1922
2874 482 1947
3008 302 1973
3141 0 2000
3224 0 2016
0 1464 1564
0 1464 1580
0 1465 1600
0 1466 1626
0 1470 1653
0 1474 1684
0 1480 1720
0 1487 1762
0 1498 1801
0 1507 1851
0 1519 1911
449 1513 1929
889 1481 1951
1197 1444 1972
1457 1402 1991
1730 1338 2002
1969 1268 2019
2195 1185 2036
2411 1085 2054
2560 1021 2074
2706 948 2094
2851 865 2116
3007 745 2139
3133 652 2163
3268 513 2189
0 1627 1732
0 1627 1746
0 1627 1763
0 1629 1788
0 1630 1818
0 1634 1847
0 1640 1880
0 1647 1915
0 1654 1958
0 1663 1998
0 1674 2052
0 1686 2113
347 1687 2136
878 1657 2158
1213 1622 2179
1490 1582 2198
1803 1514 2203
2047 1450 2219
2280 1374 2236
2502 1285 2253
2672 1214 2271
2820 1152 2291
2967 1081 2312
3131 977 2333
3260 903 2356
