Grading Edition presets/AB - Lab B=A.3dl
#25pt 3DLUT created by 3D LUT Creator Pro (c) Oleg Sharonov
#Copyright Oleg Sharonov
#IMAGEPROFILE sRGB IEC61966-2.1 v.2.10
#INPUTGAMMA sRGB IEC61966-2.1 v.2.10
#OUTPUTGAMMA sRGB IEC61966-2.1 v.2.10
0 128 256 384 512 640 768 896 1023
0 0 0
152 32 0
398 123 0
662 252 0
1005 322 0
1346 381 0
1685 431 0
2011 490 0
2331 558 0
0 472 593
0 500 629
596 478 443
1048 406 155
1375 370 0
1636 414 0
1917 457 0
2204 510 0
2481 595 0
0 955 1159
0 969 1178
0 1003 1221
739 1000 1095
1321 948 828
1767 880 577
2170 786 326
2558 653 19
2830 662 0
0 1438 1726
0 1447 1738
0 1469 1765
0 1506 1812
766 1520 1746
1522 1474 1477
2041 1418 1214
2487 1350 962
2899 1265 716
0 1922 2294
0 1928 2302
0 1943 2322
0 1970 2356
0 2009 2404
659 2039 2397
1660 1996 2128
2264 1946 1860
2760 1888 1599
0 2406 2861
0 2410 2866
0 2422 2883
0 2442 2909
0 2471 2945
0 2512 2996
235 2558 3046
1741 2517 2780
2441 2470 2510
0 2889 3428
0 2893 3432
0 2902 3446
0 2918 3467
0 2942 3496
0 2974 3536
0 3015 3589
0 3065 3655
1766 3037 3431
0 3373 3995
0 3375 3998
0 3383 4008
0 3396 4027
0 3416 4053
0 3442 4082
103 3474 4095
776 3503 4095
1234 3533 4095
2400 3727 4095
2402 3729 4095
2433 3732 4095
2484 3737 4095
2542 3747 4095
2607 3762 4095
2696 3780 4095
2810 3802 4095
2926 3830 4095
356 100 0
423 136 0
578 217 0
825 289 0
1128 339 0
1436 394 0
1754 443 0
2066 504 0
2375 571 0
267 527 602
512 512 512
839 474 345
1186 406 87
1460 388 0
1711 423 0
1981 464 0
2243 538 0
2522 609 0
0 995 1207
0 1008 1222
174 1033 1238
965 997 1018
1436 946 782
1845 879 548
2229 786 306
2606 653 3
2863 677 0
0 1463 1754
0 1472 1766
0 1493 1794
0 1530 1841
999 1517 1689
1627 1472 1436
2110 1417 1186
2538 1350 942
2940 1265 701
0 1940 2314
0 1946 2323
0 1961 2341
0 1987 2375
0 2026 2424
931 2037 2352
1760 1995 2095
2328 1945 1834
2807 1887 1580
0 2419 2876
0 2423 2882
0 2435 2898
0 2455 2923
0 2485 2961
0 2525 3010
706 2556 3011
1839 2516 2752
2502 2469 2488
0 2900 3439
0 2903 3443
0 2912 3455
0 2928 3479
0 2952 3509
0 2984 3548
0 3025 3601
0 3075 3667
1865 3036 3407
0 3382 4005
0 3384 4008
0 3392 4018
0 3405 4037
0 3424 4061
0 3449 4090
158 3481 4095
791 3510 4095
1288 3537 4095
2431 3730 4095
2434 3733 4095
2440 3738 4095
2496 3743 4095
2548 3754 4095
2636 3766 4095
2724 3784 4095
2817 3808 4095
2950 3833 4095
790 287 0
841 297 0
963 316 0
1147 351 0
1380 386 0
1638 430 0
1917 475 0
2201 532 0
2485 603 0
988 518 328
1063 505 289
1229 471 177
1469 403 0
1652 431 0
1868 470 0
2109 513 0
2363 569 0
2625 636 0
612 1050 1173
756 1043 1129
1024 1024 1023
1345 992 868
1682 944 683
2025 877 482
2372 785 252
2723 652 0
2952 702 0
0 1526 1826
0 1534 1836
0 1554 1863
815 1545 1759
1396 1512 1562
1858 1469 1345
2273 1415 1120
2664 1348 895
3043 1264 665
0 1984 2364
0 1990 2373
0 2005 2392
0 2030 2425
16 2066 2467
1370 2032 2249
1983 1991 2015
2480 1943 1773
2922 1886 1534
0 2453 2915
0 2457 2922
0 2468 2935
0 2488 2962
0 2517 2997
0 2557 3048
1252 2552 2927
2060 2513 2683
2647 2467 2432
0 2927 3471
0 2930 3475
0 2939 3487
0 2955 3509
0 2978 3538
0 3010 3578
0 3050 3628
996 3072 3596
2089 3033 3348
0 3403 4029
0 3406 4034
0 3413 4042
0 3427 4062
0 3445 4083
58 3470 4095
553 3496 4095
1031 3522 4095
1401 3551 4095
2470 3745 4095
2496 3744 4095
2502 3750 4095
2557 3754 4095
2608 3765 4095
2692 3777 4095
2778 3795 4095
2870 3819 4095
3003 3844 4095
1309 403 0
1352 396 0
1426 411 0
1564 420 0
1737 446 0
1942 482 0
2171 526 0
2414 585 0
2667 655 0
1530 514 84
1574 501 61
1679 468 0
1805 461 0
1952 485 0
2131 520 0
2335 565 0
2559 619 0
2790 695 0
1416 1039 882
1469 1033 858
1593 1016 794
1784 986 691
2026 941 552
2301 876 383
2600 784 152
2874 719 0
3078 781 0
956 1573 1744
1050 1568 1718
1254 1556 1650
1536 1536 1536
1853 1506 1386
2186 1465 1211
2525 1413 1021
2868 1347 819
3214 1263 604
0 2061 2450
0 2066 2458
0 2080 2476
697 2081 2427
1360 2057 2274
1863 2026 2092
2307 1987 1890
2719 1940 1676
3112 1884 1458
0 2512 2982
0 2516 2986
0 2526 3000
0 2546 3026
0 2574 3065
991 2578 2994
1806 2546 2791
2385 2508 2571
2879 2464 2342
0 2974 3524
0 2977 3528
0 2985 3540
0 3001 3560
0 3024 3591
0 3055 3631
0 3095 3681
1671 3066 3479
2420 3029 3249
0 3442 4072
0 3444 4075
0 3451 4084
0 3463 4095
116 3481 4095
664 3497 4095
955 3521 4095
1243 3548 4095
1597 3574 4095
2588 3764 4095
2590 3766 4095
2619 3769 4095
2649 3776 4095
2721 3783 4095
2780 3798 4095
2865 3816 4095
2954 3839 4095
3085 3863 4095
1821 509 0
1855 497 0
1911 504 0
2004 518 0
2141 530 0
2302 562 0
2488 605 0
2690 665 0
2909 734 0
2015 557 0
2050 541 0
2098 548 0
2181 562 0
2306 571 0
2453 602 0
2623 646 0
2813 702 0
3020 769 0
2002 1033 642
2035 1027 628
2114 1011 588
2246 982 514
2427 938 404
2648 874 245
2901 783 13
3097 789 0
3285 842 0
1818 1561 1446
1858 1557 1430
1956 1546 1384
2115 1528 1304
2325 1499 1193
2573 1461 1056
2848 1410 898
3142 1345 721
3451 1261 516
1300 2095 2316
1367 2092 2298
1523 2084 2251
1760 2069 2167
2048 2048 2047
2362 2018 1901
2692 1981 1733
3029 1936 1551
3369 1881 1358
0 2597 3074
0 2601 3082
0 2612 3096
708 2611 3056
1373 2593 2938
1888 2569 2788
2347 2539 2615
2775 2502 2423
3181 2460 2220
0 3043 3601
0 3046 3607
0 3055 3619
0 3069 3637
0 3091 3667
324 3116 3687
1604 3090 3515
2274 3059 3322
2819 3023 3114
171 3496 4095
343 3497 4095
374 3503 4095
657 3509 4095
941 3518 4095
1108 3537 4095
1347 3556 4095
1559 3583 4095
2133 3579 4019
2736 3795 4095
2738 3797 4095
2765 3799 4095
2794 3806 4095
2831 3818 4095
2920 3828 4095
3002 3845 4095
3088 3868 4095
3196 3894 4095
2315 631 0
2345 615 0
2387 620 0
2455 636 0
2552 661 0
2689 676 0
2839 720 0
3013 770 0
3205 827 0
2458 676 0
2474 677 0
2523 667 0
2589 680 0
2681 701 0
2811 715 0
2955 752 0
3120 800 0
3303 857 0
2542 1029 431
2565 1023 422
2623 1008 393
2723 980 330
2864 936 222
3044 872 45
3220 838 0
3370 878 0
3539 928 0
2449 1553 1186
2475 1549 1175
2539 1539 1143
2649 1521 1086
2803 1495 1003
2995 1457 894
3220 1407 760
3471 1343 600
3743 1260 398
2204 2083 2015
2236 2080 2002
2316 2073 1968
2451 2059 1905
2635 2039 1814
2858 2012 1699
3111 1976 1562
3387 1932 1408
3679 1878 1240
1643 2618 2889
1695 2616 2875
1818 2609 2840
2014 2598 2776
2268 2582 2682
2559 2559 2559
2873 2531 2416
3199 2496 2253
3533 2455 2076
0 3134 3700
0 3138 3706
0 3146 3718
872 3138 3663
1457 3124 3571
1953 3105 3449
2410 3081 3301
2841 3051 3134
3254 3017 2951
1096 3548 4095
1157 3547 4095
1168 3554 4095
1284 3559 4095
1401 3571 4095
1513 3588 4095
1730 3604 4095
2167 3602 4032
2758 3572 3847
2934 3834 4095
2936 3836 4095
2942 3842 4095
2970 3848 4095
3022 3857 4095
3087 3869 4095
3166 3886 4095
3265 3905 4095
3369 3930 4095
2786 783 0
2814 764 0
2846 770 0
2902 781 0
2978 805 0
3100 805 0
3226 842 0
3372 887 0
3540 936 0
2895 825 0
2909 825 0
2956 809 0
3009 819 0
3084 838 0
3183 865 0
3323 871 0
3465 913 0
3630 957 0
3066 1027 186
3084 1020 177
3129 1005 145
3208 978 74
3323 935 0
3424 942 0
3556 942 0
3687 980 0
3835 1026 0
3014 1547 958
3034 1543 950
3081 1534 928
3165 1517 886
3285 1491 820
3440 1454 728
3627 1405 609
3841 1341 452
4081 1258 220
2875 2074 1741
2897 2071 1732
2951 2064 1707
3045 2051 1659
3179 2032 1591
3349 2006 1500
3552 1972 1388
3781 1929 1257
4032 1876 1109
2580 2605 2584
2607 2603 2574
2674 2598 2548
2788 2587 2499
2950 2572 2424
3152 2551 2326
3385 2524 2208
3643 2491 2071
3921 2450 1919
1986 3141 3461
2027 3139 3450
2127 3134 3422
2292 3125 3372
2513 3112 3297
2777 3094 3196
3071 3071 3071
3383 3043 2929
3708 3010 2770
1610 3614 4095
1647 3614 4095
1655 3620 4095
1776 3622 4095
1858 3632 4095
2066 3637 4084
2504 3617 3960
2928 3593 3814
3340 3564 3651
3153 3887 4095
3155 3889 4095
3178 3891 4095
3206 3897 4095
3237 3909 4095
3309 3918 4095
3372 3936 4095
3469 3954 4095
3569 3978 4095
3253 940 0
3262 944 0
3307 924 0
3352 933 0
3419 948 0
3506 971 0
3632 974 0
3759 1010 0
3909 1048 0
3342 977 0
3354 975 0
3399 954 0
3444 961 0
3506 979 0
3591 999 0
3715 1000 0
3841 1033 0
3984 1073 0
3565 1051 0
3573 1053 0
3619 1028 0
3658 1038 0
3718 1050 0
3799 1067 0
3918 1061 0
4036 1091 0
4095 1200 39
3554 1543 748
3569 1540 742
3607 1530 725
3673 1514 692
3771 1488 634
3900 1451 548
4058 1403 428
4095 1443 462
4095 1601 696
3469 2067 1496
3485 2064 1490
3526 2058 1471
3598 2045 1435
3702 2027 1382
3839 2001 1308
4005 1968 1214
4095 1965 1171
4095 2074 1322
3287 2595 2302
3306 2593 2295
3352 2588 2275
3434 2578 2236
3552 2564 2176
3704 2543 2099
3888 2518 2002
4095 2485 1887
4095 2544 1958
2949 3128 3155
2972 3126 3147
3029 3122 3125
3129 3113 3085
3271 3101 3025
3452 3084 2941
3667 3063 2837
3908 3036 2717
4095 3020 2618
2330 3663 4033
2364 3662 4024
2446 3658 4002
2586 3651 3961
2779 3640 3899
3016 3625 3815
3287 3606 3709
3583 3583 3583
3894 3556 3442
3407 3950 4095
3409 3952 4095
3432 3953 4095
3457 3959 4095
3492 3969 4095
3543 3981 4095
3615 3996 4095
3694 4015 4095
3790 4038 4095
3720 1098 0
3728 1101 0
3772 1075 0
3808 1085 0
3866 1096 0
3940 1115 0
4032 1142 0
4095 1208 23
4095 1358 328
3795 1128 0
3806 1126 0
3847 1103 0
3887 1107 0
3940 1123 0
4013 1141 0
4095 1176 0
4095 1280 161
4095 1449 471
3985 1192 0
3992 1195 0
4037 1165 0
4069 1177 0
4095 1215 0
4095 1275 103
4095 1366 304
4095 1525 576
4095 1676 790
4081 1541 527
4093 1537 522
4095 1528 509
4095 1532 520
4095 1587 616
4095 1669 749
4095 1758 878
4095 1871 1040
4095 1986 1198
4026 2062 1274
4039 2059 1270
4072 2053 1255
4095 2041 1228
4095 2073 1280
4095 2121 1353
4095 2190 1456
4095 2272 1576
4095 2366 1709
3908 2587 2045
3922 2585 2039
3957 2580 2024
4020 2571 1993
4095 2557 1945
4095 2585 1986
4095 2635 2064
4095 2697 2157
4095 2773 2270
3688 3117 2867
3704 3116 2860
3745 3111 2844
3816 3104 2812
3921 3092 2762
4059 3076 2693
4095 3090 2693
4095 3138 2766
4095 3199 2857
3314 3650 3726
3333 3649 3719
3383 3645 3701
3471 3639 3668
3596 3628 3617
3760 3615 3547
3957 3597 3456
4095 3591 3395
4095 3640 3467
3701 4020 4095
3703 4022 4095
3724 4023 4095
3748 4029 4095
3778 4039 4095
3828 4050 4095
3898 4063 4095
3970 4082 4095
4095 4095 4095
