Grading Edition presets/BW - Selective Highlights.3dl
#25pt 3DLUT created by 3D LUT Creator Pro (c) Oleg Sharonov
#Copyright Oleg Sharonov
#IMAGEPROFILE sRGB IEC61966-2.1 v.2.10
#INPUTGAMMA sRGB IEC61966-2.1 v.2.10
#OUTPUTGAMMA sRGB IEC61966-2.1 v.2.10
0 43 86 128 171 214 256 299 341 384 427 469 512 555 597 640 682 725 768 810 853 896 938 981 1023 
0 0 0
10 10 10
19 19 19
36 36 36
58 58 58
87 87 87
126 126 126
174 174 174
220 220 220
269 269 269
314 314 314
356 356 356
393 393 393
430 430 430
467 467 467
504 504 504
542 542 542
579 579 579
618 618 618
656 656 656
696 696 696
735 735 735
774 774 774
815 815 815
855 855 855
81 81 81
220 220 220
165 165 165
152 152 152
165 165 165
189 189 189
220 220 220
255 255 255
291 291 291
328 328 328
362 362 362
396 396 396
428 428 428
462 462 462
497 497 497
532 532 532
568 568 568
604 604 604
641 641 641
678 678 678
715 715 715
754 754 754
793 793 793
832 832 832
872 872 872
189 189 189
293 293 293
406 406 406
360 360 360
314 314 314
316 316 316
328 328 328
347 347 347
369 369 369
393 393 393
419 419 419
446 446 446
475 475 475
505 505 505
537 537 537
569 569 569
602 602 602
636 636 636
671 671 671
707 707 707
743 743 743
779 779 779
817 817 817
855 855 855
894 894 894
316 316 316
381 381 381
509 509 509
639 639 639
570 570 570
493 493 493
470 470 470
467 467 467
472 472 472
485 485 485
503 503 503
522 522 522
545 545 545
569 569 569
596 596 596
624 624 624
654 654 654
685 685 685
717 717 717
750 750 750
784 784 784
819 819 819
855 855 855
891 891 891
928 928 928
417 417 417
470 470 470
552 552 552
733 733 733
877 877 877
803 803 803
702 702 702
637 637 637
618 618 618
613 613 613
616 616 616
625 625 625
639 639 639
656 656 656
676 676 676
699 699 699
725 725 725
751 751 751
779 779 779
809 809 809
840 840 840
872 872 872
906 906 906
940 940 940
975 975 975
516 516 516
560 560 560
629 629 629
752 752 752
967 967 967
1102 1102 1102
1033 1033 1033
922 922 922
824 824 824
784 784 784
766 766 766
760 760 760
761 761 761
768 768 768
780 780 780
796 796 796
815 815 815
835 835 835
859 859 859
885 885 885
912 912 912
940 940 940
971 971 971
1003 1003 1003
1035 1035 1035
616 616 616
654 654 654
711 711 711
807 807 807
977 977 977
1194 1194 1194
1315 1315 1315
1257 1257 1257
1129 1129 1129
1030 1030 1030
963 963 963
932 932 932
916 916 916
909 909 909
909 909 909
915 915 915
926 926 926
940 940 940
957 957 957
977 977 977
1000 1000 1000
1025 1025 1025
1051 1051 1051
1079 1079 1079
1109 1109 1109
718 718 718
751 751 751
800 800 800
879 879 879
999 999 999
1205 1205 1205
1415 1415 1415
1517 1517 1517
1473 1473 1473
1335 1335 1335
1240 1240 1240
1153 1153 1153
1107 1107 1107
1081 1081 1081
1066 1066 1066
1060 1060 1060
1060 1060 1060
1066 1066 1066
1075 1075 1075
1088 1088 1088
1106 1106 1106
1125 1125 1125
1147 1147 1147
1171 1171 1171
1197 1197 1197
823 823 823
852 852 852
894 894 894
960 960 960
1061 1061 1061
1205 1205 1205
1411 1411 1411
1624 1624 1624
1708 1708 1708
1671 1671 1671
1540 1540 1540
1448 1448 1448
1353 1353 1353
1289 1289 1289
1254 1254 1254
1232 1232 1232
1219 1219 1219
1213 1213 1213
1213 1213 1213
1219 1219 1219
1229 1229 1229
1242 1242 1242
1258 1258 1258
1278 1278 1278
1300 1300 1300
932 932 932
957 957 957
992 992 992
1050 1050 1050
1134 1134 1134
1252 1252 1252
1421 1421 1421
1612 1612 1612
1816 1816 1816
1888 1888 1888
1854 1854 1854
1738 1738 1738
1645 1645 1645
1552 1552 1552
1479 1479 1479
1434 1434 1434
1404 1404 1404
1385 1385 1385
1374 1374 1374
1370 1370 1370
1371 1371 1371
1377 1377 1377
1387 1387 1387
1400 1400 1400
1417 1417 1417
1044 1044 1044
1066 1066 1066
1098 1098 1098
1147 1147 1147
1219 1219 1219
1319 1319 1319
1451 1451 1451
1633 1633 1633
1812 1812 1812
1992 1992 1992
2060 2060 2060
2027 2027 2027
1928 1928 1928
1825 1825 1825
1749 1749 1749
1673 1673 1673
1618 1618 1618
1582 1582 1582
1557 1557 1557
1541 1541 1541
1532 1532 1532
1530 1530 1530
1532 1532 1532
1539 1539 1539
1550 1550 1550
1161 1161 1161
1180 1180 1180
1207 1207 1207
1250 1250 1250
1312 1312 1312
1397 1397 1397
1511 1511 1511
1654 1654 1654
1839 1839 1839
2003 2003 2003
2159 2159 2159
2222 2222 2222
2192 2192 2192
2110 2110 2110
2007 2007 2007
1941 1941 1941
1863 1863 1863
1805 1805 1805
1763 1763 1763
1733 1733 1733
1713 1713 1713
1700 1700 1700
1694 1694 1694
1693 1693 1693
1697 1697 1697
1282 1282 1282
1299 1299 1299
1323 1323 1323
1360 1360 1360
1414 1414 1414
1487 1487 1487
1584 1584 1584
1707 1707 1707
1858 1858 1858
2030 2030 2030
2185 2185 2185
2318 2318 2318
2377 2377 2377
2349 2349 2349
2283 2283 2283
2186 2186 2186
2127 2127 2127
2050 2050 2050
1991 1991 1991
1947 1947 1947
1913 1913 1913
1889 1889 1889
1873 1873 1873
1863 1863 1863
1860 1860 1860
1408 1408 1408
1423 1423 1423
1444 1444 1444
1477 1477 1477
1524 1524 1524
1588 1588 1588
1670 1670 1670
1776 1776 1776
1905 1905 1905
2056 2056 2056
2202 2202 2202
2358 2358 2358
2470 2470 2470
2525 2525 2525
2499 2499 2499
2448 2448 2448
2357 2357 2357
2291 2291 2291
2232 2232 2232
2174 2174 2174
2130 2130 2130
2094 2094 2094
2067 2067 2067
2048 2048 2048
2036 2036 2036
1539 1539 1539
1553 1553 1553
1571 1571 1571
1600 1600 1600
1641 1641 1641
1696 1696 1696
1768 1768 1768
1859 1859 1859
1971 1971 1971
2102 2102 2102
2247 2247 2247
2376 2376 2376
2522 2522 2522
2614 2614 2614
2666 2666 2666
2642 2642 2642
2605 2605 2605
2521 2521 2521
2451 2451 2451
2409 2409 2409
2353 2353 2353
2310 2310 2310
2276 2276 2276
2247 2247 2247
2226 2226 2226
1677 1677 1677
1688 1688 1688
1705 1705 1705
1730 1730 1730
1766 1766 1766
1814 1814 1814
1876 1876 1876
1955 1955 1955
2051 2051 2051
2166 2166 2166
2294 2294 2294
2431 2431 2431
2545 2545 2545
2678 2678 2678
2753 2753 2753
2800 2800 2800
2779 2779 2779
2755 2755 2755
2679 2679 2679
2614 2614 2614
2579 2579 2579
2527 2527 2527
2486 2486 2486
2455 2455 2455
2427 2427 2427
1820 1820 1820
1830 1830 1830
1845 1845 1845
1867 1867 1867
1898 1898 1898
1940 1940 1940
1994 1994 1994
2062 2062 2062
2145 2145 2145
2245 2245 2245
2361 2361 2361
2479 2479 2479
2606 2606 2606
2706 2706 2706
2827 2827 2827
2886 2886 2886
2930 2930 2930
2911 2911 2911
2897 2897 2897
2829 2829 2829
2771 2771 2771
2736 2736 2736
2695 2695 2695
2657 2657 2657
2629 2629 2629
1970 1970 1970
1979 1979 1979
1991 1991 1991
2011 2011 2011
2038 2038 2038
2075 2075 2075
2122 2122 2122
2180 2180 2180
2252 2252 2252
2337 2337 2337
2438 2438 2438
2550 2550 2550
2657 2657 2657
2762 2762 2762
2860 2860 2860
2968 2968 2968
3014 3014 3014
3054 3054 3054
3037 3037 3037
3029 3029 3029
2973 2973 2973
2922 2922 2922
2885 2885 2885
2858 2858 2858
2824 2824 2824
2126 2126 2126
2134 2134 2134
2145 2145 2145
2163 2163 2163
2187 2187 2187
2218 2218 2218
2259 2259 2259
2309 2309 2309
2370 2370 2370
2444 2444 2444
2531 2531 2531
2630 2630 2630
2730 2730 2730
2829 2829 2829
2912 2912 2912
3007 3007 3007
3103 3103 3103
3137 3137 3137
3174 3174 3174
3160 3160 3160
3154 3154 3154
3112 3112 3112
3067 3067 3067
3030 3030 3030
3015 3015 3015
2290 2290 2290
2297 2297 2297
2307 2307 2307
2322 2322 2322
2342 2342 2342
2370 2370 2370
2405 2405 2405
2448 2448 2448
2501 2501 2501
2563 2563 2563
2637 2637 2637
2722 2722 2722
2818 2818 2818
2904 2904 2904
2993 2993 2993
3063 3063 3063
3148 3148 3148
3228 3228 3228
3257 3257 3257
3290 3290 3290
3278 3278 3278
3275 3275 3275
3244 3244 3244
3207 3207 3207
3176 3176 3176
2461 2461 2461
2467 2467 2467
2476 2476 2476
2489 2489 2489
2506 2506 2506
2530 2530 2530
2560 2560 2560
2597 2597 2597
2642 2642 2642
2695 2695 2695
2757 2757 2757
2830 2830 2830
2911 2911 2911
2998 2998 2998
3071 3071 3071
3150 3150 3150
3209 3209 3209
3282 3282 3282
3347 3347 3347
3372 3372 3372
3402 3402 3402
3394 3394 3394
3393 3393 3393
3372 3372 3372
3342 3342 3342
2641 2641 2641
2646 2646 2646
2653 2653 2653
2664 2664 2664
2679 2679 2679
2699 2699 2699
2725 2725 2725
2756 2756 2756
2794 2794 2794
2839 2839 2839
2891 2891 2891
2951 2951 2951
3020 3020 3020
3096 3096 3096
3168 3168 3168
3232 3232 3232
3296 3296 3296
3349 3349 3349
3412 3412 3412
3463 3463 3463
3485 3485 3485
3512 3512 3512
3506 3506 3506
3507 3507 3507
3495 3495 3495
2828 2828 2828
2833 2833 2833
2839 2839 2839
2848 2848 2848
2861 2861 2861
2878 2878 2878
2899 2899 2899
2925 2925 2925
2957 2957 2957
2994 2994 2994
3037 3037 3037
3087 3087 3087
3144 3144 3144
3207 3207 3207
3276 3276 3276
3332 3332 3332
3387 3387 3387
3435 3435 3435
3484 3484 3484
3536 3536 3536
3577 3577 3577
3595 3595 3595
3619 3619 3619
3616 3616 3616
3619 3619 3619
3024 3024 3024
3028 3028 3028
3033 3033 3033
3041 3041 3041
3051 3051 3051
3065 3065 3065
3083 3083 3083
3104 3104 3104
3130 3130 3130
3160 3160 3160
3196 3196 3196
3236 3236 3236
3282 3282 3282
3333 3333 3333
3389 3389 3389
3446 3446 3446
3490 3490 3490
3536 3536 3536
3571 3571 3571
3614 3614 3614
3657 3657 3657
3687 3687 3687
3703 3703 3703
3723 3723 3723
3723 3723 3723
3229 3229 3229
3232 3232 3232
3236 3236 3236
3243 3243 3243
3251 3251 3251
3263 3263 3263
3277 3277 3277
3294 3294 3294
3314 3314 3314
3339 3339 3339
3366 3366 3366
3398 3398 3398
3434 3434 3434
3474 3474 3474
3518 3518 3518
3565 3565 3565
3607 3607 3607
3642 3642 3642
3679 3679 3679
3707 3707 3707
3740 3740 3740
3773 3773 3773
3796 3796 3796
3810 3810 3810
3827 3827 3827
16 16 16
3 3 3
23 23 23
42 42 42
68 68 68
100 100 100
139 139 139
183 183 183
230 230 230
276 276 276
322 322 322
360 360 360
396 396 396
434 434 434
470 470 470
506 506 506
543 543 543
582 582 582
619 619 619
658 658 658
696 696 696
735 735 735
776 776 776
815 815 815
856 856 856
149 149 149
171 171 171
165 165 165
168 168 168
183 183 183
206 206 206
235 235 235
269 269 269
306 306 306
337 337 337
370 370 370
403 403 403
436 436 436
468 468 468
503 503 503
537 537 537
573 573 573
609 609 609
645 645 645
682 682 682
720 720 720
758 758 758
797 797 797
835 835 835
873 873 873
168 168 168
289 289 289
320 320 320
324 324 324
322 322 322
326 326 326
339 339 339
356 356 356
377 377 377
401 401 401
427 427 427
454 454 454
482 482 482
512 512 512
542 542 542
575 575 575
607 607 607
641 641 641
675 675 675
711 711 711
747 747 747
783 783 783
821 821 821
859 859 859
896 896 896
291 291 291
403 403 403
440 440 440
518 518 518
506 506 506
485 485 485
472 472 472
470 470 470
478 478 478
490 490 490
506 506 506
527 527 527
550 550 550
575 575 575
601 601 601
629 629 629
658 658 658
689 689 689
721 721 721
754 754 754
788 788 788
822 822 822
858 858 858
894 894 894
929 929 929
394 394 394
496 496 496
540 540 540
639 639 639
756 756 756
722 722 722
682 682 682
634 634 634
619 619 619
615 615 615
618 618 618
628 628 628
643 643 643
660 660 660
681 681 681
703 703 703
728 728 728
755 755 755
783 783 783
812 812 812
843 843 843
875 875 875
909 909 909
943 943 943
976 976 976
488 488 488
599 599 599
640 640 640
722 722 722
863 863 863
990 990 990
955 955 955
893 893 893
813 813 813
783 783 783
767 767 767
761 761 761
763 763 763
771 771 771
783 783 783
798 798 798
817 817 817
838 838 838
862 862 862
888 888 888
914 914 914
944 944 944
974 974 974
1005 1005 1005
1036 1036 1036
587 587 587
688 688 688
739 739 739
796 796 796
940 940 940
1102 1102 1102
1212 1212 1212
1188 1188 1188
1097 1097 1097
1018 1018 1018
959 959 959
931 931 931
916 916 916
910 910 910
911 911 911
917 917 917
928 928 928
942 942 942
960 960 960
980 980 980
1003 1003 1003
1027 1027 1027
1053 1053 1053
1082 1082 1082
1109 1109 1109
694 694 694
781 781 781
826 826 826
894 894 894
982 982 982
1164 1164 1164
1336 1336 1336
1422 1422 1422
1412 1412 1412
1296 1296 1296
1227 1227 1227
1144 1144 1144
1105 1105 1105
1080 1080 1080
1066 1066 1066
1060 1060 1060
1061 1061 1061
1067 1067 1067
1077 1077 1077
1091 1091 1091
1107 1107 1107
1127 1127 1127
1149 1149 1149
1174 1174 1174
1197 1197 1197
802 802 802
878 878 878
917 917 917
981 981 981
1056 1056 1056
1183 1183 1183
1369 1369 1369
1558 1558 1558
1620 1620 1620
1616 1616 1616
1502 1502 1502
1436 1436 1436
1345 1345 1345
1286 1286 1286
1253 1253 1253
1231 1231 1231
1219 1219 1219
1214 1214 1214
1215 1215 1215
1220 1220 1220
1230 1230 1230
1244 1244 1244
1261 1261 1261
1280 1280 1280
1300 1300 1300
913 913 913
981 981 981
1014 1014 1014
1069 1069 1069
1150 1150 1150
1241 1241 1241
1400 1400 1400
1567 1567 1567
1757 1757 1757
1809 1809 1809
1807 1807 1807
1705 1705 1705
1628 1628 1628
1545 1545 1545
1474 1474 1474
1432 1432 1432
1403 1403 1403
1385 1385 1385
1374 1374 1374
1370 1370 1370
1372 1372 1372
1379 1379 1379
1389 1389 1389
1403 1403 1403
1417 1417 1417
1028 1028 1028
1087 1087 1087
1117 1117 1117
1164 1164 1164
1235 1235 1235
1320 1320 1320
1439 1439 1439
1615 1615 1615
1770 1770 1770
1943 1943 1943
1994 1994 1994
1988 1988 1988
1900 1900 1900
1809 1809 1809
1742 1742 1742
1668 1668 1668
1615 1615 1615
1580 1580 1580
1556 1556 1556
1541 1541 1541
1533 1533 1533
1531 1531 1531
1533 1533 1533
1540 1540 1540
1549 1549 1549
