Grading Edition presets/BW - Selective Highlights.3dl
#25pt 3DLUT created by 3D LUT Creator Pro (c) Oleg Sharonov
#Copyright Oleg Sharonov
#IMAGEPROFILE sRGB IEC61966-2.1 v.2.10
#INPUTGAMMA sRGB IEC61966-2.1 v.2.10
#OUTPUTGAMMA sRGB IEC61966-2.1 v.2.10
0 256 512 768 1023
0 0 0
126 126 126
393 393 393
618 618 618
855 855 855
616 616 616
1315 1315 1315
916 916 916
957 957 957
1109 1109 1109
1282 1282 1282
1584 1584 1584
2377 2377 2377
1991 1991 1991
1860 1860 1860
2126 2126 2126
2259 2259 2259
2730 2730 2730
3174 3174 3174
3015 3015 3015
3229 3229 3229
3277 3277 3277
3434 3434 3434
3679 3679 3679
3827 3827 3827
233 233 233
65 65 65
403 403 403
631 631 631
871 871 871
926 926 926
1024 1024 1024
935 935 935
999 999 999
1108 1108 1108
1180 1180 1180
1677 1677 1677
2027 2027 2027
1957 1957 1957
1843 1843 1843
2070 2070 2070
2374 2374 2374
2689 2689 2689
3047 3047 3047
3017 3017 3017
3229 3229 3229
3274 3274 3274
3430 3430 3430
3688 3688 3688
3841 3841 3841
499 499 499
376 376 376
257 257 257
588 588 588
882 882 882
917 917 917
971 971 971
777 777 777
912 912 912
1074 1074 1074
1873 1873 1873
2068 2068 2068
2048 2048 2048
1950 1950 1950
1738 1738 1738
2064 2064 2064
2317 2317 2317
2752 2752 2752
2917 2917 2917
3005 3005 3005
3293 3293 3293
3318 3318 3318
3417 3417 3417
3715 3715 3715
3888 3888 3888
794 794 794
717 717 717
538 538 538
513 513 513
862 862 862
1058 1058 1058
1107 1107 1107
897 897 897
841 841 841
1010 1010 1010
2022 2022 2022
2003 2003 2003
2028 2028 2028
1892 1892 1892
1522 1522 1522
2873 2873 2873
2992 2992 2992
3054 3054 3054
3071 3071 3071
2716 2716 2716
3493 3493 3493
3501 3501 3501
3539 3539 3539
3685 3685 3685
3972 3972 3972
1183 1183 1183
1138 1138 1138
1008 1008 1008
880 880 880
950 950 950
1387 1387 1387
1330 1330 1330
1178 1178 1178
1017 1017 1017
1079 1079 1079
2048 2048 2048
1997 1997 1997
1794 1794 1794
1506 1506 1506
1519 1519 1519
3212 3212 3212
3184 3184 3184
3071 3071 3071
2676 2676 2676
2451 2451 2451
3945 3945 3945
3953 3953 3953
3977 3977 3977
4024 4024 4024
4095 4095 4095
