Grading Edition presets/BW - Selective Highlights.3dl
#25pt 3DLUT created by 3D LUT Creator Pro (c) Oleg Sharonov
#Copyright Oleg Sharonov
#IMAGEPROFILE sRGB IEC61966-2.1 v.2.10
#INPUTGAMMA sRGB IEC61966-2.1 v.2.10
#OUTPUTGAMMA sRGB IEC61966-2.1 v.2.10
0 128 256 384 512 640 768 896 1023
0 0 0
36 36 36
126 126 126
269 269 269
393 393 393
504 504 504
618 618 618
735 735 735
855 855 855
316 316 316
639 639 639
470 470 470
485 485 485
545 545 545
624 624 624
717 717 717
819 819 819
928 928 928
616 616 616
807 807 807
1315 1315 1315
1030 1030 1030
916 916 916
915 915 915
957 957 957
1025 1025 1025
1109 1109 1109
932 932 932
1050 1050 1050
1421 1421 1421
1888 1888 1888
1645 1645 1645
1434 1434 1434
1374 1374 1374
1377 1377 1377
1417 1417 1417
1282 1282 1282
1360 1360 1360
1584 1584 1584
2030 2030 2030
2377 2377 2377
2186 2186 2186
1991 1991 1991
1889 1889 1889
1860 1860 1860
1677 1677 1677
1730 1730 1730
1876 1876 1876
2166 2166 2166
2545 2545 2545
2800 2800 2800
2679 2679 2679
2527 2527 2527
2427 2427 2427
2126 2126 2126
2163 2163 2163
2259 2259 2259
2444 2444 2444
2730 2730 2730
3007 3007 3007
3174 3174 3174
3112 3112 3112
3015 3015 3015
2641 2641 2641
2664 2664 2664
2725 2725 2725
2839 2839 2839
3020 3020 3020
3232 3232 3232
3412 3412 3412
3512 3512 3512
3495 3495 3495
3229 3229 3229
3243 3243 3243
3277 3277 3277
3339 3339 3339
3434 3434 3434
3565 3565 3565
3679 3679 3679
3773 3773 3773
3827 3827 3827
68 68 68
16 16 16
152 152 152
293 293 293
404 404 404
512 512 512
624 624 624
740 740 740
861 861 861
464 464 464
512 512 512
485 485 485
509 509 509
568 568 568
645 645 645
735 735 735
835 835 835
932 932 932
551 551 551
851 851 851
1006 1006 1006
982 982 982
917 917 917
924 924 924
969 969 969
1036 1036 1036
1110 1110 1110
872 872 872
1115 1115 1115
1343 1343 1343
1679 1679 1679
1571 1571 1571
1425 1425 1425
1376 1376 1376
1383 1383 1383
1415 1415 1415
1227 1227 1227
1428 1428 1428
1592 1592 1592
1947 1947 1947
2237 2237 2237
2117 2117 2117
1980 1980 1980
1887 1887 1887
1856 1856 1856
1641 1641 1641
1780 1780 1780
1917 1917 1917
2144 2144 2144
2478 2478 2478
2706 2706 2706
2635 2635 2635
2519 2519 2519
2423 2423 2423
2105 2105 2105
2199 2199 2199
2290 2290 2290
2464 2464 2464
2720 2720 2720
2969 2969 2969
3115 3115 3115
3087 3087 3087
3016 3016 3016
2631 2631 2631
2690 2690 2690
2749 2749 2749
2859 2859 2859
3016 3016 3016
3228 3228 3228
3394 3394 3394
3485 3485 3485
3498 3498 3498
3229 3229 3229
3242 3242 3242
3276 3276 3276
3338 3338 3338
3433 3433 3433
3565 3565 3565
3681 3681 3681
3777 3777 3777
3831 3831 3831
233 233 233
139 139 139
65 65 65
273 273 273
403 403 403
517 517 517
631 631 631
749 749 749
871 871 871
488 488 488
512 512 512
427 427 427
460 460 460
546 546 546
637 637 637
735 735 735
839 839 839
938 938 938
926 926 926
1068 1068 1068
1024 1024 1024
966 966 966
935 935 935
953 953 953
999 999 999
1067 1067 1067
1108 1108 1108
820 820 820
1071 1071 1071
1370 1370 1370
1476 1476 1476
1468 1468 1468
1412 1412 1412
1384 1384 1384
1400 1400 1400
1406 1406 1406
1180 1180 1180
1335 1335 1335
1677 1677 1677
1823 1823 1823
2027 2027 2027
2008 2008 2008
1957 1957 1957
1886 1886 1886
1843 1843 1843
1602 1602 1602
1700 1700 1700
1967 1967 1967
2115 2115 2115
2370 2370 2370
2582 2582 2582
2540 2540 2540
2503 2503 2503
2412 2412 2412
2070 2070 2070
2149 2149 2149
2374 2374 2374
2478 2478 2478
2689 2689 2689
2887 2887 2887
3047 3047 3047
3030 3030 3030
3017 3017 3017
2609 2609 2609
2667 2667 2667
2810 2810 2810
2908 2908 2908
3013 3013 3013
3220 3220 3220
3353 3353 3353
3449 3449 3449
3507 3507 3507
3229 3229 3229
3242 3242 3242
3274 3274 3274
3335 3335 3335
3430 3430 3430
3562 3562 3562
3688 3688 3688
3785 3785 3785
3841 3841 3841
374 374 374
324 324 324
198 198 198
149 149 149
347 347 347
492 492 492
624 624 624
751 751 751
880 880 880
518 518 518
546 546 546
431 431 431
386 386 386
477 477 477
600 600 600
718 718 718
836 836 836
942 942 942
1009 1009 1009
987 987 987
990 990 990
896 896 896
838 838 838
894 894 894
967 967 967
1053 1053 1053
1097 1097 1097
1395 1395 1395
1505 1505 1505
1580 1580 1580
1536 1536 1536
1481 1481 1481
1423 1423 1423
1413 1413 1413
1439 1439 1439
1379 1379 1379
1209 1209 1209
1377 1377 1377
1679 1679 1679
1904 1904 1904
1973 1973 1973
1984 1984 1984
1935 1935 1935
1894 1894 1894
1811 1811 1811
1564 1564 1564
1691 1691 1691
1926 1926 1926
2222 2222 2222
2338 2338 2338
2429 2429 2429
2489 2489 2489
2455 2455 2455
2384 2384 2384
2059 2059 2059
2135 2135 2135
2300 2300 2300
2564 2564 2564
2656 2656 2656
2843 2843 2843
2951 2951 2951
2966 2966 2966
3015 3015 3015
2620 2620 2620
2660 2660 2660
2775 2775 2775
2945 2945 2945
3038 3038 3038
3188 3188 3188
3310 3310 3310
3409 3409 3409
3521 3521 3521
3249 3249 3249
3256 3256 3256
3275 3275 3275
3331 3331 3331
3424 3424 3424
3557 3557 3557
3699 3699 3699
3801 3801 3801
3860 3860 3860
499 499 499
461 461 461
376 376 376
267 267 267
257 257 257
423 423 423
588 588 588
738 738 738
882 882 882
605 605 605
629 629 629
533 533 533
419 419 419
408 408 408
526 526 526
675 675 675
816 816 816
936 936 936
917 917 917
928 928 928
971 971 971
815 815 815
777 777 777
803 803 803
912 912 912
1023 1023 1023
1074 1074 1074
1621 1621 1621
1581 1581 1581
1523 1523 1523
1511 1511 1511
1431 1431 1431
1323 1323 1323
1341 1341 1341
1396 1396 1396
1329 1329 1329
1873 1873 1873
1965 1965 1965
2068 2068 2068
2085 2085 2085
2048 2048 2048
2008 2008 2008
1950 1950 1950
1927 1927 1927
1738 1738 1738
1719 1719 1719
1829 1829 1829
2068 2068 2068
2284 2284 2284
2417 2417 2417
2475 2475 2475
2468 2468 2468
2466 2466 2466
2320 2320 2320
2064 2064 2064
2165 2165 2165
2317 2317 2317
2565 2565 2565
2752 2752 2752
2821 2821 2821
2917 2917 2917
2965 2965 2965
3005 3005 3005
2634 2634 2634
2694 2694 2694
2789 2789 2789
2950 2950 2950
3151 3151 3151
3195 3195 3195
3316 3316 3316
3368 3368 3368
3541 3541 3541
3293 3293 3293
3300 3300 3300
3318 3318 3318
3346 3346 3346
3417 3417 3417
3547 3547 3547
3715 3715 3715
3823 3823 3823
3888 3888 3888
636 636 636
609 609 609
538 538 538
440 440 440
360 360 360
374 374 374
528 528 528
707 707 707
874 874 874
723 723 723
743 743 743
668 668 668
560 560 560
467 467 467
481 481 481
615 615 615
783 783 783
921 921 921
956 956 956
971 971 971
1012 1012 1012
888 888 888
766 766 766
768 768 768
845 845 845
982 982 982
1042 1042 1042
1436 1436 1436
1433 1433 1433
1440 1440 1440
1482 1482 1482
1325 1325 1325
1296 1296 1296
1267 1267 1267
1341 1341 1341
1265 1265 1265
2242 2242 2242
2207 2207 2207
2142 2142 2142
2067 2067 2067
2047 2047 2047
1992 1992 1992
1876 1876 1876
1868 1868 1868
1625 1625 1625
2365 2365 2365
2425 2425 2425
2500 2500 2500
2572 2572 2572
2570 2570 2570
2559 2559 2559
2539 2539 2539
2454 2454 2454
2182 2182 2182
2314 2314 2314
2389 2389 2389
2501 2501 2501
2701 2701 2701
2864 2864 2864
2930 2930 2930
2979 2979 2979
2986 2986 2986
2925 2925 2925
2706 2706 2706
2757 2757 2757
2860 2860 2860
3044 3044 3044
3204 3204 3204
3274 3274 3274
3340 3340 3340
3415 3415 3415
3560 3560 3560
3361 3361 3361
3366 3366 3366
3380 3380 3380
3405 3405 3405
3451 3451 3451
3534 3534 3534
3707 3707 3707
3853 3853 3853
3925 3925 3925
794 794 794
772 772 772
717 717 717
629 629 629
538 538 538
479 479 479
513 513 513
672 672 672
862 862 862
866 866 866
885 885 885
827 827 827
734 734 734
636 636 636
569 569 569
603 603 603
749 749 749
903 903 903
1058 1058 1058
1072 1072 1072
1107 1107 1107
1011 1011 1011
897 897 897
807 807 807
841 841 841
948 948 948
1010 1010 1010
1421 1421 1421
1429 1429 1429
1453 1453 1453
1502 1502 1502
1371 1371 1371
1259 1259 1259
1273 1273 1273
1306 1306 1306
1207 1207 1207
2022 2022 2022
2015 2015 2015
2003 2003 2003
1998 1998 1998
2028 2028 2028
1905 1905 1905
1892 1892 1892
1834 1834 1834
1522 1522 1522
2796 2796 2796
2774 2774 2774
2724 2724 2724
2665 2665 2665
2607 2607 2607
2589 2589 2589
2560 2560 2560
2384 2384 2384
1996 1996 1996
2873 2873 2873
2909 2909 2909
2992 2992 2992
3033 3033 3033
3054 3054 3054
3062 3062 3062
3071 3071 3071
3016 3016 3016
2716 2716 2716
2981 2981 2981
3025 3025 3025
3081 3081 3081
3211 3211 3211
3314 3314 3314
3382 3382 3382
3438 3438 3438
3491 3491 3491
3565 3565 3565
3493 3493 3493
3495 3495 3495
3501 3501 3501
3513 3513 3513
3539 3539 3539
3588 3588 3588
3685 3685 3685
3887 3887 3887
3972 3972 3972
975 975 975
958 958 958
916 916 916
845 845 845
758 758 758
679 679 679
648 648 648
701 701 701
867 867 867
1038 1038 1038
1053 1053 1053
1010 1010 1010
936 936 936
845 845 845
763 763 763
727 727 727
781 781 781
904 904 904
1203 1203 1203
1216 1216 1216
1247 1247 1247
1173 1173 1173
1073 1073 1073
982 982 982
933 933 933
987 987 987
1000 1000 1000
1504 1504 1504
1514 1514 1514
1540 1540 1540
1585 1585 1585
1483 1483 1483
1377 1377 1377
1308 1308 1308
1355 1355 1355
1177 1177 1177
1979 1979 1979
1979 1979 1979
1987 1987 1987
2011 2011 2011
2064 2064 2064
1945 1945 1945
1860 1860 1860
1888 1888 1888
1459 1459 1459
2623 2623 2623
2616 2616 2616
2602 2602 2602
2584 2584 2584
2576 2576 2576
2540 2540 2540
2423 2423 2423
2420 2420 2420
1875 1875 1875
3281 3281 3281
3270 3270 3270
3243 3243 3243
3204 3204 3204
3166 3166 3166
3127 3127 3127
3054 3054 3054
2995 2995 2995
2469 2469 2469
3398 3398 3398
3418 3418 3418
3465 3465 3465
3490 3490 3490
3534 3534 3534
3546 3546 3546
3573 3573 3573
3583 3583 3583
3350 3350 3350
3717 3717 3717
3718 3718 3718
3723 3723 3723
3730 3730 3730
3740 3740 3740
3753 3753 3753
3777 3777 3777
3871 3871 3871
4029 4029 4029
1183 1183 1183
1170 1170 1170
1138 1138 1138
1083 1083 1083
1008 1008 1008
937 937 937
880 880 880
877 877 877
950 950 950
1240 1240 1240
1224 1224 1224
1192 1192 1192
1133 1133 1133
1055 1055 1055
979 979 979
919 919 919
912 912 912
986 986 986
1387 1387 1387
1371 1371 1371
1330 1330 1330
1267 1267 1267
1178 1178 1178
1088 1088 1088
1017 1017 1017
1004 1004 1004
1079 1079 1079
1650 1650 1650
1635 1635 1635
1595 1595 1595
1516 1516 1516
1411 1411 1411
1294 1294 1294
1202 1202 1202
1176 1176 1176
1250 1250 1250
2048 2048 2048
2034 2034 2034
1997 1997 1997
1923 1923 1923
1794 1794 1794
1637 1637 1637
1506 1506 1506
1449 1449 1449
1519 1519 1519
2589 2589 2589
2577 2577 2577
2544 2544 2544
2478 2478 2478
2367 2367 2367
2176 2176 2176
1964 1964 1964
1852 1852 1852
1911 1911 1911
3212 3212 3212
3204 3204 3204
3184 3184 3184
3143 3143 3143
3071 3071 3071
2933 2933 2933
2676 2676 2676
2430 2430 2430
2451 2451 2451
3706 3706 3706
3706 3706 3706
3705 3705 3705
3701 3701 3701
3693 3693 3693
3674 3674 3674
3595 3595 3595
3310 3310 3310
3169 3169 3169
3945 3945 3945
3947 3947 3947
3953 3953 3953
3963 3963 3963
3977 3977 3977
3998 3998 3998
4024 4024 4024
4056 4056 4056
4095 4095 4095
