Grading Edition presets/ColorHarmony - No Yellow.3dl
#25pt 3DLUT created by 3D LUT Creator Pro (c) Oleg Sharonov
#Copyright Oleg Sharonov
#IMAGEPROFILE sRGB IEC61966-2.1 v.2.10
#INPUTGAMMA sRGB IEC61966-2.1 v.2.10
#OUTPUTGAMMA sRGB IEC61966-2.1 v.2.10
0 128 256 384 512 640 768 896 1023
0 0 0
0 0 512
0 0 1022
0 0 1535
0 0 2047
0 0 2559
0 0 3071
0 0 3583
0 0 4095
0 512 0
0 512 512
0 512 1023
0 512 1535
0 512 2048
0 510 2560
0 510 3072
0 510 3585
0 510 4095
0 1023 0
0 1023 512
0 1023 1023
0 1023 1535
0 1023 2048
0 1023 2560
0 1023 3072
0 1023 3585
0 1023 4095
0 1535 0
0 1535 512
0 1536 1023
0 1536 1536
0 1536 2048
0 1536 2560
0 1536 3072
0 1535 3584
0 1535 4095
0 2048 0
0 2048 510
0 2048 1023
0 2047 1535
0 2047 2047
0 2047 2559
0 2047 3072
0 2047 3584
0 2047 4095
0 2559 0
0 2559 510
0 2559 1023
0 2559 1535
0 2559 2047
0 2559 2559
0 2559 3072
0 2559 3584
0 2559 4095
0 3071 0
0 3071 510
0 3071 1023
0 3071 1535
0 3071 2047
0 3071 2559
0 3071 3071
0 3071 3583
0 3071 4095
0 3583 0
0 3583 510
0 3583 1022
0 3583 1535
0 3583 2047
0 3583 2559
0 3583 3071
0 3583 3583
0 3583 4095
0 4095 0
0 4095 509
0 4095 1022
0 4095 1535
0 4095 2047
0 4095 2559
0 4095 3071
0 4095 3583
0 4095 4095
512 0 0
512 0 512
512 0 1023
512 0 1535
512 0 2047
512 0 2559
512 0 3071
512 0 3583
513 0 4095
488 494 431
512 512 512
512 512 1023
512 512 1535
512 512 2046
512 512 2559
512 512 3072
510 510 3584
510 510 4095
673 977 592
512 1023 512
512 1023 1023
512 1023 1535
512 1023 2047
512 1023 2560
512 1023 3073
512 1023 3585
512 1022 4095
769 1489 725
512 1535 512
512 1536 1025
512 1536 1536
512 1536 2048
513 1536 2560
513 1535 3073
512 1535 3585
512 1535 4095
863 2002 834
512 2048 512
512 2047 1024
512 2047 1536
512 2048 2048
513 2047 2560
513 2047 3072
512 2047 3584
512 2047 4095
955 2515 933
512 2559 512
512 2559 1023
512 2559 1535
513 2559 2047
513 2559 2559
513 2559 3072
513 2559 3584
512 2559 4095
1043 3027 1024
512 3071 512
512 3071 1022
512 3071 1535
512 3071 2047
513 3071 2559
513 3071 3071
513 3071 3583
512 3071 4095
1127 3540 1110
510 3583 510
512 3583 1022
512 3583 1534
512 3583 2046
512 3583 2559
513 3583 3071
514 3583 3583
513 3583 4095
1206 4052 1190
510 4095 510
512 4095 1022
512 4095 1534
512 4095 2046
512 4095 2559
512 4095 3071
513 4095 3583
514 4095 4095
1023 0 0
1023 0 512
1023 0 1023
1023 0 1535
1023 0 2047
1023 0 2559
1023 0 3071
1023 0 3583
1024 0 4095
1017 512 84
1023 512 512
1025 512 1025
1025 512 1536
1024 512 2048
1024 512 2561
1023 510 3072
1023 510 3584
1023 510 4095
983 995 887
996 1003 926
1024 1024 1024
1024 1024 1536
1024 1024 2048
1024 1024 2560
1023 1023 3070
1024 1024 3582
1023 1023 4095
1126 1482 1025
1148 1485 1061
1024 1536 1024
1024 1536 1536
1024 1536 2048
1023 1536 2559
1023 1536 3070
1023 1536 3583
1024 1535 4095
1355 1962 1216
1292 1981 1211
1024 2047 1024
1024 2048 1536
1024 2048 2048
1023 2048 2559
1023 2048 3070
1023 2048 3583
1024 2047 4095
1425 2480 1341
1372 2494 1318
1023 2559 1023
1023 2559 1536
1023 2559 2048
1023 2559 2559
1023 2559 3071
1024 2559 3583
1025 2559 4095
1516 2994 1454
1460 3006 1418
1024 3071 1024
1023 3071 1537
1023 3071 2049
1023 3071 2560
1023 3071 3071
1024 3071 3583
1025 3071 4095
1611 3507 1560
1548 3518 1513
1024 3583 1024
1024 3583 1536
1024 3583 2048
1024 3583 2560
1024 3583 3071
1023 3583 3583
1025 3583 4095
1704 4019 1661
1634 4030 1603
1024 4095 1024
1024 4095 1535
1024 4095 2047
1024 4095 2559
1024 4095 3071
1024 4095 3583
1024 4095 4095
1535 0 0
1535 0 512
1535 0 1023
1535 0 1535
1535 0 2047
1535 0 2559
1535 0 3072
1535 0 3583
1535 0 4095
1535 512 0
1535 512 512
1535 512 1024
1535 512 1535
1535 512 2047
1536 512 2560
1535 510 3072
1535 510 3584
1535 510 4095
1481 1027 648
1513 1023 704
1535 1023 1023
1536 1024 1536
1535 1023 2047
1536 1024 2560
1536 1024 3070
1536 1024 3583
1535 1023 4095
1479 1495 1343
1485 1501 1369
1502 1514 1429
1536 1536 1536
1536 1536 2047
1536 1536 2559
1536 1536 3072
1536 1536 3584
1536 1536 4095
1588 1988 1466
1603 1990 1490
1639 1994 1548
1536 2047 1536
1535 2048 2048
1536 2047 2560
1535 2048 3071
1535 2048 3582
1535 2048 4093
1821 2462 1649
1834 2463 1669
1815 2478 1702
1536 2559 1536
1536 2559 2047
1536 2559 2559
1536 2559 3071
1535 2560 3582
1535 2560 4093
2012 2953 1832
1973 2964 1828
1881 2991 1808
1536 3071 1536
1536 3071 2048
1536 3071 2559
1536 3071 3071
1535 3071 3583
1535 3072 4094
2083 3471 1956
2050 3480 1945
1962 3503 1905
1535 3583 1535
1535 3583 2049
1535 3583 2560
1535 3583 3072
1535 3583 3583
1535 3583 4095
2171 3985 2071
2138 3993 2055
2046 4014 1998
1536 4095 1536
1535 4095 2049
1535 4095 2561
1535 4095 3072
1535 4095 3584
1535 4095 4095
2048 0 0
2048 0 512
2048 0 1023
2048 0 1536
2048 0 2048
2048 0 2560
2048 0 3072
2047 0 3584
2047 0 4095
2048 512 0
2048 512 512
2048 512 1024
2048 512 1536
2048 512 2048
2047 512 2559
2047 512 3072
2047 512 3585
2047 510 4095
2048 1024 0
2048 1024 512
2048 1024 1024
2048 1024 1536
2048 1024 2048
2048 1023 2560
2048 1023 3071
2048 1024 3582
2048 1023 4095
1925 1548 1111
1954 1543 1147
2014 1535 1232
2047 1536 1536
2048 1535 2048
2046 1536 2559
2048 1536 3071
2048 1535 3583
2048 1536 4094
1975 1995 1799
1980 1999 1818
1991 2008 1861
2007 2026 1940
2048 2048 2048
2048 2048 2559
2048 2048 3071
2048 2048 3582
2048 2048 4095
2056 2494 1912
2067 2496 1929
2092 2499 1972
2138 2505 2045
2048 2559 2048
2048 2559 2559
2049 2559 3072
2048 2559 3583
2047 2560 4095
2275 2967 2082
2284 2968 2097
2308 2971 2136
2335 2979 2197
2048 3071 2048
2048 3071 2558
2048 3071 3071
2048 3071 3583
2047 3071 4095
2522 3442 2278
2531 3443 2290
2518 3452 2314
2390 3492 2300
2048 3583 2048
2048 3583 2559
2048 3583 3071
2048 3583 3583
2048 3583 4095
2669 3944 2446
2643 3951 2443
2578 3970 2433
2464 4003 2395
2047 4095 2047
2047 4095 2560
2048 4095 3071
2048 4095 3583
2048 4095 4095
2559 0 0
2559 0 512
2559 0 1023
2559 0 1535
2559 0 2047
2559 0 2559
2559 0 3071
2559 0 3583
2559 0 4095
2559 512 0
2559 512 512
2560 512 1023
2559 512 1535
2559 512 2047
2559 512 2559
2559 512 3071
2559 512 3584
2559 512 4095
2559 1024 0
2559 1024 512
2559 1023 1023
2559 1023 1536
2559 1023 2048
2560 1023 2560
2560 1023 3071
2559 1024 3583
2559 1023 4095
2524 1537 758
2539 1536 805
2560 1536 1024
2559 1536 1536
2559 1536 2047
2559 1536 2559
2560 1536 3071
2560 1535 3583
2560 1535 4094
2428 2045 1551
2426 2050 1575
2437 2058 1637
2519 2047 1750
2559 2048 2048
2559 2048 2559
2558 2048 3071
2558 2048 3583
2560 2047 4095
2470 2496 2255
2476 2498 2268
2481 2506 2303
2501 2517 2359
2524 2535 2447
2559 2559 2559
2559 2559 3071
2560 2560 3583
2560 2560 4094
2528 3000 2361
2536 3001 2374
2554 3004 2407
2588 3009 2464
2641 3016 2548
2560 3071 2560
2560 3071 3071
2560 3071 3584
2561 3071 4095
2734 3473 2520
2741 3474 2532
2760 3476 2563
2794 3479 2616
2841 3485 2692
2560 3583 2560
2560 3583 3071
2559 3583 3583
2561 3583 4095
2971 3947 2706
2978 3947 2717
2995 3949 2745
3024 3952 2792
2899 3996 2796
2560 4095 2560
2560 4095 3070
2560 4095 3582
2560 4095 4095
3071 0 0
3071 0 512
3071 0 1023
3071 0 1535
3071 0 2047
3071 0 2559
3071 0 3071
3071 0 3583
3071 0 4095
3071 512 0
3071 512 512
3071 510 1023
3071 510 1535
3071 512 2047
3071 512 2559
3071 513 3071
3071 512 3583
3071 512 4095
3071 1024 0
3071 1024 513
3071 1024 1024
3071 1024 1536
3071 1023 2048
3071 1023 2560
3071 1023 3071
3071 1024 3583
3071 1024 4095
3071 1536 0
3071 1536 512
3072 1535 1024
3071 1536 1536
3071 1536 2048
3071 1536 2560
3071 1536 3071
3072 1535 3584
3072 1535 4094
2987 2052 1302
3000 2051 1327
3032 2047 1392
3071 2047 1536
3071 2048 2048
3071 2048 2558
3071 2048 3071
3071 2048 3583
3072 2047 4095
2952 2535 1996
2951 2539 2013
2947 2549 2057
2939 2568 2133
3026 2559 2263
3071 2560 2560
3071 2560 3071
3070 2560 3583
3070 2560 4095
2966 2996 2711
2971 2997 2721
2975 3003 2750
2986 3014 2795
3007 3028 2861
3043 3045 2955
3071 3071 3071
3071 3071 3583
3071 3071 4094
3003 3505 2812
3009 3506 2822
3023 3509 2849
3049 3514 2894
3089 3520 2961
3147 3528 3053
3072 3583 3072
3072 3583 3583
3071 3583 4094
3196 3979 2962
3203 3980 2971
3218 3982 2996
3245 3985 3041
3286 3989 3105
3339 3996 3189
3072 4095 3072
3071 4095 3584
3071 4095 4095
3583 0 0
3583 0 513
3583 0 1024
3583 0 1535
3583 0 2047
3583 0 2559
3583 0 3071
3583 0 3583
3583 0 4095
3583 512 0
3584 510 510
3584 510 1023
3584 510 1535
3584 510 2047
3583 512 2559
3583 512 3071
3583 514 3583
3583 512 4095
3583 1024 0
3583 1024 513
3583 1024 1024
3583 1024 1536
3583 1024 2048
3583 1024 2560
3583 1024 3071
3583 1023 3583
3583 1024 4095
3583 1536 0
3583 1536 512
3583 1536 1024
3583 1535 1535
3583 1536 2048
3583 1535 2560
3583 1535 3072
3583 1535 3583
3584 1535 4095
3561 2048 763
3569 2048 811
3583 2047 1024
3584 2047 1535
3582 2048 2048
3583 2048 2558
3583 2048 3071
3583 2048 3583
3583 2048 4095
3439 2570 1789
3452 2568 1807
3483 2564 1853
3530 2559 1934
3581 2560 2061
3583 2560 2560
3583 2560 3070
3583 2559 3583
3582 2560 4094
3473 3027 2445
3472 3030 2458
3470 3038 2491
3465 3052 2549
3455 3075 2637
3535 3070 2776
3583 3071 3071
3582 3072 3582
3583 3071 4094
3461 3496 3167
3466 3497 3174
3470 3502 3199
3476 3511 3237
3500 3521 3290
3512 3540 3368
3556 3556 3465
3583 3583 3583
3583 3583 4094
3480 4010 3264
3485 4011 3272
3497 4013 3294
3516 4018 3332
3547 4024 3387
3593 4031 3462
3654 4039 3561
3583 4095 3583
3584 4095 4095
4095 0 0
4095 0 513
4095 0 1024
4095 0 1535
4095 0 2046
4095 0 2559
4095 0 3071
4095 0 3583
4095 0 4095
4095 512 0
4095 510 510
4095 510 1023
4095 510 1535
4095 510 2047
4095 512 2559
4095 512 3071
4095 512 3583
4094 514 4094
4095 1023 0
4095 1024 512
4095 1024 1024
4095 1023 1535
4095 1023 2048
4095 1023 2559
4095 1024 3071
4095 1024 3583
4095 1024 4095
4095 1536 0
4095 1536 512
4095 1536 1024
4095 1536 1536
4095 1536 2048
4095 1536 2561
4095 1535 3072
4095 1535 3584
4095 1535 4095
4095 2048 0
4095 2048 512
4095 2048 1024
4095 2047 1535
4095 2048 2048
4095 2047 2560
4095 2047 3072
4095 2048 3583
4095 2048 4095
4030 2562 1414
4038 2561 1436
4058 2560 1495
4089 2559 1603
4095 2559 2047
4094 2560 2560
4095 2560 3069
4094 2560 3582
4094 2560 4094
3883 3090 2250
3895 3088 2265
3924 3084 2301
3971 3077 2366
4032 3070 2460
4089 3071 2593
4094 3072 3072
4095 3071 3583
4095 3071 4095
3991 3519 2895
3991 3522 2906
3990 3528 2932
3987 3540 2979
3982 3558 3047
3971 3583 3143
4044 3582 3288
4095 3583 3583
4094 3583 4094
3956 3996 3623
3961 3997 3629
3966 4000 3649
3971 4008 3683
3981 4019 3730
4006 4031 3791
4017 4052 3880
4067 4067 3975
4095 4095 4095
