Grading Edition presets/ColorHarmony - No Yellow.3dl
#25pt 3DLUT created by 3D LUT Creator Pro (c) Oleg Sharonov
#Copyright Oleg Sharonov
#IMAGEPROFILE sRGB IEC61966-2.1 v.2.10
#INPUTGAMMA sRGB IEC61966-2.1 v.2.10
#OUTPUTGAMMA sRGB IEC61966-2.1 v.2.10
0 256 512 768 1023
0 0 0
0 0 1022
0 0 2047
0 0 3071
0 0 4095
0 1023 0
0 1023 1023
0 1023 2048
0 1023 3072
0 1023 4095
0 2048 0
0 2048 1023
0 2047 2047
0 2047 3072
0 2047 4095
0 3071 0
0 3071 1023
0 3071 2047
0 3071 3071
0 3071 4095
0 4095 0
0 4095 1022
0 4095 2047
0 4095 3071
0 4095 4095
1023 0 0
1023 0 1023
1023 0 2047
1023 0 3071
1024 0 4095
983 995 887
1024 1024 1024
1024 1024 2048
1023 1023 3070
1023 1023 4095
1355 1962 1216
1024 2047 1024
1024 2048 2048
1023 2048 3070
1024 2047 4095
1516 2994 1454
1024 3071 1024
1023 3071 2049
1023 3071 3071
1025 3071 4095
1704 4019 1661
1024 4095 1024
1024 4095 2047
1024 4095 3071
1024 4095 4095
2048 0 0
2048 0 1023
2048 0 2048
2048 0 3072
2047 0 4095
2048 1024 0
2048 1024 1024
2048 1024 2048
2048 1023 3071
2048 1023 4095
1975 1995 1799
1991 2008 1861
2048 2048 2048
2048 2048 3071
2048 2048 4095
2275 2967 2082
2308 2971 2136
2048 3071 2048
2048 3071 3071
2047 3071 4095
2669 3944 2446
2578 3970 2433
2047 4095 2047
2048 4095 3071
2048 4095 4095
3071 0 0
3071 0 1023
3071 0 2047
3071 0 3071
3071 0 4095
3071 1024 0
3071 1024 1024
3071 1023 2048
3071 1023 3071
3071 1024 4095
2987 2052 1302
3032 2047 1392
3071 2048 2048
3071 2048 3071
3072 2047 4095
2966 2996 2711
2975 3003 2750
3007 3028 2861
3071 3071 3071
3071 3071 4094
3196 3979 2962
3218 3982 2996
3286 3989 3105
3072 4095 3072
3071 4095 4095
4095 0 0
4095 0 1024
4095 0 2046
4095 0 3071
4095 0 4095
4095 1023 0
4095 1024 1024
4095 1023 2048
4095 1024 3071
4095 1024 4095
4095 2048 0
4095 2048 1024
4095 2048 2048
4095 2047 3072
4095 2048 4095
3883 3090 2250
3924 3084 2301
4032 3070 2460
4094 3072 3072
4095 3071 4095
3956 3996 3623
3966 4000 3649
3981 4019 3730
4017 4052 3880
4095 4095 4095
