Grading Edition presets/ColorHarmony - No Yellow.3dl
#25pt 3DLUT created by 3D LUT Creator Pro (c) Oleg Sharonov
#Copyright Oleg Sharonov
#IMAGEPROFILE sRGB IEC61966-2.1 v.2.10
#INPUTGAMMA sRGB IEC61966-2.1 v.2.10
#OUTPUTGAMMA sRGB IEC61966-2.1 v.2.10
0 43 86 128 171 214 256 299 341 384 427 469 512 555 597 640 682 725 768 810 853 896 938 981 1023 
0 0 0
0 0 177
0 0 341
0 0 512
0 0 683
0 0 850
0 0 1022
0 0 1196
0 0 1362
0 0 1535
0 0 1704
0 0 1877
0 0 2047
0 0 2217
0 0 2388
0 0 2559
0 0 2731
0 0 2900
0 0 3071
0 0 3243
0 0 3413
0 0 3583
0 0 3754
0 0 3925
0 0 4095
0 171 0
0 171 171
0 171 341
0 171 513
0 171 684
0 171 852
0 171 1024
0 171 1197
0 171 1364
0 171 1536
0 171 1707
0 171 1878
0 171 2048
0 171 2219
0 168 2390
0 168 2560
0 168 2730
0 168 2902
0 168 3072
0 168 3244
0 168 3414
0 168 3584
0 168 3755
0 168 3926
0 168 4095
0 339 0
0 341 171
0 339 339
0 341 510
0 341 682
0 341 855
0 341 1026
0 341 1194
0 341 1366
0 341 1538
0 341 1708
0 339 1877
0 341 2050
0 341 2220
0 341 2391
0 339 2561
0 339 2731
0 339 2901
0 339 3072
0 339 3243
0 339 3413
0 339 3584
0 339 3755
0 339 3925
0 339 4095
0 512 0
0 512 171
0 512 341
0 512 512
0 512 682
0 512 852
0 512 1023
0 512 1195
0 512 1366
0 512 1535
0 512 1708
0 512 1878
0 512 2048
0 510 2218
0 510 2389
0 510 2560
0 510 2732
0 510 2902
0 510 3072
0 510 3244
0 510 3414
0 510 3585
0 510 3755
0 510 3926
0 510 4095
0 682 0
0 683 171
0 682 341
0 682 512
0 682 682
0 683 854
0 682 1023
0 682 1195
0 683 1366
0 682 1535
0 683 1708
0 682 1877
0 682 2048
0 682 2218
0 682 2389
0 682 2560
0 682 2732
0 682 2902
0 682 3072
0 682 3244
0 681 3414
0 681 3585
0 681 3755
0 681 3926
0 681 4095
0 853 0
0 853 171
0 853 341
0 853 512
0 853 683
0 852 852
0 853 1023
0 853 1195
0 852 1365
0 853 1536
0 852 1706
0 853 1878
0 852 2048
0 852 2219
0 852 2389
0 852 2560
0 852 2732
0 852 2902
0 852 3073
0 852 3244
0 852 3414
0 852 3585
0 852 3756
0 852 3926
0 852 4095
0 1023 0
0 1024 171
0 1023 341
0 1023 512
0 1023 682
0 1023 852
0 1023 1023
0 1024 1195
0 1024 1365
0 1023 1535
0 1024 1707
0 1023 1877
0 1023 2048
0 1023 2218
0 1023 2389
0 1023 2560
0 1023 2731
0 1023 2902
0 1023 3072
0 1023 3243
0 1023 3414
0 1023 3585
0 1023 3755
0 1023 3926
0 1023 4095
0 1195 0
0 1195 171
0 1195 341
0 1195 512
0 1195 683
0 1195 853
0 1195 1023
0 1195 1195
0 1194 1365
0 1195 1536
0 1194 1707
0 1195 1877
0 1195 2048
0 1194 2219
0 1194 2389
0 1194 2560
0 1194 2731
0 1194 2902
0 1194 3073
0 1194 3243
0 1194 3414
0 1194 3585
0 1194 3756
0 1194 3926
0 1194 4095
0 1365 0
0 1365 171
0 1365 341
0 1365 512
0 1365 682
0 1365 853
0 1365 1024
0 1365 1194
0 1365 1365
0 1365 1536
0 1365 1707
0 1365 1877
0 1365 2048
0 1365 2219
0 1365 2390
0 1365 2560
0 1365 2731
0 1364 2901
0 1364 3072
0 1364 3243
0 1364 3413
0 1364 3584
0 1364 3755
0 1364 3926
0 1364 4095
0 1535 0
0 1535 171
0 1535 341
0 1535 512
0 1535 682
0 1536 853
0 1536 1023
0 1535 1194
0 1536 1365
0 1536 1536
0 1536 1707
0 1535 1877
0 1536 2048
0 1536 2219
0 1536 2389
0 1536 2560
0 1535 2731
0 1536 2902
0 1536 3072
0 1535 3243
0 1535 3413
0 1535 3584
0 1535 3755
0 1535 3926
0 1535 4095
0 1707 0
0 1706 171
0 1707 341
0 1706 512
0 1706 682
0 1707 852
0 1707 1023
0 1706 1194
0 1707 1365
0 1707 1536
0 1707 1707
0 1706 1877
0 1707 2048
0 1707 2219
0 1707 2389
0 1707 2560
0 1706 2731
0 1707 2901
0 1706 3072
0 1706 3243
0 1706 3413
0 1706 3584
0 1706 3755
0 1706 3925
0 1706 4095
0 1877 0
0 1877 171
0 1877 341
0 1877 512
0 1877 682
0 1877 852
0 1877 1023
0 1877 1194
0 1877 1365
0 1877 1536
0 1877 1706
0 1877 1877
0 1877 2048
0 1877 2219
0 1877 2389
0 1877 2560
0 1877 2730
0 1877 2901
0 1877 3072
0 1877 3242
0 1877 3413
0 1876 3584
0 1876 3755
0 1876 3925
0 1876 4095
0 2048 0
0 2048 171
0 2048 339
0 2048 510
0 2048 682
0 2047 852
0 2048 1023
0 2048 1194
0 2048 1365
0 2047 1535
0 2047 1706
0 2048 1877
0 2047 2047
0 2047 2218
0 2047 2389
0 2047 2559
0 2048 2731
0 2047 2901
0 2047 3072
0 2048 3243
0 2047 3413
0 2047 3584
0 2047 3755
0 2047 3925
0 2047 4095
0 2218 0
0 2218 168
0 2218 339
0 2218 510
0 2218 682
0 2218 852
0 2218 1023
0 2218 1194
0 2218 1365
0 2218 1535
0 2218 1706
0 2218 1877
0 2218 2047
0 2218 2218
0 2218 2389
0 2218 2559
0 2218 2730
0 2218 2901
0 2218 3071
0 2218 3242
0 2218 3413
0 2218 3584
0 2218 3754
0 2218 3925
0 2218 4095
0 2389 0
0 2389 168
0 2389 339
0 2389 510
0 2389 682
0 2389 852
0 2389 1023
0 2389 1194
0 2389 1364
0 2389 1535
0 2389 1706
0 2389 1877
0 2389 2048
0 2389 2218
0 2389 2389
0 2389 2560
0 2389 2730
0 2389 2901
0 2389 3072
0 2389 3242
0 2389 3413
0 2389 3584
0 2389 3754
0 2389 3925
0 2388 4095
0 2559 0
0 2560 168
0 2559 339
0 2559 510
0 2559 682
0 2559 852
0 2559 1023
0 2560 1194
0 2559 1364
0 2559 1535
0 2559 1706
0 2559 1877
0 2559 2047
0 2559 2218
0 2559 2389
0 2559 2559
0 2559 2730
0 2559 2901
0 2559 3072
0 2559 3242
0 2559 3413
0 2559 3584
0 2559 3754
0 2559 3925
0 2559 4095
0 2730 0
0 2730 168
0 2730 339
0 2730 510
0 2730 682
0 2730 852
0 2730 1023
0 2730 1194
0 2730 1364
0 2730 1535
0 2730 1706
0 2730 1877
0 2730 2047
0 2730 2218
0 2730 2389
0 2730 2559
0 2730 2730
0 2730 2901
0 2730 3071
0 2730 3242
0 2730 3413
0 2730 3584
0 2730 3754
0 2730 3925
0 2730 4095
0 2900 0
0 2900 168
0 2900 339
0 2900 510
0 2900 681
0 2901 852
0 2900 1023
0 2900 1194
0 2901 1364
0 2900 1535
0 2901 1706
0 2900 1876
0 2900 2047
0 2901 2218
0 2900 2388
0 2901 2559
0 2901 2730
0 2900 2900
0 2900 3071
0 2900 3242
0 2900 3413
0 2900 3583
0 2900 3754
0 2900 3925
0 2900 4095
0 3071 0
0 3071 168
0 3071 339
0 3071 510
0 3071 681
0 3071 852
0 3071 1023
0 3071 1194
0 3071 1364
0 3071 1535
0 3071 1706
0 3071 1876
0 3071 2047
0 3071 2218
0 3071 2388
0 3071 2559
0 3071 2730
0 3071 2900
0 3071 3071
0 3071 3242
0 3071 3413
0 3071 3583
0 3071 3754
0 3071 3925
0 3071 4095
0 3242 0
0 3242 168
0 3242 339
0 3242 510
0 3242 681
0 3242 852
0 3242 1023
0 3242 1194
0 3242 1364
0 3242 1535
0 3242 1706
0 3242 1876
0 3242 2047
0 3242 2218
0 3242 2388
0 3242 2559
0 3242 2730
0 3242 2900
0 3242 3071
0 3242 3242
0 3242 3412
0 3242 3583
0 3242 3754
0 3242 3925
0 3242 4095
0 3412 0
0 3412 168
0 3412 339
0 3412 510
0 3412 681
0 3412 852
0 3412 1023
0 3412 1194
0 3412 1364
0 3412 1535
0 3412 1705
0 3412 1876
0 3412 2047
0 3412 2218
0 3412 2388
0 3412 2559
0 3412 2730
0 3412 2900
0 3412 3071
0 3412 3242
0 3412 3412
0 3412 3583
0 3412 3754
0 3412 3925
0 3412 4095
0 3583 0
0 3583 168
0 3583 339
0 3583 510
0 3583 681
0 3583 852
0 3583 1022
0 3583 1193
0 3583 1364
0 3583 1535
0 3583 1705
0 3583 1876
0 3583 2047
0 3583 2218
0 3583 2388
0 3583 2559
0 3583 2730
0 3583 2900
0 3583 3071
0 3583 3242
0 3583 3412
0 3583 3583
0 3583 3754
0 3583 3924
0 3583 4095
0 3754 0
0 3754 168
0 3754 339
0 3754 510
0 3754 681
0 3754 852
0 3754 1022
0 3754 1193
0 3754 1364
0 3754 1535
0 3754 1705
0 3754 1876
0 3754 2047
0 3754 2218
0 3754 2388
0 3754 2559
0 3754 2730
0 3754 2900
0 3754 3071
0 3754 3242
0 3754 3412
0 3754 3583
0 3754 3754
0 3754 3924
0 3754 4095
0 3924 0
0 3924 168
0 3924 339
0 3924 509
0 3924 681
0 3924 851
0 3924 1022
0 3924 1193
0 3924 1364
0 3924 1535
0 3924 1705
0 3924 1876
0 3924 2047
0 3924 2218
0 3924 2388
0 3924 2559
0 3924 2730
0 3924 2900
0 3924 3071
0 3924 3242
0 3924 3412
0 3924 3583
0 3924 3754
0 3924 3924
0 3924 4095
0 4095 0
0 4095 168
0 4095 339
0 4095 509
0 4095 680
0 4095 851
0 4095 1022
0 4095 1193
0 4095 1364
0 4095 1535
0 4095 1705
0 4095 1876
0 4095 2047
0 4095 2218
0 4095 2388
0 4095 2559
0 4095 2730
0 4095 2900
0 4095 3071
0 4095 3242
0 4095 3412
0 4095 3583
0 4095 3754
0 4095 3924
0 4095 4095
168 0 0
171 0 171
168 0 337
168 0 509
171 0 680
171 0 857
171 0 1021
171 0 1194
171 0 1367
171 0 1533
171 0 1708
171 0 1876
171 0 2046
171 0 2220
171 0 2387
171 0 2561
171 0 2731
171 0 2900
171 0 3070
171 0 3242
171 0 3412
171 0 3583
171 0 3753
171 0 3924
171 0 4095
158 161 129
171 171 171
171 171 341
171 171 512
171 171 682
171 171 851
171 171 1022
171 171 1195
171 171 1367
171 171 1535
171 171 1705
171 171 1878
171 171 2047
171 171 2218
171 171 2389
171 171 2559
171 171 2732
171 171 2901
168 168 3072
168 168 3243
168 168 3413
168 168 3584
168 168 3755
168 168 3925
168 168 4095
206 324 174
171 339 171
171 341 341
171 341 513
171 341 684
171 341 852
171 341 1025
171 341 1194
171 341 1366
171 341 1537
171 341 1708
171 341 1879
171 341 2049
171 339 2220
171 339 2391
171 339 2561
171 339 2731
171 339 2903
171 339 3073
171 339 3243
171 339 3415
171 339 3585
171 339 3756
168 337 3925
168 337 4095
278 485 235
171 512 171
171 512 341
171 512 512
171 512 682
171 513 853
171 513 1025
171 512 1194
171 512 1366
171 512 1537
171 512 1708
171 512 1877
171 512 2050
171 512 2220
171 512 2391
171 510 2562
171 510 2732
171 510 2901
171 510 3074
171 510 3244
171 510 3414
171 510 3585
171 509 3755
171 509 3926
171 509 4095
302 657 276
171 682 171
171 682 341
171 682 512
171 682 682
171 683 853
171 683 1024
171 682 1194
171 683 1366
171 683 1537
171 682 1708
171 682 1877
171 682 2049
171 682 2220
171 682 2391
171 682 2561
171 682 2732
171 682 2903
171 682 3074
171 681 3244
171 681 3414
171 681 3585
171 681 3755
171 681 3926
171 680 4095
334 828 314
171 853 171
171 852 341
171 853 512
171 853 683
171 853 853
171 852 1023
171 853 1195
171 853 1366
171 852 1536
171 853 1708
171 852 1878
171 852 2048
171 852 2219
171 852 2389
171 852 2560
171 852 2732
171 852 2902
171 852 3073
171 852 3244
171 852 3414
171 852 3585
171 852 3756
171 852 3926
171 852 4095
365 999 349
171 1023 171
171 1023 341
171 1023 512
171 1023 682
171 1024 853
171 1024 1024
171 1023 1194
171 1024 1365
171 1024 1536
171 1024 1707
171 1023 1877
171 1024 2049
171 1023 2220
171 1023 2390
171 1023 2561
171 1023 2731
171 1023 2902
171 1023 3073
171 1023 3243
171 1023 3414
171 1023 3585
171 1023 3755
171 1023 3926
171 1022 4095
396 1170 383
171 1195 171
171 1195 341
171 1195 512
171 1195 682
171 1194 852
171 1194 1023
171 1195 1195
171 1194 1365
171 1194 1536
171 1194 1707
171 1194 1877
171 1194 2048
171 1194 2219
171 1194 2389
171 1194 2560
171 1194 2732
171 1194 2902
171 1194 3073
171 1194 3244
171 1194 3414
171 1194 3585
171 1194 3756
171 1194 3926
171 1194 4095
425 1341 414
171 1365 171
171 1365 341
171 1365 512
171 1365 682
171 1365 852
171 1365 1023
171 1365 1194
171 1365 1365
171 1365 1536
171 1365 1707
171 1365 1878
171 1365 2048
171 1365 2219
171 1365 2390
171 1365 2560
171 1365 2731
171 1365 2902
171 1365 3073
171 1364 3243
171 1364 3414
171 1364 3585
171 1364 3756
171 1364 3926
171 1364 4095
455 1512 445
171 1536 171
171 1536 341
171 1536 512
171 1536 682
171 1536 852
171 1536 1023
171 1536 1194
171 1536 1365
171 1536 1536
171 1536 1707
171 1536 1877
171 1536 2048
171 1536 2219
171 1536 2389
171 1536 2560
171 1535 2731
171 1536 2902
171 1535 3072
171 1535 3243
171 1535 3414
171 1535 3585
171 1535 3756
171 1535 3926
171 1535 4095
482 1683 474
171 1707 171
171 1707 339
171 1707 512
171 1707 682
171 1706 852
171 1707 1023
171 1707 1194
171 1706 1364
171 1706 1535
171 1706 1706
171 1707 1877
171 1706 2048
171 1706 2219
171 1706 2389
171 1706 2560
171 1706 2731
171 1706 2901
171 1706 3072
171 1706 3243
171 1706 3414
171 1706 3585
171 1706 3755
171 1706 3926
171 1706 4095
