Grading Edition presets/Gradient Map - Sepia Orange.3dl
#25pt 3DLUT created by 3D LUT Creator Pro (c) Oleg Sharonov
#Copyright Oleg Sharonov
#INPUTGAMMA sRGB IEC61966-2.1 v.2.10
#IMAGEPROFILE sRGB IEC61966-2.1 v.2.10
#OUTPUTGAMMA sRGB IEC61966-2.1 v.2.10
0 43 86 128 171 214 256 299 341 384 427 469 512 555 597 640 682 725 768 810 853 896 938 981 1023 
0 0 0
20 9 0
46 21 0
87 41 0
143 67 0
214 102 0
304 145 0
397 191 0
486 235 0
578 282 0
669 329 0
761 377 0
852 426 0
942 475 9
1033 526 19
1124 577 31
1215 629 46
1303 681 63
1393 735 82
1482 789 105
1569 844 129
1656 900 156
1743 957 187
1829 1015 220
1913 1074 256
194 92 0
214 102 0
240 114 0
280 134 0
331 158 0
389 187 0
455 220 0
527 256 0
600 294 0
679 334 0
759 376 0
841 420 0
924 465 7
1008 512 16
1093 559 27
1179 608 40
1264 658 55
1350 709 73
1436 761 93
1522 814 115
1606 868 140
1691 923 168
1775 979 199
1859 1035 233
1942 1096 269
423 204 0
437 211 0
455 220 0
482 234 0
518 251 0
563 275 0
614 301 0
669 329 0
731 362 0
798 397 0
867 434 2
939 473 8
1015 515 17
1092 559 27
1170 603 39
1249 649 52
1329 697 68
1410 745 86
1491 795 107
1573 847 130
1654 899 156
1736 952 184
1817 1007 215
1898 1063 250
1978 1125 287
661 325 0
671 330 0
684 337 0
703 347 0
729 361 0
761 377 0
800 398 0
846 423 0
896 450 4
950 479 9
1010 513 16
1072 547 24
1137 584 33
1205 624 44
1276 665 57
1348 708 72
1422 753 89
1496 799 108
1572 846 130
1649 895 154
1726 945 180
1803 997 210
1880 1050 242
1957 1108 276
2034 1170 314
898 451 4
906 455 5
915 460 6
930 468 7
950 479 9
976 494 12
1005 510 15
1041 530 20
1083 553 25
1127 578 32
1177 607 40
1230 638 49
1286 671 59
1345 706 72
1407 744 86
1472 783 102
1539 825 120
1606 868 140
1676 913 163
1746 959 188
1817 1007 215
1889 1057 246
1961 1111 278
2034 1170 314
2106 1233 353
1134 583 33
1140 586 34
1147 590 35
1159 597 37
1174 606 39
1194 617 43
1219 631 47
1248 649 52
1281 668 58
1318 690 66
1360 715 75
1405 742 85
1453 772 97
1505 804 111
1559 838 126
1616 874 143
1676 913 163
1736 952 184
1798 994 208
1863 1038 234
1927 1085 263
1993 1137 294
2060 1192 328
2127 1252 365
2195 1316 405
1367 719 77
1372 722 78
1377 726 79
1387 731 81
1399 739 84
1415 749 88
1436 761 93
1460 776 99
1488 793 106
1518 812 115
1554 835 125
1592 859 136
1633 885 149
1677 914 164
1725 945 180
1774 978 199
1827 1013 219
1881 1051 242
1936 1092 267
1994 1137 294
2053 1186 324
2113 1239 357
2173 1295 392
2235 1355 430
2297 1419 471
1597 862 137
1601 864 139
1605 867 140
1613 872 142
1624 879 146
1637 888 150
1654 898 156
1674 912 162
1696 926 170
1723 944 179
1752 963 190
1785 985 203
1820 1009 217
1859 1035 233
1900 1064 250
1943 1097 270
1988 1133 292
2036 1172 316
2086 1215 342
2137 1261 370
2190 1311 402
2244 1364 436
2299 1420 472
2355 1480 511
2411 1543 551
1820 1009 217
1824 1011 218
1828 1014 220
1834 1018 222
1843 1024 226
1855 1033 231
1869 1042 237
1885 1054 244
1905 1068 253
1927 1085 263
1952 1104 274
1980 1126 287
2011 1151 303
2044 1178 320
2079 1209 338
2117 1243 359
2157 1279 382
2198 1319 407
2242 1362 435
2288 1409 465
2334 1458 497
2383 1511 530
2432 1566 566
2482 1625 604
2534 1686 644
2039 1174 317
2042 1177 318
2045 1180 320
2051 1184 323
2058 1191 327
2068 1199 332
2080 1210 339
2094 1222 346
2111 1237 356
2130 1254 366
2151 1274 379
2175 1296 393
2201 1322 409
2230 1350 427
2260 1381 447
2293 1415 468
2328 1451 492
2365 1491 518
2403 1534 545
2443 1579 574
2484 1627 606
2527 1678 639
2571 1732 674
2616 1788 711
2662 1846 750
2251 1372 441
2253 1373 442
2256 1377 444
2260 1381 447
2267 1387 451
2275 1396 456
2285 1406 463
2297 1419 471
2312 1434 481
2328 1451 492
2346 1471 505
2366 1493 519
2389 1518 535
2414 1546 553
2441 1576 573
2469 1609 594
2499 1644 617
2531 1683 642
2565 1724 669
2600 1767 697
2636 1813 728
2674 1862 760
2713 1913 794
2753 1967 830
2794 2022 868
2454 1592 583
2456 1593 584
2459 1597 586
2462 1601 589
2467 1607 593
2475 1615 598
2483 1626 605
2493 1637 613
2506 1652 622
2520 1669 633
2535 1688 645
2553 1709 659
2573 1733 675
2594 1759 692
2617 1788 711
2641 1820 732
2667 1853 754
2695 1890 779
2725 1929 805
2755 1970 832
2787 2013 862
2820 2059 893
2855 2107 926
2890 2157 961
2926 2208 998
2648 1828 738
2650 1830 739
2652 1833 741
2655 1837 744
2660 1843 747
2665 1851 752
2673 1860 759
2682 1872 767
2692 1886 776
2704 1901 786
2717 1919 798
2733 1939 812
2749 1961 827
2767 1986 843
2787 2013 862
2808 2042 882
2831 2074 904
2855 2108 927
2881 2144 952
2908 2182 979
2935 2222 1008
2964 2264 1038
2994 2308 1070
3025 2354 1104
3056 2401 1140
2831 2074 904
2833 2076 905
2835 2079 907
2837 2083 909
2841 2088 913
2847 2095 918
2853 2104 924
2860 2114 932
2869 2127 940
2879 2141 950
2891 2158 962
2904 2176 975
2918 2196 989
2933 2219 1006
2950 2244 1023
2969 2270 1043
2988 2299 1064
3009 2330 1086
3031 2363 1111
3054 2397 1137
3078 2434 1164
3103 2472 1194
3129 2511 1225
3155 2552 1258
3183 2595 1292
3003 2321 1080
3004 2323 1081
3006 2325 1083
3008 2329 1085
3011 2333 1089
3016 2340 1094
3021 2348 1100
3027 2357 1107
3035 2369 1115
3044 2382 1125
3053 2396 1136
3064 2413 1148
3076 2431 1163
3090 2452 1178
3104 2474 1195
3120 2497 1214
3136 2523 1234
3154 2550 1256
3173 2579 1280
3192 2610 1304
3213 2642 1331
3235 2676 1360
3257 2711 1389
3279 2747 1421
3303 2784 1454
3162 2563 1266
3163 2564 1267
3164 2566 1269
3166 2569 1271
3169 2574 1275
3173 2579 1279
3177 2586 1285
3183 2595 1292
3189 2604 1300
3196 2616 1309
3204 2628 1320
3214 2643 1332
3224 2659 1345
3235 2677 1360
3247 2696 1377
3260 2717 1395
3274 2739 1414
3289 2763 1435
3305 2788 1458
3322 2814 1482
3339 2842 1508
3358 2871 1535
3377 2901 1564
3396 2931 1595
3416 2963 1627
3307 2791 1461
3308 2792 1461
3309 2794 1463
3311 2796 1466
3313 2800 1469
3316 2805 1473
3320 2811 1479
3324 2817 1485
3329 2826 1493
3336 2836 1502
3342 2847 1512
3350 2859 1524
3359 2872 1537
3368 2887 1551
3379 2904 1567
3390 2921 1584
3401 2940 1603
3414 2960 1623
3428 2981 1645
3442 3002 1668
3457 3026 1693
3472 3049 1719
3489 3074 1747
3505 3099 1776
3523 3125 1807
3438 2997 1662
3439 2998 1664
3440 3000 1665
3441 3002 1667
3443 3005 1671
3446 3009 1675
3449 3014 1680
3453 3019 1686
3457 3026 1694
3462 3034 1702
3468 3043 1712
3475 3053 1723
3482 3064 1736
3490 3076 1750
3499 3089 1764
3508 3103 1781
3518 3118 1799
3529 3134 1818
3540 3151 1839
3552 3168 1862
3565 3186 1885
3578 3205 1911
3592 3224 1937
3606 3244 1966
3621 3263 1995
3558 3176 1872
3558 3177 1873
3559 3178 1874
3560 3179 1876
3562 3182 1879
3564 3185 1883
3567 3189 1888
3570 3193 1894
3574 3198 1901
3578 3204 1910
3583 3211 1919
3588 3219 1930
3594 3227 1942
3601 3236 1955
3608 3246 1969
3616 3257 1985
3625 3268 2002
3634 3280 2021
3643 3293 2041
3654 3307 2063
3664 3321 2085
3675 3336 2110
3687 3352 2135
3699 3369 2162
3712 3386 2191
3665 3322 2087
3665 3323 2088
3666 3324 2089
3667 3325 2091
3668 3327 2094
3670 3329 2098
3672 3332 2103
3675 3336 2108
3678 3340 2115
3682 3345 2123
3686 3351 2132
3690 3357 2142
3695 3364 2154
3701 3371 2167
3707 3380 2180
3714 3389 2196
3721 3399 2212
3728 3409 2230
3736 3420 2249
3745 3432 2269
3754 3444 2291
3763 3458 2315
3773 3471 2339
3783 3486 2365
3793 3501 2392
3760 3453 2307
3760 3454 2308
3761 3455 2309
3762 3456 2311
3763 3457 2314
3764 3459 2318
3766 3462 2322
3768 3465 2327
3771 3469 2334
3774 3473 2342
3777 3478 2350
3781 3483 2360
3785 3489 2371
3790 3496 2383
3795 3503 2396
3800 3511 2411
3806 3519 2426
3812 3528 2443
3819 3537 2461
3826 3548 2481
3833 3558 2502
3840 3570 2524
3848 3582 2548
3857 3594 2572
3865 3607 2598
3843 3573 2531
3843 3574 2532
3844 3574 2533
3844 3575 2535
3845 3577 2538
3846 3578 2541
3848 3581 2546
3850 3583 2551
3852 3586 2557
3854 3590 2564
3857 3594 2572
3860 3599 2582
3863 3604 2592
3867 3609 2603
3871 3615 2616
3875 3622 2630
3880 3629 2645
3885 3637 2661
3890 3645 2678
3896 3654 2697
3902 3663 2717
3908 3673 2738
3915 3683 2760
3921 3693 2783
3928 3704 2808
3914 3682 2758
3914 3682 2758
3914 3683 2760
3915 3683 2761
3916 3685 2764
3917 3686 2767
3918 3688 2772
3919 3690 2776
3921 3693 2782
3923 3696 2789
3925 3699 2797
3927 3703 2806
3930 3708 2816
3933 3712 2826
3936 3717 2838
3940 3723 2851
3943 3729 2866
3947 3736 2881
3952 3743 2897
3956 3750 2915
3961 3758 2934
3966 3766 2954
3971 3775 2975
3976 3784 2998
3981 3793 3021
3973 3779 2986
3973 3779 2986
3973 3780 2988
3974 3780 2989
3974 3781 2992
3975 3783 2995
3976 3784 2999
3977 3786 3003
3978 3788 3009
3980 3791 3015
3982 3794 3023
3983 3797 3031
3985 3801 3040
3988 3805 3051
3990 3809 3062
3993 3814 3075
3996 3819 3088
3999 3824 3103
4002 3830 3118
4005 3836 3135
4009 3843 3153
4012 3850 3172
4016 3857 3192
4020 3865 3214
4024 3873 3236
4020 3865 3215
4021 3866 3216
4021 3866 3217
4021 3867 3219
4022 3867 3221
4022 3868 3224
4023 3870 3228
4023 3871 3232
4024 3873 3237
4025 3875 3244
4027 3878 3251
4028 3880 3259
4030 3883 3267
4031 3887 3277
4033 3890 3288
4035 3894 3300
4037 3898 3313
4039 3903 3327
4041 3908 3342
4044 3913 3358
4046 3919 3375
4049 3924 3393
4052 3930 3412
4054 3937 3433
4057 3943 3454
56 26 0
76 36 0
102 48 0
143 67 0
199 94 0
276 131 0
352 169 0
437 211 0
524 255 0
608 298 0
698 344 0
785 390 0
873 438 2
964 487 11
1051 536 21
1141 587 34
1230 638 49
1317 689 66
1405 742 85
1493 797 108
1580 851 132
1666 907 160
1752 963 190
1837 1021 224
1921 1081 260
250 119 0
271 129 0
295 141 0
331 158 0
377 181 0
430 207 0
492 239 0
560 273 0
633 310 0
706 348 0
783 389 0
863 432 1
944 476 9
1027 522 18
1110 569 29
1194 617 43
1279 667 58
1363 717 76
1448 769 96
1533 821 119
1617 875 144
1701 929 172
1784 985 202
1867 1041 236
1950 1102 273
465 225 0
476 230 0
495 240 0
521 253 0
554 270 0
595 291 0
643 316 0
696 343 0
756 375 0
821 409 0
889 446 3
960 485 10
1033 526 19
1109 568 29
1186 612 41
1264 658 55
1343 705 71
1423 754 90
1504 803 110
1584 854 134
1666 906 160
1746 959 188
1827 1013 219
1906 1069 253
1987 1131 291
689 339 0
698 344 0
710 351 0
729 361 0
754 374 0
787 391 0
825 412 0
867 434 2
917 461 6
971 491 12
1028 523 18
1089 557 26
1154 594 36
1221 633 47
1291 674 60
1362 716 75
1435 760 93
1508 806 112
1584 854 134
1659 902 157
1735 952 184
1812 1003 213
1888 1056 245
1965 1114 280
2041 1176 318
919 462 6
926 466 7
935 471 8
950 479 9
969 490 11
995 504 14
1025 521 18
1059 540 22
1099 563 28
1144 588 34
1193 616 42
1244 646 51
1301 680 62
1360 715 75
1421 752 89
1485 791 105
1550 832 124
1618 875 144
1686 920 167
1756 966 192
1826 1013 219
1897 1063 249
1969 1117 282
2041 1176 318
2113 1239 357
1150 592 35
1156 595 36
1163 599 37
1174 606 39
1190 615 42
1211 627 45
1234 640 50
1263 657 55
1296 677 61
1332 698 69
1374 723 78
1418 750 88
1465 779 100
1516 811 114
1570 845 129
1626 881 147
1686 919 166
1745 959 188
1807 1000 212
1871 1044 238
1936 1091 266
2001 1143 298
2067 1199 332
2134 1258 369
2201 1322 409
1380 727 79
1384 730 81
1390 733 82
1399 739 84
1412 747 87
1429 757 91
1449 769 96
1472 783 102
1500 801 109
1531 820 118
1565 842 128
1602 865 139
1644 892 152
1688 921 167
1735 952 184
1784 985 202
1836 1019 223
1889 1057 246
1945 1099 271
2002 1143 298
2060 1192 328
2120 1245 361
2180 1302 396
2241 1362 434
2303 1425 475
1607 869 141
1611 871 142
1616 874 143
1624 879 146
1634 886 149
1647 894 153
1664 905 159
1684 918 166
1706 933 174
1732 950 183
1762 969 194
1794 991 206
1829 1015 220
1867 1041 236
1908 1071 254
1951 1103 274
1997 1139 296
2044 1178 320
2093 1221 346
2144 1268 375
2197 1317 406
2250 1370 440
2305 1427 476
2361 1486 515
2417 1549 555
1830 1016 221
1833 1017 222
1837 1021 224
1844 1025 226
1852 1031 230
1863 1039 235
1877 1048 241
1894 1060 248
1913 1074 256
1936 1091 266
1960 1110 278
1988 1133 292
2019 1157 307
2051 1185 323
2087 1215 342
2124 1249 363
2164 1286 386
2206 1326 411
2249 1369 439
2294 1415 469
2340 1464 501
2389 1517 535
2438 1573 571
2488 1631 608
2539 1692 648
2047 1181 321
2050 1184 323
2053 1187 324
2059 1191 327
2066 1197 331
2075 1206 336
2087 1216 343
2102 1229 351
2118 1243 360
2137 1261 370
2158 1281 383
2182 1303 397
2208 1328 413
2236 1356 431
2267 1387 451
2299 1421 473
2334 1458 496
2371 1497 522
2409 1540 549
2448 1585 579
2490 1634 610
2533 1684 643
2577 1738 678
2621 1794 715
2667 1853 754
2258 1378 445
2260 1380 446
2263 1383 448
2267 1388 451
2274 1394 455
2281 1402 460
2292 1413 467
2304 1426 476
2318 1440 485
2334 1458 496
2352 1477 509
2373 1500 523
2395 1524 539
2419 1552 557
2446 1582 577
2474 1615 598
2504 1650 621
2536 1689 646
2570 1730 673
2605 1773 701
2641 1820 732
2679 1868 764
2718 1919 798
2758 1973 834
2798 2028 872
