Grading Edition presets/Gradent Map - Orange.3dl
#25pt 3DLUT created by 3D LUT Creator Pro (c) Oleg Sharonov
#Copyright Oleg Sharonov
#INPUTGAMMA sRGB IEC61966-2.1 v.2.10
#IMAGEPROFILE sRGB IEC61966-2.1 v.2.10
#OUTPUTGAMMA sRGB IEC61966-2.1 v.2.10
0 43 86 128 171 214 256 299 341 384 427 469 512 555 597 640 682 725 768 810 853 896 938 981 1023 
0 0 0
0 0 0
0 0 0
5 2 0
15 7 19
31 14 54
56 26 101
102 48 158
163 77 219
250 119 286
348 167 356
448 216 432
545 265 512
641 314 594
736 364 678
831 415 763
928 467 850
1022 519 936
1116 572 1023
1209 626 1110
1302 681 1198
1394 735 1285
1486 792 1373
1577 849 1461
1667 907 1548
5 129 0
5 129 0
10 129 0
15 129 0
36 131 19
56 138 55
97 150 103
153 167 160
225 189 222
318 218 291
408 250 364
502 288 444
595 328 527
686 369 611
779 414 696
871 459 782
964 507 868
1056 556 955
1149 606 1042
1240 657 1130
1331 710 1217
1422 763 1304
1512 818 1391
1602 874 1478
1691 930 1565
15 261 0
15 262 0
15 262 0
36 261 0
61 262 20
97 265 57
153 272 105
220 280 162
304 296 228
389 316 301
476 339 378
563 368 461
653 400 548
743 436 634
833 474 720
922 515 807
1012 558 893
1101 602 980
1190 649 1067
1281 698 1154
1369 748 1241
1458 799 1328
1546 852 1415
1634 906 1501
1722 962 1588
56 402 0
56 402 0
56 402 0
61 403 0
102 402 22
153 402 59
225 404 110
309 411 170
393 419 240
476 432 316
560 450 400
646 470 487
731 496 576
817 525 664
904 557 753
991 592 841
1078 631 930
1164 671 1016
1251 713 1104
1338 758 1191
1424 805 1278
1511 853 1364
1597 903 1450
1683 955 1537
1768 1007 1622
138 546 0
138 546 0
143 547 0
143 547 0
148 549 24
225 548 65
309 547 117
397 550 182
486 555 257
569 563 338
656 576 428
741 591 520
825 610 612
908 632 704
993 659 795
1076 689 885
1162 722 975
1244 758 1063
1328 796 1151
1413 837 1239
1496 879 1325
1580 924 1411
1663 971 1497
1746 1019 1582
1829 1071 1667
276 696 0
276 697 0
280 698 0
280 698 2
290 699 28
295 700 70
389 699 126
486 699 196
578 700 275
666 706 363
754 713 459
841 724 558
926 738 654
1010 756 750
1092 778 844
1174 803 937
1257 831 1029
1339 861 1119
1420 895 1208
1502 932 1296
1582 970 1382
1663 1011 1468
1744 1055 1554
1824 1103 1638
1903 1157 1722
445 852 0
445 852 0
448 853 0
452 854 7
455 855 34
462 856 76
469 859 136
569 857 210
669 856 296
763 857 391
856 862 494
944 869 597
1032 880 699
1116 893 800
1200 910 898
1282 930 994
1363 954 1089
1443 980 1181
1523 1009 1271
1602 1042 1360
1680 1078 1448
1757 1118 1534
1835 1163 1619
1913 1213 1703
1989 1266 1786
625 1014 0
625 1015 0
627 1015 1
630 1016 17
633 1017 45
638 1018 87
646 1021 146
653 1023 225
759 1020 317
859 1019 420
957 1021 529
1051 1025 639
1140 1032 747
1227 1042 853
1312 1055 956
1395 1072 1056
1475 1093 1153
1555 1117 1248
1633 1146 1341
1710 1178 1431
1787 1215 1520
1863 1256 1607
1937 1300 1692
2012 1349 1776
2085 1402 1859
811 1195 0
813 1196 4
813 1196 14
817 1197 33
821 1199 62
825 1202 105
831 1204 164
837 1206 241
846 1210 339
955 1207 450
1057 1206 566
1156 1207 681
1251 1212 796
1340 1220 907
1427 1231 1015
1511 1246 1120
1593 1265 1221
1671 1288 1319
1749 1315 1414
1825 1346 1507
1900 1381 1597
1973 1420 1685
2047 1463 1771
2118 1511 1855
2189 1561 1938
1007 1411 16
1007 1412 24
1008 1412 36
1012 1413 56
1015 1415 87
1020 1418 130
1025 1421 189
1032 1424 265
1040 1428 361
1048 1433 480
1157 1429 603
1261 1426 724
1360 1429 845
1454 1433 962
1544 1441 1076
1629 1454 1185
1712 1470 1291
1793 1490 1393
1870 1515 1492
1945 1543 1587
2019 1575 1678
2090 1611 1768
2162 1651 1855
2231 1696 1940
2300 1743 2022
1208 1651 45
1209 1652 54
1211 1653 68
1213 1654 90
1216 1656 121
1220 1659 166
1225 1662 225
1232 1665 300
1239 1669 395
1248 1674 510
1257 1680 640
1366 1674 768
1470 1673 895
1568 1674 1018
1661 1679 1137
1750 1688 1252
1833 1701 1363
1915 1717 1469
1993 1738 1571
2067 1762 1668
2141 1791 1763
2212 1824 1855
2281 1859 1942
2348 1899 2028
2414 1943 2111
1415 1906 88
1415 1906 98
1418 1907 113
1420 1908 136
1422 1910 169
1427 1913 214
1431 1916 273
1437 1919 348
1445 1924 441
1452 1929 552
1461 1935 676
1471 1941 813
1580 1936 946
1682 1934 1075
1779 1936 1200
1870 1940 1320
1956 1948 1436
2038 1961 1546
2117 1978 1652
2192 1998 1753
2264 2022 1850
2334 2050 1943
2402 2082 2033
2468 2117 2120
2533 2156 2203
1626 2165 147
1627 2166 158
1628 2167 173
1631 2168 197
1634 2170 231
1637 2172 277
1641 2176 336
1647 2179 411
1654 2184 503
1661 2188 608
1669 2194 726
1679 2201 856
1690 2208 998
1797 2203 1133
1897 2200 1264
1991 2202 1389
2079 2206 1510
2162 2215 1624
2242 2227 1734
2318 2243 1839
2390 2263 1939
2459 2286 2034
2526 2312 2126
2590 2343 2214
2652 2376 2299
1840 2422 225
1841 2423 236
1842 2423 252
1845 2424 277
1847 2426 311
1851 2429 358
1855 2431 418
1860 2435 492
1867 2439 579
1873 2444 679
1881 2450 790
1891 2455 913
1900 2462 1047
1911 2470 1192
2015 2465 1329
2111 2462 1460
2203 2464 1585
2287 2469 1704
2367 2477 1818
2443 2488 1927
2515 2503 2029
2584 2521 2127
2649 2543 2221
2712 2568 2310
2772 2596 2396
2055 2666 325
2055 2666 337
2057 2668 353
2058 2668 378
2061 2670 414
2065 2672 461
2069 2675 520
2073 2678 590
2079 2682 671
2086 2686 765
2094 2692 870
2102 2697 985
2112 2703 1112
2122 2711 1249
2134 2718 1396
2233 2713 1533
2326 2712 1663
2412 2713 1787
2493 2717 1904
2569 2725 2016
2640 2735 2121
2708 2749 2222
2772 2766 2317
2833 2785 2408
2892 2807 2495
2269 2890 452
2270 2891 464
2271 2892 480
2272 2893 506
2275 2894 540
2278 2896 584
2281 2898 639
2287 2901 704
2292 2905 780
2298 2909 868
2305 2913 966
2314 2918 1074
2322 2924 1193
2332 2930 1322
2344 2937 1460
2355 2944 1607
2449 2940 1742
2537 2939 1871
2618 2940 1992
2694 2944 2107
2765 2951 2216
2832 2960 2319
2895 2972 2416
2954 2987 2509
3010 3004 2597
2481 3088 603
2481 3088 614
2482 3089 629
2484 3090 652
2486 3091 684
2489 3092 725
2492 3094 776
2497 3097 836
2502 3100 907
2508 3103 988
2515 3107 1079
2523 3111 1181
2531 3116 1292
2540 3121 1412
2551 3127 1541
2561 3133 1679
2573 3139 1825
2662 3136 1957
2743 3135 2083
2818 3136 2201
2889 3140 2312
2954 3146 2418
3015 3154 2517
3072 3164 2610
3126 3176 2699
2687 3250 771
2688 3250 781
2689 3251 795
2690 3252 816
2692 3252 846
2695 3254 884
2698 3255 930
2702 3257 986
2707 3260 1052
2713 3262 1126
2719 3265 1211
2726 3268 1304
2734 3272 1407
2743 3276 1519
2752 3281 1639
2763 3286 1768
2774 3291 1904
2786 3297 2047
2867 3295 2176
2942 3294 2297
3010 3296 2411
3073 3299 2519
3132 3304 2619
3187 3310 2714
3238 3319 2803
2887 3386 958
2888 3387 968
2889 3387 981
2890 3388 1000
2892 3389 1027
2895 3390 1061
2898 3391 1104
2901 3393 1155
2906 3395 1215
2911 3397 1284
2916 3400 1361
2923 3403 1447
2930 3406 1542
2938 3410 1645
2947 3414 1756
2957 3419 1875
2967 3424 2001
2978 3429 2134
2990 3434 2273
3064 3433 2397
3130 3432 2514
3191 3434 2622
3247 3437 2724
3299 3442 2819
3347 3448 2909
3078 3510 1164
3078 3510 1173
3079 3511 1184
3081 3511 1202
3082 3512 1226
3085 3513 1257
3087 3514 1296
3091 3516 1343
3095 3518 1397
3099 3520 1460
3104 3522 1531
3110 3525 1609
3117 3528 1696
3125 3531 1790
3133 3535 1892
3141 3539 2001
3151 3543 2117
3161 3548 2239
3172 3553 2368
3184 3558 2502
3247 3557 2620
3305 3557 2730
3358 3559 2832
3407 3562 2928
3452 3566 3018
3256 3621 1389
3257 3621 1396
3257 3622 1407
3258 3622 1422
3260 3623 1444
3262 3624 1473
3264 3625 1508
3267 3626 1549
3271 3628 1599
3275 3630 1655
3280 3632 1719
3285 3634 1790
3291 3637 1869
3298 3640 1955
3305 3643 2047
3313 3647 2146
3321 3651 2252
3330 3655 2363
3340 3659 2481
3350 3664 2603
3362 3669 2730
3416 3668 2841
3466 3669 2944
3532 3668 3021
3603 3666 3068
3420 3720 1632
3420 3720 1639
3421 3721 1648
3422 3721 1663
3424 3722 1682
3425 3723 1707
3428 3724 1738
3430 3725 1776
3433 3726 1820
3437 3728 1871
3441 3730 1928
3446 3732 1992
3451 3734 2062
3457 3737 2139
3464 3740 2222
3471 3743 2312
3478 3746 2407
3487 3750 2508
3495 3754 2614
3505 3758 2724
3515 3763 2839
3528 3767 2957
3623 3759 3029
3691 3755 3087
3743 3754 3135
3621 3796 1994
3622 3796 2000
3622 3796 2008
3624 3796 2021
3626 3797 2038
3629 3797 2060
3632 3798 2087
3636 3799 2120
3640 3799 2158
3646 3801 2201
3652 3802 2249
3659 3803 2303
3667 3805 2361
3675 3807 2424
3684 3809 2492
3694 3811 2563
3704 3813 2637
3715 3816 2715
3727 3819 2795
3739 3822 2876
3753 3826 2959
3766 3830 3043
3780 3834 3128
3826 3831 3184
3861 3831 3231
3819 3852 2463
3819 3852 2467
3820 3852 2473
3821 3852 2481
3822 3853 2493
3824 3854 2508
3826 3854 2526
3829 3855 2549
3832 3856 2575
3836 3857 2604
3840 3859 2638
3844 3860 2674
3850 3862 2714
3855 3864 2758
3861 3867 2805
3868 3869 2854
3875 3872 2906
3882 3875 2960
3890 3878 3016
3898 3881 3074
3906 3885 3133
3915 3889 3192
3924 3894 3253
3934 3898 3313
3955 3900 3356
3947 3908 2880
3947 3908 2883
3948 3909 2887
3949 3909 2892
3949 3909 2900
3951 3910 2910
3952 3911 2923
3954 3912 2938
3956 3913 2956
3958 3914 2976
3961 3915 2999
3964 3917 3024
3967 3919 3052
3970 3921 3082
3974 3923 3114
3978 3926 3148
3983 3929 3184
3987 3932 3221
3992 3935 3261
3997 3938 3301
4002 3942 3342
4008 3946 3384
4013 3950 3426
4019 3955 3468
4025 3960 3511
261 0 0
266 0 0
261 2 0
261 5 0
261 9 18
271 19 56
285 31 101
318 55 158
361 87 221
416 129 286
482 177 359
554 225 435
633 273 516
717 322 601
800 371 683
889 423 770
974 473 855
1062 525 941
1151 577 1028
1242 631 1116
1331 686 1203
1420 740 1291
1509 797 1378
1598 854 1466
1686 912 1553
271 129 0
271 129 0
271 129 0
276 131 0
280 134 19
295 141 55
322 154 103
357 171 160
408 196 224
462 223 292
530 258 367
603 295 448
679 334 531
756 375 616
839 419 701
924 465 787
1010 513 874
1096 561 960
1184 611 1047
1272 662 1135
1360 715 1222
1447 768 1309
1535 823 1397
1623 878 1483
1706 933 1585
280 264 0
276 262 0
280 264 0
290 264 0
309 265 21
331 269 57
365 275 106
408 285 163
462 301 229
521 321 303
586 344 381
659 374 466
731 406 552
811 442 638
891 479 725
973 520 812
1056 563 898
1140 608 986
1225 655 1073
1311 703 1159
1397 754 1247
1484 804 1334
1569 857 1421
1654 910 1507
1737 964 1608
309 402 0
309 402 0
309 403 0
313 403 0
340 403 22
377 404 60
423 407 111
472 413 172
530 423 242
592 436 319
661 454 403
729 475 491
804 501 581
881 530 670
960 562 758
1040 598 847
1121 635 934
1201 675 1021
1284 718 1110
1368 763 1196
1451 809 1283
1535 857 1369
1619 907 1455
1703 959 1541
1782 1010 1641
369 546 0
373 547 0
373 547 0
377 548 0
381 549 24
430 549 65
482 550 119
542 552 183
606 558 258
674 566 341
745 578 430
817 594 523
891 614 617
967 637 709
1043 664 800
1122 694 890
1201 726 979
1281 762 1068
1361 801 1156
1441 840 1243
1522 883 1329
1602 928 1416
1684 975 1501
1765 1023 1587
1842 1073 1685
465 698 0
465 698 0
469 698 0
472 699 2
476 700 28
479 702 70
545 700 127
614 700 197
686 703 277
759 708 365
835 716 462
909 727 560
986 742 657
1062 760 753
1138 781 848
1216 806 941
1295 834 1033
1372 865 1123
1449 899 1212
1528 935 1300
1606 974 1387
1685 1015 1473
1763 1059 1558
1841 1108 1643
1916 1159 1739
589 853 0
589 854 0
592 854 0
595 855 8
597 856 34
603 858 77
608 860 136
686 858 211
768 858 297
850 860 393
928 865 496
1008 872 599
1087 883 703
1166 897 803
1243 914 902
1321 934 998
1397 957 1093
1473 984 1184
1550 1013 1276
1626 1046 1364
1702 1082 1451
1778 1122 1538
1854 1168 1623
1929 1217 1707
2000 1269 1802
734 1015 0
736 1016 0
736 1016 1
738 1017 18
743 1018 46
747 1019 88
752 1022 147
759 1024 226
848 1022 318
937 1021 421
1023 1023 531
1109 1027 641
1191 1034 749
1272 1045 855
1351 1058 958
1430 1075 1059
1507 1096 1157
1583 1121 1252
1658 1149 1344
1733 1182 1435
1807 1219 1524
1881 1260 1611
1955 1304 1696
2027 1353 1780
2096 1405 1874
896 1197 0
898 1197 4
900 1199 15
902 1200 34
906 1201 63
909 1203 105
915 1206 164
921 1208 241
930 1211 340
1025 1208 451
1119 1207 567
1209 1210 684
1297 1214 798
1381 1222 909
1463 1234 1017
1543 1249 1122
1622 1268 1224
1698 1292 1322
1773 1319 1418
1847 1350 1510
1919 1385 1600
1992 1425 1689
2063 1468 1775
2133 1515 1858
2200 1564 1952
1075 1413 16
1076 1414 25
1076 1415 37
1079 1416 57
1083 1418 88
1087 1420 131
1092 1423 190
1098 1426 266
1106 1430 362
1113 1434 481
1213 1430 604
1311 1429 727
1403 1431 847
1492 1436 964
1577 1444 1078
1659 1457 1188
1739 1473 1293
1816 1494 1396
1891 1518 1494
1965 1546 1589
2037 1579 1682
2107 1615 1771
2177 1656 1858
2246 1700 1943
2309 1746 2035
1263 1654 46
1264 1654 55
1265 1655 69
1268 1657 91
1270 1658 122
1274 1660 167
1279 1663 226
1286 1667 301
1292 1671 396
1300 1676 511
1310 1682 641
1412 1677 770
1510 1676 896
1603 1677 1020
1692 1682 1139
1777 1691 1254
1859 1703 1365
1937 1720 1471
2013 1741 1573
2086 1765 1671
2157 1795 1766
2227 1827 1857
2295 1864 1946
2362 1904 2031
2424 1946 2123
