Grading Edition presets/Gradient Map - Sepia Orange.3dl
#25pt 3DLUT created by 3D LUT Creator Pro (c) Oleg Sharonov
#Copyright Oleg Sharonov
#INPUTGAMMA sRGB IEC61966-2.1 v.2.10
#IMAGEPROFILE sRGB IEC61966-2.1 v.2.10
#OUTPUTGAMMA sRGB IEC61966-2.1 v.2.10
0 256 512 768 1023
0 0 0
304 145 0
852 426 0
1393 735 82
1913 1074 256
1367 719 77
1436 761 93
1633 885 149
1936 1092 267
2297 1419 471
2648 1828 738
2673 1860 759
2749 1961 827
2881 2144 952
3056 2401 1140
3558 3176 1872
3567 3189 1888
3594 3227 1942
3643 3293 2041
3712 3386 2191
4020 3865 3215
4023 3870 3228
4030 3883 3267
4041 3908 3342
4057 3943 3454
684 337 0
819 408 0
1150 592 35
1581 852 133
2040 1175 317
1559 838 126
1619 876 144
1790 989 205
2061 1193 328
2392 1521 537
2720 1922 800
2743 1953 821
2815 2052 888
2939 2227 1012
3106 2476 1197
3584 3212 1921
3592 3224 1937
3619 3260 1990
3666 3323 2088
3731 3413 2237
4027 3878 3252
4029 3882 3264
4036 3895 3304
4047 3919 3377
4062 3953 3489
1532 821 118
1592 859 136
1767 973 196
2043 1177 319
2377 1505 527
2027 1165 311
2068 1199 332
2190 1311 402
2394 1523 539
2655 1837 744
2923 2205 995
2943 2233 1015
3003 2321 1079
3107 2477 1198
3247 2695 1376
3660 3315 2075
3667 3325 2091
3690 3357 2143
3732 3414 2238
3789 3495 2381
4045 3916 3367
4047 3920 3379
4052 3932 3418
4062 3954 3490
4073 3984 3599
2320 1442 486
2352 1477 509
2451 1588 580
2618 1791 713
2838 2083 910
2609 1779 705
2635 1811 726
2713 1914 794
2849 2099 921
3030 2361 1110
3222 2656 1343
3236 2678 1361
3279 2746 1421
3355 2867 1531
3460 3030 1698
3779 3480 2354
3784 3488 2369
3803 3514 2418
3835 3561 2508
3880 3628 2643
4071 3979 3578
4073 3982 3589
4076 3992 3626
4082 4010 3695
4088 4035 3800
2995 2310 1071
3013 2337 1091
3069 2420 1154
3166 2569 1271
3298 2776 1447
3161 2561 1264
3176 2585 1284
3223 2658 1344
3304 2786 1457
3416 2962 1625
3538 3147 1835
3547 3161 1852
3576 3201 1906
3626 3270 2005
3696 3365 2156
3913 3680 2755
3917 3687 2769
3929 3706 2813
3951 3742 2895
3981 3792 3019
4092 4054 3887
4093 4057 3897
4094 4064 3932
4095 4077 3997
4095 4095 4095
