Grading Edition presets/Gradent Map - Orange.3dl
#25pt 3DLUT created by 3D LUT Creator Pro (c) Oleg Sharonov
#Copyright Oleg Sharonov
#INPUTGAMMA sRGB IEC61966-2.1 v.2.10
#IMAGEPROFILE sRGB IEC61966-2.1 v.2.10
#OUTPUTGAMMA sRGB IEC61966-2.1 v.2.10
0 128 256 384 512 640 768 896 1023
0 0 0
5 2 0
56 26 101
250 119 286
545 265 512
831 415 763
1116 572 1023
1394 735 1285
1667 907 1548
56 402 0
61 403 0
225 404 110
476 432 316
731 496 576
991 592 841
1251 713 1104
1511 853 1364
1768 1007 1622
445 852 0
452 854 7
469 859 136
763 857 391
1032 880 699
1282 930 994
1523 1009 1271
1757 1118 1534
1989 1266 1786
1007 1411 16
1012 1413 56
1025 1421 189
1048 1433 480
1360 1429 845
1629 1454 1185
1870 1515 1492
2090 1611 1768
2300 1743 2022
1626 2165 147
1631 2168 197
1641 2176 336
1661 2188 608
1690 2208 998
1991 2202 1389
2242 2227 1734
2459 2286 2034
2652 2376 2299
2269 2890 452
2272 2893 506
2281 2898 639
2298 2909 868
2322 2924 1193
2355 2944 1607
2618 2940 1992
2832 2960 2319
3010 3004 2597
2887 3386 958
2890 3388 1000
2898 3391 1104
2911 3397 1284
2930 3406 1542
2957 3419 1875
2990 3434 2273
3191 3434 2622
3347 3448 2909
3420 3720 1632
3422 3721 1663
3428 3724 1738
3437 3728 1871
3451 3734 2062
3471 3743 2312
3495 3754 2614
3528 3767 2957
3743 3754 3135
3947 3908 2880
3949 3909 2892
3952 3911 2923
3958 3914 2976
3967 3919 3052
3978 3926 3148
3992 3935 3261
4008 3946 3384
4025 3960 3511
792 7 0
794 9 0
763 50 103
779 160 292
881 298 532
1054 443 788
1269 597 1048
1506 758 1310
1751 927 1571
813 405 0
815 406 0
831 415 113
894 449 326
1017 516 593
1187 613 862
1391 734 1126
1614 873 1386
1832 1017 1708
939 857 0
942 859 9
953 864 138
1090 867 398
1257 892 711
1442 945 1009
1640 1025 1288
1846 1137 1552
2043 1278 1859
1278 1419 17
1282 1422 59
1293 1429 192
1312 1440 485
1540 1440 853
1758 1468 1196
1965 1531 1504
2162 1629 1781
2341 1757 2079
1778 2174 151
1782 2177 201
1792 2184 342
1809 2197 614
1835 2216 1003
2092 2212 1397
2317 2240 1743
2516 2300 2044
2682 2390 2341
2354 2897 459
2357 2899 513
2366 2905 646
2382 2915 875
2404 2930 1200
2436 2950 1613
2676 2948 2000
2874 2969 2327
3030 3014 2626
2933 3390 967
2936 3392 1009
2943 3395 1112
2956 3401 1292
2975 3410 1550
3000 3423 1882
3033 3438 2280
3221 3438 2629
3360 3454 2930
3443 3723 1643
3445 3724 1673
3450 3726 1748
3459 3731 1880
3473 3737 2071
3492 3746 2320
3516 3757 2621
3559 3768 2959
3753 3758 3143
3953 3910 2896
3953 3911 2904
3957 3913 2934
3962 3917 2987
3971 3922 3062
3982 3928 3158
3996 3937 3270
4011 3949 3393
4027 3962 3519
1488 84 0
1492 92 0
1503 109 110
1437 234 318
1423 367 579
1478 506 845
1595 654 1108
1755 812 1368
1943 977 1626
1531 428 0
1535 431 1
1546 439 122
1509 487 351
1515 563 634
1578 664 911
1693 784 1179
1848 922 1439
2021 1064 1756
1609 870 0
1612 872 12
1619 876 144
1639 889 415
1690 922 740
1779 981 1046
1900 1065 1329
2049 1183 1594
2181 1303 2055
1770 1438 22
1773 1441 65
1781 1447 201
1794 1458 497
1908 1466 872
2038 1502 1221
2180 1571 1534
2331 1674 1814
2447 1789 2230
2098 2195 161
2101 2198 213
2109 2205 355
2123 2218 628
2145 2236 1018
2322 2239 1417
2490 2271 1766
2649 2335 2070
2759 2422 2451
2548 2914 477
2551 2916 531
2558 2922 663
2572 2931 892
2592 2946 1217
2619 2966 1629
2811 2967 2018
2976 2990 2347
3082 3038 2704
3042 3400 989
3045 3402 1031
3051 3405 1134
3063 3411 1313
3080 3420 1569
3103 3432 1900
3132 3448 2296
3293 3449 2647
3392 3469 2983
3497 3730 1668
3499 3731 1698
3504 3733 1773
3512 3738 1904
3525 3744 2094
3542 3753 2341
3581 3760 2643
3628 3770 2965
3777 3766 3163
3967 3916 2935
3967 3917 2943
3968 3920 2962
3973 3923 3015
3981 3928 3089
3992 3935 3184
4004 3944 3295
4019 3955 3416
4034 3968 3540
2075 275 0
2081 280 7
2096 296 110
2120 322 361
2038 460 650
2009 601 932
2036 746 1202
2116 899 1462
2236 1061 1716
2129 510 0
2134 515 16
2146 525 126
2165 542 387
2100 634 694
2081 742 988
2111 865 1263
2190 1002 1525
2307 1149 1835
2229 903 3
2232 905 39
2240 912 162
2254 923 442
2224 971 783
2229 1040 1104
2272 1136 1397
2354 1265 1666
2458 1387 2110
2346 1471 31
2348 1473 76
2354 1479 216
2363 1489 517
2385 1513 904
2429 1562 1264
2497 1641 1585
2588 1752 1871
2645 1825 2530
2526 2232 181
2529 2234 234
2535 2241 378
2546 2253 653
2561 2270 1043
2652 2285 1450
2751 2326 1806
2856 2396 2113
2899 2468 2666
2832 2943 510
2835 2945 563
2841 2950 695
2851 2960 923
2867 2974 1246
2889 2992 1657
3017 3000 2051
3135 3027 2383
3175 3075 2852
3210 3418 1029
3212 3419 1070
3217 3423 1172
3227 3428 1349
3241 3437 1604
3260 3449 1933
3284 3464 2326
3406 3469 2678
3457 3493 3069
3584 3743 1715
3585 3743 1744
3590 3746 1818
3614 3745 1981
3633 3750 2172
3657 3757 2411
3688 3765 2686
3725 3777 2981
3816 3782 3200
3988 3926 3006
3988 3927 3013
3989 3930 3031
3991 3935 3064
3998 3940 3137
4007 3946 3230
4018 3955 3339
4031 3966 3457
4045 3979 3578
2572 492 12
2577 498 42
2590 511 141
2612 535 361
2643 569 734
2560 716 1038
2524 865 1321
2535 1017 1586
2590 1189 1837
2621 658 23
2626 662 57
2637 674 161
2656 694 390
2683 721 768
2609 843 1083
2577 973 1372
2591 1117 1640
2653 1279 1942
2720 989 54
2723 992 94
2731 1000 212
2746 1015 458
2766 1036 842
2713 1125 1181
2696 1242 1487
2716 1387 1763
2788 1513 2188
2844 1530 114
2847 1533 161
2853 1542 294
2863 1556 560
2878 1578 949
2858 1648 1324
2864 1743 1657
2898 1864 1949
2964 1931 2569
2978 2284 210
2979 2286 265
2984 2293 414
2991 2304 690
3003 2321 1079
3023 2351 1498
3059 2405 1863
3110 2483 2177
3123 2502 3048
3155 2984 559
3157 2986 611
3162 2992 743
3170 3000 970
3182 3014 1291
3198 3031 1699
3262 3047 2099
3330 3080 2436
3318 3117 3103
3411 3444 1089
3413 3445 1129
3417 3448 1230
3424 3454 1405
3435 3462 1657
3450 3474 1981
3469 3488 2370
3549 3497 2724
3582 3521 3124
3694 3761 1785
3695 3762 1814
3708 3761 1919
3731 3759 2092
3760 3759 2308
3778 3767 2515
3800 3777 2755
3827 3790 3014
3868 3804 3255
4015 3941 3109
4015 3942 3116
4016 3944 3133
4017 3949 3163
4019 3956 3209
4027 3963 3300
4036 3971 3405
4047 3982 3519
4058 3994 3635
2979 733 82
2983 738 116
2993 751 214
3011 773 414
3037 805 736
3069 847 1154
2994 1004 1454
2959 1171 1728
2962 1367 1982
3018 858 101
3022 862 138
3031 874 240
3047 894 447
3070 923 771
3099 960 1190
3030 1105 1497
2998 1276 1774
3013 1455 2072
3102 1139 152
3105 1143 193
3113 1154 305
3125 1173 525
3144 1202 852
3167 1240 1273
3111 1383 1595
3087 1547 1881
3126 1681 2286
3215 1661 248
3217 1665 294
3223 1676 419
3232 1694 649
3246 1722 979
3264 1758 1400
3229 1874 1746
3218 2009 2047
3278 2071 2625
3338 2361 401
3340 2364 454
3343 2372 587
3350 2387 817
3361 2407 1144
3374 2436 1561
3365 2506 1937
3373 2594 2259
3428 2595 3055
3465 3037 626
3466 3039 678
3469 3044 809
3474 3052 1032
3482 3064 1350
3493 3081 1755
3510 3107 2164
3532 3138 2617
3549 3164 3232
3618 3478 1171
3620 3479 1211
3623 3482 1310
3628 3488 1482
3636 3496 1730
3647 3507 2048
3661 3521 2430
3694 3536 2812
3721 3558 3207
3822 3780 1955
3826 3780 1995
3833 3780 2092
3845 3780 2246
3862 3782 2441
3869 3793 2611
3885 3803 2838
3904 3817 3083
3926 3834 3333
4042 3961 3248
4042 3962 3254
4043 3965 3269
4045 3969 3296
4047 3975 3337
4049 3984 3393
4056 3992 3495
4064 4002 3605
4072 4014 3714
3301 1000 212
3304 1005 247
3312 1016 343
3325 1037 529
3344 1069 803
3368 1113 1162
3398 1170 1597
3338 1373 1884
3308 1591 2142
3330 1102 239
3333 1107 276
3340 1119 375
3352 1141 563
3370 1174 839
3393 1220 1198
3420 1278 1633
3363 1479 1922
3346 1676 2218
3395 1380 310
3397 1384 351
3403 1397 457
3413 1420 649
3428 1453 925
3447 1500 1284
3471 1558 1717
3422 1745 2015
3433 1886 2403
3487 1871 444
3488 1875 488
3493 1887 599
3501 1908 791
3513 1939 1066
3528 1980 1423
3547 2033 1851
3510 2185 2164
3555 2244 2698
3591 2503 647
3593 2507 691
3596 2516 800
3602 2531 989
3611 2555 1260
3622 2587 1609
3637 2627 2028
3617 2727 2358
3684 2713 3078
3699 3105 921
3700 3107 962
3703 3112 1067
3707 3122 1248
3714 3136 1508
3723 3154 1843
3734 3177 2245
3746 3207 2685
3766 3232 3214
3807 3520 1280
3807 3521 1319
3809 3524 1416
3813 3529 1583
3818 3537 1824
3826 3548 2135
3835 3561 2508
3846 3578 2916
3861 3600 3331
3932 3807 2200
3933 3807 2234
3937 3808 2317
3942 3810 2448
3950 3814 2616
3956 3825 2760
3959 3841 2925
3971 3853 3182
3986 3869 3440
4065 3988 3421
4066 3988 3426
4066 3991 3439
4068 3994 3463
4070 4000 3499
4072 4008 3547
4074 4018 3610
4080 4027 3714
4085 4039 3815
3549 1333 416
3551 1339 452
3557 1353 543
3566 1379 703
3580 1417 936
3599 1469 1242
3621 1536 1615
3647 1618 2048
3600 1856 2312
3570 1439 451
3572 1445 488
3577 1459 580
3586 1485 740
3600 1523 973
3617 1575 1278
3638 1641 1650
3662 1722 2081
3628 1934 2378
3619 1707 542
3620 1712 579
3625 1726 670
3633 1751 830
3644 1787 1062
3659 1836 1366
3677 1899 1735
3699 1976 2162
3692 2126 2535
3690 2151 699
3691 2156 735
3695 2168 826
3701 2189 984
3710 2221 1214
3722 2264 1512
3737 2319 1876
3755 2385 2294
3783 2445 2788
3773 2702 928
3774 2705 963
3776 2714 1052
3781 2730 1205
3788 2754 1428
3797 2787 1718
3809 2827 2069
3823 2876 2474
3881 2854 3118
3858 3208 1236
3858 3210 1269
3860 3215 1353
3864 3224 1498
3869 3238 1709
3902 3237 1957
3909 3258 2338
3917 3283 2767
3922 3318 3204
3939 3571 1640
3940 3573 1670
3941 3576 1746
3944 3582 1878
3942 3592 2113
3949 3604 2338
3965 3614 2612
3971 3633 2976
3977 3656 3345
4010 3845 2500
4010 3845 2528
4011 3847 2593
4013 3851 2699
4016 3857 2835
4021 3866 2952
4027 3879 3081
4034 3893 3295
4041 3907 3594
4082 4019 3623
4083 4020 3628
4083 4022 3640
4084 4025 3660
4086 4030 3691
4087 4037 3733
4089 4045 3785
4091 4056 3849
4093 4066 3941
3738 1762 694
3740 1768 724
3744 1783 801
3750 1809 935
3760 1849 1131
3774 1903 1389
3790 1971 1706
3808 2054 2076
3829 2151 2491
3753 1860 732
3767 1848 750
3771 1862 829
3777 1888 967
3786 1927 1167
3798 1979 1429
3812 2045 1751
3829 2126 2126
3848 2220 2545
3788 2099 828
3800 2089 846
3832 2060 894
3836 2084 1040
3843 2120 1251
3852 2168 1527
3863 2229 1862
3875 2303 2249
3890 2390 2677
3840 2480 996
3849 2474 1012
3873 2456 1056
3918 2410 1146
3922 2440 1378
3927 2480 1678
3933 2532 2038
3941 2594 2448
3950 2666 2893
3901 2935 1242
3907 2932 1256
3924 2925 1295
3953 2905 1372
4002 2851 1516
4003 2879 1855
4005 2918 2254
4003 2973 2684
4003 3038 3122
3963 3330 1574
3967 3330 1586
3977 3329 1618
3992 3327 1691
4002 3332 1861
4018 3334 2106
4018 3359 2454
4019 3390 2829
4020 3427 3211
4001 3654 2186
4002 3655 2200
4005 3658 2236
4010 3663 2300
4017 3670 2401
4028 3678 2547
4044 3683 2761
4045 3704 3069
4047 3729 3382
4050 3895 3011
4050 3896 3019
4052 3898 3037
4054 3903 3070
4057 3909 3119
4062 3918 3188
4068 3928 3284
4077 3937 3433
4079 3952 3663
4092 4055 3847
4092 4056 3851
4093 4057 3861
4093 4060 3879
4094 4064 3905
4094 4070 3940
4095 4077 3985
4095 4085 4037
4095 4095 4095
