Grading Edition presets/Gradient Map - Sepia Orange.3dl
#25pt 3DLUT created by 3D LUT Creator Pro (c) Oleg Sharonov
#Copyright Oleg Sharonov
#INPUTGAMMA sRGB IEC61966-2.1 v.2.10
#IMAGEPROFILE sRGB IEC61966-2.1 v.2.10
#OUTPUTGAMMA sRGB IEC61966-2.1 v.2.10
0 128 256 384 512 640 768 896 1023
0 0 0
87 41 0
304 145 0
578 282 0
852 426 0
1124 577 31
1393 735 82
1656 900 156
1913 1074 256
661 325 0
703 347 0
800 398 0
950 479 9
1137 584 33
1348 708 72
1572 846 130
1803 997 210
2034 1170 314
1367 719 77
1387 731 81
1436 761 93
1518 812 115
1633 885 149
1774 978 199
1936 1092 267
2113 1239 357
2297 1419 471
2039 1174 317
2051 1184 323
2080 1210 339
2130 1254 366
2201 1322 409
2293 1415 468
2403 1534 545
2527 1678 639
2662 1846 750
2648 1828 738
2655 1837 744
2673 1860 759
2704 1901 786
2749 1961 827
2808 2042 882
2881 2144 952
2964 2264 1038
3056 2401 1140
3162 2563 1266
3166 2569 1271
3177 2586 1285
3196 2616 1309
3224 2659 1345
3260 2717 1395
3305 2788 1458
3358 2871 1535
3416 2963 1627
3558 3176 1872
3560 3179 1876
3567 3189 1888
3578 3204 1910
3594 3227 1942
3616 3257 1985
3643 3293 2041
3675 3336 2110
3712 3386 2191
3843 3573 2531
3844 3575 2535
3848 3581 2546
3854 3590 2564
3863 3604 2592
3875 3622 2630
3890 3645 2678
3908 3673 2738
3928 3704 2808
4020 3865 3215
4021 3867 3219
4023 3870 3228
4025 3875 3244
4030 3883 3267
4035 3894 3300
4041 3908 3342
4049 3924 3393
4057 3943 3454
256 121 0
335 160 0
495 240 0
708 349 0
946 477 9
1195 618 43
1449 769 96
1702 930 172
1950 1103 273
779 387 0
815 406 0
900 452 4
1035 526 19
1208 625 45
1406 743 86
1621 877 145
1843 1024 226
2067 1199 332
1424 754 90
1443 766 95
1490 795 107
1569 844 129
1679 915 164
1816 1006 215
1973 1120 284
2144 1268 375
2325 1448 490
2073 1203 335
2084 1213 341
2113 1239 357
2161 1283 385
2231 1351 427
2321 1444 487
2429 1562 564
2550 1706 657
2683 1873 767
2669 1855 755
2676 1864 761
2693 1887 776
2724 1927 803
2768 1987 844
2826 2067 899
2898 2168 969
2980 2287 1055
3071 2423 1156
3175 2582 1282
3179 2589 1287
3189 2605 1301
3208 2634 1325
3235 2677 1361
3271 2734 1410
3316 2804 1473
3367 2886 1550
3426 2977 1641
3565 3186 1886
3568 3190 1890
3574 3199 1902
3585 3214 1924
3601 3237 1955
3623 3266 1999
3650 3302 2055
3681 3345 2123
3717 3394 2204
3847 3579 2543
3848 3581 2547
3852 3587 2558
3858 3596 2576
3867 3609 2604
3879 3628 2642
3894 3651 2690
3911 3678 2749
3931 3709 2820
4022 3869 3226
4023 3870 3229
4025 3873 3238
4027 3879 3254
4031 3887 3278
4037 3898 3310
4043 3911 3352
4050 3927 3403
4058 3946 3464
684 337 0
724 358 0
819 408 0
966 488 11
1150 592 35
1358 714 75
1581 852 133
1810 1002 212
2040 1175 317
1018 517 17
1046 533 21
1115 571 30
1224 635 48
1370 721 77
1544 828 122
1736 952 184
1940 1095 269
2149 1272 378
1559 838 126
1576 849 131
1619 876 144
1690 922 168
1790 989 205
1916 1076 257
2061 1193 328
2222 1342 421
2392 1521 537
2155 1278 381
2165 1288 387
2192 1313 403
2237 1358 432
2303 1425 475
2388 1517 535
2491 1634 610
2607 1776 703
2733 1940 812
2720 1922 800
2726 1931 806
2743 1953 821
2773 1993 848
2815 2052 888
2871 2130 942
2939 2227 1012
3018 2344 1096
3106 2476 1197
3206 2631 1322
3210 2637 1327
3220 2653 1340
3238 2681 1364
3264 2723 1400
3299 2778 1449
3342 2846 1511
3392 2925 1588
3448 3012 1678
3584 3212 1921
3586 3216 1925
3592 3224 1937
3603 3239 1958
3619 3260 1990
3640 3288 2033
3666 3323 2088
3696 3365 2156
3731 3413 2237
3857 3595 2574
3859 3597 2578
3862 3602 2588
3868 3611 2607
3877 3624 2634
3888 3642 2671
3903 3664 2719
3920 3691 2778
3939 3722 2848
4027 3878 3252
4028 3879 3255
4029 3882 3264
4032 3888 3280
4036 3895 3304
4041 3906 3336
4047 3919 3377
4054 3935 3428
4062 3953 3489
1112 570 30
1137 584 33
1198 620 43
1300 679 62
1437 762 93
1602 865 139
1786 986 203
1983 1128 289
2186 1307 399
1338 702 70
1358 714 75
1409 745 86
1493 797 108
1610 870 142
1755 965 191
1919 1078 259
2097 1225 348
2284 1405 462
1768 973 196
1782 983 201
1817 1007 215
1879 1050 241
1965 1114 280
2075 1206 336
2204 1325 411
2349 1474 507
2504 1650 621
2289 1410 465
2298 1420 472
2322 1445 488
2363 1489 517
2423 1556 560
2501 1646 618
2594 1760 693
2701 1897 783
2818 2055 891
2806 2038 879
2812 2047 885
2827 2068 899
2854 2106 926
2894 2162 965
2946 2237 1019
3009 2331 1087
3083 2442 1170
3165 2567 1269
3259 2714 1392
3262 2720 1397
3272 2735 1411
3289 2762 1434
3313 2801 1470
3346 2852 1518
3386 2916 1579
3434 2990 1655
3487 3071 1744
3615 3255 1983
3617 3258 1988
3623 3266 1999
3633 3280 2020
3648 3300 2052
3668 3327 2094
3693 3361 2149
3722 3401 2216
3755 3447 2295
3875 3621 2628
3876 3623 2632
3879 3628 2642
3885 3637 2660
3893 3649 2687
3904 3667 2724
3918 3688 2772
3934 3714 2830
3952 3743 2899
4035 3894 3298
4035 3895 3302
4037 3898 3311
4039 3903 3326
4043 3910 3350
4047 3921 3381
4053 3933 3422
4060 3949 3473
4067 3966 3533
1532 821 118
1549 832 123
1592 859 136
1665 906 159
1767 973 196
1894 1061 248
2043 1177 319
2206 1326 411
2377 1505 527
1693 924 169
1708 934 174
1745 959 188
1810 1002 212
1901 1066 251
2016 1155 305
2152 1275 379
2302 1424 474
2463 1601 589
2027 1165 311
2039 1174 317
2068 1199 332
2118 1244 360
2190 1311 402
2283 1404 462
2394 1523 539
2519 1668 633
2655 1837 744
2467 1606 592
2475 1615 598
2495 1640 614
2531 1683 642
2584 1747 684
2652 1833 741
2735 1942 813
2830 2072 902
2934 2220 1007
2923 2205 995
2929 2212 1001
2943 2233 1015
2967 2268 1041
3003 2321 1079
3049 2390 1132
3107 2477 1198
3173 2580 1280
3247 2695 1376
3332 2830 1496
3335 2835 1501
3344 2849 1515
3359 2873 1538
3382 2909 1572
3412 2956 1619
3449 3013 1679
3492 3079 1753
3541 3152 1841
3660 3315 2075
3662 3318 2080
3667 3325 2091
3677 3338 2112
3690 3357 2143
3709 3382 2184
3732 3414 2238
3758 3451 2303
3789 3495 2381
3899 3659 2708
3901 3661 2712
3903 3665 2722
3909 3674 2740
3916 3686 2766
3927 3702 2803
3939 3722 2849
3954 3746 2906
3970 3774 2974
4045 3916 3367
4046 3917 3371
4047 3920 3379
4049 3925 3395
4052 3932 3418
4057 3942 3449
4062 3954 3490
4067 3968 3539
4073 3984 3599
1936 1092 267
1949 1101 273
1980 1126 287
2034 1170 314
2111 1237 356
2209 1330 414
2326 1449 491
2458 1596 586
2601 1768 698
2055 1188 325
2066 1197 331
2094 1222 347
2144 1267 374
2214 1335 417
2305 1427 477
2414 1546 553
2538 1691 647
2672 1859 758
2314 1437 483
2324 1447 489
2347 1471 505
2387 1516 534
2446 1582 577
2522 1672 635
2614 1785 709
2719 1921 800
2835 2079 907
2675 1863 761
2682 1872 767
2699 1895 782
2730 1936 809
2774 1995 849
2832 2075 904
2903 2175 974
2984 2294 1060
3075 2429 1161
3065 2414 1150
3070 2422 1155
3082 2440 1169
3103 2472 1194
3134 2519 1231
3175 2582 1282
3225 2660 1346
3282 2752 1425
3347 2854 1519
3422 2972 1636
3425 2977 1641
3433 2989 1653
3447 3010 1676
3467 3041 1709
3493 3081 1755
3526 3130 1814
3565 3186 1885
3609 3247 1971
3715 3391 2199
3717 3393 2203
3722 3400 2215
3730 3412 2234
3743 3429 2264
3759 3452 2305
3780 3482 2357
3804 3516 2421
3831 3556 2498
3930 3708 2816
3931 3709 2819
3934 3713 2829
3938 3721 2846
3945 3732 2872
3954 3747 2908
3965 3766 2953
3978 3788 3009
3993 3814 3076
4058 3945 3460
4058 3946 3464
4059 3948 3472
4061 3953 3487
4064 3960 3510
4067 3968 3541
4072 3979 3580
4076 3993 3629
4081 4008 3687
2320 1442 486
2329 1452 493
2352 1477 509
2392 1522 538
2451 1588 580
2527 1677 638
2618 1791 713
2723 1927 803
2838 2083 910
2408 1539 549
2417 1549 555
2439 1574 571
2476 1617 599
2531 1682 642
2602 1770 699
2688 1880 772
2787 2013 862
2896 2165 967
2609 1779 705
2616 1788 711
2635 1811 726
2667 1852 753
2713 1914 794
2775 1996 850
2849 2099 921
2935 2221 1007
3030 2361 1110
2899 2169 970
2904 2177 976
2919 2198 990
2944 2234 1016
2980 2287 1055
3028 2358 1107
3086 2447 1174
3154 2551 1256
3230 2668 1353
3222 2656 1343
3226 2662 1348
3236 2678 1361
3253 2706 1385
3279 2746 1421
3313 2800 1469
3355 2867 1531
3404 2944 1608
3460 3030 1698
3524 3127 1810
3527 3131 1815
3534 3141 1827
3546 3158 1849
3563 3183 1881
3586 3215 1925
3615 3254 1982
3648 3299 2051
3686 3351 2133
3779 3480 2354
3780 3482 2359
3784 3488 2369
3792 3499 2389
3803 3514 2418
3817 3535 2457
3835 3561 2508
3856 3592 2569
3880 3628 2643
3965 3765 2951
3966 3766 2955
3968 3770 2964
3972 3777 2981
3978 3787 3006
3985 3801 3040
3995 3818 3085
4006 3838 3139
4018 3861 3204
4071 3979 3578
4072 3980 3581
4073 3982 3589
4074 3986 3604
4076 3992 3626
4079 4000 3656
4082 4010 3695
4085 4022 3743
4088 4035 3800
2675 1864 761
2682 1873 767
2699 1895 782
2730 1936 809
2774 1995 849
2832 2075 904
2903 2175 974
2985 2294 1060
3075 2429 1161
2742 1952 820
2748 1960 826
2765 1982 841
2793 2022 867
2835 2080 907
2890 2157 961
2957 2254 1031
3035 2369 1115
3121 2499 1215
2896 2165 967
2901 2173 973
2915 2193 987
2940 2229 1013
2977 2283 1052
3025 2354 1104
3084 2442 1171
3152 2547 1253
3228 2665 1350
3123 2502 1218
3127 2509 1223
3139 2527 1237
3159 2557 1261
3188 2602 1298
3226 2662 1348
3273 2736 1412
3327 2822 1490
3388 2919 1582
3382 2909 1572
3385 2914 1577
3393 2927 1590
3408 2949 1613
3429 2982 1647
3457 3026 1693
3492 3078 1752
3533 3139 1825
3579 3205 1911
3633 3278 2018
3635 3281 2023
3640 3289 2035
3650 3302 2056
3665 3322 2087
3684 3348 2129
3708 3381 2183
3736 3420 2249
3768 3465 2328
3846 3578 2540
3847 3580 2544
3851 3585 2555
3857 3594 2574
3866 3608 2601
3878 3626 2639
3893 3649 2687
3911 3677 2747
3930 3708 2817
4001 3828 3113
4002 3830 3117
4003 3833 3126
4007 3839 3142
4011 3848 3167
4018 3860 3200
4025 3875 3242
4034 3893 3295
4044 3913 3357
4084 4016 3720
4084 4017 3723
4084 4019 3732
4085 4022 3746
4087 4027 3767
4088 4034 3796
4090 4043 3834
4092 4053 3880
4094 4065 3936
2995 2310 1071
3000 2317 1077
3013 2337 1091
3036 2370 1116
3069 2420 1154
3113 2487 1206
3166 2569 1271
3229 2666 1352
3298 2776 1447
3045 2384 1127
3050 2391 1132
3062 2410 1146
3084 2443 1171
3116 2491 1209
3157 2555 1260
3208 2634 1324
3267 2727 1404
3333 2831 1498
3161 2561 1264
3165 2567 1270
3176 2585 1284
3195 2614 1308
3223 2658 1344
3259 2715 1393
3304 2786 1457
3357 2869 1534
3416 2962 1625
3335 2834 1501
3338 2840 1506
3347 2853 1519
3362 2877 1542
3384 2913 1576
3414 2960 1623
3451 3017 1683
3494 3083 1757
3543 3155 1845
3538 3147 1835
3541 3151 1839
3547 3161 1852
3559 3177 1873
3576 3201 1906
3598 3232 1949
3626 3270 2005
3659 3314 2074
3696 3365 2156
3740 3426 2258
3742 3428 2263
3747 3435 2274
3755 3446 2294
3766 3463 2323
3782 3485 2363
3802 3513 2415
3824 3546 2478
3850 3584 2553
3913 3680 2755
3914 3682 2759
3917 3687 2769
3922 3695 2786
3929 3706 2813
3939 3722 2848
3951 3742 2895
3965 3765 2951
3981 3792 3019
4035 3895 3302
4036 3896 3306
4037 3899 3314
4040 3904 3330
4043 3912 3353
4048 3922 3385
4054 3935 3426
4060 3950 3477
4067 3967 3537
4092 4054 3887
4092 4055 3890
4093 4057 3897
4093 4060 3911
4094 4064 3932
4094 4070 3960
4095 4077 3997
4095 4085 4041
4095 4095 4095
