Grading Edition presets/Gradent Map - Orange.3dl
#25pt 3DLUT created by 3D LUT Creator Pro (c) Oleg Sharonov
#Copyright Oleg Sharonov
#INPUTGAMMA sRGB IEC61966-2.1 v.2.10
#IMAGEPROFILE sRGB IEC61966-2.1 v.2.10
#OUTPUTGAMMA sRGB IEC61966-2.1 v.2.10
0 256 512 768 1023
0 0 0
56 26 101
545 265 512
1116 572 1023
1667 907 1548
445 852 0
469 859 136
1032 880 699
1523 1009 1271
1989 1266 1786
1626 2165 147
1641 2176 336
1690 2208 998
2242 2227 1734
2652 2376 2299
2887 3386 958
2898 3391 1104
2930 3406 1542
2990 3434 2273
3347 3448 2909
3947 3908 2880
3952 3911 2923
3967 3919 3052
3992 3935 3261
4025 3960 3511
1488 84 0
1503 109 110
1423 367 579
1595 654 1108
1943 977 1626
1609 870 0
1619 876 144
1690 922 740
1900 1065 1329
2181 1303 2055
2098 2195 161
2109 2205 355
2145 2236 1018
2490 2271 1766
2759 2422 2451
3042 3400 989
3051 3405 1134
3080 3420 1569
3132 3448 2296
3392 3469 2983
3967 3916 2935
3968 3920 2962
3981 3928 3089
4004 3944 3295
4034 3968 3540
2572 492 12
2590 511 141
2643 569 734
2524 865 1321
2590 1189 1837
2720 989 54
2731 1000 212
2766 1036 842
2696 1242 1487
2788 1513 2188
2978 2284 210
2984 2293 414
3003 2321 1079
3059 2405 1863
3123 2502 3048
3411 3444 1089
3417 3448 1230
3435 3462 1657
3469 3488 2370
3582 3521 3124
4015 3941 3109
4016 3944 3133
4019 3956 3209
4036 3971 3405
4058 3994 3635
3301 1000 212
3312 1016 343
3344 1069 803
3398 1170 1597
3308 1591 2142
3395 1380 310
3403 1397 457
3428 1453 925
3471 1558 1717
3433 1886 2403
3591 2503 647
3596 2516 800
3611 2555 1260
3637 2627 2028
3684 2713 3078
3807 3520 1280
3809 3524 1416
3818 3537 1824
3835 3561 2508
3861 3600 3331
4065 3988 3421
4066 3991 3439
4070 4000 3499
4074 4018 3610
4085 4039 3815
3738 1762 694
3744 1783 801
3760 1849 1131
3790 1971 1706
3829 2151 2491
3788 2099 828
3832 2060 894
3843 2120 1251
3863 2229 1862
3890 2390 2677
3901 2935 1242
3924 2925 1295
4002 2851 1516
4005 2918 2254
4003 3038 3122
4001 3654 2186
4005 3658 2236
4017 3670 2401
4044 3683 2761
4047 3729 3382
4092 4055 3847
4093 4057 3861
4094 4064 3905
4095 4077 3985
4095 4095 4095
