Grading Edition presets/Sepia - Preserve Red.3dl
#25pt 3DLUT created by 3D LUT Creator Pro (c) Oleg Sharonov
#Copyright Oleg Sharonov
#INPUTGAMMA sRGB IEC61966-2.1 v.2.10
#IMAGEPROFILE sRGB IEC61966-2.1 v.2.10
#OUTPUTGAMMA sRGB IEC61966-2.1 v.2.10
0 128 256 384 512 640 768 896 1023
72 22 0
125 73 0
255 202 148
426 367 346
598 534 539
771 703 727
944 874 915
1118 1045 1100
1292 1216 1283
428 443 276
448 466 369
545 511 480
650 599 595
773 714 730
911 847 878
1058 991 1037
1214 1143 1201
1374 1299 1369
840 902 688
851 914 724
874 939 839
976 975 950
1072 1042 1051
1177 1131 1163
1293 1238 1285
1421 1358 1417
1557 1490 1559
1257 1367 1086
1263 1374 1107
1279 1392 1172
1305 1420 1295
1411 1451 1408
1507 1506 1507
1605 1581 1609
1710 1670 1717
1824 1773 1833
1677 1836 1478
1681 1841 1492
1692 1854 1530
1711 1875 1617
1738 1905 1744
1847 1933 1857
1945 1981 1957
2041 2045 2054
2141 2124 2156
2098 2308 1865
2102 2312 1876
2110 2322 1903
2125 2338 1961
2146 2362 2058
2174 2394 2187
2285 2419 2301
2385 2462 2402
2482 2520 2498
2522 2783 2248
2524 2786 2256
2531 2794 2278
2543 2807 2317
2561 2826 2392
2583 2852 2496
2612 2884 2625
2724 2908 2741
2827 2947 2842
2947 3259 2628
2949 3262 2635
2954 3268 2652
2968 3279 2686
2991 3292 2742
3021 3311 2829
3058 3335 2933
3106 3364 3051
3250 3382 3135
3571 3670 3155
3574 3673 3159
3581 3678 3169
3594 3687 3188
3614 3700 3216
3641 3718 3257
3675 3742 3310
3716 3770 3371
3767 3805 3438
584 22 0
319 207 156
392 311 283
517 443 436
664 590 604
821 747 777
985 909 955
1151 1073 1133
1320 1240 1312
616 498 156
584 519 425
632 567 542
715 649 651
825 757 777
954 883 918
1095 1021 1070
1244 1169 1229
1400 1322 1396
891 938 709
919 943 759
941 967 867
1026 1004 980
1113 1070 1081
1211 1157 1190
1323 1261 1310
1447 1380 1440
1580 1508 1582
1281 1392 1093
1306 1393 1129
1322 1411 1189
1348 1439 1312
1444 1470 1426
1535 1524 1525
1630 1598 1626
1732 1687 1734
1843 1789 1853
1693 1854 1483
1711 1855 1508
1722 1867 1545
1741 1888 1628
1769 1918 1755
1872 1946 1870
1966 1994 1970
2060 2058 2067
2157 2136 2172
2111 2322 1868
2125 2322 1887
2133 2332 1915
2148 2349 1969
2169 2372 2066
2197 2403 2195
2304 2429 2311
2402 2472 2411
2495 2530 2511
2532 2793 2251
2543 2794 2265
2549 2802 2287
2561 2815 2326
2579 2834 2398
2601 2860 2502
2630 2892 2632
2740 2916 2748
2837 2956 2853
2955 3268 2630
2964 3268 2642
2972 3274 2662
2987 3284 2696
3011 3298 2750
3040 3316 2836
3077 3340 2939
3124 3370 3055
3261 3389 3141
3581 3677 3161
3583 3679 3165
3591 3684 3175
3604 3693 3194
3623 3706 3222
3650 3724 3263
3684 3748 3316
3725 3777 3377
3776 3812 3444
1106 22 0
906 292 217
652 493 493
710 594 608
812 713 741
940 847 887
1081 992 1045
1233 1143 1208
1389 1300 1376
1128 498 75
1106 519 425
833 682 668
870 759 772
951 855 885
1058 967 1012
1182 1094 1150
1319 1232 1299
1465 1378 1457
1163 995 491
1145 1006 655
1107 1032 929
1150 1073 1051
1212 1137 1152
1296 1221 1256
1397 1320 1370
1512 1433 1495
1637 1555 1641
1379 1442 1140
1389 1447 1165
1429 1455 1239
1453 1482 1354
1528 1515 1471
1604 1570 1571
1691 1642 1670
1787 1729 1776
1892 1827 1902
1752 1893 1507
1761 1896 1525
1798 1900 1583
1818 1921 1657
1844 1949 1785
1934 1979 1901
2019 2026 2001
2107 2090 2099
2197 2167 2212
2146 2355 1879
2157 2356 1896
2191 2357 1943
2206 2374 1993
2227 2397 2088
2255 2427 2216
2353 2454 2334
2445 2497 2435
2528 2555 2544
2557 2820 2257
2568 2821 2272
2595 2822 2309
2606 2836 2348
2625 2855 2415
2647 2880 2519
2676 2911 2649
2779 2936 2766
2864 2977 2879
2985 3287 2643
2996 3287 2656
3022 3287 2689
3036 3297 2723
3059 3311 2772
3088 3329 2854
3125 3354 2954
3170 3383 3067
3289 3407 3157
3604 3693 3176
3607 3695 3181
3614 3700 3191
3627 3709 3209
3646 3722 3237
3673 3740 3276
3706 3763 3329
3748 3792 3390
3798 3827 3457
1636 22 0
1503 313 241
1219 608 559
990 784 819
1040 884 928
1127 996 1050
1239 1121 1184
1368 1256 1329
1507 1399 1480
1665 482 54
1636 519 425
1387 737 673
1115 911 936
1151 998 1039
1228 1098 1152
1329 1212 1275
1446 1337 1409
1576 1470 1555
1649 1012 383
1654 1014 590
1635 1032 929
1354 1179 1159
1380 1243 1263
1440 1322 1365
1523 1415 1472
1623 1520 1589
1737 1636 1728
1716 1500 816
1705 1507 925
1678 1523 1142
1636 1552 1419
1675 1589 1546
1731 1644 1648
1799 1715 1745
1883 1799 1847
1977 1891 1990
1941 1940 1508
1900 1952 1573
1903 1964 1628
1950 1975 1715
1976 2002 1834
2045 2033 1955
2114 2083 2056
2191 2146 2153
2270 2219 2285
2238 2402 1923
2245 2404 1936
2261 2411 1969
2308 2416 2044
2330 2439 2127
2355 2469 2257
2438 2497 2374
2519 2541 2476
2588 2598 2604
2622 2861 2285
2628 2863 2296
2642 2869 2322
2688 2870 2388
2706 2890 2446
2728 2914 2548
2757 2945 2680
2849 2971 2798
2913 3014 2928
3046 3319 2673
3053 3319 2684
3076 3320 2714
3119 3320 2768
3139 3335 2815
3168 3354 2886
3204 3378 2981
3248 3408 3089
3339 3437 3186
3646 3721 3205
3649 3723 3209
3656 3728 3219
3668 3737 3236
3687 3750 3264
3714 3769 3301
3747 3791 3354
3787 3820 3415
3837 3854 3481
2169 22 0
2073 321 251
1852 649 601
1521 925 889
1331 1078 1139
1375 1177 1245
1452 1286 1360
1553 1405 1486
1669 1533 1621
2196 474 47
2169 519 425
1971 761 696
1646 1014 968
1422 1170 1223
1458 1262 1326
1529 1364 1436
1623 1475 1555
1733 1597 1688
2211 991 359
2204 999 580
2168 1032 929
1901 1219 1142
1618 1379 1403
1643 1456 1503
1702 1543 1605
1782 1641 1714
1882 1747 1844
2166 1533 675
2172 1533 811
2183 1534 1078
2168 1552 1419
1882 1690 1644
1908 1747 1752
1954 1817 1851
2022 1897 1951
2108 1984 2089
2272 2009 1134
2265 2014 1212
2245 2025 1383
2212 2046 1624
2168 2076 1902
2205 2112 2030
2256 2161 2136
2318 2224 2233
2383 2292 2399
2526 2444 1794
2515 2449 1842
2475 2463 1966
2424 2488 2095
2478 2500 2188
2505 2528 2310
2568 2558 2433
2635 2602 2538
2683 2658 2699
2734 2916 2338
2739 2918 2348
2751 2924 2373
2775 2932 2420
2827 2939 2505
2850 2964 2594
2875 2993 2726
2955 3021 2845
2998 3065 2994
3151 3359 2736
3158 3360 2745
3172 3363 2768
3198 3368 2808
3253 3371 2879
3281 3391 2936
3313 3416 3024
3352 3447 3126
3412 3483 3228
3715 3760 3254
3717 3763 3257
3721 3769 3264
3730 3779 3278
3748 3792 3304
3774 3810 3340
3806 3833 3390
3846 3861 3451
3894 3895 3516
2703 22 0
2630 325 255
2454 671 624
2179 978 937
1815 1241 1214
1672 1374 1453
1713 1473 1557
1783 1579 1669
1875 1694 1789
2726 468 39
2703 519 425
2542 776 711
2276 1053 1002
1910 1310 1273
1743 1445 1518
1778 1539 1619
1844 1640 1728
1932 1750 1848
2754 974 338
2743 988 571
2704 1031 928
2477 1238 1157
2126 1469 1408
1903 1611 1663
1930 1695 1762
1986 1787 1865
2067 1885 1987
2745 1510 652
2745 1512 796
2740 1521 1072
2703 1552 1420
2428 1723 1614
2139 1873 1876
2159 1943 1977
2206 2020 2075
2280 2101 2209
2682 2060 956
2687 2059 1053
2700 2058 1263
2715 2060 1560
2703 2076 1902
2416 2210 2123
2440 2262 2235
2482 2325 2334
2545 2386 2500
2831 2521 1448
2826 2525 1507
2810 2533 1643
2784 2549 1848
2748 2573 2101
2704 2604 2378
2739 2638 2508
2784 2682 2640
2827 2730 2842
3094 2955 2103
3088 2959 2135
3071 2968 2212
3029 2984 2380
2954 3015 2560
3010 3028 2658
3037 3057 2782
3088 3088 2918
3131 3130 3067
3289 3413 2821
3294 3414 2829
3306 3418 2850
3328 3424 2886
3359 3435 2939
3398 3450 3001
3430 3475 3077
3466 3506 3178
3511 3543 3286
3807 3813 3323
3809 3815 3325
3813 3821 3332
3821 3831 3343
3833 3847 3361
3854 3866 3393
3886 3889 3438
3925 3916 3499
3972 3949 3564
3240 25 0
3182 327 259
3039 683 636
2805 1012 972
2495 1302 1263
2102 1559 1540
2016 1671 1765
2053 1770 1868
2118 1875 1976
3260 467 39
3241 519 425
3106 787 723
2881 1081 1029
2574 1359 1311
2177 1614 1586
2072 1728 1816
2107 1823 1917
2170 1924 2027
3291 963 326
3278 981 565
3241 1031 928
3043 1254 1171
2753 1499 1429
2356 1744 1695
2205 1865 1935
2233 1953 2034
2293 2044 2150
3304 1490 628
3299 1495 780
3285 1511 1065
3241 1552 1419
3003 1736 1623
2634 1954 1863
2412 2086 2120
2432 2164 2218
2493 2239 2350
3274 2035 942
3276 2036 1042
3279 2038 1257
3276 2047 1558
3240 2076 1902
2961 2237 2085
2669 2381 2348
2688 2445 2451
2750 2501 2616
3198 2589 1230
3203 2589 1303
3214 2588 1471
3233 2587 1725
3251 2588 2037
3240 2604 2378
2952 2735 2598
2984 2778 2733
3036 2819 2936
3393 3036 1759
3388 3039 1806
3376 3046 1917
3355 3058 2092
3324 3077 2316
3286 3102 2574
3241 3134 2850
3274 3166 3004
3309 3205 3169
3646 3466 2513
3641 3467 2548
3629 3473 2628
3610 3483 2751
3578 3498 2930
3533 3527 3079
3565 3552 3141
3599 3582 3244
3639 3617 3362
3933 3878 3392
3931 3881 3400
3925 3889 3418
3933 3898 3429
3946 3914 3445
3962 3934 3468
3986 3959 3503
4023 3986 3560
4069 4019 3625
3780 25 0
3732 329 261
3613 691 645
3413 1033 994
3140 1346 1305
2805 1625 1581
2383 1879 1873
2360 1970 2074
2396 2069 2175
3796 466 39
3780 520 426
3666 794 730
3473 1101 1048
3205 1398 1348
2870 1671 1621
2445 1924 1909
2407 2017 2116
2443 2112 2220
3827 954 317
3815 976 562
3780 1031 928
3606 1267 1183
3353 1527 1453
3024 1784 1716
2594 2033 1997
2519 2131 2216
2557 2217 2327
3851 1473 610
3844 1480 766
3825 1503 1059
3781 1551 1419
3565 1750 1635
3260 1975 1872
2838 2212 2138
2700 2321 2376
2745 2392 2505
3845 2013 917
3845 2015 1022
3840 2021 1245
3825 2038 1552
3779 2077 1902
3536 2247 2090
3154 2455 2324
2934 2580 2582
2995 2629 2745
3799 2564 1225
3802 2564 1300
3808 2565 1470
3815 2567 1725
3811 2578 2040
3780 2604 2379
3549 2740 2543
3224 2889 2836
3273 2929 3013
3715 3121 1498
3719 3121 1556
3729 3120 1693
3746 3119 1910
3746 3122 2230
3748 3129 2555
3780 3134 2850
3497 3260 3074
3529 3300 3226
3901 3552 2349
3893 3554 2399
3875 3559 2511
3848 3569 2672
3819 3584 2852
3809 3606 2980
3805 3634 3110
3780 3667 3319
3811 3699 3466
4095 3960 3397
4095 3962 3402
4095 3967 3414
4095 3977 3435
4095 3992 3467
4095 4012 3522
4095 4040 3597
4095 4071 3634
4095 4095 3698
4095 25 0
4095 331 263
4095 696 651
4006 1048 1009
3765 1377 1336
3465 1677 1629
3111 1947 1897
2659 2198 2218
2705 2270 2381
4095 523 174
4095 519 425
4095 670 614
4095 1017 978
3874 1377 1336
3556 1695 1647
3184 1977 1924
2715 2234 2249
2749 2308 2419
4095 1040 526
4095 1037 664
4095 1032 929
4095 1171 1099
4095 1360 1319
3789 1732 1682
3370 2046 1990
2856 2323 2323
2856 2400 2514
4095 1564 876
4095 1562 961
4095 1558 1148
4095 1552 1419
4095 1688 1581
4061 1869 1791
3705 2146 2084
3104 2465 2442
3034 2556 2671
4095 2092 1233
4095 2091 1289
4095 2088 1422
4095 2083 1631
4095 2076 1902
4095 2212 2061
3945 2393 2271
3482 2645 2593
3280 2769 2886
4095 2622 1608
4095 2621 1647
4095 2619 1741
4095 2617 1897
4095 2611 2110
4095 2604 2378
4095 2741 2538
3769 2935 2776
3514 3064 3089
4095 3148 2009
4095 3148 2036
4095 3148 2103
4095 3148 2218
4095 3146 2380
4095 3142 2589
4095 3134 2850
4053 3279 3019
3752 3416 3295
4086 3661 2457
4090 3662 2476
4095 3664 2523
4095 3666 2605
4095 3669 2723
4095 3672 2879
4095 3673 3073
4095 3667 3319
4023 3798 3528
4095 4064 3524
4095 4066 3528
4095 4071 3538
4095 4080 3556
4095 4094 3582
4095 4095 3618
4095 4095 3663
4095 4095 3719
4095 4095 3784
