Grading Edition presets/Sepia - Preserve Red.3dl
#25pt 3DLUT created by 3D LUT Creator Pro (c) Oleg Sharonov
#Copyright Oleg Sharonov
#INPUTGAMMA sRGB IEC61966-2.1 v.2.10
#IMAGEPROFILE sRGB IEC61966-2.1 v.2.10
#OUTPUTGAMMA sRGB IEC61966-2.1 v.2.10
0 43 86 128 171 214 256 299 341 384 427 469 512 555 597 640 682 725 768 810 853 896 938 981 1023 
72 22 0
84 34 0
100 49 0
125 73 0
157 104 13
202 147 78
255 202 148
314 256 217
369 309 279
426 367 346
483 422 410
541 478 475
598 534 539
656 590 602
713 647 665
771 703 727
829 761 791
886 816 853
944 874 915
1002 931 977
1060 988 1038
1118 1045 1100
1176 1101 1161
1234 1159 1222
1292 1216 1283
167 147 0
176 156 39
202 169 82
234 190 118
267 218 161
305 254 206
347 292 255
392 337 307
439 381 360
488 428 415
538 478 472
590 529 530
643 580 587
696 632 646
750 684 706
805 738 765
860 792 824
915 847 884
971 901 944
1028 957 1004
1084 1012 1064
1140 1067 1124
1197 1123 1183
1254 1179 1243
1311 1236 1303
292 292 132
299 301 164
307 309 206
341 319 247
373 337 283
405 363 322
441 393 362
476 425 402
517 463 448
559 503 496
604 545 545
650 589 595
699 637 649
748 684 702
798 734 757
849 783 813
901 834 869
953 885 925
1006 938 982
1061 991 1039
1115 1044 1097
1170 1098 1155
1225 1152 1213
1281 1206 1271
1336 1261 1329
428 443 276
433 449 294
439 455 324
448 466 369
483 474 410
514 489 445
545 511 480
578 537 517
613 567 556
650 599 595
690 635 639
730 674 683
773 714 730
817 757 778
863 801 828
911 847 878
959 894 931
1008 942 983
1058 991 1037
1109 1041 1091
1161 1091 1146
1214 1143 1201
1266 1194 1257
1320 1247 1312
1374 1299 1369
565 595 415
569 599 428
573 605 448
580 613 482
589 623 528
626 631 570
657 645 604
689 663 639
721 687 674
754 713 709
789 744 747
825 775 787
863 811 828
903 848 871
945 887 915
987 928 962
1033 971 1010
1078 1014 1058
1125 1059 1107
1173 1106 1158
1221 1153 1209
1271 1202 1261
1321 1251 1314
1372 1300 1367
1424 1351 1420
703 749 552
705 752 563
709 756 576
715 762 601
722 770 638
732 780 684
768 788 725
801 802 761
832 818 795
864 839 829
896 863 863
930 891 899
964 920 937
1001 952 975
1039 987 1016
1078 1023 1057
1119 1062 1101
1161 1101 1145
1204 1143 1191
1249 1186 1238
1294 1229 1285
1340 1274 1334
1388 1320 1383
1436 1367 1433
1485 1414 1484
840 902 688
843 905 695
846 909 706
851 914 724
857 920 754
864 929 792
874 939 839
911 947 880
945 959 916
976 975 950
1009 995 984
1040 1016 1017
1072 1042 1051
1106 1069 1087
1141 1099 1124
1177 1131 1163
1215 1165 1202
1254 1201 1243
1293 1238 1285
1335 1277 1328
1378 1317 1372
1421 1358 1417
1466 1401 1464
1511 1445 1511
1557 1490 1559
979 1057 822
982 1059 828
984 1062 837
988 1067 851
993 1073 874
1000 1079 906
1008 1089 946
1018 1100 992
1055 1107 1033
1089 1118 1069
1121 1132 1104
1153 1150 1137
1185 1171 1171
1217 1195 1204
1249 1221 1239
1283 1248 1274
1318 1278 1311
1355 1311 1349
1392 1344 1388
1430 1379 1427
1470 1416 1469
1511 1454 1511
1552 1493 1554
1595 1533 1598
1638 1575 1643
1118 1212 954
1120 1213 960
1121 1216 967
1125 1220 979
1130 1225 995
1136 1232 1023
1143 1240 1057
1151 1249 1098
1161 1259 1144
1198 1267 1185
1233 1277 1222
1266 1291 1256
1298 1308 1290
1330 1328 1323
1362 1350 1356
1394 1374 1390
1427 1400 1424
1461 1428 1459
1496 1458 1495
1532 1490 1533
1569 1523 1571
1607 1558 1611
1646 1594 1651
1687 1632 1692
1728 1670 1734
1257 1367 1086
1258 1369 1091
1260 1371 1097
1263 1374 1107
1268 1379 1121
1273 1385 1143
1279 1392 1172
1286 1400 1207
1295 1409 1248
1305 1420 1295
1342 1427 1336
1378 1437 1373
1411 1451 1408
1443 1467 1441
1475 1485 1474
1507 1506 1507
1539 1529 1540
1572 1554 1574
1605 1581 1609
1639 1609 1643
1674 1639 1680
1710 1670 1717
1747 1703 1755
1785 1738 1794
1824 1773 1833
1397 1523 1218
1398 1525 1222
1400 1527 1227
1402 1529 1236
1406 1533 1248
1411 1539 1264
1416 1545 1290
1423 1552 1321
1430 1561 1357
1439 1571 1399
1449 1582 1445
1486 1588 1486
1523 1599 1524
1556 1611 1558
1589 1626 1592
1621 1643 1625
1653 1663 1657
1685 1685 1690
1717 1709 1724
1750 1734 1757
1783 1761 1792
1818 1790 1827
1853 1820 1863
1889 1851 1899
1926 1884 1937
1537 1679 1348
1538 1680 1352
1539 1683 1357
1541 1685 1364
1544 1689 1375
1549 1694 1389
1554 1699 1409
1560 1706 1437
1567 1713 1469
1575 1722 1506
1583 1732 1548
1593 1743 1594
1631 1750 1636
1668 1760 1673
1702 1771 1708
1735 1786 1742
1767 1803 1775
1799 1822 1807
1831 1842 1840
1863 1865 1873
1895 1889 1906
1928 1915 1939
1962 1942 1974
1997 1971 2009
2032 2001 2045
1677 1836 1478
1677 1837 1481
1679 1839 1485
1681 1841 1492
1684 1845 1502
1687 1849 1514
1692 1854 1530
1698 1860 1554
1704 1867 1584
1711 1875 1617
1719 1884 1655
1728 1894 1697
1738 1905 1744
1776 1912 1785
1813 1921 1822
1847 1933 1857
1881 1946 1891
1913 1963 1924
1945 1981 1957
1977 2001 1989
2009 2022 2022
2041 2045 2054
2074 2070 2088
2107 2096 2121
2141 2124 2156
1817 1993 1607
1818 1994 1610
1819 1996 1614
1821 1998 1620
1823 2001 1629
1827 2005 1640
1831 2009 1654
1837 2015 1673
1842 2022 1700
1849 2029 1730
1856 2037 1765
1864 2046 1803
1873 2056 1845
1883 2068 1892
1921 2074 1933
1958 2083 1970
1993 2095 2006
2027 2108 2040
2059 2123 2073
2092 2141 2106
2124 2159 2138
2156 2180 2170
2188 2203 2203
2220 2226 2235
2253 2252 2269
1958 2150 1736
1958 2151 1739
1959 2153 1743
1961 2154 1748
1963 2157 1756
1966 2161 1766
1970 2166 1779
1975 2171 1794
1981 2177 1817
1987 2183 1845
1993 2191 1876
2001 2199 1911
2009 2209 1950
2018 2219 1993
2029 2231 2039
2067 2237 2080
2104 2245 2118
2139 2257 2154
2173 2269 2188
2206 2284 2221
2238 2301 2254
2270 2319 2286
2302 2339 2318
2334 2361 2350
2367 2383 2383
2098 2308 1865
2099 2309 1867
2100 2310 1870
2102 2312 1876
2104 2315 1883
2106 2318 1892
2110 2322 1903
2115 2327 1918
2120 2332 1935
2125 2338 1961
2131 2345 1990
2138 2353 2022
2146 2362 2058
2155 2372 2097
2164 2382 2140
2174 2394 2187
2212 2400 2228
2250 2408 2266
2285 2419 2301
2319 2431 2336
2353 2446 2369
2385 2462 2402
2417 2480 2434
2450 2499 2466
2482 2520 2498
2239 2466 1993
2240 2467 1995
2241 2468 1998
2242 2470 2003
2244 2472 2009
2247 2475 2018
2250 2479 2028
2254 2483 2041
2259 2489 2056
2265 2494 2078
2270 2501 2105
2277 2508 2135
2284 2516 2168
2292 2525 2204
2300 2535 2244
2310 2546 2287
2320 2557 2333
2358 2563 2374
2396 2572 2412
2431 2582 2448
2466 2594 2483
2500 2608 2516
2532 2623 2549
2565 2640 2581
2597 2659 2613
2380 2624 2120
2381 2625 2122
2382 2626 2125
2383 2627 2129
2385 2630 2135
2387 2633 2143
2390 2636 2153
2394 2640 2165
2398 2645 2179
2404 2650 2195
2409 2657 2220
2415 2663 2248
2422 2671 2279
2429 2679 2313
2437 2688 2350
2446 2698 2390
2455 2709 2433
2465 2720 2479
2503 2727 2520
2542 2735 2559
2578 2745 2595
2612 2756 2629
2646 2770 2663
2679 2785 2696
2712 2802 2728
2522 2783 2248
2522 2783 2250
2523 2784 2252
2524 2786 2256
2526 2788 2262
2528 2790 2269
2531 2794 2278
2534 2798 2289
2538 2802 2302
2543 2807 2317
2549 2813 2337
2554 2819 2363
2561 2826 2392
2567 2834 2423
2575 2843 2458
2583 2852 2496
2592 2862 2536
2601 2873 2579
2612 2884 2625
2650 2891 2667
2688 2899 2704
2724 2908 2741
2759 2920 2775
2793 2933 2809
2827 2947 2842
2663 2941 2375
2664 2942 2377
2664 2943 2379
2666 2944 2383
2667 2946 2388
2669 2949 2394
2672 2952 2403
2675 2955 2413
2679 2960 2425
2683 2964 2439
2689 2970 2455
2694 2976 2479
2700 2983 2506
2706 2990 2535
2713 2998 2568
2721 3006 2603
2729 3016 2641
2738 3026 2682
2748 3037 2725
2758 3048 2771
2796 3055 2812
2834 3063 2850
2871 3072 2886
2906 3083 2921
2941 3096 2955
2805 3100 2501
2805 3100 2503
2806 3101 2505
2807 3103 2509
2808 3105 2513
2810 3107 2520
2813 3110 2527
2815 3113 2537
2819 3117 2548
2823 3122 2561
2828 3127 2576
2834 3133 2595
2839 3139 2621
2845 3146 2648
2852 3153 2679
2859 3162 2712
2867 3170 2747
2875 3180 2786
2884 3190 2826
2894 3201 2870
2904 3212 2916
2942 3219 2957
2992 3224 2991
3043 3231 3019
3090 3240 3045
2947 3259 2628
2947 3260 2629
2948 3260 2631
2949 3262 2635
2950 3263 2639
2952 3266 2645
2954 3268 2652
2957 3272 2661
2961 3275 2672
2968 3279 2686
2975 3283 2701
2983 3287 2719
2991 3292 2742
3000 3298 2769
3010 3304 2798
3021 3311 2829
3032 3318 2862
3045 3326 2896
3058 3335 2933
3073 3344 2970
3089 3354 3010
3106 3364 3051
3157 3368 3082
3206 3374 3110
3250 3382 3135
3156 3396 2805
3157 3397 2806
3158 3397 2808
3159 3398 2811
3161 3400 2815
3164 3402 2821
3167 3404 2827
3171 3407 2835
3176 3410 2844
3182 3413 2855
3188 3418 2868
3196 3422 2882
3205 3427 2898
3213 3433 2919
3222 3439 2942
3233 3446 2967
3244 3453 2993
3256 3461 3021
3269 3470 3050
3283 3479 3081
3298 3489 3112
3314 3499 3145
3331 3510 3179
3375 3517 3207
3416 3525 3231
3366 3533 2982
3366 3533 2983
3367 3534 2984
3369 3535 2987
3371 3536 2990
3373 3538 2994
3376 3540 3000
3380 3543 3006
3385 3546 3014
3390 3549 3022
3396 3553 3033
3403 3558 3044
3411 3563 3056
3420 3569 3072
3429 3575 3090
3439 3581 3110
3450 3589 3131
3461 3597 3153
3474 3605 3177
3487 3614 3201
3502 3624 3227
3517 3634 3253
3534 3646 3281
3551 3657 3309
3588 3666 3332
3571 3670 3155
3572 3671 3156
3573 3672 3157
3574 3673 3159
3576 3674 3161
3578 3676 3165
3581 3678 3169
3585 3680 3175
3589 3683 3181
3594 3687 3188
3600 3691 3196
3607 3695 3205
3614 3700 3216
3623 3706 3227
3631 3712 3241
3641 3718 3257
3651 3725 3274
3663 3733 3291
3675 3742 3310
3688 3751 3330
3702 3760 3350
3716 3770 3371
3732 3782 3393
3749 3793 3416
3767 3805 3438
237 22 0
128 64 0
141 79 0
164 104 10
196 138 65
243 181 127
289 229 183
343 279 245
396 333 307
448 384 367
503 439 432
558 492 493
613 547 554
670 603 618
725 657 678
782 714 741
840 769 802
896 825 863
953 881 924
1011 938 986
1067 994 1047
1125 1051 1107
1183 1108 1168
1240 1164 1229
1298 1222 1290
258 172 0
240 184 71
253 196 115
275 218 154
302 247 192
336 277 233
373 315 279
417 356 329
461 401 382
507 445 434
555 492 489
606 542 545
657 592 601
709 643 659
762 695 717
816 747 775
871 802 835
925 855 893
980 909 952
1036 964 1012
1091 1019 1071
1148 1074 1130
1204 1129 1190
1261 1185 1249
1317 1241 1310
329 315 154
343 317 185
354 329 229
377 339 270
403 358 306
430 381 342
463 409 381
497 440 421
535 477 465
577 517 511
620 559 559
665 603 610
712 648 661
760 694 714
809 743 768
860 792 822
911 842 878
963 894 934
1016 946 990
1069 997 1047
1123 1051 1105
1177 1104 1162
1233 1158 1220
1287 1212 1277
1343 1267 1336
449 460 285
465 463 311
470 468 337
480 478 382
508 488 425
538 504 461
566 525 496
597 549 531
629 579 570
666 612 610
703 647 652
743 684 695
785 724 741
829 767 789
874 811 838
921 855 888
968 902 939
1016 949 991
1067 998 1045
1117 1047 1098
1168 1097 1152
1221 1148 1207
1273 1200 1263
1326 1252 1318
1380 1305 1375
578 609 419
593 609 441
597 615 458
604 623 491
613 632 538
645 642 580
675 655 616
704 674 650
736 697 684
768 724 720
801 753 757
836 784 796
874 820 837
914 856 880
955 895 925
997 936 970
1041 978 1017
1087 1021 1066
1133 1067 1114
1180 1112 1164
1228 1159 1215
1277 1207 1267
1327 1256 1319
1378 1305 1372
1429 1356 1426
713 760 555
724 760 573
727 764 586
734 770 609
741 778 645
751 789 693
783 797 733
815 810 769
846 827 804
876 847 837
908 872 873
940 898 907
974 928 944
1010 960 983
1047 993 1023
1086 1030 1064
1127 1068 1107
1168 1107 1151
1211 1148 1197
1255 1191 1243
1300 1235 1291
1347 1279 1339
1394 1325 1388
1441 1372 1439
1490 1419 1490
849 911 690
858 911 703
861 915 714
866 920 730
872 927 760
880 936 798
890 946 845
924 954 886
957 966 923
988 982 957
1019 1001 991
1049 1023 1024
1082 1048 1059
1115 1076 1095
1150 1105 1131
1185 1137 1169
1222 1171 1208
1260 1206 1248
1301 1244 1291
1341 1282 1334
1383 1322 1377
1426 1363 1423
1471 1406 1468
1516 1449 1516
1562 1494 1564
987 1064 824
994 1065 835
996 1068 844
1001 1072 858
1006 1078 879
1012 1085 911
1021 1094 950
1030 1105 997
1065 1112 1038
1099 1123 1075
1131 1138 1109
1162 1156 1143
1193 1177 1176
1225 1200 1210
1257 1226 1244
1291 1254 1280
1325 1284 1316
1361 1315 1354
1398 1349 1393
1436 1384 1432
1476 1420 1473
1516 1458 1515
1558 1497 1558
1600 1538 1602
1643 1579 1648
1124 1218 956
1130 1218 966
1133 1221 973
1137 1225 985
1142 1230 1001
1147 1237 1028
1154 1244 1061
1162 1253 1102
1172 1264 1148
1208 1271 1189
1242 1282 1226
1275 1296 1261
1306 1313 1295
1337 1332 1327
1369 1354 1361
1401 1379 1394
1433 1405 1429
1467 1433 1464
1502 1463 1500
1538 1494 1537
1575 1527 1576
1613 1562 1615
1652 1598 1656
1691 1635 1696
1733 1674 1740
1263 1373 1088
1269 1373 1096
1270 1375 1103
1273 1379 1112
1277 1384 1127
1283 1389 1147
1289 1396 1176
1296 1405 1211
1305 1414 1252
1315 1425 1299
1351 1432 1340
1386 1442 1377
1419 1455 1412
1450 1471 1445
1482 1489 1478
1513 1510 1511
1545 1533 1544
1578 1558 1578
1611 1584 1612
1644 1613 1647
1680 1643 1684
1715 1674 1721
1752 1707 1758
1790 1742 1797
1828 1777 1838
1402 1528 1219
1407 1529 1226
1408 1530 1232
1411 1533 1240
1415 1537 1252
1419 1543 1268
1425 1549 1293
1432 1556 1324
1439 1565 1361
1448 1574 1402
1458 1585 1449
1495 1592 1490
1530 1602 1527
1563 1614 1562
1595 1630 1596
1627 1647 1628
1658 1667 1661
1690 1689 1694
1722 1712 1727
1755 1737 1761
1789 1765 1795
1823 1793 1830
1858 1823 1866
1894 1855 1903
1930 1887 1941
