Grading Edition presets/Sepia - Preserve Red.3dl
#25pt 3DLUT created by 3D LUT Creator Pro (c) Oleg Sharonov
#Copyright Oleg Sharonov
#INPUTGAMMA sRGB IEC61966-2.1 v.2.10
#IMAGEPROFILE sRGB IEC61966-2.1 v.2.10
#OUTPUTGAMMA sRGB IEC61966-2.1 v.2.10
0 256 512 768 1023
72 22 0
255 202 148
598 534 539
944 874 915
1292 1216 1283
840 902 688
874 939 839
1072 1042 1051
1293 1238 1285
1557 1490 1559
1677 1836 1478
1692 1854 1530
1738 1905 1744
1945 1981 1957
2141 2124 2156
2522 2783 2248
2531 2794 2278
2561 2826 2392
2612 2884 2625
2827 2947 2842
3571 3670 3155
3581 3678 3169
3614 3700 3216
3675 3742 3310
3767 3805 3438
1106 22 0
652 493 493
812 713 741
1081 992 1045
1389 1300 1376
1163 995 491
1107 1032 929
1212 1137 1152
1397 1320 1370
1637 1555 1641
1752 1893 1507
1798 1900 1583
1844 1949 1785
2019 2026 2001
2197 2167 2212
2557 2820 2257
2595 2822 2309
2625 2855 2415
2676 2911 2649
2864 2977 2879
3604 3693 3176
3614 3700 3191
3646 3722 3237
3706 3763 3329
3798 3827 3457
2169 22 0
1852 649 601
1331 1078 1139
1452 1286 1360
1669 1533 1621
2211 991 359
2168 1032 929
1618 1379 1403
1702 1543 1605
1882 1747 1844
2272 2009 1134
2245 2025 1383
2168 2076 1902
2256 2161 2136
2383 2292 2399
2734 2916 2338
2751 2924 2373
2827 2939 2505
2875 2993 2726
2998 3065 2994
3715 3760 3254
3721 3769 3264
3748 3792 3304
3806 3833 3390
3894 3895 3516
3240 25 0
3039 683 636
2495 1302 1263
2016 1671 1765
2118 1875 1976
3291 963 326
3241 1031 928
2753 1499 1429
2205 1865 1935
2293 2044 2150
3274 2035 942
3279 2038 1257
3240 2076 1902
2669 2381 2348
2750 2501 2616
3393 3036 1759
3376 3046 1917
3324 3077 2316
3241 3134 2850
3309 3205 3169
3933 3878 3392
3925 3889 3418
3946 3914 3445
3986 3959 3503
4069 4019 3625
4095 25 0
4095 696 651
3765 1377 1336
3111 1947 1897
2705 2270 2381
4095 1040 526
4095 1032 929
4095 1360 1319
3370 2046 1990
2856 2400 2514
4095 2092 1233
4095 2088 1422
4095 2076 1902
3945 2393 2271
3280 2769 2886
4095 3148 2009
4095 3148 2103
4095 3146 2380
4095 3134 2850
3752 3416 3295
4095 4064 3524
4095 4071 3538
4095 4094 3582
4095 4095 3663
4095 4095 3784
