Grading Edition presets/Toning - Style 3.3dl
#25pt 3DLUT created by 3D LUT Creator Pro (c) Oleg Sharonov
#Copyright Oleg Sharonov
#IMAGEPROFILE sRGB IEC61966-2.1 v.2.10
#INPUTGAMMA sRGB IEC61966-2.1 v.2.10
#OUTPUTGAMMA sRGB IEC61966-2.1 v.2.10
0 256 512 768 1023
0 0 0
4 132 557
91 431 1216
312 788 1940
656 1178 2637
1 802 371
0 1012 969
0 1136 1916
304 1309 2482
710 1573 3011
90 1848 849
18 1869 1108
0 2258 2051
0 2412 3013
119 2489 3684
370 2964 1451
269 2971 1643
1 3058 2204
0 3299 3098
0 3401 3954
923 3886 2234
819 3891 2377
497 3911 2758
0 3979 3354
0 4069 4090
936 93 38
845 224 820
778 525 1412
825 804 2310
1013 1186 2927
1050 1085 117
1088 1084 1013
1030 1171 1827
1111 1355 2477
1070 1578 3244
220 1957 496
963 2070 1221
1016 2311 2095
972 2419 3030
456 2504 3827
505 3015 1263
1173 3052 1697
971 3106 2245
958 3316 3117
0 3420 4048
1054 3912 2104
948 3917 2264
593 3935 2699
0 3998 3338
806 4074 4095
2471 327 152
2526 284 923
2346 635 1747
2200 1035 2365
2253 1362 2976
2646 1083 1
2575 1134 1002
2494 1238 1900
2403 1452 2589
2409 1598 3448
2612 2382 382
2623 2381 1084
2653 2378 2138
2594 2436 2949
2360 2488 3967
2007 3197 874
2031 3205 1268
2592 3246 2372
2621 3348 3147
2256 3415 4091
1469 4000 1499
1390 4004 1714
1028 4016 2359
138 4061 3242
2572 4072 4092
3493 621 321
3568 415 881
3522 643 1871
3377 1122 2681
3238 1582 3214
3567 1212 213
3535 1269 1028
3557 1270 1962
3440 1551 2773
3403 1764 3473
3631 2377 0
3628 2379 1008
3591 2409 2124
3545 2480 2960
3582 2481 3858
3597 3385 659
3599 3384 1214
3605 3380 2208
3620 3375 3162
3566 3401 4015
3578 4019 2382
3564 4020 2464
3500 4026 2691
3280 4056 3138
3596 4079 4092
4034 950 493
4094 586 802
4062 818 1965
4036 1098 2793
3940 1642 3493
4063 1419 427
4095 1178 729
4095 1241 1965
4084 1399 2877
4021 1755 3663
4095 2401 89
4095 2395 907
4095 2414 2046
4087 2470 2997
4044 2612 3761
4095 3383 3
4095 3381 1013
4095 3379 2145
4095 3385 3136
4065 3435 3896
4074 4065 2851
4075 4066 2937
4078 4071 3188
4085 4080 3586
4095 4095 4095
