Grading Edition presets/Toning - Style 11 - Film.3dl
#25pt 3DLUT created by 3D LUT Creator Pro (c) Oleg Sharonov
#Copyright Oleg Sharonov
#IMAGEPROFILE sRGB IEC61966-2.1 v.2.10
#INPUTGAMMA sRGB IEC61966-2.1 v.2.10
#OUTPUTGAMMA sRGB IEC61966-2.1 v.2.10
0 128 256 384 512 640 768 896 1023
26 52 114
26 74 217
83 113 349
134 200 534
205 295 780
292 405 1050
398 526 1322
524 659 1611
663 804 1912
115 295 270
130 306 333
140 345 447
189 392 642
256 460 880
344 544 1139
447 650 1403
569 770 1687
708 902 1977
267 666 494
285 666 586
319 679 707
328 729 845
369 785 1064
453 847 1305
557 925 1569
675 1018 1848
808 1123 2120
508 1114 838
523 1113 924
558 1116 1063
605 1135 1194
629 1182 1324
629 1249 1537
726 1304 1795
841 1372 2062
977 1456 2315
821 1601 1244
836 1599 1309
868 1601 1434
920 1609 1597
982 1634 1735
1029 1685 1861
1018 1761 2075
1084 1832 2299
1229 1899 2527
1243 2140 1694
1259 2139 1750
1295 2138 1863
1352 2142 2012
1428 2153 2175
1505 2183 2295
1585 2229 2392
1571 2298 2572
1571 2375 2745
1789 2627 2167
1801 2627 2209
1832 2626 2298
1885 2628 2417
1958 2634 2550
2049 2645 2688
2127 2672 2779
2213 2711 2855
2217 2766 2982
2376 3029 2599
2386 3029 2628
2408 3029 2693
2446 3030 2783
2500 3033 2885
2569 3038 2989
2647 3048 3088
2706 3069 3146
2769 3096 3196
2859 3297 2964
2864 3297 2983
2878 3297 3024
2900 3297 3084
2931 3298 3153
2969 3301 3223
3015 3306 3290
3064 3312 3351
3098 3326 3384
134 88 113
129 110 260
137 170 405
179 244 594
244 333 831
329 436 1091
431 553 1357
554 684 1642
691 826 1938
248 301 152
173 346 365
191 375 503
234 422 693
296 487 924
380 571 1176
480 674 1435
600 792 1716
736 922 2001
355 676 449
323 694 604
355 706 731
355 757 878
411 804 1100
490 866 1336
590 943 1598
705 1036 1873
836 1140 2141
554 1129 835
555 1132 937
590 1135 1076
637 1153 1211
652 1201 1347
666 1262 1565
759 1318 1820
872 1386 2083
1008 1470 2333
851 1616 1253
866 1615 1318
897 1616 1445
950 1623 1607
1012 1649 1749
1052 1700 1881
1039 1777 2092
1119 1843 2317
1263 1909 2542
1273 2151 1702
1289 2150 1758
1325 2150 1871
1380 2153 2020
1456 2165 2183
1534 2194 2305
1607 2240 2405
1592 2309 2584
1603 2383 2757
1815 2635 2174
1828 2634 2216
1857 2634 2304
1911 2636 2423
1984 2641 2556
2072 2653 2693
2150 2680 2786
2235 2718 2861
2234 2773 2989
2396 3034 2604
2405 3034 2633
2428 3034 2698
2465 3035 2788
2519 3037 2889
2586 3043 2993
2662 3052 3091
2721 3073 3150
2782 3100 3200
2870 3299 2967
2876 3299 2986
2889 3299 3027
2911 3300 3087
2941 3301 3156
2979 3304 3225
3024 3308 3292
3071 3315 3353
3105 3329 3386
320 181 113
318 197 306
302 255 472
310 329 692
342 416 945
420 509 1187
514 619 1441
631 744 1718
762 880 2002
496 302 113
478 331 261
343 435 583
344 491 807
395 554 1026
470 635 1262
564 734 1514
676 848 1787
806 972 2061
613 674 301
602 695 418
440 772 793
462 806 976
512 853 1185
582 915 1413
673 990 1669
781 1079 1936
908 1180 2194
763 1132 715
709 1156 883
666 1181 1110
711 1197 1254
710 1247 1406
758 1295 1634
842 1351 1883
952 1420 2136
1087 1504 2377
1017 1625 1190
958 1647 1324
968 1654 1471
1022 1662 1634
1086 1685 1784
1109 1739 1928
1095 1814 2134
1207 1871 2360
1346 1937 2578
1395 2168 1684
1363 2179 1780
1398 2179 1892
1451 2183 2041
1527 2194 2203
1605 2221 2329
1662 2268 2437
1644 2336 2612
1687 2402 2786
1883 2654 2190
1892 2654 2234
1923 2654 2320
1976 2655 2438
2045 2661 2571
2131 2672 2707
2209 2698 2802
2289 2736 2876
2276 2792 3007
2446 3046 2617
2454 3046 2646
2475 3046 2710
2512 3047 2799
2564 3049 2899
2628 3055 3002
2700 3064 3099
2756 3084 3159
2814 3110 3208
2899 3306 2976
2904 3306 2994
2917 3306 3035
2938 3306 3094
2966 3307 3162
3002 3310 3231
3045 3314 3297
3091 3321 3357
3123 3334 3391
645 255 113
742 198 205
576 364 563
559 437 792
567 520 1047
598 618 1310
659 728 1579
763 844 1842
888 970 2106
799 346 113
888 310 164
626 511 650
601 575 885
600 652 1139
625 741 1399
707 833 1644
806 939 1904
932 1055 2160
1045 633 148
1067 642 245
871 761 640
687 876 1077
681 935 1316
737 995 1540
815 1068 1787
915 1153 2038
1041 1249 2280
1089 1144 568
1082 1161 678
1058 1193 890
833 1274 1329
860 1309 1524
914 1354 1747
993 1412 1985
1099 1481 2223
1229 1565 2450
1332 1637 1071
1293 1656 1189
1200 1697 1427
1149 1729 1683
1214 1750 1845
1212 1807 2006
1259 1862 2219
1363 1919 2433
1494 1985 2639
1685 2177 1588
1644 2193 1692
1543 2226 1915
1573 2235 2078
1649 2244 2238
1728 2268 2372
1758 2317 2492
1737 2383 2661
1834 2434 2835
2129 2662 2124
2091 2672 2203
2036 2689 2348
2086 2690 2464
2150 2696 2596
2232 2707 2731
2309 2731 2830
2367 2769 2910
2349 2825 3037
2591 3057 2595
2563 3062 2649
2555 3066 2731
2590 3067 2818
2639 3070 2917
2697 3075 3017
2763 3084 3113
2816 3103 3175
2868 3128 3222
2963 3315 2979
2952 3317 3009
2963 3317 3049
2981 3317 3107
3008 3318 3174
3042 3321 3241
3081 3325 3305
3123 3331 3365
3153 3344 3399
1073 334 113
1288 195 113
947 490 659
899 568 908
885 652 1161
894 748 1421
923 857 1703
977 975 1990
1084 1094 2246
1227 410 113
1424 312 113
1097 569 605
948 687 981
925 767 1234
928 855 1497
954 955 1780
1006 1064 2058
1130 1170 2292
1580 614 113
1705 567 113
1444 756 510
1057 955 1143
1019 1021 1393
1007 1095 1667
1030 1176 1943
1126 1255 2175
1245 1350 2398
1637 1135 406
1678 1139 477
1738 1147 625
1437 1267 1172
1169 1383 1639
1156 1442 1900
1224 1501 2122
1321 1571 2341
1442 1653 2550
1752 1662 943
1746 1677 1035
1740 1707 1208
1700 1753 1456
1400 1846 1935
1435 1885 2132
1502 1933 2333
1593 1990 2532
1710 2055 2723
2067 2197 1475
2044 2211 1565
1986 2240 1761
1873 2285 2046
1822 2317 2291
1901 2337 2434
1899 2388 2569
1939 2436 2738
2044 2482 2902
2440 2676 2038
2416 2686 2113
2356 2707 2273
2246 2740 2498
2295 2747 2634
2372 2757 2766
2446 2778 2871
2474 2819 2960
2454 2871 3078
2802 3067 2540
2783 3072 2593
2737 3084 2709
2696 3097 2846
2739 3099 2943
2789 3104 3041
2846 3113 3134
2896 3129 3198
2934 3154 3247
3085 3322 2949
3074 3324 2981
3045 3330 3053
3040 3333 3126
3064 3334 3190
3095 3337 3255
3129 3341 3318
3166 3347 3376
3195 3359 3411
1632 434 113
1878 297 113
1666 520 492
1367 726 1038
1331 808 1284
1317 901 1549
1325 1003 1831
1361 1113 2109
1425 1228 2368
1766 504 113
1986 401 113
1798 594 467
1425 828 1097
1381 906 1344
1361 993 1613
1364 1088 1895
1394 1191 2168
1454 1301 2420
2110 667 113
2239 613 113
2096 772 421
1615 1039 1169
1496 1127 1484
1460 1202 1761
1455 1283 2038
1476 1377 2299
1526 1484 2537
2386 1063 227
2413 1068 297
2452 1082 434
2139 1269 1023
1672 1462 1707
1622 1530 1980
1597 1607 2244
1619 1689 2481
1725 1770 2670
2275 1690 809
2313 1693 869
2393 1696 983
2474 1705 1159
2141 1843 1769
1834 1966 2243
1817 2027 2471
1891 2084 2652
1989 2148 2825
2476 2231 1370
2473 2243 1442
2467 2266 1597
2464 2298 1810
2419 2344 2087
2118 2426 2515
2155 2461 2677
2219 2501 2836
2303 2546 2983
2755 2700 1945
2744 2709 2013
2717 2728 2160
2669 2757 2367
2576 2796 2616
2539 2823 2813
2606 2841 2923
2605 2882 3021
2630 2921 3135
3006 3082 2478
2996 3087 2528
2971 3098 2638
2928 3115 2795
2854 3137 2977
2895 3142 3071
2945 3150 3161
2989 3164 3227
3007 3189 3282
3209 3332 2912
3201 3334 2944
3183 3340 3016
3151 3348 3117
3131 3355 3212
3157 3358 3274
3186 3361 3335
3218 3367 3390
3244 3377 3427
2255 549 113
2453 439 113
2383 582 400
2007 874 1094
1884 984 1423
1850 1071 1692
1837 1165 1969
1849 1266 2235
1889 1379 2481
2367 609 113
2527 528 113
2474 654 389
2126 933 1063
1934 1067 1475
1897 1148 1745
1879 1237 2021
1885 1337 2284
1921 1448 2524
2616 753 113
2716 705 113
2671 823 368
2387 1073 995
2053 1255 1599
2004 1330 1872
1979 1416 2143
1974 1513 2395
1997 1620 2625
2897 1039 113
2915 1043 176
2921 1083 346
2732 1292 912
2239 1564 1791
2169 1639 2066
2128 1719 2323
2115 1805 2560
2127 1901 2774
2926 1613 562
2942 1618 623
2974 1627 745
3004 1643 935
2775 1849 1610
2373 2047 2304
2323 2114 2538
2294 2188 2755
2312 2261 2936
2827 2286 1293
2836 2294 1348
2882 2299 1445
2955 2300 1570
3013 2306 1761
2780 2429 2380
2539 2531 2769
2524 2580 2944
2583 2625 3071
3014 2737 1866
3012 2745 1924
3008 2760 2049
3004 2783 2224
3003 2811 2420
2971 2850 2657
2776 2916 2986
2802 2943 3099
2843 2973 3202
3181 3106 2418
3176 3110 2463
3166 3119 2564
3148 3134 2710
3120 3153 2882
3067 3177 3064
3049 3194 3194
3087 3205 3263
3087 3230 3322
3321 3346 2875
3316 3348 2906
3306 3353 2975
3288 3360 3073
3263 3370 3185
3224 3383 3298
3247 3386 3355
3275 3391 3408
3299 3400 3447
2791 685 113
2910 589 113
2897 696 358
2734 946 928
2452 1172 1583
2411 1251 1847
2385 1342 2113
2379 1444 2365
2393 1555 2597
2854 741 113
2961 653 113
2945 763 355
2797 1001 913
2493 1241 1628
2450 1319 1892
2422 1409 2156
2411 1510 2405
2422 1620 2633
2991 874 113
3059 823 113
3048 920 351
2931 1133 879
2604 1403 1709
2540 1489 2000
2507 1575 2258
2489 1672 2499
2490 1778 2718
3182 1087 113
3193 1090 127
3184 1162 352
3103 1345 841
2890 1602 1600
2673 1773 2169
2634 1853 2414
2610 1940 2642
2601 2035 2846
3242 1587 426
3250 1591 477
3267 1600 586
3269 1648 817
3145 1881 1493
2826 2148 2380
2782 2217 2607
2750 2289 2815
2737 2363 2996
3242 2227 1034
3250 2231 1082
3268 2237 1182
3292 2245 1321
3311 2260 1524
3172 2439 2244
2932 2598 2818
2900 2652 2994
2879 2710 3143
3207 2792 1809
3209 2797 1858
3215 2809 1962
3230 2824 2098
3279 2821 2212
3314 2824 2380
3178 2922 2892
3043 2997 3162
3034 3032 3271
3318 3137 2372
3317 3141 2411
3314 3148 2500
3311 3159 2627
3308 3173 2776
3307 3189 2926
3286 3212 3096
3182 3252 3303
3197 3268 3370
3415 3365 2846
3415 3367 2873
3410 3371 2937
3401 3377 3029
3389 3385 3135
3372 3395 3245
3343 3409 3354
3333 3419 3429
3354 3426 3469
3145 826 113
3204 752 113
3193 867 362
3138 1058 837
2967 1318 1588
2866 1454 2012
2842 1545 2262
2828 1644 2497
2827 1753 2714
3175 884 113
3228 817 113
3217 926 364
3167 1108 831
3012 1362 1569
2891 1517 2050
2865 1606 2298
2850 1705 2531
2847 1811 2744
3252 995 113
3289 950 113
3272 1065 372
3231 1229 820
3106 1474 1526
2947 1673 2142
2921 1758 2383
2901 1852 2609
2894 1954 2815
3357 1182 113
3364 1186 121
3351 1284 393
3319 1437 813
3230 1668 1468
3030 1932 2287
3003 2009 2517
2981 2094 2732
2968 2185 2923
3407 1633 390
3413 1636 433
3415 1642 525
3414 1734 824
3355 1941 1416
3213 2196 2246
3098 2334 2688
3075 2402 2884
3059 2473 3052
3415 2209 880
3415 2216 936
3415 2250 1111
3415 2285 1302
3415 2335 1559
3381 2470 2139
3195 2678 2876
3170 2733 3043
3151 2791 3183
3415 2774 1579
3415 2778 1634
3415 2788 1761
3415 2815 2005
3415 2840 2218
3415 2869 2434
3398 2934 2793
3260 3045 3194
3243 3082 3303
3415 3178 2345
3415 3180 2380
3415 3186 2457
3415 3194 2579
3415 3205 2732
3415 3218 2935
3415 3234 3085
3404 3259 3249
3327 3301 3408
3415 3400 3294
3415 3401 3296
3415 3403 3315
3415 3407 3334
3415 3413 3362
3415 3420 3393
3415 3429 3428
3415 3440 3457
3409 3454 3493
