Grading Edition presets/Toning - Style 8 - Warm.3dl
#25pt 3DLUT created by 3D LUT Creator Pro (c) Oleg Sharonov
#Copyright Oleg Sharonov
#IMAGEPROFILE ProPhoto RGB v.2.10
#INPUTGAMMA ProPhoto RGB v.2.10
#OUTPUTGAMMA ProPhoto RGB v.2.10
0 128 256 384 512 640 768 896 1023
380 299 643
381 301 841
381 301 1112
381 301 1481
380 350 1988
449 485 2457
663 723 2903
1018 1094 3296
1594 1695 3631
388 702 641
381 699 859
381 662 1152
381 656 1537
380 698 2041
465 819 2492
682 1047 2925
1036 1429 3305
1613 2067 3629
394 1135 639
380 1133 827
381 1127 1158
381 1088 1586
380 1102 2088
482 1203 2525
700 1430 2945
1054 1851 3313
1633 2422 3627
416 1669 637
385 1663 788
380 1666 1125
380 1653 1575
386 1631 2123
499 1706 2554
717 1926 2962
1073 2293 3321
1653 2724 3626
483 2299 633
453 2294 779
424 2295 1116
431 2297 1558
420 2278 2101
521 2306 2567
734 2434 2978
1091 2674 3328
1673 3003 3625
630 2821 630
601 2817 821
572 2816 1151
561 2816 1600
567 2818 2129
554 2799 2551
762 2865 2979
1110 3013 3334
1694 3249 3624
884 3252 679
855 3250 938
826 3249 1272
797 3248 1754
803 3247 2225
811 3248 2623
794 3230 2969
1143 3322 3332
1718 3483 3623
1283 3627 878
1253 3626 1160
1223 3624 1543
1193 3622 2017
1181 3622 2410
1189 3622 2763
1198 3623 3073
1177 3603 3327
1763 3728 3622
1950 3915 1219
1914 3914 1575
1878 3912 1994
1842 3911 2359
1807 3909 2698
1818 3908 2980
1828 3907 3230
1840 3906 3451
1808 3897 3622
763 300 652
772 332 855
759 302 1154
733 312 1538
754 369 2042
854 506 2493
1065 745 2926
1436 1115 3305
2097 1716 3628
817 629 640
790 723 871
745 622 1173
721 544 1594
736 588 2089
834 714 2522
1045 945 2942
1411 1316 3312
2064 1946 3627
879 1169 637
789 1158 816
772 1153 1173
742 1073 1605
760 1043 2117
858 1130 2547
1068 1341 2958
1434 1749 3319
2085 2334 3626
862 1704 634
805 1696 776
770 1692 1130
770 1686 1595
782 1639 2134
880 1670 2566
1090 1867 2971
1458 2227 3324
2107 2667 3624
901 2325 631
866 2321 766
832 2320 1103
819 2321 1567
813 2305 2117
902 2324 2576
1112 2423 2981
1483 2647 3329
2128 2969 3623
1040 2837 628
1006 2834 808
973 2833 1137
938 2831 1604
947 2833 2137
937 2815 2561
1138 2874 2983
1508 3014 3334
2151 3237 3622
1295 3261 668
1261 3259 924
1227 3258 1257
1193 3256 1735
1180 3255 2228
1189 3256 2627
1175 3239 2975
1544 3326 3333
2173 3485 3621
1745 3630 865
1705 3629 1146
1666 3628 1524
1627 3626 1999
1588 3625 2409
1599 3625 2763
1611 3625 3072
1589 3609 3329
2216 3729 3620
2417 3913 1203
2383 3912 1555
2348 3910 1974
2313 3908 2342
2278 3907 2681
2266 3905 2975
2276 3904 3226
2287 3904 3447
2262 3895 3620
1198 300 661
1212 301 865
1218 361 1145
1246 320 1591
1245 382 2091
1330 522 2527
1551 762 2946
1980 1133 3313
2581 1733 3626
1240 594 638
1240 645 825
1226 628 1175
1189 558 1610
1198 580 2122
1290 716 2550
1509 952 2960
1936 1325 3319
2543 1954 3625
1310 964 636
1290 1090 783
1260 1180 1187
1212 1071 1617
1212 1015 2137
1299 1047 2576
1516 1194 2986
1932 1585 3330
2527 2194 3624
1537 1762 631
1365 1742 785
1263 1728 1120
1243 1721 1619
1240 1639 2147
1324 1632 2582
1543 1770 2988
1961 2107 3333
2546 2574 3622
1531 2367 628
1377 2351 761
1312 2346 1090
1269 2338 1573
1270 2334 2136
1349 2330 2587
1570 2396 2990
1989 2587 3335
2565 2909 3621
1631 2859 625
1492 2849 794
1449 2848 1122
1406 2845 1589
1391 2845 2143
1385 2834 2574
1600 2888 2991
2017 2999 3336
2584 3206 3620
1880 3270 674
1778 3266 910
1734 3265 1241
1689 3263 1716
1644 3260 2229
1657 3262 2629
1645 3250 2981
2052 3332 3335
2603 3478 3619
2299 3632 858
2243 3631 1130
2203 3630 1504
2160 3629 1978
2118 3627 2392
2104 3627 2761
2116 3627 3070
2100 3613 3330
2633 3731 3618
2811 3911 1189
2783 3910 1536
2755 3908 1954
2727 3906 2325
2698 3905 2664
2670 3903 2971
2678 3902 3221
2686 3901 3443
2670 3894 3618
1754 299 677
1777 309 879
1787 339 1176
1793 406 1548
1904 397 2129
1974 531 2558
2185 775 2964
2543 1146 3320
2969 1748 3624
1804 589 635
1822 606 810
1822 604 1160
1799 596 1604
1782 556 2144
1884 707 2572
2113 951 2974
2488 1329 3325
2928 1957 3624
1868 932 633
1868 1027 754
1852 1097 1131
1833 1079 1622
1803 1033 2146
1876 1062 2583
2093 1208 2990
2464 1571 3334
2904 2184 3623
1952 1329 631
1937 1504 703
1907 1628 1082
1876 1754 1638
1838 1638 2153
1905 1629 2587
2117 1763 2990
2479 2066 3335
2906 2491 3621
2430 2408 623
2223 2395 799
2042 2382 1107
1907 2368 1562
1880 2361 2153
1946 2331 2594
2150 2392 2992
2503 2577 3335
2921 2867 3620
2461 2885 627
2282 2875 829
2119 2867 1119
2037 2862 1572
1979 2852 2144
1986 2851 2586
2185 2889 2996
2528 2994 3336
2937 3190 3618
2614 3284 713
2471 3277 932
2343 3273 1225
2296 3271 1698
2248 3267 2215
2233 3267 2631
2227 3258 2987
2555 3336 3337
2953 3471 3618
2869 3639 903
2765 3635 1139
2697 3633 1485
2662 3632 1959
2628 3630 2377
2593 3628 2761
2604 3629 3070
2594 3619 3332
2975 3732 3617
3205 3909 1231
3130 3908 1526
3096 3906 1934
3071 3904 2309
3045 3903 2648
3021 3902 2958
3012 3901 3219
3018 3900 3440
3007 3894 3616
2438 341 719
2459 370 926
2468 362 1212
2477 432 1623
2480 495 2066
2636 582 2570
2768 783 2980
2991 1157 3328
3299 1760 3623
2478 629 662
2496 650 859
2504 622 1153
2506 623 1625
2493 688 2125
2541 702 2586
2689 943 2986
2932 1327 3331
3257 1956 3622
2526 959 630
2538 1027 764
2528 1063 1110
2527 1082 1619
2492 1027 2141
2522 1077 2589
2656 1221 2993
2894 1547 3337
3225 2169 3621
2578 1327 628
2579 1457 724
2561 1580 1066
2552 1674 1580
2534 1650 2158
2552 1654 2594
2674 1784 2993
2905 2083 3336
3223 2501 3620
2632 1801 625
2618 1993 671
2607 2148 1007
2587 2271 1508
2566 2386 2168
2577 2328 2596
2695 2389 2994
2921 2573 3336
3232 2862 3618
3123 2904 665
2985 2899 876
2857 2893 1166
2734 2884 1601
2631 2872 2135
2609 2866 2596
2723 2887 2998
2942 2991 3337
3246 3186 3617
3179 3296 761
3063 3292 979
2952 3288 1267
2845 3282 1697
2788 3277 2200
2748 3272 2632
2752 3269 2994
2963 3337 3339
3260 3467 3616
3324 3646 954
3234 3642 1189
3146 3640 1514
3065 3636 1941
3035 3634 2363
3005 3631 2746
2995 3631 3070
2991 3624 3335
3275 3733 3615
3537 3907 1289
3472 3906 1589
3410 3905 1941
3367 3903 2293
3345 3902 2632
3324 3900 2945
3304 3899 3217
3310 3898 3439
3302 3893 3615
3007 479 817
3020 510 1028
3028 515 1312
3031 539 1741
3035 603 2177
3036 664 2514
3203 865 2980
3363 1164 3335
3572 1767 3622
3029 748 755
3042 775 962
3048 767 1244
3051 715 1693
3051 790 2192
3051 858 2567
3144 990 2989
3301 1319 3337
3528 1951 3621
3059 1067 685
3068 1119 860
3071 1115 1152
3067 1131 1642
3066 1127 2190
3031 1063 2583
3100 1234 2996
3257 1552 3339
3492 2148 3621
3089 1426 626
3094 1533 809
3084 1640 1114
3079 1691 1601
3077 1717 2187
3052 1647 2590
3116 1806 2996
3267 2100 3337
3489 2512 3619
3117 1871 622
3116 2023 753
3111 2156 1055
3100 2277 1540
3093 2359 2152
3080 2339 2602
3135 2410 2999
3280 2587 3337
3497 2871 3617
3146 2325 620
3137 2479 689
3134 2611 996
3123 2706 1457
3111 2796 2084
3100 2884 2608
3151 2884 3000
3293 2988 3337
3507 3182 3616
3538 3226 757
3523 3302 1034
3433 3301 1318
3349 3295 1767
3262 3290 2223
3189 3281 2621
3173 3277 2999
3310 3333 3339
3518 3464 3615
3686 3651 1010
3608 3648 1246
3532 3647 1570
3463 3643 1993
3394 3640 2360
3356 3637 2733
3331 3635 3069
3331 3630 3337
3530 3732 3615
3815 3906 1356
3761 3905 1657
3704 3903 1991
3650 3902 2311
3598 3901 2616
3580 3899 2930
3561 3898 3204
3554 3897 3436
3551 3893 3614
3465 720 992
3472 752 1217
3477 764 1531
3477 750 1943
3479 815 2328
3481 877 2652
3481 935 2934
3647 1281 3331
3806 1794 3621
3477 976 928
3484 1005 1147
3487 1008 1449
3489 980 1877
3489 988 2311
3488 1059 2669
3490 1128 2974
3607 1420 3335
3763 1940 3621
3492 1286 852
3498 1326 1050
3501 1320 1331
3500 1297 1781
3497 1315 2289
3499 1290 2676
3473 1300 2988
3559 1566 3339
3723 2120 3620
3508 1662 780
3511 1753 975
3509 1829 1248
3505 1851 1738
3503 1873 2257
3503 1869 2669
3475 1789 2991
3564 2115 3338
3725 2522 3618
3524 2080 706
3524 2196 917
3523 2295 1189
3513 2398 1688
3510 2439 2224
3507 2458 2665
3491 2405 2997
3577 2602 3339
3732 2881 3617
3536 2461 638
3534 2574 852
3534 2676 1129
3527 2764 1605
3521 2848 2174
3517 2907 2636
3508 2892 3004
3588 3001 3340
3740 3190 3616
3549 2777 616
3544 2894 782
3544 3009 1070
3538 3086 1522
3532 3155 2098
3526 3223 2578
3520 3289 3007
3598 3332 3340
3747 3461 3615
3862 3521 947
3859 3596 1244
3844 3652 1636
3790 3649 2049
3735 3646 2408
3674 3643 2748
3624 3639 3058
3613 3636 3339
3756 3728 3614
3989 3905 1430
3958 3904 1730
3923 3902 2046
3887 3901 2348
3850 3899 2649
3809 3898 2925
3787 3897 3191
3771 3896 3433
3770 3893 3614
3835 1091 1287
3836 1123 1565
3837 1138 1903
3838 1135 2240
3837 1157 2551
3837 1221 2843
3837 1284 3085
3837 1347 3295
3957 1948 3621
3839 1347 1216
3841 1379 1478
3841 1390 1819
3841 1374 2180
3841 1328 2512
3840 1407 2836
3840 1486 3099
3840 1565 3322
3938 2091 3620
3844 1690 1129
3846 1727 1365
3846 1731 1698
3845 1700 2084
3844 1664 2454
3844 1660 2817
3843 1712 3108
3829 1769 3334
3915 2226 3619
3849 2061 1051
3850 2132 1258
3850 2150 1529
3847 2166 2006
3845 2185 2422
3844 2205 2808
3843 2179 3102
3820 2096 3336
3906 2526 3618
3854 2407 972
3854 2485 1193
3854 2543 1461
3848 2618 1967
3846 2632 2391
3845 2648 2781
3844 2645 3097
3826 2590 3336
3908 2889 3616
3859 2695 892
3858 2778 1123
3858 2848 1395
3853 2923 1894
3849 2993 2354
3847 3022 2752
3845 3035 3092
3835 2998 3339
3913 3198 3615
3862 2952 812
3861 3039 1049
3860 3118 1338
3857 3183 1814
3853 3243 2293
3851 3304 2710
3849 3347 3068
3842 3336 3342
3916 3468 3614
3866 3179 734
3864 3264 973
3863 3347 1273
3860 3414 1733
3857 3472 2230
3854 3529 2648
3851 3586 3023
3849 3644 3343
3920 3726 3614
4032 3808 1275
4030 3851 1639
4028 3884 2045
4020 3900 2385
4000 3899 2685
3978 3898 2956
3953 3897 3198
3932 3896 3423
3927 3894 3614
4040 1677 1822
4039 1715 2095
4037 1738 2342
4036 1741 2593
4035 1722 2848
4033 1800 3080
4032 1874 3281
4031 1945 3453
4030 2012 3598
4039 1966 1734
4037 2000 2016
4036 2015 2280
4035 2009 2536
4033 1978 2806
4032 1993 3059
4031 2071 3278
4029 2145 3462
4028 2214 3612
4038 2275 1620
4036 2302 1906
4035 2310 2194
4033 2297 2458
4032 2255 2743
4031 2218 3026
4030 2260 3266
4028 2334 3467
4024 2383 3619
4037 2549 1513
4036 2590 1771
4034 2596 2067
4032 2578 2351
4031 2590 2693
4029 2604 3000
4028 2602 3255
4027 2583 3466
4016 2519 3618
4036 2788 1409
4035 2838 1688
4033 2873 1946
4031 2911 2320
4029 2923 2664
4027 2935 2975
4026 2948 3249
4025 2931 3459
4016 2879 3617
4036 3005 1307
4034 3061 1597
4032 3106 1895
4030 3159 2272
4028 3211 2635
4026 3220 2951
4025 3231 3227
4024 3229 3454
4017 3193 3616
4035 3197 1212
4034 3255 1501
4031 3307 1831
4029 3358 2213
4027 3411 2579
4025 3463 2920
4024 3484 3204
4022 3495 3448
4018 3467 3615
4035 3370 1122
4033 3434 1402
4031 3494 1756
4029 3548 2151
4026 3600 2520
4024 3650 2870
4023 3701 3170
4021 3737 3428
4019 3729 3614
4035 3535 1034
4033 3604 1305
4031 3672 1671
4028 3733 2085
4026 3779 2461
4024 3816 2818
4022 3847 3124
4021 3873 3394
4020 3895 3614
