Grading Edition presets/Toning - Style 13 - Blue-Orange.3dl
#25pt 3DLUT created by 3D LUT Creator Pro (c) Oleg Sharonov
#Copyright Oleg Sharonov
#INPUTGAMMA sRGB IEC61966-2.1 v.2.10
#IMAGEPROFILE sRGB IEC61966-2.1 v.2.10
#OUTPUTGAMMA sRGB IEC61966-2.1 v.2.10
0 256 512 768 1023
0 223 488
0 223 800
0 223 1023
0 223 1212
0 223 1385
0 677 533
0 722 996
0 579 2121
0 483 2781
0 406 3253
3 1755 592
25 1917 1075
0 1929 2184
0 1717 2949
0 1422 3383
182 2722 708
239 2842 1363
259 2919 2271
45 2926 3034
0 2913 3461
547 3403 944
659 3473 1856
754 3528 2596
697 3567 3168
446 3590 3549
291 223 504
381 271 681
228 282 1399
85 268 2353
0 254 2981
586 772 494
899 1050 1213
529 934 2111
283 856 2733
103 803 3207
870 2038 576
1260 2260 1449
1087 2325 2407
553 2250 3060
349 2211 3397
1448 2940 752
1791 3080 1817
1900 3174 2584
1571 3201 3191
996 3191 3545
2172 3536 1109
2359 3605 2266
2451 3663 2890
2505 3705 3301
2298 3731 3629
859 223 528
1978 230 504
1622 323 1008
1304 361 2079
976 346 2774
2191 638 488
2317 860 810
2269 1265 1888
2045 1296 2662
1698 1193 3164
2305 2149 526
2539 2417 1317
2770 2684 2646
2540 2614 3120
2321 2568 3424
2606 3114 706
2838 3258 1856
3008 3364 2853
2960 3407 3313
2726 3406 3609
3041 3657 1124
3196 3719 2395
3297 3767 3117
3339 3807 3436
3276 3834 3686
1670 223 554
2548 223 523
2822 271 694
2648 397 1598
2486 474 2551
3051 514 488
3110 758 595
3127 1044 1257
3034 1554 2433
2923 1713 3076
3194 2100 502
3315 2351 1147
3389 2588 2298
3372 2866 3043
3299 2910 3414
3345 3218 695
3445 3357 1775
3524 3464 2828
3593 3554 3408
3536 3560 3631
3547 3764 1168
3626 3813 2410
3691 3849 3164
3736 3875 3541
3730 3898 3720
2363 223 582
2998 223 553
3462 234 519
3384 345 1058
3284 513 2237
3554 441 488
3583 711 494
3612 916 888
3574 1421 2048
3520 1921 2890
3665 2086 489
3712 2339 941
3747 2576 1983
3758 2822 2797
3720 3086 3339
3775 3280 727
3823 3398 1809
3860 3488 2814
3880 3573 3315
3865 3671 3605
3884 3837 1354
3909 3876 2501
3926 3903 3192
3936 3920 3553
3941 3930 3738
