Grading Edition presets/Toning - Style 7 - Purple.3dl
#25pt 3DLUT created by 3D LUT Creator Pro (c) Oleg Sharonov
#Copyright Oleg Sharonov
#IMAGEPROFILE sRGB IEC61966-2.1 v.2.10
#INPUTGAMMA sRGB IEC61966-2.1 v.2.10
#OUTPUTGAMMA sRGB IEC61966-2.1 v.2.10
0 43 86 128 171 214 256 299 341 384 427 469 512 555 597 640 682 725 768 810 853 896 938 981 1023 
475 337 403
475 340 467
475 345 535
475 356 613
474 373 699
474 397 790
473 422 885
473 450 993
472 479 1114
471 512 1250
470 547 1399
469 586 1554
468 629 1708
467 677 1859
466 732 2006
465 793 2152
464 862 2297
463 938 2445
471 1024 2596
505 1119 2751
548 1223 2916
593 1338 3091
645 1463 3265
703 1596 3430
773 1739 3584
475 379 415
475 380 478
475 384 547
474 397 624
474 415 711
474 435 797
473 457 892
473 483 999
472 512 1120
471 543 1256
470 579 1404
469 617 1559
468 662 1712
467 712 1862
466 767 2009
465 831 2154
464 900 2300
463 978 2447
461 1065 2598
461 1160 2752
507 1263 2917
562 1379 3092
618 1503 3266
680 1635 3431
751 1777 3585
475 425 431
475 435 476
475 433 558
474 440 639
474 455 723
473 470 808
473 490 904
472 514 1010
472 542 1131
471 574 1266
470 609 1414
469 648 1568
468 694 1720
467 744 1869
466 801 2015
465 865 2160
464 936 2305
463 1015 2452
461 1102 2602
460 1197 2756
478 1301 2920
541 1416 3095
601 1540 3269
666 1671 3434
739 1811 3587
475 479 460
475 491 504
474 496 567
474 498 654
474 504 737
473 517 824
473 535 920
472 557 1028
471 584 1148
471 615 1283
470 650 1430
469 690 1583
468 736 1732
467 788 1880
466 847 2025
465 912 2168
463 984 2313
462 1064 2459
461 1151 2609
460 1245 2762
458 1350 2926
516 1464 3101
584 1587 3274
651 1717 3438
726 1855 3591
474 544 504
474 556 540
474 568 582
474 567 663
473 569 751
473 576 841
472 592 940
472 612 1049
471 638 1171
470 668 1306
469 704 1452
468 745 1602
467 792 1750
466 845 1895
465 905 2038
464 971 2181
463 1045 2324
462 1125 2470
461 1211 2619
459 1307 2772
458 1412 2935
490 1524 3109
566 1645 3281
639 1774 3445
715 1910 3597
474 616 550
474 626 578
474 639 614
473 656 660
473 650 764
473 654 860
472 663 962
471 682 1074
471 706 1197
470 737 1332
469 773 1478
468 814 1626
467 862 1771
466 916 1914
465 977 2056
464 1045 2197
463 1118 2339
461 1198 2484
460 1285 2632
459 1381 2784
457 1484 2948
466 1595 3120
551 1715 3291
628 1841 3454
707 1974 3604
473 697 596
473 708 620
473 723 652
473 743 697
473 761 755
472 752 876
471 760 984
471 772 1100
470 794 1226
469 823 1363
468 859 1508
467 901 1653
466 949 1796
465 1004 1937
464 1065 2077
463 1132 2216
462 1205 2357
461 1285 2501
460 1373 2648
458 1468 2800
457 1569 2963
455 1677 3134
539 1795 3304
620 1918 3464
703 2048 3613
473 795 646
473 808 666
472 823 694
472 846 736
472 872 787
471 876 882
471 877 1004
470 888 1126
469 904 1256
469 929 1395
468 964 1540
467 1006 1684
466 1053 1824
465 1108 1963
464 1168 2100
462 1233 2238
461 1307 2378
460 1387 2520
459 1473 2666
458 1566 2819
456 1665 2982
455 1771 3151
532 1885 3319
617 2005 3477
702 2130 3623
472 912 697
472 926 716
472 943 741
471 967 779
471 996 830
471 1030 886
470 1022 1017
469 1028 1150
468 1042 1285
468 1061 1427
467 1089 1573
466 1128 1715
465 1175 1854
464 1226 1991
463 1286 2127
462 1351 2263
461 1424 2402
459 1502 2543
458 1586 2688
457 1676 2840
455 1772 3003
454 1874 3171
532 1985 3336
619 2101 3492
706 2221 3635
471 1051 753
471 1064 770
471 1082 793
470 1107 828
470 1138 876
470 1173 936
469 1206 1004
468 1189 1169
468 1199 1313
467 1216 1459
466 1239 1605
465 1269 1746
464 1313 1884
463 1364 2020
462 1421 2154
461 1485 2290
460 1554 2427
459 1629 2568
457 1710 2711
456 1797 2864
455 1889 3027
453 1988 3193
540 2093 3356
628 2204 3509
717 2320 3649
470 1206 813
470 1219 828
470 1236 850
469 1261 883
469 1294 929
468 1331 987
468 1372 1054
481 1397 1148
466 1378 1335
465 1391 1489
465 1412 1636
464 1437 1777
463 1469 1915
462 1517 2050
461 1570 2183
460 1630 2318
459 1696 2454
458 1768 2594
456 1845 2737
455 1928 2890
454 2015 3052
460 2109 3216
558 2210 3377
644 2315 3527
735 2425 3664
469 1380 877
469 1393 891
468 1409 912
468 1434 943
468 1466 987
467 1503 1044
467 1544 1113
466 1588 1184
478 1580 1339
464 1582 1514
463 1599 1665
463 1621 1807
462 1649 1945
461 1682 2079
460 1731 2212
459 1787 2346
458 1848 2482
457 1915 2621
455 1988 2764
454 2066 2917
453 2149 3079
494 2238 3242
585 2333 3399
668 2431 3547
760 2534 3679
467 1567 946
467 1580 960
467 1595 980
467 1619 1010
466 1650 1052
466 1686 1107
465 1727 1175
465 1770 1252
464 1811 1334
463 1788 1528
462 1797 1691
461 1816 1836
460 1840 1974
460 1870 2108
459 1904 2241
458 1952 2375
457 2009 2511
456 2071 2649
454 2139 2793
453 2211 2946
457 2289 3108
541 2373 3269
620 2460 3423
701 2552 3567
794 2648 3695
466 1765 1021
466 1775 1035
466 1790 1054
465 1813 1083
465 1842 1124
464 1877 1177
464 1916 1243
463 1958 1320
463 2003 1400
507 2035 1503
461 2005 1709
460 2018 1862
459 2038 2002
458 2064 2137
457 2094 2270
457 2129 2403
456 2175 2539
455 2232 2678
453 2294 2822
459 2361 2977
524 2433 3138
592 2510 3296
662 2591 3447
742 2675 3588
838 2763 3712
464 1967 1103
464 1977 1116
464 1991 1134
464 2012 1162
463 2039 1202
463 2071 1253
462 2109 1316
462 2149 1392
461 2191 1476
460 2236 1554
558 2250 1680
461 2224 1881
458 2239 2027
457 2260 2164
456 2286 2298
455 2317 2432
454 2352 2568
486 2396 2706
505 2453 2853
542 2514 3009
590 2579 3168
646 2649 3324
713 2722 3472
794 2798 3609
892 2878 3728
463 2172 1190
463 2182 1203
462 2194 1221
462 2213 1248
462 2238 1286
461 2268 1335
461 2303 1397
460 2341 1469
460 2381 1549
459 2422 1631
509 2461 1712
574 2439 1882
484 2441 2049
456 2456 2190
455 2477 2326
459 2503 2461
495 2534 2598
546 2570 2736
592 2611 2883
618 2665 3040
656 2724 3198
708 2786 3351
774 2851 3496
857 2920 3629
961 2992 3745
461 2377 1284
461 2385 1296
461 2396 1314
460 2413 1340
460 2436 1376
460 2463 1423
459 2495 1482
459 2530 1549
458 2567 1624
457 2605 1704
457 2643 1779
582 2673 1872
587 2642 2059
534 2649 2213
517 2665 2353
525 2686 2490
552 2712 2627
591 2742 2767
639 2776 2915
694 2813 3071
730 2865 3227
781 2920 3378
848 2978 3520
934 3041 3650
1043 3108 3761
459 2576 1383
459 2584 1395
459 2593 1412
459 2608 1437
459 2628 1472
458 2653 1516
458 2681 1569
457 2713 1631
457 2746 1701
456 2780 1777
456 2814 1854
543 2851 1926
655 2866 2032
624 2835 2228
595 2845 2377
594 2861 2517
612 2882 2656
644 2906 2798
687 2935 2948
742 2967 3104
810 3002 3256
867 3050 3405
936 3104 3544
1028 3161 3669
1144 3223 3778
458 2767 1487
458 2773 1499
457 2782 1514
457 2795 1537
457 2812 1568
457 2834 1609
456 2859 1657
456 2886 1715
455 2916 1780
455 2947 1851
454 2977 1926
492 3009 2000
636 3040 2076
736 3038 2198
678 3015 2395
667 3026 2543
678 3043 2684
705 3064 2829
747 3088 2981
802 3116 3136
872 3147 3287
959 3183 3431
1043 3228 3567
1141 3280 3689
1264 3335 3794
456 2946 1591
456 2952 1602
456 2959 1616
456 2970 1637
456 2985 1666
455 3004 1702
455 3026 1747
454 3050 1800
454 3077 1860
454 3105 1927
453 3134 1998
466 3162 2072
615 3194 2144
732 3216 2227
798 3186 2394
753 3187 2564
756 3200 2711
779 3216 2860
820 3237 3014
876 3260 3169
950 3288 3318
1041 3318 3460
1155 3352 3591
1274 3394 3708
1399 3442 3810
455 3116 1695
455 3121 1704
454 3127 1717
454 3137 1737
454 3151 1763
454 3167 1797
454 3187 1838
453 3209 1887
453 3233 1943
452 3259 2005
452 3284 2073
470 3311 2145
605 3338 2219
728 3365 2288
845 3376 2384
869 3344 2575
852 3349 2736
870 3362 2890
909 3378 3047
968 3397 3201
1045 3419 3349
1143 3444 3488
1263 3473 3617
1401 3504 3728
1547 3541 3825
453 3279 1798
453 3283 1807
453 3289 1818
453 3298 1836
453 3309 1861
453 3324 1892
452 3341 1930
452 3360 1975
452 3381 2027
451 3403 2085
451 3425 2150
506 3448 2220
620 3472 2293
729 3494 2366
857 3514 2438
986 3515 2548
979 3488 2753
984 3495 2918
1020 3506 3079
1080 3521 3234
1161 3539 3380
1265 3560 3518
1386 3583 3642
1527 3609 3749
1684 3638 3843
452 3426 1904
452 3431 1911
452 3437 1921
452 3445 1936
451 3455 1958
451 3467 1987
451 3481 2023
451 3497 2065
450 3515 2113
450 3533 2169
450 3552 2230
559 3573 2298
653 3592 2370
752 3610 2444
876 3630 2513
1018 3642 2595
1166 3632 2724
1130 3615 2942
1158 3622 3110
1217 3634 3267
1300 3647 3412
1403 3664 3547
1526 3683 3667
1667 3705 3771
1826 3728 3861
451 3551 2012
451 3555 2019
451 3561 2028
450 3569 2041
450 3580 2060
450 3594 2084
450 3606 2117
450 3620 2156
449 3634 2202
449 3650 2254
542 3667 2314
623 3683 2379
704 3699 2449
797 3715 2522
912 3730 2596
1060 3745 2665
1223 3751 2760
1337 3726 2946
1325 3727 3139
1376 3734 3299
1455 3745 3444
1557 3758 3577
1680 3772 3693
1822 3789 3792
1983 3808 3879
450 3661 2122
450 3664 2129
449 3669 2137
449 3675 2150
449 3684 2167
449 3696 2190
450 3710 2218
454 3726 2252
501 3741 2295
568 3754 2346
631 3768 2402
698 3781 2465
774 3794 2532
864 3806 2604
974 3818 2679
1116 3830 2753
1290 3841 2830
1460 3841 2942
1526 3819 3157
1554 3822 3330
1627 3829 3476
1727 3838 3607
1850 3849 3718
1992 3862 3814
2205 3872 3889
515 337 403
522 337 460
516 344 539
507 355 624
504 366 714
505 377 805
506 397 903
505 421 1012
505 449 1135
505 481 1271
505 515 1420
506 552 1574
507 594 1726
510 640 1875
516 692 2021
523 750 2166
534 816 2311
547 891 2458
566 976 2608
591 1070 2763
622 1173 2927
659 1286 3102
705 1412 3274
761 1547 3439
829 1692 3592
517 381 414
522 389 481
513 394 563
500 399 640
491 411 725
484 427 813
478 448 909
472 472 1017
472 499 1138
471 530 1274
470 565 1421
469 603 1575
468 645 1726
467 694 1874
466 748 2020
465 810 2164
464 879 2309
475 956 2456
497 1042 2606
530 1137 2761
568 1240 2925
611 1355 3100
660 1480 3272
718 1613 3437
789 1755 3590
494 435 437
505 446 498
509 446 571
493 449 650
478 458 735
473 472 822
473 491 918
472 514 1026
472 540 1147
471 570 1282
470 605 1429
469 643 1581
468 688 1732
467 738 1879
466 794 2024
465 858 2168
464 928 2312
463 1006 2459
461 1093 2608
477 1188 2762
525 1292 2927
576 1407 3102
630 1530 3274
691 1662 3439
762 1803 3592
477 492 467
486 501 517
507 512 569
495 507 662
481 511 746
473 522 835
473 538 933
472 560 1041
471 585 1163
471 614 1298
470 649 1444
469 688 1595
468 734 1744
467 785 1890
466 843 2033
465 908 2176
463 980 2320
462 1059 2466
461 1145 2615
460 1240 2768
490 1345 2933
550 1460 3107
610 1582 3279
673 1712 3443
747 1851 3595
474 558 511
474 567 548
481 576 593
501 578 667
482 578 759
473 583 851
472 597 951
472 616 1061
471 641 1183
470 670 1318
469 705 1464
468 745 1613
467 792 1760
466 844 1904
465 904 2046
464 970 2188
463 1042 2331
462 1122 2476
461 1208 2625
459 1304 2778
460 1408 2941
525 1522 3115
592 1643 3286
659 1771 3449
734 1907 3600
474 628 554
474 637 584
474 649 622
483 663 673
486 660 769
472 663 867
472 671 971
471 688 1084
471 711 1208
470 741 1344
469 776 1490
468 816 1636
467 864 1780
466 917 1923
465 977 2063
464 1044 2204
463 1117 2346
461 1196 2490
460 1284 2637
459 1380 2790
457 1482 2953
501 1594 3126
576 1713 3296
647 1839 3458
725 1973 3607
473 709 600
473 720 625
473 734 658
473 752 705
493 772 761
473 762 881
471 768 991
471 779 1108
470 800 1236
469 828 1373
468 863 1518
467 904 1662
466 952 1805
465 1006 1945
464 1067 2084
463 1133 2223
462 1205 2363
461 1285 2506
460 1373 2653
458 1467 2805
457 1568 2969
480 1678 3140
564 1795 3309
639 1918 3468
719 2048 3616
473 808 649
473 820 670
472 836 699
472 857 742
472 882 797
507 896 873
471 888 1010
470 897 1133
469 912 1264
468 936 1404
467 970 1549
467 1010 1691
466 1058 1832
465 1111 1970
463 1170 2107
462 1235 2244
461 1308 2384
460 1388 2526
459 1474 2672
458 1567 2824
456 1666 2987
468 1772 3156
556 1886 3323
635 2005 3481
718 2131 3626
472 927 701
472 939 720
472 956 745
471 979 784
471 1007 837
470 1039 895
483 1034 1019
469 1038 1155
468 1050 1291
468 1068 1435
467 1096 1580
466 1135 1722
465 1179 1861
464 1231 1997
463 1289 2132
462 1355 2269
461 1426 2407
459 1504 2548
458 1587 2693
457 1678 2845
455 1773 3008
464 1876 3175
556 1986 3340
637 2102 3496
722 2222 3639
471 1065 756
471 1078 774
471 1095 797
470 1119 833
470 1149 882
469 1182 943
483 1217 1011
468 1200 1172
467 1208 1318
467 1224 1465
466 1245 1611
465 1275 1752
464 1319 1890
463 1369 2025
462 1425 2160
461 1488 2295
460 1557 2432
458 1632 2572
457 1713 2716
456 1799 2868
455 1891 3031
470 1990 3197
563 2096 3360
645 2206 3512
732 2321 3652
470 1220 816
470 1233 832
470 1249 853
469 1274 887
469 1305 933
468 1341 993
468 1380 1062
509 1409 1151
466 1388 1339
465 1400 1494
465 1419 1641
464 1444 1782
463 1475 1919
462 1522 2054
461 1575 2188
460 1634 2322
459 1700 2459
458 1771 2598
456 1848 2741
455 1930 2894
454 2018 3056
489 2112 3221
580 2213 3380
661 2317 3530
749 2427 3666
