Grading Edition presets/Toning - Style 3.3dl
#25pt 3DLUT created by 3D LUT Creator Pro (c) Oleg Sharonov
#Copyright Oleg Sharonov
#IMAGEPROFILE sRGB IEC61966-2.1 v.2.10
#INPUTGAMMA sRGB IEC61966-2.1 v.2.10
#OUTPUTGAMMA sRGB IEC61966-2.1 v.2.10
0 43 86 128 171 214 256 299 341 384 427 469 512 555 597 640 682 725 768 810 853 896 938 981 1023 
0 0 0
0 8 60
0 19 133
0 39 239
0 63 345
0 94 449
4 132 557
9 179 666
17 225 771
31 275 880
48 324 990
68 376 1102
91 431 1216
119 488 1333
150 546 1453
185 604 1573
223 665 1697
266 726 1818
312 788 1940
362 851 2062
415 916 2182
472 980 2300
531 1045 2415
592 1112 2528
656 1178 2637
0 105 35
0 138 162
0 149 309
0 159 433
0 177 517
0 198 602
3 229 691
10 263 784
21 301 877
34 343 975
53 387 1075
73 436 1182
98 486 1290
126 538 1402
157 593 1516
192 649 1633
230 706 1750
274 765 1869
319 825 1987
371 886 2106
424 949 2222
479 1011 2337
538 1076 2450
601 1141 2560
665 1206 2666
0 233 80
0 247 183
0 285 324
0 304 477
0 309 613
0 323 728
0 342 814
4 366 899
16 397 988
33 432 1080
53 471 1176
76 512 1274
101 559 1380
131 606 1487
164 656 1596
199 707 1707
239 762 1820
281 817 1933
328 874 2047
378 933 2161
433 993 2273
488 1054 2385
549 1115 2494
610 1178 2600
673 1242 2703
0 375 153
0 380 234
0 405 341
0 450 489
0 479 646
0 485 785
0 494 920
0 510 1028
2 532 1117
19 557 1207
43 588 1302
69 623 1397
98 660 1496
131 702 1598
165 747 1702
203 793 1808
245 844 1916
289 895 2024
338 948 2132
389 1003 2241
444 1059 2348
500 1117 2453
561 1176 2557
623 1236 2658
686 1297 2758
0 510 224
0 512 288
0 525 366
0 566 487
0 627 648
0 671 816
0 676 959
0 685 1100
0 697 1241
0 714 1344
14 737 1440
44 763 1535
79 794 1631
117 829 1730
156 866 1829
199 907 1930
244 951 2033
291 997 2135
342 1045 2237
395 1096 2339
451 1148 2440
511 1202 2540
571 1257 2637
634 1313 2734
699 1371 2829
0 652 299
0 653 347
0 658 407
0 687 503
0 742 639
0 815 807
0 874 986
0 880 1136
0 887 1284
0 897 1432
0 911 1577
0 931 1677
35 954 1774
78 982 1871
125 1013 1968
173 1047 2065
225 1085 2163
278 1124 2260
333 1167 2356
391 1212 2452
452 1259 2547
513 1307 2639
577 1358 2732
642 1410 2823
710 1463 2915
1 802 371
0 803 412
0 805 462
0 819 535
0 863 647
0 930 794
0 1012 969
0 1087 1162
0 1092 1320
0 1099 1475
0 1109 1629
0 1121 1778
0 1136 1916
10 1157 2014
64 1181 2110
121 1208 2205
180 1239 2299
242 1273 2391
304 1309 2482
369 1348 2573
434 1389 2661
502 1433 2749
571 1478 2836
640 1525 2924
710 1573 3011
6 961 446
3 961 481
0 963 523
0 969 584
0 997 675
0 1052 797
0 1129 954
0 1217 1137
0 1301 1342
0 1310 1508
0 1316 1668
0 1326 1825
0 1337 1977
0 1350 2124
0 1367 2249
33 1389 2343
101 1413 2434
172 1441 2524
245 1471 2611
318 1503 2695
394 1539 2781
469 1576 2865
545 1616 2948
621 1658 3032
696 1701 3116
15 1125 522
11 1126 551
6 1128 589
0 1131 642
0 1143 714
0 1186 820
0 1251 953
0 1334 1118
0 1425 1311
0 1514 1525
0 1532 1700
0 1537 1862
0 1546 2020
0 1556 2172
0 1568 2318
0 1582 2457
0 1601 2565
63 1622 2651
146 1646 2736
231 1673 2820
319 1702 2901
405 1734 2983
491 1768 3064
577 1804 3145
662 1842 3225
28 1298 601
23 1299 626
17 1299 658
9 1303 706
1 1309 769
0 1335 856
0 1386 971
0 1456 1115
0 1543 1291
0 1636 1492
0 1726 1710
0 1753 1891
0 1759 2055
0 1766 2211
0 1775 2361
0 1786 2503
0 1799 2637
0 1814 2766
8 1833 2859
101 1855 2941
200 1878 3022
301 1904 3102
401 1932 3182
500 1962 3261
596 1995 3339
44 1477 681
39 1477 703
33 1478 733
22 1480 775
12 1485 832
1 1496 903
0 1535 1005
0 1592 1131
0 1667 1287
0 1754 1471
0 1847 1677
0 1935 1895
0 1971 2082
0 1977 2243
0 1984 2397
0 1992 2542
0 2001 2679
0 2013 2810
0 2026 2937
0 2041 3058
36 2061 3140
148 2082 3221
262 2105 3299
377 2129 3377
490 2156 3454
65 1661 763
59 1661 783
52 1662 810
42 1663 849
30 1667 901
15 1674 965
0 1696 1050
0 1741 1164
0 1803 1302
0 1880 1468
0 1965 1657
0 2054 1863
0 2141 2081
0 2184 2269
0 2188 2426
0 2195 2575
0 2202 2714
0 2211 2848
0 2221 2978
0 2233 3103
0 2246 3224
0 2261 3334
74 2280 3415
203 2300 3493
333 2322 3570
90 1848 849
85 1848 867
77 1849 891
66 1850 927
52 1853 975
36 1859 1035
18 1869 1108
0 1903 1210
0 1952 1334
0 2015 1482
0 2091 1655
0 2172 1845
0 2258 2051
0 2339 2264
0 2387 2450
0 2392 2601
0 2397 2745
0 2404 2881
0 2412 3013
0 2421 3141
0 2431 3265
0 2442 3386
0 2455 3505
0 2471 3606
119 2489 3684
121 2038 937
115 2038 954
108 2039 976
96 2040 1009
81 2042 1054
62 2047 1111
43 2054 1180
20 2072 1267
0 2111 1380
0 2162 1514
0 2225 1670
0 2298 1846
0 2373 2035
0 2452 2237
0 2527 2441
0 2580 2623
0 2584 2770
0 2589 2909
0 2595 3044
0 2602 3175
0 2610 3301
0 2619 3425
0 2630 3546
0 2641 3665
0 2654 3782
157 2228 1029
151 2228 1044
142 2229 1065
131 2229 1097
114 2231 1140
95 2235 1193
72 2241 1260
48 2250 1337
18 2277 1439
0 2318 1561
0 2369 1702
0 2429 1862
0 2498 2040
0 2566 2225
0 2639 2419
0 2710 2613
0 2766 2790
0 2770 2934
0 2775 3071
0 2780 3204
0 2786 3333
0 2794 3459
0 2802 3582
0 2811 3704
0 2821 3823
199 2415 1126
193 2416 1141
185 2416 1161
172 2417 1191
155 2419 1231
134 2422 1283
111 2427 1346
84 2434 1420
54 2447 1507
17 2479 1620
0 2519 1750
0 2569 1895
0 2625 2057
0 2690 2233
0 2754 2410
0 2821 2595
0 2886 2779
0 2940 2951
0 2947 3094
0 2951 3230
0 2956 3361
0 2961 3490
0 2968 3616
0 2975 3739
0 2983 3861
248 2599 1229
242 2600 1243
233 2601 1262
220 2601 1290
203 2603 1329
180 2605 1379
155 2609 1439
126 2615 1509
95 2623 1590
56 2644 1691
12 2677 1810
0 2717 1943
0 2764 2091
0 2818 2252
0 2878 2422
0 2935 2591
0 2995 2765
0 3051 2942
0 3099 3108
0 3110 3251
0 3113 3386
0 3117 3517
0 3122 3645
0 3127 3771
0 3133 3896
305 2783 1337
297 2783 1350
290 2784 1368
276 2785 1396
258 2786 1433
235 2789 1480
207 2792 1537
175 2796 1605
142 2803 1683
106 2813 1771
56 2840 1882
8 2872 2005
0 2910 2141
0 2954 2288
0 3002 2444
0 3055 2606
0 3103 2766
0 3154 2932
0 3201 3102
0 3242 3263
0 3255 3406
0 3258 3540
0 3262 3671
0 3266 3799
0 3270 3926
370 2964 1451
362 2964 1464
353 2964 1481
339 2965 1507
321 2967 1543
296 2968 1588
269 2971 1643
235 2975 1708
198 2980 1781
158 2988 1865
111 3003 1963
55 3028 2078
1 3058 2204
0 3093 2338
0 3131 2482
0 3172 2631
0 3215 2784
0 3255 2937
0 3299 3098
0 3340 3262
0 3375 3418
0 3391 3561
0 3394 3694
0 3397 3825
0 3401 3954
442 3134 1570
435 3135 1582
425 3135 1599
412 3136 1624
392 3137 1658
368 3139 1701
337 3141 1754
303 3144 1816
263 3149 1887
221 3154 1966
175 3162 2054
115 3180 2161
51 3202 2277
0 3228 2402
0 3258 2533
0 3290 2670
0 3326 2813
0 3363 2960
0 3398 3108
0 3436 3262
0 3472 3420
0 3503 3571
0 3521 3714
0 3523 3847
0 3526 3979
522 3291 1694
515 3292 1706
506 3292 1722
491 3293 1746
472 3294 1778
448 3295 1820
416 3297 1870
379 3300 1929
339 3304 1997
293 3308 2073
244 3314 2157
187 3324 2251
116 3342 2360
45 3363 2475
0 3387 2596
0 3413 2722
0 3442 2855
0 3473 2993
0 3505 3134
0 3535 3277
0 3568 3425
0 3599 3578
0 3626 3725
0 3645 3867
0 3647 4001
611 3443 1824
604 3443 1835
595 3444 1850
581 3445 1873
561 3446 1904
536 3447 1943
505 3449 1992
467 3451 2048
425 3454 2113
376 3458 2185
323 3463 2264
269 3470 2350
195 3482 2450
116 3499 2557
37 3518 2669
0 3540 2786
0 3563 2910
0 3588 3039
0 3615 3172
0 3642 3308
0 3668 3446
0 3696 3589
0 3723 3737
0 3746 3880
0 3764 4020
707 3592 1957
701 3592 1968
691 3592 1982
677 3593 2004
657 3594 2034
632 3595 2071
600 3597 2117
563 3599 2171
520 3602 2232
471 3606 2301
416 3610 2376
356 3615 2457
290 3623 2546
202 3636 2646
113 3652 2751
28 3669 2860
0 3688 2975
0 3708 3096
0 3730 3222
0 3753 3351
0 3775 3482
0 3798 3615
0 3821 3754
0 3844 3897
0 3864 4037
813 3739 2094
806 3739 2104
797 3739 2118
782 3740 2139
763 3741 2167
737 3742 2202
706 3744 2246
668 3746 2297
624 3749 2355
574 3752 2420
518 3756 2491
456 3760 2568
390 3766 2649
304 3775 2741
206 3788 2839
108 3802 2944
14 3817 3052
0 3834 3164
0 3851 3283
0 3869 3405
0 3888 3530
0 3907 3657
0 3926 3786
0 3945 3921
0 3964 4060
923 3886 2234
917 3886 2244
908 3886 2257
894 3887 2276
875 3888 2303
849 3889 2336
819 3891 2377
781 3893 2425
737 3895 2480
686 3898 2542
630 3902 2608
566 3906 2681
497 3911 2758
421 3917 2842
316 3927 2936
208 3939 3034
99 3951 3137
0 3965 3244
0 3979 3354
0 3993 3470
0 4008 3589
0 4024 3710
0 4039 3834
0 4054 3959
0 4069 4090
22 6 4
18 14 112
13 31 198
14 50 295
14 69 427
15 97 565
17 133 664
25 182 754
36 229 850
50 277 946
69 328 1050
89 380 1154
113 434 1264
141 492 1380
172 548 1493
207 607 1613
245 667 1731
287 728 1850
334 790 1970
384 853 2089
437 917 2207
492 982 2323
551 1048 2437
613 1114 2548
677 1180 2655
29 147 7
30 147 169
26 152 299
26 168 409
26 185 509
29 210 602
36 240 695
45 273 791
57 312 887
73 351 983
90 397 1084
112 445 1190
136 495 1298
165 546 1410
197 600 1524
232 656 1640
271 713 1758
313 771 1876
359 831 1994
408 892 2112
461 954 2227
517 1016 2342
576 1080 2454
636 1145 2564
684 1207 2683
10 271 33
27 277 206
28 297 335
23 306 484
22 315 615
28 329 712
36 350 805
48 373 895
62 405 988
78 440 1082
97 478 1180
120 521 1281
144 565 1385
173 612 1492
205 663 1602
241 714 1713
280 768 1825
324 823 1940
371 881 2053
419 938 2166
473 998 2279
528 1059 2390
586 1121 2499
646 1183 2603
696 1244 2721
0 399 64
25 410 254
20 421 351
23 460 496
21 480 651
18 488 794
18 499 923
33 515 1015
52 536 1109
72 563 1204
95 594 1300
120 629 1397
148 667 1499
179 708 1602
213 753 1706
250 800 1813
290 848 1920
334 900 2027
381 953 2137
431 1008 2244
485 1064 2351
541 1122 2457
599 1180 2561
661 1240 2662
707 1299 2775
0 528 156
27 546 305
20 549 380
16 584 499
19 639 656
20 673 819
15 679 966
12 687 1107
17 701 1237
43 718 1335
72 741 1433
102 767 1530
136 800 1630
171 834 1730
209 872 1831
250 913 1932
294 956 2034
341 1002 2138
389 1050 2240
441 1101 2342
496 1152 2443
553 1205 2542
613 1261 2640
675 1317 2736
720 1372 2845
2 667 249
29 687 363
23 689 425
16 707 516
11 757 649
14 827 816
18 876 988
13 882 1141
10 890 1292
8 900 1439
19 916 1570
56 934 1669
96 958 1768
140 985 1867
185 1016 1965
231 1051 2063
280 1089 2162
332 1128 2259
385 1171 2356
441 1215 2453
499 1262 2548
560 1311 2641
620 1362 2733
684 1413 2825
729 1464 2929
5 814 332
35 834 426
28 836 477
19 843 549
11 881 659
8 945 803
8 1023 977
17 1088 1164
10 1094 1325
6 1102 1482
4 1112 1636
3 1123 1786
27 1140 1909
77 1161 2008
130 1185 2106
185 1212 2202
242 1243 2296
301 1276 2389
362 1313 2482
425 1352 2572
488 1392 2661
552 1436 2749
618 1481 2837
685 1528 2924
731 1575 3024
10 971 415
43 992 493
37 992 537
28 998 600
17 1018 686
8 1067 807
4 1141 961
3 1225 1143
15 1306 1346
7 1313 1512
3 1319 1674
0 1328 1832
0 1339 1985
0 1353 2131
38 1370 2243
102 1391 2338
169 1416 2431
239 1443 2521
309 1473 2608
380 1506 2694
453 1541 2779
524 1579 2864
598 1619 2948
670 1660 3032
717 1702 3128
19 1135 497
55 1154 563
49 1156 601
38 1160 657
27 1167 727
14 1205 830
3 1263 960
0 1344 1125
0 1432 1317
8 1519 1529
5 1534 1703
0 1540 1868
0 1548 2027
0 1558 2180
0 1570 2326
0 1584 2464
56 1603 2560
135 1624 2648
217 1648 2733
300 1675 2817
383 1704 2899
467 1737 2982
550 1770 3063
632 1806 3144
682 1843 3238
33 1307 579
70 1325 637
62 1325 670
53 1328 718
39 1335 782
26 1354 866
10 1401 980
0 1467 1122
0 1551 1296
0 1643 1498
2 1731 1715
2 1755 1895
0 1761 2060
0 1769 2218
0 1778 2369
0 1788 2511
0 1801 2645
0 1816 2769
81 1835 2855
175 1856 2938
273 1880 3020
370 1906 3100
466 1934 3180
560 1965 3259
616 1997 3351
50 1485 661
88 1500 713
80 1501 742
69 1503 786
57 1508 843
42 1518 915
24 1551 1014
5 1605 1139
0 1676 1292
0 1761 1476
0 1853 1682
0 1941 1901
0 1974 2085
0 1979 2249
0 1986 2403
0 1994 2550
0 2004 2687
0 2015 2818
0 2028 2944
7 2044 3055
111 2063 3137
223 2084 3218
335 2106 3297
446 2131 3375
510 2158 3465
