Grading Edition presets/Toning - Style 12 - Grunge.3dl
#25pt 3DLUT created by 3D LUT Creator Pro (c) Oleg Sharonov
#Copyright Oleg Sharonov
#IMAGEPROFILE sRGB IEC61966-2.1 v.2.10
#INPUTGAMMA sRGB IEC61966-2.1 v.2.10
#OUTPUTGAMMA sRGB IEC61966-2.1 v.2.10
0 256 512 768 1023
79 28 0
166 109 22
397 330 237
638 566 506
934 863 885
534 590 223
429 565 244
626 694 530
863 863 838
1146 1125 1219
1291 1594 821
1119 1589 795
1046 1595 942
1271 1791 1469
1654 1979 1950
2330 2832 1779
2141 2861 1756
2046 2874 1831
2002 2924 2128
2230 3052 2734
3244 3742 2904
3088 3776 2910
3034 3800 2917
2988 3840 3073
2979 3900 3329
430 143 10
460 255 109
622 438 347
807 668 611
1083 963 985
744 543 216
928 857 587
928 857 782
1072 1003 1017
1320 1256 1356
1740 1474 819
1539 1786 1074
1358 1807 1191
1480 1904 1644
1811 2056 2105
2751 2757 1656
2456 2908 1956
2231 2946 1986
2188 2994 2276
2333 3099 2827
3539 3699 2814
3299 3769 2989
3120 3819 2990
3073 3859 3131
3065 3918 3382
949 383 187
901 443 241
1031 624 440
1287 870 810
1538 1179 1259
1190 664 362
1277 707 457
1451 1015 789
1644 1195 1193
1795 1477 1587
1989 1558 867
2110 1770 1150
2191 2161 1802
2208 2179 2211
2310 2288 2509
3073 2740 1837
3093 2816 2019
2815 3099 2474
2680 3160 2677
2675 3216 3092
3883 3667 2955
3838 3701 2986
3463 3847 3229
3307 3912 3305
3299 3968 3538
1765 709 458
1707 769 512
1679 902 655
1901 1184 1001
2172 1506 1483
1975 968 640
2037 970 686
2023 1180 900
2202 1490 1289
2409 1765 1759
2527 1790 1150
2603 1864 1301
2787 2046 1689
2823 2370 2152
2960 2473 2599
3319 2902 2001
3331 2968 2183
3347 3135 2654
3281 3297 3146
3316 3333 3484
4095 3742 3059
4095 3759 3130
4064 3811 3333
3737 3963 3613
3658 4034 3785
2707 1184 877
2656 1250 941
2613 1380 1078
2649 1639 1380
2822 1941 1783
2832 1441 1073
2893 1430 1103
2810 1584 1264
2855 1873 1597
2992 2171 2026
3228 2139 1585
3235 2157 1655
3310 2207 1854
3319 2528 2278
3373 2769 2682
3668 3155 2387
3692 3175 2497
3754 3232 2802
3837 3316 3167
3787 3467 3426
4095 3947 3740
4095 3957 3762
4095 3988 3838
4095 4035 3948
4095 4095 4095
