Grading Edition presets/Toning - Style 6.3dl
#25pt 3DLUT created by 3D LUT Creator Pro (c) Oleg Sharonov
#Copyright Oleg Sharonov
#IMAGEPROFILE sRGB IEC61966-2.1 v.2.10
#INPUTGAMMA sRGB IEC61966-2.1 v.2.10
#OUTPUTGAMMA sRGB IEC61966-2.1 v.2.10
0 128 256 384 512 640 768 896 1023
413 406 406
412 408 576
408 433 1229
403 488 2068
399 575 2613
396 695 3022
394 853 3312
391 1041 3620
388 1248 4054
429 584 405
441 569 578
421 645 1232
401 740 2069
397 878 2612
394 1049 3021
392 1244 3310
389 1452 3619
385 1663 4053
454 1248 405
524 1253 718
487 1184 1234
499 1353 2071
430 1493 2611
390 1640 3019
388 1805 3307
386 1973 3617
382 2132 4051
489 2086 414
573 2089 798
619 2089 1525
554 1997 2070
626 2154 2609
535 2257 3017
453 2344 3305
399 2425 3616
380 2510 4051
537 2626 436
636 2626 893
778 2623 1745
757 2621 2311
650 2546 2609
746 2645 3016
713 2726 3303
584 2794 3616
487 2859 4052
596 3033 470
714 3032 998
875 3028 1858
957 3026 2435
934 3025 2791
777 2952 3015
895 3029 3302
970 3095 3615
791 3141 4052
669 3321 516
806 3318 1112
982 3313 1968
1190 3310 2555
1164 3309 2893
1141 3309 3157
932 3246 3302
1065 3301 3616
1207 3357 4052
755 3636 571
910 3633 1232
1098 3630 2073
1312 3628 2616
1411 3628 2986
1386 3628 3224
1363 3629 3439
1107 3521 3616
1248 3601 4053
854 4073 635
1022 4071 1355
1219 4068 2169
1438 4067 2675
1662 4066 3070
1636 4067 3287
1611 4068 3520
1589 4069 3845
1292 3921 4053
721 404 404
643 403 577
520 412 1231
448 433 2068
409 482 2613
397 559 3023
395 668 3313
393 813 3621
389 989 4055
724 577 403
726 586 578
588 649 1234
492 731 2071
428 835 2613
394 969 3022
392 1138 3311
390 1329 3619
386 1530 4053
756 1250 401
806 1254 631
855 1220 1236
779 1363 2072
631 1496 2611
524 1636 3019
447 1779 3308
397 1922 3617
383 2069 4051
780 2087 400
897 2090 696
1099 2089 1487
1004 2028 2071
1046 2166 2609
850 2260 3016
690 2344 3305
569 2423 3617
477 2502 4052
828 2625 405
1003 2625 777
1211 2622 1602
1307 2620 2286
1176 2563 2608
1322 2659 3014
1137 2728 3302
938 2794 3615
765 2858 4052
933 3032 427
1119 3031 871
1330 3027 1718
1558 3023 2412
1528 3023 2771
1363 2965 3013
1510 3039 3299
1459 3096 3614
1240 3140 4051
1049 3320 459
1242 3317 975
1455 3312 1833
1678 3308 2475
1776 3307 2873
1751 3306 3142
1556 3254 3299
1701 3308 3613
1782 3360 4050
1171 3634 502
1370 3632 1088
1582 3628 1944
1799 3626 2537
2007 3625 2968
1982 3626 3210
1961 3627 3423
1745 3533 3614
1882 3613 4051
1297 4072 555
1498 4070 1206
1707 4066 2048
1915 4065 2597
2107 4065 3013
2183 4066 3273
2164 4067 3503
2145 4067 3824
1923 3937 4051
1471 399 399
1475 398 558
1213 400 1232
940 435 2070
765 473 2613
629 527 3023
530 600 3313
463 702 3622
416 837 4055
1475 571 398
1480 579 568
1346 637 1236
1082 750 2072
882 851 2613
717 969 3022
592 1103 3311
498 1247 3620
432 1407 4054
1478 1218 409
1481 1238 656
1482 1255 1237
1242 1378 2072
1020 1506 2611
831 1641 3019
677 1779 3307
559 1916 3618
470 2045 4052
1544 2087 415
1522 2089 686
1596 2089 1343
1660 2058 2071
1560 2175 2607
1329 2266 3014
1111 2346 3303
915 2424 3616
745 2500 4052
1578 2623 421
1552 2624 713
1711 2621 1456
1931 2618 2261
1835 2580 2606
1876 2667 3011
1655 2731 3299
1429 2796 3614
1210 2858 4050
1616 3030 431
1611 3029 759
1826 3025 1573
2033 3022 2329
2116 3021 2751
2003 2977 3011
2126 3049 3296
1963 3097 3612
1752 3140 4049
1657 3317 444
1735 3315 853
1939 3310 1692
2130 3306 2393
2293 3304 2854
2273 3304 3128
2154 3261 3296
2259 3315 3612
2221 3362 4049
1699 3632 459
1857 3631 956
2047 3627 1809
2219 3625 2457
2359 3625 2905
2415 3625 3196
2398 3626 3409
2281 3545 3612
2365 3627 4050
1785 4070 489
1973 4069 1067
2147 4065 1921
2297 4064 2519
2424 4064 2952
2550 4066 3260
2533 4066 3487
2516 4067 3805
2386 3954 4050
2245 394 394
2247 393 550
2247 388 1320
1917 406 2069
1606 474 2611
1373 532 3020
1160 601 3310
965 687 3621
793 792 4056
2247 578 393
2250 577 562
2249 526 1179
2036 700 2071
1755 876 2610
1527 991 3019
1304 1120 3308
1096 1260 3619
906 1406 4054
2248 1203 392
2249 1274 619
2249 1247 1220
2147 1362 2071
1913 1544 2608
1688 1671 3015
1462 1802 3304
1242 1932 3616
1037 2057 4051
2247 2044 433
2248 2060 760
2247 2075 1393
2245 2088 2071
2061 2186 2605
1849 2274 3012
1625 2351 3300
1402 2426 3614
1186 2500 4050
2301 2621 455
2287 2621 813
2273 2620 1445
2318 2617 2158
2354 2598 2605
2296 2673 3010
2129 2736 3297
1935 2799 3612
1724 2859 4049
2321 3027 468
2304 3027 846
2289 3024 1485
2382 3021 2239
2510 3020 2733
2452 2991 3009
2475 3055 3295
2344 3100 3611
2200 3142 4048
2341 3314 484
2323 3312 884
2322 3309 1548
2446 3306 2311
2571 3304 2787
2623 3303 3115
2551 3271 3295
2627 3325 3611
2522 3365 4049
2362 3631 502
2343 3630 926
2389 3627 1669
2510 3625 2376
2631 3624 2839
2748 3625 3184
2732 3626 3396
2646 3561 3612
2719 3644 4050
2382 4069 522
2363 4068 969
2456 4065 1787
2573 4064 2440
2690 4064 2889
2803 4065 3216
2849 4067 3472
2834 4067 3786
2735 3973 4050
2721 390 391
2722 389 547
2720 385 1168
2718 412 2244
2434 425 2609
2242 514 3017
2032 611 3306
1831 697 3618
1619 800 4053
2722 589 389
2723 569 552
2722 527 1173
2719 647 2138
2505 780 2609
2321 1010 3016
2156 1148 3303
1969 1282 3616
1763 1423 4051
2721 1207 385
2721 1319 590
2720 1242 1208
2718 1139 2021
2576 1473 2607
2408 1710 3013
2270 1832 3300
2102 1956 3613
1907 2074 4049
2719 2029 407
2719 2094 718
2717 2106 1332
2714 2082 2057
2645 2175 2605
2499 2298 3010
2367 2370 3297
2225 2441 3611
2049 2512 4048
2718 2586 483
2718 2595 890
2715 2602 1557
2713 2608 2196
2713 2617 2605
2588 2680 3009
2461 2744 3296
2328 2805 3611
2178 2863 4048
2767 3027 523
2754 3025 967
2743 3023 1629
2733 3020 2232
2769 3019 2661
2799 3005 3009
2752 3061 3294
2631 3105 3611
2505 3145 4048
2782 3312 541
2768 3311 1005
2756 3307 1670
2745 3305 2257
2824 3303 2717
2928 3302 3102
2883 3281 3294
2900 3331 3611
2789 3369 4049
2798 3630 562
2783 3629 1046
2769 3627 1712
2769 3625 2294
2876 3624 2771
2976 3625 3138
3016 3626 3383
2959 3576 3612
3014 3660 4050
2814 4069 584
2797 4068 1090
2783 4066 1755
2824 4064 2360
2925 4065 2824
3020 4066 3172
3104 4067 3458
3092 4067 3769
3028 3992 4050
3097 388 388
3098 387 548
3096 383 1158
3092 376 2110
3091 485 2791
2806 457 3016
2646 567 3304
2483 716 3616
2357 818 4052
3098 583 387
3099 551 535
3096 528 1170
3093 484 1982
3090 824 2721
2866 873 3015
2708 1119 3302
2564 1316 3614
2439 1452 4050
3096 1224 382
3096 1358 572
3094 1243 1201
3091 1138 2011
3088 1387 2648
2923 1586 3012
2770 1857 3298
2646 1988 3612
2523 2099 4048
3092 2027 390
3092 2131 683
3090 2138 1273
3086 2077 2046
3085 1989 2574
2979 2253 3010
2844 2393 3296
2729 2461 3611
2609 2529 4047
3091 2575 444
3090 2615 843
3087 2621 1497
3084 2627 2149
3083 2612 2596
3032 2673 3009
2920 2763 3294
2810 2822 3610
2693 2879 4047
3090 2992 554
3089 2998 1040
3085 3001 1724
3083 3007 2303
3082 3013 2686
3082 3019 3009
2989 3065 3294
2888 3109 3611
2776 3149 4048
3130 3312 615
3120 3309 1140
3111 3306 1811
3102 3304 2342
3096 3303 2711
3120 3302 3051
3141 3291 3293
3108 3335 3612
3020 3374 4050
3140 3630 639
3129 3629 1181
3119 3626 1849
3110 3625 2364
3103 3625 2729
3157 3625 3089
3228 3626 3372
3197 3594 3612
3207 3671 4051
3149 4070 665
3137 4068 1224
3126 4066 1888
3117 4065 2384
3118 4065 2755
3191 4066 3125
3261 4068 3407
3290 4068 3751
3247 4012 4051
3367 386 386
3367 385 552
3364 381 1151
3360 375 1987
3358 391 2702
3357 602 3191
3107 501 3303
2983 630 3616
2839 822 4052
3367 584 385
3367 537 521
3365 519 1147
3361 486 1981
3358 594 2626
3355 1048 3144
3149 977 3302
3030 1235 3615
2898 1489 4050
3364 1254 380
3364 1347 565
3362 1250 1200
3358 1141 2005
3357 1044 2548
3353 1644 3094
3187 1703 3298
3076 1963 3612
2965 2129 4048
3360 2034 380
3360 2169 653
3357 2164 1233
3354 2075 2036
3352 1985 2566
3350 2192 3040
3226 2321 3295
3121 2476 3611
3030 2549 4048
3359 2571 417
3358 2632 793
3355 2642 1440
3351 2647 2102
3350 2609 2588
3349 2554 2985
3266 2729 3294
3172 2841 3611
3091 2897 4048
3358 2983 503
3356 3008 977
3353 3017 1666
3350 3021 2265
3349 3027 2654
3348 3015 3003
3306 3060 3294
3223 3122 3611
3147 3161 4049
3357 3281 646
3355 3283 1204
3351 3285 1886
3349 3289 2396
3348 3292 2766
3348 3298 3069
3348 3302 3293
3272 3339 3612
3199 3378 4050
3399 3631 738
3389 3629 1327
3380 3627 1982
3372 3626 2444
3365 3626 2798
3360 3626 3086
3384 3627 3327
3404 3610 3613
3370 3678 4052
3408 4071 766
3397 4069 1367
3387 4067 2016
3379 4066 2464
3371 4066 2814
3366 4067 3096
3422 4068 3359
3510 4069 3734
3468 4032 4052
3695 385 384
3695 383 557
3694 378 1147
3691 373 1978
3690 368 2614
3691 452 3131
3692 771 3516
3330 555 3617
3231 707 4053
3695 587 382
3697 529 513
3695 509 1121
3692 484 1971
3691 450 2531
3691 756 3080
3690 1299 3461
3368 1089 3616
3265 1354 4051
3693 1295 377
3695 1295 542
3693 1259 1202
3691 1147 2003
3690 1047 2544
3689 1288 3023
3688 1892 3409
3407 1818 3614
3300 2063 4049
3691 2046 373
3692 2198 619
3690 2167 1231
3687 2075 2029
3687 1983 2559
3687 1891 2962
3687 2350 3362
3453 2383 3612
3339 2534 4049
3691 2571 397
3691 2646 745
3689 2664 1387
3686 2662 2065
3686 2605 2581
3686 2550 2978
3687 2683 3317
3504 2782 3612
3383 2909 4049
3691 2978 464
3690 3016 916
3688 3032 1610
3686 3035 2225
3686 3041 2621
3686 3012 2995
3686 2970 3274
3561 3098 3612
3438 3174 4050
3692 3274 582
3691 3288 1129
3688 3296 1831
3687 3299 2361
3686 3303 2735
3687 3307 3045
3687 3298 3288
3623 3334 3613
3502 3392 4052
3692 3577 764
3690 3583 1376
3688 3588 2036
3687 3594 2486
3687 3603 2841
3687 3610 3122
3688 3621 3341
3689 3628 3613
3573 3685 4052
3765 4071 886
3752 4069 1516
3740 4067 2135
3732 4067 2542
3722 4067 2879
3714 4068 3143
3707 4069 3355
3744 4069 3665
3774 4050 4052
4095 384 383
4095 380 563
4095 375 1146
4095 370 1968
4095 366 2538
4095 373 3067
4095 555 3446
4095 987 4003
3589 618 4054
4095 591 379
4095 525 509
4095 497 1095
4095 477 1952
4095 450 2528
4095 548 3009
4095 967 3395
4095 1559 3929
3646 1206 4053
4095 1306 374
4095 1250 522
4095 1224 1166
4095 1156 2002
4095 1053 2540
4095 961 2946
4095 1546 3346
4095 2112 3856
3706 1928 4051
4095 2065 369
4095 2219 585
4095 2170 1232
4095 2077 2025
4095 1984 2553
4095 1890 2956
4095 2109 3300
4095 2488 3784
3771 2445 4050
4095 2574 381
4095 2658 698
4095 2687 1337
4095 2660 2057
4095 2602 2573
4095 2546 2971
4095 2491 3256
4095 2804 3714
3841 2831 4050
4095 2976 433
4095 3024 857
4095 3048 1557
4095 3049 2183
4095 3049 2596
4095 3008 2988
4095 2966 3268
4095 3065 3648
3912 3132 4051
4095 3268 531
4095 3291 1057
4095 3307 1778
4095 3309 2327
4095 3313 2704
4095 3317 3019
4095 3295 3281
4095 3262 3584
3984 3367 4052
4095 3567 683
4095 3586 1292
4095 3606 1986
4095 3611 2452
4095 3619 2812
4095 3627 3100
4095 3636 3320
4095 3623 3606
4055 3679 4053
4095 4000 903
4095 4006 1549
4095 4015 2170
4095 4022 2573
4095 4032 2912
4095 4042 3171
4095 4052 3390
4095 4062 3689
4095 4070 4053
