Grading Edition presets/Toning - Style 6 v2.3dl
#25pt 3DLUT created by 3D LUT Creator Pro (c) Oleg Sharonov
#Copyright Oleg Sharonov
#IMAGEPROFILE sRGB IEC61966-2.1 v.2.10
#INPUTGAMMA sRGB IEC61966-2.1 v.2.10
#OUTPUTGAMMA sRGB IEC61966-2.1 v.2.10
0 128 256 384 512 640 768 896 1023
413 406 406
412 410 653
406 446 1484
401 520 2331
397 631 2834
395 778 3193
393 940 3443
390 1093 3725
388 1248 4054
430 589 405
446 588 655
411 674 1487
399 797 2331
395 967 2833
393 1160 3191
390 1349 3441
388 1512 3724
385 1669 4053
455 1266 405
523 1271 806
501 1251 1490
470 1425 2331
408 1581 2831
389 1743 3189
387 1898 3439
385 2026 3722
382 2141 4051
490 2107 415
593 2110 925
618 2110 1733
582 2080 2330
594 2225 2829
492 2319 3186
428 2395 3437
391 2458 3722
380 2520 4051
539 2642 438
660 2642 1030
778 2639 1944
756 2638 2474
697 2609 2829
798 2708 3184
658 2771 3436
566 2823 3722
495 2871 4052
599 3047 472
742 3045 1144
934 3040 2096
956 3039 2592
933 3038 2953
841 3006 3184
958 3073 3434
939 3117 3722
807 3150 4052
671 3330 517
838 3326 1264
1045 3321 2188
1187 3319 2705
1159 3318 3041
1138 3318 3275
996 3279 3434
1102 3322 3722
1209 3364 4052
757 3643 572
942 3640 1385
1161 3636 2270
1407 3635 2800
1403 3635 3118
1377 3636 3339
1358 3636 3569
1143 3546 3722
1249 3606 4053
854 4073 635
1055 4070 1508
1282 4067 2339
1530 4066 2852
1649 4067 3185
1622 4068 3406
1600 4068 3668
1584 4069 3936
1292 3921 4053
631 405 405
512 410 654
437 428 1485
401 476 2331
398 561 2834
395 676 3193
394 815 3443
391 951 3726
389 1094 4054
644 590 404
646 599 656
520 675 1489
439 777 2332
396 911 2833
393 1078 3192
391 1252 3442
389 1407 3724
386 1558 4053
661 1268 400
771 1272 746
796 1280 1491
661 1430 2331
536 1581 2832
453 1730 3189
404 1863 3439
385 1979 3722
383 2089 4051
682 2108 398
859 2111 828
993 2110 1703
954 2102 2329
878 2228 2829
705 2320 3186
588 2394 3437
510 2455 3722
451 2513 4051
766 2642 410
963 2641 924
1194 2638 1889
1194 2636 2456
1137 2622 2828
1164 2710 3183
975 2772 3435
833 2823 3722
714 2870 4052
865 3046 434
1076 3044 1031
1312 3039 1994
1442 3037 2574
1414 3036 2938
1329 3015 3181
1467 3079 3432
1332 3117 3720
1173 3149 4051
974 3329 470
1197 3325 1144
1436 3319 2093
1688 3316 2685
1662 3316 3027
1639 3316 3263
1512 3285 3432
1626 3327 3720
1711 3368 4050
1090 3642 514
1321 3639 1262
1561 3635 2184
1805 3633 2741
1898 3633 3105
1874 3634 3327
1855 3634 3554
1670 3556 3721
1775 3616 4051
1212 4072 568
1447 4069 1383
1684 4066 2265
1918 4065 2794
2109 4065 3173
2087 4067 3393
2068 4067 3651
2054 4067 3918
1816 3934 4051
1218 401 401
1223 400 705
774 446 1488
615 492 2333
508 557 2835
442 644 3194
406 754 3444
392 869 3726
389 995 4055
1222 566 400
1226 569 637
951 729 1491
747 834 2333
600 961 2834
500 1099 3192
437 1235 3442
403 1364 3725
386 1497 4053
1262 1269 408
1243 1273 717
1263 1302 1492
1011 1441 2331
804 1586 2831
649 1730 3189
545 1859 3439
477 1963 3723
427 2059 4052
1293 2108 409
1267 2111 739
1516 2110 1657
1516 2126 2328
1301 2235 2827
1074 2323 3184
893 2395 3436
760 2455 3722
653 2511 4052
1329 2640 415
1378 2640 820
1632 2637 1768
1746 2635 2437
1715 2636 2825
1621 2714 3181
1409 2774 3433
1237 2824 3720
1081 2870 4051
1369 3044 423
1503 3043 919
1749 3038 1878
1979 3035 2554
1949 3034 2922
1897 3024 3179
1948 3083 3430
1782 3118 3719
1619 3149 4050
1411 3327 435
1628 3324 1026
1865 3318 1984
2089 3315 2618
2156 3313 3012
2132 3313 3252
2052 3291 3430
2145 3334 3719
2118 3369 4049
1513 3640 464
1752 3638 1138
1975 3634 2084
2180 3632 2676
2319 3632 3091
2301 3633 3315
2285 3633 3540
2173 3567 3719
2248 3628 4050
1640 4070 507
1870 4068 1255
2079 4065 2175
2261 4064 2732
2405 4065 3138
2437 4066 3381
2421 4067 3636
2410 4067 3902
2274 3949 4050
1954 396 396
1958 394 624
1888 457 1737
1217 516 2332
973 598 2834
790 684 3193
658 780 3444
571 873 3727
507 977 4056
1957 553 395
1961 545 609
1962 761 1647
1421 918 2331
1173 1047 2832
962 1184 3190
798 1317 3441
682 1432 3725
592 1542 4054
1960 1211 397
1963 1229 685
1963 1238 1474
1650 1515 2329
1391 1655 2829
1160 1791 3186
973 1914 3437
832 2013 3723
715 2103 4052
2011 2108 431
1993 2110 831
1975 2109 1557
2005 2141 2326
1764 2242 2826
1525 2327 3182
1317 2397 3434
1150 2456 3721
1001 2511 4051
2039 2638 439
2016 2638 862
2049 2636 1643
2229 2633 2418
2225 2650 2824
2052 2718 3179
1862 2777 3431
1694 2825 3719
1529 2871 4049
2069 3041 451
2042 3040 898
2145 3037 1756
2320 3034 2490
2358 3033 2907
2341 3035 3177
2301 3086 3429
2181 3119 3718
2048 3150 4048
2100 3323 466
2071 3322 938
2232 3317 1868
2384 3314 2551
2495 3312 2998
2477 3312 3241
2439 3299 3429
2500 3342 3718
2413 3371 4049
2131 3638 483
2142 3637 1020
2308 3633 1975
2448 3632 2610
2584 3632 3056
2607 3632 3304
2592 3633 3526
2519 3580 3719
2577 3642 4050
2162 4069 501
2232 4068 1132
2375 4065 2075
2511 4064 2667
2643 4065 3094
2730 4066 3369
2715 4067 3620
2703 4067 3885
2594 3965 4050
2492 392 392
2493 391 613
2491 392 1620
2195 467 2368
1760 615 2831
1487 746 3189
1285 848 3441
1123 943 3725
979 1041 4055
2493 551 391
2495 526 587
2493 534 1439
2310 864 2368
1933 1147 2829
1706 1283 3186
1499 1412 3437
1329 1524 3723
1172 1631 4052
2492 1177 387
2494 1187 615
2492 1186 1420
2405 1543 2366
2127 1764 2826
1916 1891 3182
1715 2004 3434
1543 2094 3720
1380 2175 4050
2491 2049 419
2491 2064 808
2489 2079 1544
2486 2179 2352
2289 2284 2824
2111 2361 3179
1927 2428 3431
1762 2484 3719
1600 2538 4049
2531 2638 480
2518 2637 972
2505 2635 1721
2510 2633 2358
2518 2659 2824
2381 2725 3177
2250 2782 3429
2119 2829 3717
1979 2873 4048
2548 3040 493
2532 3039 1008
2517 3036 1757
2571 3033 2419
2670 3032 2892
2670 3046 3176
2565 3090 3428
2465 3122 3717
2370 3152 4048
2566 3322 511
2548 3320 1049
2532 3316 1797
2631 3313 2480
2759 3312 2962
2775 3311 3230
2754 3308 3428
2753 3346 3718
2666 3375 4049
2584 3637 530
2564 3636 1092
2560 3633 1856
2689 3632 2540
2813 3632 3006
2888 3632 3293
2874 3633 3512
2825 3594 3719
2872 3657 4050
2602 4069 551
2581 4068 1137
2621 4065 1963
2746 4064 2599
2864 4065 3047
2968 4066 3344
2977 4067 3604
2966 4067 3868
2888 3982 4050
2908 389 389
2909 388 608
2906 382 1433
2904 494 2524
2521 517 2829
2290 730 3186
2069 935 3437
1916 1032 3722
1763 1131 4052
2909 552 388
2910 510 568
2907 501 1378
2903 786 2426
2609 982 2828
2384 1357 3183
2238 1524 3434
2104 1630 3720
1963 1732 4049
2907 1149 384
2908 1150 560
2906 1137 1368
2902 1263 2326
2693 1678 2826
2491 1999 3180
2369 2100 3431
2263 2180 3718
2143 2249 4048
2905 2015 394
2905 2025 716
2902 2036 1410
2899 2039 2288
2776 2285 2824
2613 2427 3178
2495 2491 3429
2393 2544 3717
2295 2595 4047
2904 2592 464
2903 2601 951
2900 2608 1712
2898 2616 2347
2857 2676 2823
2728 2754 3176
2616 2811 3428
2517 2856 3717
2422 2897 4047
2944 3040 555
2932 3038 1139
2920 3035 1891
2911 3033 2439
2930 3032 2854
2923 3052 3175
2824 3095 3428
2734 3127 3717
2644 3156 4048
2958 3321 574
2943 3318 1179
2931 3315 1927
2921 3313 2458
2979 3311 2902
3042 3311 3219
3039 3318 3428
2985 3350 3719
2909 3379 4049
2971 3637 595
2955 3635 1221
2942 3633 1963
2931 3632 2478
3023 3632 2949
3111 3633 3270
3117 3633 3498
3091 3611 3719
3119 3673 4050
2983 4069 619
2966 4068 1265
2952 4065 1999
2967 4065 2525
3064 4065 2993
3146 4067 3301
3192 4068 3589
3183 4068 3851
3135 4001 4051
3250 387 387
3250 385 608
3246 380 1388
3242 381 2396
3240 683 3060
2900 594 3185
2726 821 3436
2567 1075 3721
2447 1247 4050
3250 554 386
3251 495 550
3247 484 1333
3243 516 2289
3238 1109 2988
2969 1134 3182
2804 1478 3433
2656 1758 3719
2565 1852 4048
3248 1136 382
3248 1107 539
3245 1089 1318
3241 1082 2252
3236 1637 2911
3035 1833 3179
2878 2137 3430
2764 2270 3717
2678 2327 4047
3244 1981 379
3244 1986 631
3241 1990 1310
3236 1984 2246
3234 2129 2830
3096 2375 3177
2953 2564 3428
2870 2615 3717
2788 2662 4047
3242 2568 423
3241 2573 833
3237 2578 1568
3234 2586 2257
3232 2586 2794
3151 2753 3176
3043 2872 3428
2969 2915 3717
2892 2954 4048
3241 2997 526
3238 3002 1096
3235 3005 1863
3232 3011 2431
3231 3018 2829
3205 3062 3175
3124 3118 3427
3058 3150 3718
2988 3178 4049
3272 3320 666
3262 3317 1337
3253 3314 2066
3245 3312 2542
3239 3311 2913
3247 3311 3192
3243 3325 3428
3186 3355 3719
3129 3384 4050
3281 3638 691
3269 3636 1377
3260 3633 2097
3252 3632 2561
3245 3632 2927
3280 3633 3224
3329 3634 3483
3318 3630 3720
3297 3681 4051
3289 4070 718
3276 4068 1419
3265 4066 2127
3257 4066 2580
3250 4066 2941
3313 4067 3254
3382 4069 3544
3399 4069 3832
3361 4023 4052
3604 385 385
3605 383 613
3602 378 1368
3599 371 2264
3599 441 2953
3600 892 3391
3318 826 3529
3148 854 3722
3043 1096 4051
3605 560 383
3606 486 539
3604 468 1288
3600 459 2223
3599 679 2871
3598 1381 3333
3366 1478 3527
3197 1515 3720
3099 1789 4049
3603 1142 379
3605 1066 520
3602 1043 1268
3599 1030 2211
3598 1108 2786
3596 1899 3277
3420 2133 3525
3245 2162 3718
3152 2341 4048
3600 1950 374
3601 1948 556
3599 1940 1257
3596 1928 2202
3595 1926 2761
3594 2312 3222
3480 2560 3524
3294 2580 3718
3203 2722 4048
3599 2543 390
3599 2546 721
3597 2549 1412
3594 2548 2198
3593 2547 2759
3594 2609 3168
3549 2909 3523
3346 2926 3719
3266 3016 4049
3599 2975 464
3598 2978 954
3596 2981 1709
3594 2985 2336
3593 2991 2760
3593 2990 3151
3595 3152 3495
3401 3186 3719
3334 3223 4050
3600 3279 594
3598 3281 1233
3595 3282 1988
3594 3286 2502
3594 3291 2888
3594 3295 3165
3595 3315 3431
3476 3387 3720
3408 3418 4051
3656 3638 829
3643 3636 1561
3632 3634 2230
3622 3633 2653
3614 3633 3000
3606 3634 3241
3600 3635 3449
3604 3647 3721
3523 3690 4052
3670 4071 857
3655 4069 1599
3643 4067 2254
3633 4067 2671
3624 4067 3011
3617 4068 3249
3629 4069 3473
3715 4069 3797
3697 4046 4052
4095 384 383
4095 379 619
4095 374 1356
4095 368 2236
4095 364 2838
4095 544 3307
4095 1058 3770
3905 1215 4053
3477 879 4054
4095 567 379
4095 482 535
4095 453 1246
4095 442 2187
4095 438 2747
4095 882 3250
4095 1568 3681
3990 1898 4051
3538 1542 4052
4095 1152 375
4095 1027 502
4095 1000 1222
4095 983 2170
4095 977 2737
4095 1371 3193
4095 2058 3596
4080 2401 4050
3612 2177 4050
4095 1933 370
4095 1912 494
4095 1890 1206
4095 1874 2159
4095 1868 2728
4095 1893 3134
4095 2411 3519
4095 2730 4005
3691 2587 4050
4095 2519 370
4095 2520 626
4095 2521 1261
4095 2513 2153
4095 2508 2723
4095 2508 3127
4095 2696 3450
4095 2973 3914
3775 2930 4050
4095 2953 416
4095 2955 825
4095 2956 1552
4095 2958 2235
4095 2959 2722
4095 2959 3126
4095 2960 3394
4095 3166 3826
3863 3187 4051
4095 3262 517
4095 3263 1081
4095 3263 1841
4095 3265 2409
4095 3269 2807
4095 3273 3126
4095 3272 3394
4095 3329 3739
3951 3408 4052
4095 3565 675
4095 3569 1369
4095 3573 2099
4095 3580 2570
4095 3588 2939
4095 3597 3201
4095 3604 3406
4095 3605 3697
4041 3708 4053
4095 4000 903
4095 4008 1668
4095 4017 2304
4095 4026 2720
4095 4038 3055
4095 4046 3288
4095 4057 3519
4095 4064 3780
4095 4070 4053
