Grading Edition presets/Toning - Style 14 - Warm counterpoint.3dl
#25pt 3DLUT created by 3D LUT Creator Pro (c) Oleg Sharonov
#Copyright Oleg Sharonov
#INPUTGAMMA sRGB IEC61966-2.1 v.2.10
#IMAGEPROFILE sRGB IEC61966-2.1 v.2.10
#OUTPUTGAMMA sRGB IEC61966-2.1 v.2.10
0 128 256 384 512 640 768 896 1023
537 213 389
576 241 450
684 320 592
831 434 782
998 574 1019
1185 743 1285
1377 927 1552
1563 1114 1801
1751 1309 2036
771 503 540
711 528 688
831 565 850
948 650 1033
1089 772 1251
1259 924 1482
1437 1092 1716
1611 1264 1936
1788 1446 2145
1143 1009 814
1062 1032 983
1013 1076 1193
1176 1115 1417
1325 1198 1626
1476 1312 1833
1627 1446 2031
1775 1588 2211
1933 1738 2370
1607 1654 1199
1536 1669 1373
1449 1707 1568
1409 1756 1805
1600 1792 2028
1763 1858 2211
1911 1945 2364
2046 2043 2489
2179 2149 2609
2098 2284 1655
2052 2291 1809
1966 2316 1979
1890 2353 2166
1869 2393 2360
2059 2418 2519
2213 2459 2646
2343 2510 2756
2463 2568 2861
2558 2765 2118
2530 2768 2228
2467 2784 2361
2404 2807 2490
2347 2838 2626
2344 2871 2772
2506 2888 2903
2631 2916 3010
2738 2953 3108
2926 3180 2510
2911 3183 2577
2878 3193 2676
2837 3212 2781
2801 3236 2894
2770 3266 3013
2774 3295 3135
2884 3308 3243
2975 3331 3338
3233 3560 2852
3223 3562 2902
3202 3568 2984
3171 3584 3069
3145 3603 3163
3125 3627 3261
3110 3654 3361
3113 3681 3460
3203 3692 3554
3526 3913 3190
3519 3915 3226
3507 3919 3291
3484 3932 3361
3465 3948 3436
3451 3967 3517
3442 3989 3598
3436 4013 3679
3437 4040 3762
874 225 398
800 278 524
805 369 660
913 476 838
1070 612 1067
1252 776 1326
1443 953 1588
1627 1136 1832
1811 1327 2062
1031 517 458
880 554 746
923 595 959
1040 676 1121
1181 795 1317
1344 944 1539
1513 1110 1765
1681 1280 1977
1851 1459 2178
1321 1018 785
1198 1052 975
1091 1100 1250
1236 1140 1475
1376 1221 1681
1520 1334 1882
1667 1465 2074
1817 1605 2242
1974 1753 2391
1730 1662 1177
1651 1682 1333
1517 1723 1594
1467 1773 1843
1644 1809 2062
1799 1875 2240
1942 1961 2388
2074 2057 2510
2204 2162 2628
2177 2289 1640
2128 2301 1758
2023 2326 1984
1932 2363 2185
1910 2403 2381
2090 2427 2535
2239 2468 2661
2365 2518 2771
2482 2576 2875
2604 2769 2110
2576 2774 2188
2509 2789 2357
2436 2813 2497
2374 2845 2637
2372 2876 2785
2527 2894 2914
2648 2922 3021
2752 2959 3118
2949 3184 2506
2936 3188 2552
2902 3197 2671
2856 3216 2784
2818 3241 2900
2784 3271 3022
2791 3299 3144
2896 3313 3252
2985 3336 3346
3248 3563 2850
3240 3566 2884
3220 3571 2979
3185 3587 3070
3157 3607 3167
3135 3631 3267
3119 3658 3368
3123 3684 3467
3212 3696 3560
3536 3916 3189
3531 3918 3213
3518 3923 3283
3495 3934 3360
3474 3951 3439
3459 3970 3520
3449 3992 3603
3443 4017 3684
3445 4043 3768
1372 259 417
1261 340 573
1207 429 772
1184 553 973
1248 700 1186
1387 861 1424
1548 1035 1667
1714 1212 1896
1886 1396 2113
1434 562 389
1427 565 710
1377 620 1018
1302 741 1208
1384 865 1406
1515 1009 1621
1666 1168 1838
1821 1331 2040
1983 1503 2230
1703 1045 616
1644 1067 848
1389 1142 1332
1406 1191 1650
1528 1269 1840
1669 1377 2004
1812 1505 2165
1951 1640 2311
2093 1786 2446
2034 1675 1057
1951 1698 1254
1719 1761 1607
1603 1815 1934
1755 1850 2147
1894 1913 2314
2025 1997 2450
2147 2090 2565
2270 2192 2679
2365 2300 1604
2327 2313 1694
2194 2345 1955
2039 2388 2228
2008 2426 2429
2169 2450 2579
2304 2491 2702
2421 2539 2809
2531 2596 2910
2722 2776 2087
2696 2783 2145
2626 2800 2321
2519 2828 2512
2439 2861 2667
2439 2891 2817
2580 2909 2944
2691 2937 3048
2787 2974 3143
3017 3190 2496
3002 3196 2528
2965 3207 2637
2906 3227 2787
2859 3253 2917
2820 3283 3044
2830 3310 3167
2927 3324 3273
3011 3347 3365
3295 3568 2845
3285 3573 2867
3262 3581 2947
3223 3595 3068
3188 3616 3176
3162 3640 3281
3142 3668 3385
3149 3693 3484
3235 3705 3576
3568 3921 3188
3562 3925 3203
3548 3930 3261
3524 3941 3357
3498 3958 3444
3479 3978 3530
3467 4000 3614
3460 4025 3697
3464 4050 3781
1936 328 463
1840 414 605
1743 513 877
1694 638 1115
1680 789 1370
1665 983 1587
1767 1155 1805
1891 1327 2010
2030 1505 2204
1960 617 407
1989 600 740
1867 702 1000
1834 797 1302
1773 952 1543
1768 1125 1748
1862 1284 1947
1978 1443 2130
2109 1609 2302
2071 1131 425
2058 1138 732
2036 1152 1238
1941 1224 1694
1904 1335 1914
1968 1451 2087
2065 1577 2243
2174 1707 2380
2293 1846 2505
2385 1714 863
2353 1729 1061
2273 1767 1434
1982 1858 2000
1962 1906 2315
2075 1968 2455
2191 2048 2567
2308 2137 2662
2422 2235 2758
2669 2315 1383
2640 2326 1525
2536 2359 1854
2253 2428 2259
2166 2466 2508
2301 2489 2656
2418 2527 2776
2520 2573 2879
2618 2628 2976
2887 2788 2037
2867 2796 2113
2820 2815 2249
2684 2851 2498
2551 2889 2710
2546 2918 2870
2666 2936 2996
2762 2963 3098
2846 3000 3190
3126 3200 2479
3115 3206 2511
3080 3220 2590
3010 3243 2763
2932 3273 2939
2880 3305 3081
2891 3330 3206
2980 3345 3311
3058 3367 3401
3374 3577 2836
3366 3582 2858
3341 3593 2914
3300 3608 3045
3245 3631 3186
3209 3657 3305
3182 3685 3414
3194 3708 3513
3274 3721 3604
3625 3930 3184
3619 3933 3200
3603 3942 3239
3577 3953 3336
3542 3971 3448
3516 3991 3545
3500 4014 3635
3489 4039 3720
3498 4063 3804
2466 428 540
2399 507 670
2303 628 911
2232 756 1240
2189 911 1514
2198 1069 1797
2152 1285 1985
2173 1472 2163
2261 1644 2328
2463 707 468
2504 670 795
2394 798 1010
2317 917 1355
2286 1048 1654
2268 1205 1919
2215 1409 2097
2243 1580 2259
2325 1742 2406
2546 1190 477
2541 1196 748
2549 1194 1269
2457 1302 1595
2462 1370 1982
2376 1537 2178
2337 1699 2331
2388 1832 2455
2465 1967 2571
2689 1802 656
2665 1817 880
2619 1847 1315
2596 1867 1875
2479 1939 2351
2484 2017 2512
2531 2103 2625
2596 2193 2724
2670 2288 2820
2910 2356 1225
2896 2364 1379
2860 2385 1694
2793 2424 2075
2556 2497 2537
2504 2534 2795
2594 2570 2906
2674 2615 3001
2757 2668 3085
3109 2805 1802
3097 2811 1883
3063 2827 2100
2970 2862 2416
2730 2929 2745
2687 2958 2952
2785 2974 3076
2862 3002 3174
2931 3038 3263
3294 3214 2388
3280 3219 2441
3238 3235 2570
3185 3260 2700
3060 3300 2935
2967 3338 3129
2977 3361 3264
3055 3375 3366
3126 3398 3454
3480 3593 2827
3474 3597 2849
3457 3606 2904
3418 3626 2997
3346 3653 3171
3282 3682 3332
3242 3712 3455
3258 3733 3556
3331 3746 3645
3704 3944 3182
3700 3947 3197
3687 3954 3236
3661 3969 3302
3619 3988 3433
3575 4011 3560
3549 4036 3663
3532 4061 3753
3546 4083 3836
2883 573 653
2850 642 781
2783 776 985
2717 917 1334
2671 1069 1650
2639 1240 1918
2655 1388 2179
2624 1589 2336
2603 1790 2467
2872 844 582
2906 791 890
2837 927 1081
2771 1062 1413
2722 1204 1742
2698 1355 2017
2716 1488 2275
2666 1693 2406
2642 1882 2527
2917 1296 589
2918 1299 820
2940 1274 1336
2867 1408 1597
2818 1525 1946
2812 1628 2239
2800 1761 2443
2746 1937 2554
2725 2096 2666
2987 1890 678
2984 1895 897
2977 1906 1338
2976 1914 1903
2920 2003 2217
2925 2050 2540
2867 2181 2669
2836 2297 2777
2851 2397 2877
3124 2429 1040
3111 2438 1211
3081 2458 1559
3036 2489 1995
3019 2507 2436
2925 2554 2829
2938 2598 2967
2967 2649 3060
3008 2705 3143
3301 2844 1698
3292 2850 1804
3270 2862 2033
3233 2885 2324
3174 2921 2588
3012 2981 2949
2941 3018 3213
3001 3045 3304
3058 3081 3384
3477 3239 2267
3470 3243 2315
3453 3254 2424
3416 3274 2598
3326 3312 2855
3104 3381 3166
3086 3404 3344
3160 3416 3449
3221 3439 3533
3649 3610 2709
3642 3614 2742
3622 3623 2827
3579 3642 2975
3521 3671 3114
3404 3714 3335
3328 3748 3506
3343 3768 3617
3409 3780 3704
3820 3962 3148
3813 3965 3172
3794 3974 3233
3775 3987 3300
3738 4009 3392
3672 4038 3551
3622 4065 3693
3593 4092 3797
3611 4095 3883
3213 796 833
3193 846 961
3144 980 1124
3091 1130 1412
3046 1277 1804
3017 1439 2059
2994 1608 2280
2998 1753 2467
3007 1903 2629
3198 1049 760
3230 985 1047
3179 1113 1218
3125 1258 1487
3079 1398 1864
3048 1550 2125
3028 1704 2343
3034 1836 2524
3034 1986 2676
3227 1461 771
3230 1461 967
3259 1417 1454
3196 1560 1667
3147 1685 2001
3113 1811 2272
3101 1929 2480
3113 2030 2660
3089 2181 2787
3284 1998 868
3283 2002 1048
3281 2009 1431
3295 2001 1977
3237 2110 2206
3200 2199 2471
3203 2264 2692
3205 2342 2863
3157 2470 2959
3353 2520 1064
3351 2523 1226
3345 2529 1573
3338 2539 2032
3336 2550 2460
3293 2605 2684
3285 2636 2967
3247 2711 3082
3222 2788 3178
3492 2914 1593
3485 2919 1704
3466 2932 1944
3435 2954 2256
3399 2981 2555
3387 2999 2863
3302 3041 3209
3309 3072 3356
3329 3115 3441
3649 3287 2229
3643 3291 2289
3629 3300 2419
3606 3316 2596
3572 3340 2805
3527 3373 3019
3415 3423 3303
3312 3463 3588
3363 3485 3669
3806 3645 2679
3803 3648 2707
3793 3655 2775
3775 3669 2884
3744 3691 3028
3670 3726 3260
3479 3794 3528
3458 3816 3688
3514 3827 3791
3969 3989 3063
3966 3992 3080
3956 3999 3134
3937 4010 3230
3901 4030 3370
3846 4060 3507
3745 4095 3693
3685 4095 3848
3710 4095 3917
3516 1119 1106
3505 1153 1227
3467 1270 1352
3425 1411 1576
3384 1558 1884
3350 1697 2235
3329 1848 2410
3310 1997 2564
3306 2132 2718
3500 1342 1037
3529 1278 1292
3493 1382 1439
3449 1521 1646
3407 1662 1939
3372 1793 2275
3351 1934 2451
3332 2073 2604
3331 2197 2759
3519 1702 1057
3523 1699 1214
3553 1645 1645
3503 1777 1817
3460 1903 2070
3424 2017 2368
3400 2136 2545
3384 2249 2701
3388 2347 2858
3562 2165 1163
3562 2168 1303
3564 2171 1616
3586 2149 2103
3535 2259 2273
3498 2348 2502
3472 2431 2693
3460 2505 2858
3474 2564 3022
3620 2609 1375
3619 2611 1497
3617 2617 1767
3615 2626 2141
3624 2627 2525
3581 2695 2676
3554 2750 2878
3549 2793 3071
3575 2827 3250
3687 3013 1684
3685 3015 1783
3682 3020 2004
3677 3028 2304
3672 3040 2602
3672 3051 2898
3641 3098 3068
3630 3120 3340
3601 3180 3450
3820 3366 2230
3815 3369 2285
3804 3378 2406
3785 3394 2572
3758 3417 2773
3739 3438 3008
3733 3454 3253
3668 3493 3511
3654 3523 3690
3962 3704 2699
3958 3706 2730
3949 3714 2805
3934 3726 2925
3912 3744 3079
3886 3767 3249
3856 3795 3419
3796 3833 3613
3736 3865 3849
4095 4035 3106
4095 4037 3124
4095 4043 3168
4090 4053 3242
4075 4068 3341
4053 4089 3458
4011 4095 3622
3892 4095 3820
3931 4095 3917
3774 1519 1454
3768 1539 1559
3741 1629 1655
3707 1750 1816
3672 1879 2045
3641 2007 2309
3616 2122 2557
3601 2245 2684
3586 2367 2818
3760 1702 1396
3784 1645 1606
3760 1721 1732
3725 1840 1879
3689 1964 2095
3657 2085 2345
3632 2194 2587
3617 2308 2714
3602 2422 2848
3771 1998 1423
3775 1994 1544
3804 1942 1898
3766 2049 2033
3729 2160 2214
3697 2265 2429
3671 2358 2653
3654 2452 2789
3638 2546 2922
3801 2375 1541
3802 2376 1644
3807 2378 1881
3832 2351 2275
3789 2444 2397
3755 2523 2561
3729 2592 2760
3711 2661 2909
3695 2738 3044
3848 2738 1756
3848 2740 1841
3848 2746 2034
3850 2752 2311
3866 2746 2628
3827 2816 2740
3800 2874 2906
3782 2928 3066
3766 2988 3210
3907 3106 2045
3906 3108 2110
3905 3112 2258
3903 3121 2463
3902 3131 2699
3910 3137 2970
3879 3190 3084
3861 3233 3243
3846 3276 3414
3975 3470 2357
3975 3471 2401
3973 3475 2500
3971 3482 2654
3967 3493 2850
3965 3505 3071
3968 3516 3301
3947 3556 3417
3934 3576 3667
4095 3788 2763
4095 3791 2788
4093 3797 2850
4082 3809 2950
4066 3826 3083
4046 3849 3234
4040 3864 3421
4041 3877 3615
4009 3907 3803
4095 4095 3566
4095 4095 3567
4095 4095 3589
4095 4095 3614
4095 4095 3641
4095 4095 3706
4095 4095 3753
4095 4095 3818
4095 4095 3917
