Grading Edition presets/Toning - Style 2.3dl
#25pt 3DLUT created by 3D LUT Creator Pro (c) Oleg Sharonov
#Copyright Oleg Sharonov
#IMAGEPROFILE sRGB IEC61966-2.1 v.2.10
#INPUTGAMMA sRGB IEC61966-2.1 v.2.10
#OUTPUTGAMMA sRGB IEC61966-2.1 v.2.10
0 256 512 768 1023
305 286 444
318 306 755
405 405 1744
580 580 2921
856 856 3598
438 939 511
322 979 1055
487 992 2333
701 1110 3276
1006 1341 3713
944 2436 835
894 2449 1408
463 2530 2654
823 2541 3516
1305 2588 3829
1867 3536 1596
1661 3551 1869
1519 3552 3089
805 3593 3644
1409 3592 3872
3320 3903 3274
3328 3903 3375
3425 3898 3621
3177 3920 3784
2849 3944 3886
799 341 462
889 332 898
856 440 2039
973 623 3079
1212 905 3644
799 793 463
992 992 1061
1001 1001 2596
1087 1088 3503
1236 1237 3847
1395 2472 744
1411 2473 1347
883 2569 2692
1213 2560 3580
1448 2594 3876
2175 3546 1492
2188 3543 2011
2017 3552 3058
1113 3602 3651
1489 3604 3887
3399 3907 3270
3408 3907 3375
3473 3903 3614
3319 3920 3785
3022 3944 3885
2073 538 579
2252 482 907
2299 516 2229
2196 722 3318
2239 1037 3727
2090 980 587
2426 1064 1066
2493 1062 2464
2439 1156 3541
2467 1313 3856
2113 2096 609
2309 2295 1050
2556 2556 2666
2577 2577 3600
2607 2608 3890
2870 3576 1242
2882 3574 1724
2940 3564 2952
2550 3600 3645
2733 3601 3883
3576 3918 3270
3582 3918 3371
3597 3918 3597
3603 3922 3788
3416 3947 3885
3238 910 836
3361 792 1086
3414 799 2166
3422 894 3371
3348 1222 3797
3273 1343 863
3437 1325 1233
3544 1212 2334
3520 1323 3479
3506 1427 3868
3247 2295 890
3372 2393 1242
3537 2636 2689
3560 2652 3556
3567 2667 3883
3427 3413 1062
3470 3458 1454
3551 3545 2760
3596 3596 3637
3604 3604 3884
3773 3933 3396
3777 3934 3474
3785 3936 3613
3804 3938 3782
3748 3954 3888
3788 1481 1297
3846 1302 1431
3860 1301 2360
3878 1343 3305
3875 1504 3801
3802 1845 1341
3885 1687 1483
3936 1480 2387
3943 1502 3407
3932 1657 3844
3824 2696 1443
3876 2662 1540
3941 2728 2693
3940 2764 3512
3934 2837 3851
3858 3493 1621
3880 3495 1667
3932 3505 2274
3944 3621 3641
3943 3637 3868
3942 3940 3666
3943 3941 3689
3947 3945 3751
3954 3953 3830
3964 3964 3892
