Grading Edition presets/Toning - Almost sepia.3dl
#25pt 3DLUT created by 3D LUT Creator Pro (c) Oleg Sharonov
#Copyright Oleg Sharonov
#IMAGEPROFILE sRGB IEC61966-2.1 v.2.10
#INPUTGAMMA sRGB IEC61966-2.1 v.2.10
#OUTPUTGAMMA sRGB IEC61966-2.1 v.2.10
0 128 256 384 512 640 768 896 1023
0 0 0
71 28 15
222 102 52
390 212 118
571 325 201
771 444 285
993 571 373
1243 705 464
1525 851 559
443 245 144
461 266 169
540 302 179
644 366 226
783 449 286
955 548 356
1161 660 433
1400 786 516
1671 924 606
970 558 364
995 566 362
1009 598 412
1109 633 413
1229 690 445
1376 768 498
1559 862 561
1776 973 633
2019 1100 713
1678 928 609
1701 932 604
1731 953 623
1751 998 686
1879 1036 683
2022 1095 703
2176 1176 750
2347 1275 811
2533 1391 882
2502 1383 888
2519 1387 884
2553 1399 881
2572 1436 928
2592 1495 1004
2702 1542 1005
2827 1604 1011
2946 1689 1050
3067 1793 1111
3188 1929 1214
3197 1933 1211
3219 1942 1203
3244 1966 1216
3248 2020 1301
3270 2084 1383
3346 2135 1390
3438 2195 1385
3526 2273 1413
3700 2498 1596
3705 2501 1594
3720 2507 1583
3740 2521 1582
3755 2553 1625
3754 2609 1741
3775 2665 1825
3837 2708 1824
3875 2779 1921
3913 3109 2592
3914 3112 2598
3918 3120 2610
3923 3134 2634
3927 3158 2678
3923 3193 2753
3915 3238 2849
3913 3288 2944
3930 3338 3023
3988 3612 3446
3989 3614 3449
3991 3619 3456
3995 3629 3468
3998 3643 3489
4001 3663 3518
4002 3690 3559
4002 3722 3607
4006 3759 3659
189 87 47
241 116 58
333 179 102
472 266 160
637 365 230
827 477 307
1044 598 391
1291 730 480
1569 873 573
522 293 179
362 362 362
535 368 297
666 416 302
814 490 341
987 583 399
1192 691 469
1430 813 547
1713 945 620
1008 591 400
915 633 517
956 656 533
1089 679 505
1230 729 511
1394 799 543
1581 891 598
1799 999 664
2056 1121 727
1712 951 631
1633 985 724
1661 1006 743
1720 1039 766
1864 1073 750
2010 1130 767
2183 1204 792
2359 1300 845
2560 1410 894
2528 1402 902
2474 1432 981
2500 1447 989
2537 1478 1015
2571 1532 1073
2691 1574 1063
2815 1637 1071
2942 1718 1100
3085 1810 1121
3205 1945 1223
3172 1972 1299
3195 1980 1290
3210 2010 1322
3231 2054 1375
3258 2114 1446
3341 2161 1440
3432 2221 1437
3538 2286 1421
3711 2510 1603
3690 2530 1675
3705 2535 1664
3725 2550 1662
3735 2584 1718
3746 2632 1800
3768 2687 1881
3833 2726 1870
3877 2793 1948
3914 3119 2612
3904 3128 2642
3908 3135 2652
3914 3149 2674
3915 3173 2722
3914 3207 2790
3910 3250 2877
3909 3300 2969
3932 3347 3037
3990 3618 3455
3990 3621 3458
3992 3626 3465
3995 3635 3478
4000 3649 3498
4003 3669 3527
4003 3696 3567
4004 3728 3615
4007 3764 3667
448 258 164
479 273 171
549 311 190
641 378 250
782 459 305
958 555 368
1165 666 441
1405 791 522
1678 928 609
683 400 263
633 435 350
675 468 381
807 504 368
943 569 401
1111 653 448
1309 754 511
1542 870 584
1818 999 653
1147 655 429
1022 704 576
795 795 795
1046 788 691
1241 819 651
1425 880 660
1630 962 690
1853 1066 744
2146 1172 761
1789 1013 692
1734 1040 761
1519 1124 979
1583 1156 998
1789 1173 937
1985 1215 910
2185 1280 909
2386 1367 934
2627 1458 926
2574 1459 962
2537 1482 1021
2395 1555 1208
2410 1593 1258
2496 1629 1263
2658 1658 1211
2790 1717 1211
2932 1790 1220
3129 1852 1147
3233 1992 1272
3210 2013 1329
3127 2077 1510
3136 2109 1553
3182 2139 1562
3230 2187 1593
3330 2224 1560
3418 2284 1566
3568 2319 1440
3729 2543 1643
3714 2559 1699
3667 2604 1856
3678 2624 1881
3689 2656 1929
3727 2686 1940
3750 2738 2014
3824 2771 1983
3882 2827 2017
3916 3146 2666
3908 3154 2690
3886 3173 2752
3892 3186 2771
3889 3212 2823
3893 3242 2876
3897 3280 2945
3897 3328 3029
3935 3368 3072
3992 3635 3479
3993 3637 3482
3994 3642 3490
3998 3651 3502
4002 3665 3521
4006 3685 3549
4007 3711 3588
4007 3742 3635
4011 3778 3686
745 444 300
766 454 307
825 479 314
913 526 342
1013 598 409
1171 682 464
1365 781 528
1597 896 598
1858 1026 677
928 550 375
908 571 422
953 595 439
1025 639 471
1157 693 491
1309 771 540
1504 861 589
1730 970 653
1990 1094 719
1354 768 512
1297 797 589
1164 864 749
1209 906 792
1429 925 727
1615 981 727
1802 1061 763
2019 1160 809
2298 1261 818
2004 1096 714
1901 1136 830
1663 1227 1066
1349 1349 1349
1703 1332 1198
1976 1354 1116
2210 1406 1085
2417 1487 1097
2736 1543 983
2677 1548 1030
2652 1567 1078
2527 1637 1257
2246 1766 1582
2303 1811 1619
2556 1815 1503
2740 1856 1455
2927 1909 1407
3201 1927 1198
3282 2073 1354
3261 2093 1410
3206 2143 1545
3045 2252 1857
3059 2296 1916
3133 2331 1917
3278 2348 1823
3387 2395 1795
3620 2378 1478
3757 2605 1729
3749 2616 1763
3704 2659 1916
3619 2732 2165
3607 2773 2260
3663 2792 2235
3702 2832 2268
3781 2863 2237
3888 2887 2142
3916 3194 2762
3912 3199 2777
3891 3218 2833
3852 3250 2927
3851 3272 2967
3855 3301 3015
3869 3333 3062
3880 3375 3124
3941 3404 3132
3996 3664 3522
3997 3666 3525
3999 3671 3532
4001 3680 3544
4006 3693 3562
4011 3712 3588
4012 3737 3625
4013 3768 3671
4017 3803 3720
1096 648 447
1116 656 449
1162 676 459
1252 710 467
1360 766 504
1477 847 579
1651 938 641
1864 1045 705
2103 1168 778
1256 732 503
1241 750 541
1286 769 549
1362 803 566
1465 856 601
1601 927 647
1774 1014 702
1980 1118 763
2222 1234 817
1638 928 629
1612 946 673
1532 996 787
1588 1031 815
1673 1083 854
1866 1129 836
2048 1204 862
2244 1298 906
2495 1395 912
2249 1230 796
2191 1259 873
2059 1323 1036
1834 1430 1281
1895 1480 1329
2196 1488 1210
2407 1539 1179
2600 1614 1181
2884 1667 1066
2877 1652 1047
2820 1686 1145
2669 1770 1370
2399 1899 1702
2048 2048 2048
2441 2023 1859
2719 2034 1733
2924 2077 1670
3297 2040 1283
3373 2177 1430
3356 2195 1481
3294 2249 1637
3161 2346 1919
2911 2486 2306
2956 2531 2348
3171 2527 2210
3324 2555 2137
3690 2463 1542
3806 2687 1825
3795 2699 1869
3762 2733 1989
3684 2801 2228
3536 2904 2567
3544 2943 2629
3616 2966 2609
3709 2989 2570
3902 2969 2306
3918 3262 2892
3912 3268 2908
3898 3282 2947
3867 3308 3019
3805 3353 3139
3795 3384 3196
3824 3409 3219
3839 3446 3268
3950 3457 3216
4000 3706 3584
4001 3708 3587
4004 3713 3593
4007 3722 3604
4012 3734 3621
4019 3752 3644
4022 3775 3677
4021 3806 3721
4026 3839 3768
1516 874 604
1535 881 605
1571 900 618
1647 931 630
1775 971 630
1896 1040 679
2024 1133 763
2196 1237 835
2402 1353 902
1662 948 650
1648 963 681
1692 979 686
1760 1010 702
1862 1056 723
1988 1119 761
2124 1206 826
2298 1305 887
2501 1416 941
1997 1126 768
1988 1140 793
1944 1179 874
1993 1212 902
2070 1260 936
2181 1321 974
2349 1389 988
2522 1477 1022
2727 1573 1036
2510 1418 938
2489 1435 978
2418 1485 1093
2291 1569 1281
2333 1620 1335
2421 1680 1377
2643 1714 1303
2815 1783 1294
3047 1837 1198
3072 1807 1127
3025 1840 1221
2937 1902 1390
2784 2004 1650
2560 2133 1962
2616 2189 2017
2905 2183 1845
3089 2220 1772
3411 2188 1405
3522 2288 1446
3491 2316 1536
3408 2382 1749
3261 2485 2070
3033 2615 2434
2746 2746 2746
3072 2722 2575
3364 2697 2346
3769 2581 1659
3858 2799 1990
3846 2811 2037
3815 2842 2148
3751 2899 2345
3633 2985 2629
3426 3100 2961
3457 3136 2999
3649 3125 2863
3917 3075 2516
3926 3346 3039
3923 3350 3050
3912 3362 3079
3886 3385 3137
3835 3423 3233
3790 3463 3324
3792 3495 3371
3824 3524 3398
3966 3524 3317
4010 3761 3661
4011 3763 3664
4012 3768 3670
4014 3776 3682
4020 3788 3697
4027 3805 3718
4034 3826 3746
4035 3855 3786
4038 3887 3831
2000 1132 774
2016 1138 775
2050 1154 784
2113 1183 796
2211 1223 806
2347 1274 811
2461 1356 873
2575 1463 968
2722 1581 1051
2124 1198 814
2113 1212 841
2150 1227 844
2209 1255 858
2294 1297 878
2414 1351 892
2530 1430 944
2648 1531 1025
2800 1641 1088
2405 1363 917
2397 1376 941
2366 1411 1011
2420 1438 1022
2491 1480 1045
2568 1542 1092
2684 1613 1126
2812 1700 1172
2978 1790 1182
2811 1641 1082
2798 1655 1112
2765 1692 1193
2687 1765 1351
2740 1805 1379
2778 1872 1456
2882 1934 1479
3042 1990 1443
3237 2039 1343
3250 2015 1291
3229 2035 1346
3190 2076 1452
3107 2154 1651
2978 2261 1917
2997 2320 1999
3063 2379 2046
3264 2394 1912
3539 2366 1566
3667 2437 1525
3639 2463 1615
3576 2518 1805
3476 2601 2075
3345 2700 2366
3162 2815 2668
3203 2861 2717
3502 2822 2449
3851 2727 1843
3894 2946 2264
3879 2959 2314
3843 2989 2425
3772 3043 2608
3656 3119 2847
3496 3208 3088
3300 3300 3300
3617 3261 3106
3925 3203 2772
3947 3441 3191
3942 3445 3202
3929 3457 3230
3908 3477 3276
3867 3508 3351
3833 3543 3422
3784 3587 3510
3802 3617 3546
3987 3604 3434
4024 3828 3752
4025 3830 3754
4026 3834 3760
4028 3842 3771
4031 3854 3786
4036 3870 3807
4045 3890 3832
4051 3915 3865
4053 3947 3908
2490 1426 961
2502 1431 962
2531 1445 967
2571 1474 988
2647 1511 995
2749 1559 999
2865 1623 1012
2958 1719 1087
3048 1837 1198
2585 1487 997
2577 1500 1021
2606 1513 1024
2649 1540 1037
2716 1578 1053
2807 1628 1063
2911 1694 1086
3004 1786 1154
3107 1893 1233
2799 1640 1089
2791 1653 1113
2770 1685 1177
2813 1709 1183
2869 1746 1202
2937 1800 1231
3015 1870 1277
3113 1950 1320
3245 2030 1322
3096 1902 1259
3094 1912 1276
3076 1943 1341
3039 1999 1460
3073 2039 1495
3125 2089 1532
3172 2161 1606
3259 2231 1641
3451 2256 1476
3445 2245 1465
3436 2258 1498
3414 2289 1581
3364 2350 1740
3281 2438 1972
3324 2478 2003
3346 2544 2097
3413 2603 2140
3700 2550 1700
3796 2623 1704
3782 2638 1759
3748 2675 1887
3694 2732 2077
3612 2810 2324
3553 2883 2514
3561 2934 2599
3614 2978 2635
3870 2933 2268
3921 3113 2592
3909 3123 2626
3877 3148 2710
3829 3185 2827
3763 3236 2970
3714 3285 3085
3657 3341 3206
3675 3381 3258
3926 3347 3041
3977 3547 3348
3971 3551 3359
3957 3562 3385
3931 3581 3430
3891 3610 3494
3865 3639 3550
3834 3675 3615
3733 3733 3733
4005 3699 3571
4045 3904 3852
4045 3906 3854
4046 3910 3860
4048 3918 3870
4051 3929 3885
4054 3945 3905
4059 3964 3930
4068 3987 3958
4072 4016 3996
2925 1753 1167
2933 1759 1168
2954 1771 1172
2984 1798 1189
3034 1833 1204
3098 1883 1225
3193 1936 1219
3288 2007 1238
3362 2109 1327
2992 1810 1201
2996 1817 1208
3017 1829 1210
3047 1854 1225
3092 1891 1243
3155 1938 1261
3246 1988 1251
3337 2058 1269
3407 2158 1358
3147 1950 1286
3151 1956 1292
3161 1972 1309
3192 1993 1313
3226 2031 1343
3287 2072 1347
3369 2119 1336
3452 2184 1348
3514 2279 1439
3371 2184 1445
3376 2189 1447
3388 2201 1454
3401 2227 1482
3436 2256 1495
3487 2293 1499
3554 2336 1492
3629 2390 1487
3681 2475 1578
3643 2487 1656
3645 2492 1664
3648 2506 1686
3665 2524 1697
3683 2555 1731
3717 2588 1754
3776 2620 1730
3849 2656 1691
3874 2739 1832
3868 2859 2111
3868 2864 2122
3869 2875 2144
3871 2895 2186
3865 2930 2269
3868 2970 2350
3885 3012 2422
3911 3060 2491
3915 3128 2630
3936 3293 2933
3937 3295 2938
3937 3303 2953
3937 3318 2980
3935 3340 3022
3935 3368 3072
3933 3404 3136
3955 3438 3180
3966 3483 3250
4002 3664 3519
4003 3666 3522
4004 3672 3530
4005 3681 3544
4008 3695 3564
4010 3715 3593
4011 3740 3630
4009 3771 3677
4026 3803 3715
4069 3991 3963
4069 3992 3965
4070 3996 3970
4072 4003 3979
4075 4014 3992
4078 4028 4010
4083 4046 4034
4088 4069 4062
4095 4095 4095
