Grading Edition presets/Toning - Almost sepia.3dl
#25pt 3DLUT created by 3D LUT Creator Pro (c) Oleg Sharonov
#Copyright Oleg Sharonov
#IMAGEPROFILE sRGB IEC61966-2.1 v.2.10
#INPUTGAMMA sRGB IEC61966-2.1 v.2.10
#OUTPUTGAMMA sRGB IEC61966-2.1 v.2.10
0 43 86 128 171 214 256 299 341 384 427 469 512 555 597 640 682 725 768 810 853 896 938 981 1023 
0 0 0
17 6 4
37 15 9
71 28 15
118 47 24
169 71 37
222 102 52
278 138 71
332 174 93
390 212 118
448 248 146
509 286 172
571 325 201
635 364 229
702 403 257
771 444 285
843 486 314
916 528 343
993 571 373
1073 615 402
1157 659 433
1243 705 464
1334 752 495
1428 801 527
1525 851 559
155 65 32
164 74 39
186 80 39
210 93 45
240 113 56
274 136 67
314 162 82
359 190 102
405 220 124
455 252 147
509 285 172
565 321 197
622 356 222
684 392 249
747 430 276
814 469 303
883 509 330
956 550 358
1031 592 387
1111 635 417
1193 679 446
1279 724 476
1369 771 507
1462 818 538
1558 868 570
293 149 76
304 155 80
306 165 93
329 174 93
354 186 98
384 204 111
415 225 126
450 248 142
491 273 162
536 302 182
584 331 204
634 362 226
690 395 249
747 429 274
808 465 299
871 502 325
938 540 351
1009 579 378
1083 620 406
1161 662 434
1241 704 463
1326 749 493
1415 794 523
1507 841 553
1603 890 585
443 245 144
454 248 142
457 254 151
461 266 169
484 274 169
511 286 171
540 302 179
571 321 193
606 343 209
644 366 226
688 392 245
733 420 266
783 449 286
837 481 308
894 514 331
955 548 356
1021 585 381
1089 622 406
1161 660 433
1237 701 460
1316 743 488
1400 786 516
1486 830 546
1577 877 576
1671 924 606
604 345 215
612 347 213
620 351 215
621 360 232
627 371 248
651 381 249
681 391 248
712 406 254
744 424 266
778 443 279
817 467 296
859 491 313
905 518 332
955 547 352
1010 576 373
1068 609 396
1130 643 419
1196 678 443
1266 715 468
1340 754 494
1417 794 520
1498 836 548
1584 879 576
1672 924 605
1763 970 635
778 448 288
786 450 286
794 453 285
800 459 292
800 470 314
808 482 328
836 491 328
869 502 327
900 516 331
935 532 341
971 552 353
1011 574 368
1054 598 386
1102 624 403
1153 653 423
1208 683 443
1268 714 465
1331 748 487
1399 782 511
1471 819 535
1546 858 561
1624 898 586
1707 940 614
1792 984 641
1880 1029 670
970 558 364
977 559 362
985 561 360
995 566 362
999 574 376
1000 586 395
1009 598 412
1040 608 412
1074 620 411
1109 633 413
1149 650 421
1187 669 431
1229 690 445
1274 714 461
1323 740 479
1376 768 498
1434 798 518
1494 829 538
1559 862 561
1628 898 584
1700 935 608
1776 973 633
1854 1014 659
1936 1056 686
2019 1100 713
1184 674 442
1190 675 442
1198 677 439
1208 680 439
1217 686 444
1221 695 459
1224 709 481
1233 723 500
1266 732 498
1302 745 499
1344 758 499
1385 775 505
1428 794 514
1473 815 526
1521 839 542
1572 865 559
1626 893 577
1685 923 597
1746 955 618
1811 988 639
1880 1024 662
1951 1061 686
2025 1100 710
2101 1142 737
2179 1185 763
1419 796 524
1425 797 523
1433 799 521
1443 801 519
1455 806 521
1463 814 531
1466 826 550
1470 840 571
1480 856 591
1516 866 591
1554 879 592
1602 892 588
1646 909 593
1692 928 601
1740 950 612
1789 974 627
1841 1000 643
1896 1028 660
1953 1059 680
2015 1091 700
2078 1125 722
2143 1161 745
2211 1200 769
2281 1240 793
2352 1281 819
1678 928 609
1682 929 608
1690 930 606
1701 932 604
1713 936 603
1726 943 608
1731 953 623
1732 967 645
1738 982 668
1751 998 686
1787 1010 688
1825 1023 690
1879 1036 683
1924 1054 688
1973 1073 693
2022 1095 703
2071 1120 716
2123 1147 732
2176 1176 750
2231 1207 769
2288 1240 789
2347 1275 811
2408 1311 833
2470 1351 857
2533 1391 882
1953 1069 698
1957 1070 697
1965 1071 695
1974 1073 693
1987 1076 691
2000 1082 693
2010 1090 701
2014 1102 719
2013 1119 747
2020 1135 769
2035 1152 787
2070 1165 791
2114 1179 789
2164 1193 784
2212 1209 784
2258 1230 791
2306 1252 800
2354 1278 811
2402 1305 826
2451 1335 844
2502 1366 862
2554 1401 883
2607 1436 904
2661 1474 928
2716 1514 951
2232 1220 790
2235 1221 790
2242 1222 788
2251 1224 785
2262 1227 784
2276 1232 784
2288 1239 787
2295 1249 800
2301 1263 819
2294 1282 855
2303 1300 877
2320 1317 892
2352 1332 899
2397 1346 893
2442 1361 891
2490 1378 888
2532 1400 896
2577 1422 902
2621 1448 913
2665 1476 927
2710 1506 943
2755 1539 962
2801 1573 983
2847 1610 1004
2895 1648 1028
2502 1383 888
2505 1384 888
2511 1385 886
2519 1387 884
2529 1389 881
2540 1393 880
2553 1399 881
2563 1408 888
2568 1421 906
2572 1436 928
2569 1457 962
2574 1477 990
2592 1495 1004
2622 1511 1011
2665 1524 1003
2702 1542 1005
2748 1559 1000
2785 1581 1007
2827 1604 1011
2867 1630 1021
2907 1659 1034
2946 1689 1050
2986 1722 1069
3026 1757 1089
3067 1793 1111
2754 1556 991
2756 1558 991
2761 1558 990
2767 1560 987
2776 1563 984
2787 1566 982
2798 1571 982
2808 1579 986
2816 1590 997
2818 1605 1019
2822 1623 1045
2822 1643 1076
2826 1665 1108
2842 1684 1123
2870 1700 1129
2909 1714 1120
2939 1734 1127
2981 1751 1118
3018 1771 1119
3052 1796 1128
3088 1822 1136
3124 1850 1148
3159 1881 1164
3194 1913 1182
3229 1948 1202
2982 1740 1099
2984 1741 1100
2988 1742 1098
2993 1743 1095
3001 1745 1093
3010 1749 1090
3019 1753 1089
3029 1759 1090
3038 1769 1097
3044 1782 1113
3047 1798 1135
3046 1818 1169
3051 1839 1198
3054 1862 1232
3068 1882 1250
3093 1898 1255
3128 1912 1245
3152 1934 1257
3190 1950 1245
3225 1969 1242
3254 1995 1253
3287 2020 1260
3319 2047 1270
3351 2076 1284
3382 2108 1302
3188 1929 1214
3189 1931 1215
3192 1932 1213
3197 1933 1211
3203 1935 1208
3211 1938 1205
3219 1942 1203
3228 1948 1203
3237 1955 1206
3244 1966 1216
3247 1981 1237
3252 1997 1260
3248 2020 1301
3255 2039 1326
3258 2063 1363
3270 2084 1383
3293 2100 1388
3324 2114 1379
3346 2135 1390
3379 2152 1381
3411 2171 1376
3438 2195 1385
3467 2219 1391
3497 2245 1400
3526 2273 1413
3374 2122 1335
3375 2124 1336
3378 2124 1335
3382 2126 1332
3387 2128 1329
3393 2130 1326
3401 2134 1323
3409 2138 1322
3417 2145 1323
3424 2154 1330
3430 2166 1345
3432 2182 1370
3435 2199 1396
3431 2223 1443
3440 2241 1463
3442 2264 1502
3453 2285 1524
3475 2301 1528
3501 2315 1522
3523 2334 1528
3551 2352 1524
3581 2369 1516
3609 2390 1517
3632 2414 1530
3660 2439 1537
3544 2313 1462
3544 2314 1464
3546 2315 1462
3550 2316 1460
3554 2318 1457
3560 2320 1454
3566 2323 1450
3573 2327 1448
3581 2333 1448
3588 2340 1452
3595 2350 1461
3598 2363 1480
3599 2380 1512
3602 2397 1540
3598 2421 1591
3608 2437 1609
3611 2460 1647
3620 2480 1672
3640 2495 1674
3663 2509 1672
3685 2526 1674
3709 2544 1675
3737 2559 1665
3764 2578 1662
3785 2601 1676
3700 2498 1596
3701 2499 1597
3702 2500 1596
3705 2501 1594
3709 2502 1591
3714 2504 1587
3720 2507 1583
3726 2510 1581
3733 2515 1580
3740 2521 1582
3747 2529 1587
3752 2540 1601
3755 2553 1625
3758 2568 1651
3757 2587 1691
3754 2609 1741
3763 2625 1762
3767 2646 1798
3775 2665 1825
3794 2679 1826
3815 2693 1828
3837 2708 1824
3856 2726 1833
3866 2751 1872
3875 2779 1921
3846 2674 1734
3847 2675 1735
3848 2676 1735
3851 2677 1733
3854 2678 1730
3858 2679 1726
3864 2682 1722
3869 2685 1719
3876 2689 1717
3880 2695 1724
3882 2705 1744
3882 2717 1770
3881 2732 1804
3877 2749 1849
3875 2767 1893
3868 2788 1953
3862 2811 2012
3860 2832 2061
3858 2855 2114
3857 2878 2164
3863 2897 2201
3868 2919 2243
3876 2940 2277
3880 2965 2326
3889 2987 2362
3889 2898 2166
3889 2900 2168
3890 2901 2171
3891 2902 2173
3892 2905 2176
3894 2908 2181
3895 2912 2187
3897 2916 2194
3899 2922 2204
3901 2929 2217
3903 2937 2232
3904 2946 2252
3904 2958 2277
3902 2971 2308
3899 2986 2346
3897 3001 2382
3891 3020 2430
3888 3038 2473
3886 3057 2515
3885 3076 2555
3885 3096 2595
3890 3113 2626
3894 3133 2662
3903 3151 2691
3906 3173 2731
3913 3109 2592
3913 3109 2594
3913 3111 2596
3914 3112 2598
3915 3114 2601
3916 3117 2605
3918 3120 2610
3919 3124 2616
3921 3128 2624
3923 3134 2634
3924 3141 2646
3926 3149 2660
3927 3158 2678
3926 3168 2699
3925 3180 2724
3923 3193 2753
3921 3207 2782
3916 3223 2818
3915 3238 2849
3913 3254 2883
3913 3271 2912
3913 3288 2944
3919 3304 2970
3922 3322 3000
3930 3338 3023
3937 3295 2936
3937 3295 2938
3937 3296 2939
3938 3297 2941
3939 3299 2943
3940 3301 2947
3941 3304 2951
3943 3307 2956
3944 3312 2962
3946 3316 2970
3947 3322 2979
3949 3328 2989
3950 3336 3002
3950 3344 3017
3950 3354 3035
3949 3364 3055
3949 3376 3075
3946 3388 3100
3943 3403 3128
3943 3415 3150
3941 3430 3177
3943 3445 3200
3943 3460 3225
3948 3474 3247
3951 3491 3272
3962 3461 3214
3962 3461 3215
3962 3462 3217
3963 3463 3218
3964 3465 3220
3964 3467 3223
3966 3469 3226
3967 3472 3230
3968 3476 3235
3970 3480 3241
3971 3485 3249
3972 3490 3257
3974 3496 3266
3975 3503 3278
3975 3511 3290
3975 3520 3305
3974 3530 3322
3975 3540 3338
3973 3551 3358
3970 3564 3379
3972 3575 3397
3971 3589 3419
3973 3602 3438
3974 3616 3459
3979 3629 3477
3988 3612 3446
3988 3612 3446
3988 3613 3447
3989 3614 3449
3989 3615 3450
3990 3617 3453
3991 3619 3456
3992 3622 3459
3993 3625 3463
3995 3629 3468
3996 3633 3474
3997 3638 3481
3998 3643 3489
4000 3649 3497
4001 3656 3507
4001 3663 3518
4001 3671 3531
4001 3680 3545
4002 3690 3559
4001 3700 3575
4000 3711 3592
4002 3722 3607
4002 3734 3625
4005 3746 3641
4006 3759 3659
43 19 11
63 26 13
80 34 19
116 47 26
157 67 34
206 93 47
250 122 61
303 155 80
356 190 102
410 223 128
468 261 155
526 297 181
586 333 207
651 373 234
715 412 262
784 452 290
855 493 318
928 534 347
1004 576 377
1085 620 407
1167 665 436
1254 711 467
1344 758 498
1438 806 530
1535 855 562
190 85 41
116 116 116
172 113 91
213 122 82
249 138 85
286 157 93
327 181 107
371 207 124
419 236 144
467 266 164
519 297 187
575 331 210
633 366 234
693 402 259
756 439 285
822 478 312
892 517 339
964 557 366
1040 599 395
1119 641 424
1201 685 453
1287 730 482
1376 777 513
1469 824 544
1568 872 573
314 169 96
267 190 158
280 197 162
316 201 151
350 210 146
386 223 146
422 241 151
459 262 164
500 286 181
545 314 198
592 342 219
644 373 240
698 405 262
755 438 285
816 473 309
879 510 334
946 547 360
1017 586 386
1091 627 414
1168 668 442
1250 711 470
1335 755 500
1423 801 529
1514 847 559
1613 895 588
457 258 158
425 274 207
427 282 217
443 289 219
475 293 210
504 305 212
538 318 213
574 334 217
611 355 229
651 378 244
694 402 261
740 429 279
791 459 299
845 490 321
902 523 343
963 557 366
1028 592 390
1095 629 415
1169 668 441
1244 708 468
1323 749 495
1406 792 523
1493 836 552
1584 882 581
1680 929 609
616 354 225
589 368 268
591 374 276
603 379 277
616 388 284
647 396 278
675 407 279
707 420 283
743 436 289
782 455 297
821 477 312
864 501 327
912 527 345
962 555 364
1017 585 385
1075 617 406
1137 650 429
1203 685 452
1273 722 476
1346 760 502
1424 800 528
1505 841 555
1590 884 582
1678 929 611
1772 975 638
789 457 296
766 468 330
771 472 334
775 478 344
790 485 346
800 497 359
830 503 353
863 514 352
895 529 358
931 544 363
972 563 372
1014 584 383
1058 607 398
1106 633 415
1157 660 434
1213 690 454
1274 721 474
1336 754 496
1404 789 519
1476 826 543
1551 864 568
1630 904 593
1713 945 620
1798 989 648
1888 1033 674
980 565 369
959 575 401
968 576 399
970 583 408
979 590 414
992 599 423
1001 611 439
1035 619 433
1070 630 432
1104 645 437
1144 660 442
1185 678 450
1231 699 459
1278 722 473
1327 748 490
1381 775 508
1438 804 527
1499 836 547
1565 869 569
1633 904 592
1705 941 616
1781 979 640
1860 1019 666
1941 1062 692
2028 1105 716
1194 679 447
1173 689 475
1181 690 473
1191 694 473
1195 701 484
1207 709 490
1215 720 505
1224 734 523
1262 742 517
1297 754 518
1338 768 519
1380 784 524
1425 803 532
1471 824 542
1522 847 553
1574 872 569
1630 900 587
1688 929 606
1750 961 626
1816 994 647
1884 1030 670
1955 1067 693
2029 1106 717
2105 1147 743
2186 1189 766
1430 801 527
1408 810 553
1418 812 551
1429 814 550
1435 821 556
1442 828 566
1454 837 576
1463 850 592
1472 866 611
1514 874 605
1549 888 609
1600 901 604
1640 918 612
1689 936 618
1737 958 627
1788 982 641
1843 1007 653
1899 1035 670
1957 1065 689
2017 1097 709
2081 1131 730
2147 1168 752
2216 1206 776
2284 1245 800
2359 1286 822
1688 932 611
1668 941 636
1676 942 634
1687 944 631
1700 948 631
1705 956 641
1711 966 655
1722 977 668
1734 991 683
1743 1008 705
1786 1018 701
1823 1032 705
1876 1044 698
1918 1062 705
1969 1082 709
2019 1103 717
2070 1127 730
2122 1154 744
2178 1182 759
2233 1212 777
2291 1246 797
2350 1281 818
2411 1318 841
2473 1356 864
2540 1396 885
1962 1073 700
1943 1082 723
1951 1083 720
1961 1084 718
1974 1087 717
1984 1093 721
1992 1103 731
2001 1114 745
2003 1128 768
2017 1143 783
2028 1161 804
2070 1172 803
2110 1186 803
2161 1200 798
2208 1217 800
2254 1238 807
2303 1260 814
2352 1285 825
2401 1312 839
2452 1341 853
2504 1373 871
2556 1407 891
2609 1442 913
2663 1480 935
2722 1518 954
