Grading Edition presets/Toning - Style 2.3dl
#25pt 3DLUT created by 3D LUT Creator Pro (c) Oleg Sharonov
#Copyright Oleg Sharonov
#IMAGEPROFILE sRGB IEC61966-2.1 v.2.10
#INPUTGAMMA sRGB IEC61966-2.1 v.2.10
#OUTPUTGAMMA sRGB IEC61966-2.1 v.2.10
0 128 256 384 512 640 768 896 1023
305 286 444
307 290 523
318 306 755
350 348 1170
405 405 1744
480 481 2368
580 580 2921
703 703 3321
856 856 3598
329 483 454
307 495 605
331 497 945
378 517 1451
439 561 2027
520 628 2596
622 721 3072
747 842 3413
903 992 3643
438 939 511
414 947 682
322 979 1055
388 982 1642
487 992 2333
585 1036 2884
701 1110 3276
842 1212 3554
1006 1341 3713
636 1652 632
573 1673 745
511 1682 1260
373 1726 1816
480 1731 2480
629 1740 3055
799 1765 3439
965 1825 3657
1148 1911 3782
944 2436 835
817 2464 882
894 2449 1408
644 2485 2109
463 2530 2654
616 2534 3163
823 2541 3516
1069 2555 3714
1305 2588 3829
1368 3090 1158
1262 3104 1206
1237 3106 1596
1199 3105 2318
831 3138 2916
602 3171 3279
811 3173 3584
1085 3177 3749
1385 3184 3853
1867 3536 1596
1783 3543 1639
1661 3551 1869
1775 3541 2517
1519 3552 3089
1087 3574 3447
805 3593 3644
1081 3593 3785
1409 3592 3872
2386 3775 2108
2325 3778 2143
2149 3788 2230
2232 3781 2747
2252 3778 3233
1871 3791 3555
1410 3809 3720
1085 3824 3819
1419 3823 3890
3320 3903 3274
3323 3903 3305
3328 3903 3375
3365 3901 3496
3425 3898 3621
3376 3904 3709
3177 3920 3784
2909 3936 3846
2849 3944 3886
441 296 447
469 293 564
458 314 853
477 360 1286
523 416 1850
592 493 2449
685 593 2974
806 717 3352
956 871 3614
456 453 446
498 499 607
497 497 1063
503 503 1746
544 544 2312
613 613 2808
708 708 3200
832 833 3491
965 965 3698
588 956 489
591 959 655
449 1001 1076
505 994 1763
588 998 2470
678 1038 2998
790 1109 3352
928 1209 3599
1063 1323 3754
781 1665 606
777 1669 770
706 1687 1232
453 1752 1843
572 1747 2542
729 1747 3116
890 1772 3478
1051 1830 3677
1196 1907 3807
1081 2447 804
1079 2448 977
1014 2463 1356
798 2493 2094
533 2547 2672
698 2546 3188
918 2548 3537
1165 2559 3727
1343 2592 3843
1484 3095 1125
1485 3095 1295
1340 3114 1548
1368 3106 2294
957 3144 2911
671 3180 3287
894 3180 3593
1173 3181 3755
1419 3188 3861
1960 3539 1567
1961 3538 1719
1746 3555 1826
1861 3544 2487
1670 3552 3081
1199 3576 3445
877 3596 3646
1160 3595 3788
1431 3596 3876
2456 3776 2086
2457 3776 2206
2300 3785 2291
2297 3783 2723
2354 3778 3223
2000 3791 3552
1507 3810 3719
1158 3826 3820
1557 3822 3889
3344 3904 3273
3346 3904 3304
3352 3904 3376
3380 3903 3492
3439 3899 3619
3407 3904 3710
3219 3920 3784
2962 3936 3846
2901 3944 3886
799 341 462
872 324 559
889 332 898
849 377 1461
856 440 2039
898 521 2606
973 623 3079
1079 750 3416
1212 905 3644
814 487 463
958 508 599
986 506 998
971 509 1762
949 560 2381
969 636 2885
1031 735 3257
1128 863 3532
1245 996 3717
799 793 463
892 886 584
992 992 1061
993 994 1805
1001 1001 2596
1023 1023 3183
1087 1088 3503
1191 1191 3679
1236 1237 3847
1112 1705 558
1111 1712 682
1149 1704 1157
934 1759 1846
993 1756 2608
1085 1753 3208
1177 1779 3554
1307 1835 3721
1335 1874 3864
1395 2472 744
1390 2476 886
1411 2473 1347
1289 2494 2056
883 2569 2692
1010 2565 3232
1213 2560 3580
1431 2566 3754
1448 2594 3876
1753 3109 1048
1754 3110 1211
1768 3107 1636
1712 3115 2213
1396 3145 2900
936 3196 3301
1157 3192 3610
1426 3190 3769
1512 3198 3881
2175 3546 1492
2179 3545 1646
2188 3543 2011
2064 3553 2410
2017 3552 3058
1553 3578 3441
1113 3602 3651
1390 3600 3794
1489 3604 3887
2616 3780 2026
2619 3779 2151
2625 3778 2437
2454 3788 2662
2563 3779 3193
2297 3790 3545
1786 3811 3717
1372 3829 3821
1878 3822 3888
3399 3907 3270
3402 3907 3301
3408 3907 3375
3417 3907 3481
3473 3903 3614
3475 3905 3711
3319 3920 3785
3080 3936 3846
3022 3944 3885
1380 421 506
1493 389 585
1543 390 867
1552 405 1493
1490 469 2219
1473 558 2786
1498 667 3203
1561 802 3501
1653 962 3684
1412 562 510
1610 548 611
1735 513 934
1700 535 1645
1625 581 2449
1583 668 2976
1586 778 3331
1631 913 3584
1714 1047 3744
1330 834 504
1488 890 594
1697 1011 1052
1727 1013 1720
1720 1012 2600
1714 1042 3190
1714 1118 3521
1748 1230 3693
1803 1269 3851
1377 1364 513
1468 1455 600
1633 1623 1023
1749 1749 1827
1753 1753 2627
1767 1767 3216
1795 1795 3579
1841 1841 3756
1827 1828 3899
1837 2477 673
1848 2517 774
1884 2522 1205
1937 2509 1956
1707 2562 2681
1770 2562 3237
1881 2560 3597
1951 2581 3768
1919 2594 3892
2157 3134 949
2151 3137 1072
2177 3133 1500
2209 3127 2172
2074 3144 2866
1687 3197 3299
1805 3196 3616
1981 3195 3779
2056 3198 3887
2499 3558 1370
2500 3558 1514
2518 3555 1896
2536 3552 2457
2498 3554 2994
2180 3575 3432
1723 3604 3651
1906 3602 3798
2056 3603 3886
2854 3787 1915
2857 3786 2046
2868 3784 2349
2879 3782 2779
2796 3787 3129
2719 3789 3529
2337 3809 3713
1842 3831 3821
2352 3822 3886
3484 3911 3268
3486 3911 3298
3491 3911 3372
3500 3911 3483
3523 3910 3603
3565 3907 3712
3465 3920 3786
3262 3936 3846
3201 3945 3885
2073 538 579
2208 484 633
2252 482 907
2303 488 1418
2299 516 2229
2233 606 2901
2196 722 3318
2202 868 3581
2239 1037 3727
2104 673 585
2265 651 674
2412 593 937
2451 595 1513
2417 631 2356
2341 711 3026
2289 829 3407
2278 976 3632
2317 1114 3773
2090 980 587
2224 1000 672
2426 1064 1066
2541 1021 1640
2493 1062 2464
2478 1076 3184
2439 1156 3541
2416 1281 3709
2467 1313 3856
1954 1371 577
2069 1438 654
2282 1590 1011
2496 1776 1822
2524 1780 2552
2517 1787 3223
2514 1823 3583
2522 1877 3757
2557 1853 3894
2113 2096 609
2176 2159 689
2309 2295 1050
2474 2465 1812
2556 2556 2666
2562 2562 3249
2577 2577 3600
2603 2603 3770
2607 2608 3890
2579 3084 854
2591 3105 955
2626 3147 1327
2678 3166 2024
2727 3155 2784
2540 3192 3291
2592 3194 3614
2687 3193 3781
2695 3204 3885
2870 3576 1242
2869 3576 1355
2882 3574 1724
2911 3569 2326
2940 3564 2952
2835 3573 3410
2550 3600 3645
2640 3600 3794
2733 3601 3883
3119 3798 1765
3120 3797 1888
3131 3795 2211
3148 3791 2679
3165 3788 3145
3202 3784 3514
2920 3806 3707
2608 3828 3817
2871 3822 3884
3576 3918 3270
3578 3918 3300
3582 3918 3371
3588 3917 3479
3597 3918 3597
3627 3916 3704
3603 3922 3788
3473 3938 3847
3416 3947 3885
2733 697 687
2862 617 709
2892 614 978
2931 615 1466
2968 630 2121
2956 674 2904
2902 794 3371
2861 943 3639
2852 1124 3767
2757 830 694
2861 807 779
2992 721 992
3026 718 1521
3051 733 2208
3025 784 2981
2969 900 3433
2921 1048 3670
2922 1192 3800
2773 1145 704
2863 1146 787
3026 1161 1118
3138 1079 1624
3156 1088 2350
3104 1160 3079
3076 1216 3533
3029 1341 3726
3064 1366 3862
2729 1588 705
2806 1620 783
2957 1702 1100
3089 1836 1845
3161 1804 2480
3131 1845 3136
3122 1864 3578
3106 1922 3761
3149 1891 3889
2625 2053 699
2695 2107 774
2843 2237 1073
3012 2422 1784
3140 2584 2665
3160 2589 3203
3155 2599 3604
3154 2631 3772
3175 2632 3886
2856 2839 775
2888 2871 860
2963 2948 1187
3060 3049 1868
3151 3144 2686
3189 3189 3282
3195 3195 3619
3201 3201 3797
3214 3215 3885
3187 3528 1138
3193 3536 1237
3212 3554 1559
3241 3575 2174
3274 3585 2849
3311 3578 3360
3191 3597 3640
3205 3600 3798
3277 3599 3882
3387 3812 1622
3387 3812 1723
3393 3810 2029
3409 3806 2541
3433 3801 3062
3489 3791 3504
3445 3799 3702
3236 3824 3811
3312 3823 3883
3672 3926 3304
3673 3926 3329
3675 3926 3389
3681 3926 3485
3689 3926 3595
3699 3927 3694
3728 3925 3791
3643 3940 3848
3598 3950 3886
3238 910 836
3310 837 859
3361 792 1086
3386 792 1553
3414 799 2166
3436 829 2795
3422 894 3371
3384 1043 3654
3348 1222 3797
3253 1039 846
3312 1018 932
3420 901 1094
3442 896 1587
3465 901 2223
3481 933 2855
3461 1003 3412
3422 1146 3676
3399 1280 3821
3273 1343 863
3326 1338 949
3437 1325 1233
3527 1215 1658
3544 1212 2334
3550 1241 2966
3520 1323 3479
3490 1429 3719
3506 1427 3868
3274 1794 879
3319 1807 964
3417 1845 1242
3497 1936 1907
3561 1871 2477
3568 1889 3058
3541 1955 3517
3533 1995 3749
3558 1946 3886
3247 2295 890
3285 2322 972
3372 2393 1242
3459 2508 1886
3537 2636 2689
3574 2618 3160
3560 2652 3556
3556 2668 3769
3567 2667 3883
3216 2779 909
3249 2811 991
3327 2892 1261
3417 2999 1878
3511 3117 2662
3568 3211 3284
3578 3216 3598
3583 3214 3795
3582 3233 3882
3427 3413 1062
3439 3426 1153
3470 3458 1454
3509 3499 2055
3551 3545 2760
3584 3581 3314
3596 3596 3637
3599 3599 3799
3604 3604 3884
3605 3783 1543
3606 3785 1636
3611 3791 1915
3618 3799 2426
3628 3809 2978
3651 3810 3462
3667 3808 3681
3606 3824 3810
3625 3825 3884
3773 3933 3396
3774 3933 3420
3777 3934 3474
3780 3935 3537
3785 3936 3613
3793 3937 3695
3804 3938 3782
3797 3942 3850
3748 3954 3888
3589 1176 1040
3620 1109 1064
3659 1025 1237
3669 1023 1678
3683 1026 2247
3696 1044 2829
3705 1092 3285
3695 1176 3652
3673 1344 3803
3596 1295 1052
3621 1277 1138
3685 1130 1243
3694 1126 1701
3706 1127 2286
3718 1143 2871
3725 1193 3319
3712 1278 3667
3701 1396 3821
3608 1579 1076
3630 1571 1162
3680 1551 1418
3740 1414 1754
3751 1409 2367
3760 1421 2956
3763 1469 3386
3745 1558 3698
3762 1523 3858
3617 2008 1108
3637 2013 1194
3680 2026 1447
3724 2079 2014
3774 1983 2501
3785 1984 3054
3785 2025 3450
3763 2112 3718
3807 1958 3882
3620 2503 1142
3635 2516 1227
3673 2552 1474
3712 2625 2032
3750 2719 2741
3788 2677 3163
3792 2697 3511
3777 2745 3738
3803 2688 3880
3621 2972 1186
3634 2987 1269
3664 3027 1513
3701 3092 2061
3741 3172 2746
3797 3229 3280
3806 3233 3578
3798 3253 3764
3802 3253 3880
3639 3377 1264
3649 3391 1350
3673 3425 1602
3703 3473 2135
3741 3529 2783
3786 3562 3226
3806 3606 3636
3809 3610 3785
3809 3614 3883
3759 3751 1506
3762 3754 1596
3770 3762 1869
3780 3773 2379
3794 3788 2941
3802 3798 3389
3813 3810 3655
3825 3825 3809
3828 3828 3887
3867 3934 3441
3867 3934 3459
3868 3935 3502
3871 3937 3567
3874 3940 3638
3880 3944 3716
3888 3949 3790
3897 3951 3849
3877 3958 3890
3788 1481 1297
3808 1424 1321
3846 1302 1431
3852 1300 1840
3860 1301 2360
3869 1312 2888
3878 1343 3305
3884 1409 3602
3875 1504 3801
3792 1589 1310
3819 1540 1349
3867 1378 1415
3878 1353 1828
3884 1352 2376
3892 1360 2918
3899 1388 3337
3903 1453 3623
3893 1548 3815
3802 1845 1341
3826 1809 1378
3885 1687 1483
3932 1488 1757
3936 1480 2387
3940 1481 2979
3943 1502 3407
3940 1590 3664
3932 1657 3844
3814 2238 1386
3833 2218 1418
3882 2149 1508
3947 2035 1856
3946 2043 2503
3943 2071 3063
3942 2116 3452
3939 2184 3680
3933 2225 3848
3824 2696 1443
3839 2688 1468
3876 2662 1540
3942 2585 1711
3941 2728 2693
3941 2738 3172
3940 2764 3512
3938 2807 3704
3934 2837 3851
3836 3122 1514
3846 3121 1533
3872 3117 1585
3920 3100 1696
3936 3142 2515
3940 3270 3297
3941 3280 3580
3941 3302 3736
3937 3322 3858
3858 3493 1621
3864 3494 1633
3880 3495 1667
3908 3497 1735
3932 3505 2274
3935 3544 3155
3944 3621 3641
3946 3627 3773
3943 3637 3868
3899 3747 1797
3902 3748 1804
3909 3750 1822
3922 3753 1858
3928 3756 2425
3932 3763 3111
3940 3780 3572
3953 3833 3810
3953 3839 3880
3942 3940 3666
3942 3940 3673
3943 3941 3689
3945 3943 3716
3947 3945 3751
3950 3949 3790
3954 3953 3830
3959 3958 3865
3964 3964 3892
