Grading Edition presets/Toning - Green & Red.3dl
#25pt 3DLUT created by 3D LUT Creator Pro (c) Oleg Sharonov
#Copyright Oleg Sharonov
#IMAGEPROFILE sRGB IEC61966-2.1 v.2.10
#INPUTGAMMA sRGB IEC61966-2.1 v.2.10
#OUTPUTGAMMA sRGB IEC61966-2.1 v.2.10
0 43 86 128 171 214 256 299 341 384 427 469 512 555 597 640 682 725 768 810 853 896 938 981 1023 
0 160 60
21 198 218
45 238 377
69 279 535
94 323 694
120 370 853
148 420 1013
213 473 1174
294 530 1336
379 591 1500
469 656 1667
564 727 1835
665 803 2007
773 886 2181
888 975 2359
1010 1072 2540
1139 1176 2726
1277 1289 2916
1423 1411 3118
1584 1549 3331
1763 1707 3549
1955 1883 3770
2160 2077 3967
2374 2288 4037
2593 2512 4095
2 319 103
0 319 210
0 359 376
13 399 535
38 442 693
65 487 852
93 536 1012
123 587 1174
159 643 1336
246 702 1501
338 766 1667
435 835 1836
539 909 2007
649 989 2181
767 1076 2359
892 1170 2540
1025 1272 2726
1167 1382 2916
1317 1502 3118
1483 1637 3331
1667 1791 3549
1866 1964 3770
2078 2153 3967
2299 2360 4037
2525 2580 4095
6 477 147
0 477 221
0 477 360
0 519 535
0 560 693
10 604 852
39 651 1012
69 701 1173
101 755 1336
135 813 1501
207 875 1667
307 942 1836
413 1014 2007
526 1093 2181
646 1177 2359
774 1269 2541
911 1368 2726
1056 1476 2916
1211 1593 3119
1381 1725 3331
1571 1876 3549
1776 2044 3770
1995 2230 3967
2223 2432 4037
2456 2648 4095
12 635 193
0 635 267
0 634 372
0 634 510
0 681 693
0 721 852
0 767 1012
15 816 1173
48 868 1336
82 924 1500
119 985 1667
178 1050 1836
287 1120 2007
402 1196 2182
525 1279 2359
656 1368 2541
796 1465 2726
945 1570 2916
1104 1684 3119
1279 1813 3331
1474 1960 3549
1686 2125 3770
1912 2307 3967
2147 2505 4037
2387 2717 4095
19 792 242
5 792 314
0 792 387
0 792 523
0 792 660
0 847 852
0 883 1012
0 930 1173
0 981 1335
30 1035 1500
68 1094 1666
107 1158 1836
161 1226 2007
279 1300 2182
405 1381 2359
539 1468 2541
682 1562 2726
834 1665 2916
997 1776 3119
1177 1902 3331
1378 2046 3549
1596 2207 3770
1828 2384 3967
2070 2578 4037
2317 2786 4095
27 950 293
14 950 365
1 950 437
0 950 540
0 950 675
0 950 811
0 1014 1012
0 1045 1173
0 1094 1335
0 1147 1499
16 1204 1666
57 1266 1835
100 1332 2007
156 1405 2182
284 1483 2359
421 1568 2541
567 1660 2726
723 1760 2917
889 1869 3119
1074 1992 3331
1280 2132 3549
1505 2289 3770
1743 2462 3967
1993 2652 4037
2247 2855 4095
37 1108 348
24 1108 418
11 1108 489
0 1108 561
0 1108 694
0 1108 828
0 1108 963
0 1182 1173
0 1211 1335
0 1259 1499
0 1314 1666
6 1374 1835
50 1439 2007
98 1509 2181
164 1585 2360
304 1668 2541
453 1758 2726
612 1855 2917
782 1962 3119
971 2081 3331
1183 2218 3549
1413 2371 3770
1659 2540 3967
1915 2726 4037
2176 2925 4095
49 1267 405
36 1267 475
24 1267 545
11 1267 615
0 1267 716
0 1267 849
0 1267 982
0 1267 1116
0 1349 1335
0 1381 1499
0 1425 1666
0 1483 1835
1 1545 2006
49 1614 2181
100 1688 2359
187 1769 2541
339 1856 2726
501 1951 2917
675 2055 3119
868 2172 3331
1085 2305 3549
1322 2454 3770
1574 2619 3967
1837 2800 4037
2105 2995 4095
63 1427 466
51 1426 535
38 1426 604
26 1426 674
13 1426 743
0 1426 874
0 1426 1005
0 1426 1137
0 1426 1271
0 1518 1500
0 1552 1666
0 1592 1835
0 1653 2006
0 1719 2181
53 1791 2359
109 1870 2541
225 1955 2726
390 2048 2917
567 2149 3119
765 2263 3331
987 2392 3550
1230 2537 3770
1488 2698 3967
1758 2875 4037
2034 3066 4095
80 1587 532
68 1587 600
55 1587 668
43 1587 736
31 1587 805
9 1586 903
0 1586 1033
0 1586 1163
0 1586 1295
0 1586 1427
0 1688 1666
0 1724 1835
0 1766 2006
0 1825 2181
6 1895 2358
63 1972 2540
124 2055 2726
280 2145 2917
460 2244 3119
662 2354 3331
889 2480 3550
1137 2621 3770
1402 2778 3967
1680 2951 4037
1962 3138 4095
99 1749 602
87 1749 669
75 1748 735
63 1748 803
51 1748 871
39 1748 939
8 1748 1066
0 1748 1194
0 1748 1323
0 1748 1454
0 1748 1586
0 1859 1835
0 1898 2006
0 1943 2181
0 2000 2358
16 2074 2540
79 2155 2726
169 2243 2917
353 2339 3119
559 2447 3331
791 2569 3550
1045 2706 3770
1316 2859 3967
1600 3027 4037
1890 3211 4095
121 1912 677
109 1912 743
98 1912 808
86 1911 875
74 1911 941
62 1911 1008
41 1911 1104
11 1911 1230
0 1911 1357
0 1911 1486
0 1911 1616
0 1911 1747
0 2032 2006
0 2074 2181
0 2122 2358
0 2177 2540
34 2255 2726
101 2341 2917
246 2435 3119
456 2539 3331
693 2658 3550
952 2791 3770
1230 2940 3967
1521 3104 4037
1817 3286 4095
149 2076 758
135 2076 822
123 2076 887
112 2076 952
100 2076 1017
88 2076 1083
77 2076 1149
47 2076 1273
17 2075 1397
0 2075 1523
0 2075 1651
0 2075 1780
0 2075 1911
0 2206 2181
0 2251 2358
0 2303 2540
4 2363 2725
58 2440 2916
139 2531 3119
353 2633 3331
595 2748 3550
860 2877 3770
1144 3021 3967
1441 3182 4037
1744 3362 4095
225 2242 844
197 2242 908
168 2243 971
141 2243 1035
130 2242 1099
118 2242 1164
107 2242 1229
87 2242 1322
58 2242 1444
29 2242 1568
0 2241 1693
0 2241 1820
0 2241 1948
0 2241 2078
0 2382 2359
0 2431 2540
11 2487 2726
42 2552 2916
89 2628 3119
251 2727 3331
497 2839 3550
767 2964 3770
1057 3104 3967
1361 3262 4037
1671 3440 4095
311 2411 937
283 2411 1000
255 2411 1062
227 2411 1124
199 2411 1188
172 2411 1251
144 2411 1315
130 2411 1379
102 2410 1499
73 2410 1620
45 2410 1742
16 2410 1866
0 2409 1992
0 2409 2120
0 2409 2249
0 2560 2540
18 2613 2726
49 2674 2916
87 2744 3119
159 2824 3331
399 2930 3550
674 3051 3770
970 3188 3967
1281 3344 4037
1597 3518 4095
407 2581 1038
380 2581 1099
353 2581 1160
325 2581 1221
298 2581 1283
271 2581 1345
244 2581 1408
217 2581 1470
169 2581 1561
121 2581 1680
94 2581 1799
66 2581 1921
39 2580 2044
11 2580 2168
0 2580 2295
0 2580 2423
25 2741 2726
56 2798 2917
94 2864 3119
177 2940 3332
342 3029 3550
582 3139 3770
883 3274 3967
1200 3427 4037
1523 3597 4095
515 2754 1146
488 2754 1206
462 2754 1266
435 2754 1325
409 2754 1386
382 2754 1447
356 2754 1508
330 2754 1570
304 2754 1632
236 2754 1748
168 2754 1865
120 2754 1984
93 2754 2104
66 2753 2226
39 2753 2349
13 2753 2474
0 2753 2601
63 2924 2917
100 2986 3120
195 3058 3332
359 3142 3550
557 3242 3770
796 3362 3967
1119 3512 4037
1449 3677 4095
634 2929 1264
609 2929 1322
583 2929 1380
557 2929 1439
531 2929 1498
506 2929 1557
480 2929 1617
455 2929 1677
429 2929 1738
384 2929 1825
318 2929 1939
252 2930 2055
187 2930 2173
126 2930 2292
100 2929 2413
74 2929 2535
48 2929 2659
22 2928 2785
106 3107 3117
213 3177 3332
376 3258 3550
573 3355 3771
801 3469 3967
1054 3600 4037
1375 3757 4095
767 3107 1391
742 3107 1447
717 3107 1504
692 3107 1561
667 3108 1619
643 3108 1677
618 3108 1735
593 3108 1794
569 3108 1853
544 3108 1913
480 3108 2024
417 3108 2137
353 3108 2252
290 3108 2368
226 3108 2486
163 3108 2605
115 3108 2726
90 3107 2849
65 3107 2976
222 3293 3322
393 3379 3550
589 3471 3771
816 3579 3966
1068 3704 4037
1338 3844 4095
922 3292 1534
898 3292 1589
875 3292 1645
851 3292 1700
827 3292 1756
803 3293 1812
779 3293 1869
755 3293 1926
731 3293 1984
708 3293 2041
665 3293 2125
604 3293 2234
543 3293 2345
482 3293 2458
421 3293 2572
360 3293 2688
299 3293 2805
239 3293 2925
178 3293 3051
119 3293 3180
395 3487 3532
605 3589 3771
831 3691 3966
1082 3809 4036
1351 3940 4095
1103 3487 1698
1080 3487 1751
1058 3487 1804
1035 3487 1858
1012 3487 1912
989 3487 1966
967 3487 2021
944 3487 2076
922 3487 2132
899 3487 2188
877 3487 2244
818 3487 2350
760 3487 2456
702 3487 2565
644 3487 2675
585 3487 2786
527 3487 2900
469 3487 3018
412 3487 3141
354 3487 3266
296 3487 3394
601 3687 3746
846 3804 3965
1096 3913 4036
1364 4014 4095
1307 3687 1881
1286 3687 1932
1265 3687 1984
1243 3687 2035
1222 3687 2087
1200 3687 2139
1179 3687 2192
1158 3687 2245
1136 3687 2298
1115 3687 2352
1094 3688 2406
1056 3688 2484
1001 3688 2586
946 3688 2690
891 3688 2796
836 3688 2903
781 3688 3015
726 3688 3130
671 3687 3249
617 3687 3370
562 3687 3492
507 3687 3615
836 3889 3955
1110 4009 4035
1377 4049 4095
1531 3889 2084
1511 3889 2132
1492 3889 2182
1472 3889 2231
1452 3889 2280
1432 3889 2330
1412 3889 2381
1392 3889 2432
1372 3890 2483
1352 3890 2534
1333 3890 2586
1313 3890 2638
1262 3890 2736
1210 3890 2835
1159 3890 2937
1107 3890 3043
1056 3890 3152
1005 3889 3263
953 3889 3376
902 3889 3491
850 3889 3607
799 3889 3723
747 3889 3838
1095 4035 4024
1391 4084 4095
1771 4040 2304
1753 4040 2351
1734 4040 2398
1716 4039 2445
1697 4039 2492
1679 4039 2540
1661 4039 2588
1642 4039 2636
1624 4039 2685
1606 4039 2734
1588 4039 2783
1569 4038 2833
1537 4038 2906
1489 4038 3003
1442 4038 3103
1394 4038 3206
1346 4037 3311
1299 4037 3417
1251 4037 3524
1203 4036 3632
1156 4036 3740
1108 4036 3847
1060 4035 3951
1013 4036 3987
1372 4095 4094
2021 4095 2541
2004 4095 2586
1987 4095 2630
1970 4095 2675
1954 4095 2720
1937 4095 2766
1920 4095 2811
1903 4095 2858
1886 4095 2905
1870 4095 2953
1853 4095 3002
1836 4095 3052
1820 4095 3102
1776 4095 3197
1733 4095 3293
1689 4095 3391
1646 4095 3490
1602 4095 3589
1558 4095 3689
1514 4095 3789
1471 4095 3889
1427 4095 3961
1384 4095 3993
1340 4095 4026
1296 4095 4059
70 161 60
70 178 156
107 287 377
130 329 536
155 372 694
219 418 853
290 467 1013
365 519 1174
443 575 1336
526 635 1500
614 700 1667
707 770 1835
805 846 2007
910 927 2181
1021 1016 2359
1140 1111 2540
1265 1214 2726
1399 1326 2916
1540 1447 3119
1696 1585 3331
1868 1741 3549
2053 1916 3770
2251 2108 3966
2457 2317 4037
2669 2539 4095
70 319 60
69 319 219
93 358 377
116 399 536
141 442 694
185 487 853
257 535 1013
332 586 1174
411 642 1336
494 701 1500
582 765 1667
676 833 1835
775 908 2007
880 988 2181
992 1075 2359
1111 1169 2540
1238 1271 2726
1372 1381 2916
1515 1501 3119
1672 1636 3331
1845 1790 3549
2032 1963 3770
2231 2153 3966
2439 2359 4037
2652 2579 4095
79 477 85
73 477 262
50 477 368
60 518 535
85 560 694
112 604 853
140 651 1013
195 701 1174
276 755 1336
361 812 1501
451 874 1667
547 941 1836
648 1013 2007
757 1092 2181
872 1176 2359
994 1268 2540
1124 1367 2726
1262 1475 2916
1409 1592 3119
1571 1724 3331
1750 1875 3549
1943 2043 3770
2149 2229 3966
2364 2432 4037
2584 2648 4095
88 635 191
78 635 308
65 635 381
31 635 518
29 678 693
56 721 852
85 767 1012
115 816 1174
146 868 1336
228 924 1501
320 984 1667
418 1049 1836
522 1119 2007
633 1195 2181
751 1278 2359
876 1367 2541
1010 1464 2726
1152 1569 2916
1303 1683 3119
1469 1813 3331
1654 1960 3549
1854 2124 3770
2067 2306 3966
2289 2504 4037
2516 2716 4095
97 793 283
84 793 355
71 793 428
48 793 532
15 792 668
6 839 852
30 882 1012
61 930 1173
93 981 1336
127 1035 1501
189 1094 1667
289 1157 1836
395 1226 2007
509 1300 2182
630 1380 2359
758 1467 2541
895 1561 2726
1041 1664 2917
1196 1775 3119
1368 1902 3331
1558 2045 3550
1764 2206 3770
1984 2384 3966
2213 2578 4037
2447 2785 4095
105 951 334
92 951 406
79 951 477
66 951 549
33 950 684
0 950 819
0 1007 1012
7 1044 1173
39 1094 1336
74 1147 1500
111 1204 1667
161 1266 1836
269 1332 2007
385 1404 2182
509 1482 2359
640 1567 2541
781 1659 2726
930 1759 2917
1089 1868 3119
1265 1991 3331
1461 2131 3550
1674 2288 3770
1900 2461 3966
2137 2651 4037
2377 2855 4095
114 1109 388
101 1109 458
89 1109 530
76 1109 600
53 1109 703
21 1108 837
0 1108 971
0 1174 1173
0 1207 1335
22 1258 1500
59 1314 1666
99 1374 1836
144 1439 2007
262 1509 2182
388 1585 2360
523 1667 2541
666 1757 2726
819 1855 2917
982 1961 3119
1163 2081 3331
1364 2217 3550
1583 2370 3770
1816 2540 3967
2060 2725 4037
2307 2925 4095
125 1268 445
113 1268 515
100 1268 585
87 1267 655
75 1267 725
43 1267 858
10 1267 990
0 1267 1124
0 1342 1335
0 1374 1499
8 1424 1666
49 1483 1835
92 1546 2007
139 1614 2182
267 1688 2360
405 1768 2541
551 1856 2726
708 1951 2917
875 2054 3119
1060 2171 3331
1267 2304 3550
1492 2453 3770
1732 2619 3967
1982 2800 4037
2237 2995 4095
139 1427 505
126 1427 574
114 1427 644
101 1427 713
89 1427 783
67 1427 883
35 1426 1014
3 1426 1146
0 1426 1279
0 1511 1500
0 1545 1666
0 1592 1835
43 1653 2007
90 1720 2182
147 1792 2360
287 1870 2541
437 1955 2726
597 2047 2917
767 2148 3119
957 2262 3331
1169 2392 3550
1401 2537 3770
1647 2698 3967
1904 2875 4037
2166 3066 4095
161 1588 570
142 1588 638
129 1587 706
117 1587 775
105 1587 844
93 1587 912
61 1587 1042
30 1587 1172
0 1586 1303
0 1586 1435
0 1681 1666
0 1718 1835
0 1761 2006
41 1825 2181
93 1896 2359
170 1972 2541
323 2054 2727
486 2145 2917
660 2243 3119
854 2354 3331
1072 2480 3550
1309 2621 3770
1562 2778 3967
1826 2951 4037
2095 3137 4095
209 1749 639
179 1749 707
149 1749 774
136 1749 841
124 1749 909
112 1749 977
90 1749 1075
59 1748 1203
29 1748 1332
0 1748 1462
0 1748 1594
0 1852 1835
0 1891 2006
5 1937 2181
45 2000 2359
102 2074 2541
209 2155 2727
375 2242 2917
552 2338 3119
751 2446 3332
974 2568 3550
1217 2706 3770
1476 2858 3967
1748 3027 4037
2024 3211 4095
