Grading Edition presets/Toning - Style 14 - Warm counterpoint.3dl
#25pt 3DLUT created by 3D LUT Creator Pro (c) Oleg Sharonov
#Copyright Oleg Sharonov
#INPUTGAMMA sRGB IEC61966-2.1 v.2.10
#IMAGEPROFILE sRGB IEC61966-2.1 v.2.10
#OUTPUTGAMMA sRGB IEC61966-2.1 v.2.10
0 43 86 128 171 214 256 299 341 384 427 469 512 555 597 640 682 725 768 810 853 896 938 981 1023 
537 213 389
544 219 401
559 227 420
576 241 450
605 261 494
640 287 540
684 320 592
730 355 650
780 393 712
831 434 782
883 477 855
939 525 936
998 574 1019
1060 628 1106
1122 685 1195
1185 743 1285
1248 803 1374
1313 865 1465
1377 927 1552
1440 989 1637
1502 1052 1720
1563 1114 1801
1625 1176 1879
1687 1241 1957
1751 1309 2036
593 287 423
576 296 471
597 303 505
620 316 541
647 334 577
682 357 621
718 383 669
760 414 722
803 448 782
852 486 848
901 528 918
955 574 995
1010 623 1074
1070 676 1158
1130 731 1244
1191 788 1330
1254 847 1418
1316 908 1505
1379 968 1589
1440 1030 1672
1502 1091 1753
1562 1152 1831
1622 1214 1908
1684 1278 1983
1747 1344 2060
670 385 474
640 393 528
630 401 569
668 406 612
700 419 655
734 435 699
769 458 748
805 485 804
845 517 865
888 553 932
936 593 999
988 636 1071
1043 684 1148
1100 734 1227
1157 787 1309
1217 843 1392
1278 901 1476
1340 959 1559
1401 1019 1642
1462 1079 1721
1521 1139 1799
1579 1198 1874
1639 1259 1948
1700 1321 2021
1761 1386 2094
771 503 540
738 509 598
718 518 637
711 528 688
754 535 743
793 547 795
831 565 850
868 590 908
907 618 968
948 650 1033
991 686 1101
1039 727 1176
1089 772 1251
1144 820 1327
1201 870 1402
1259 924 1482
1317 978 1560
1377 1035 1640
1437 1092 1716
1495 1149 1791
1553 1206 1865
1611 1264 1936
1669 1322 2006
1727 1383 2075
1788 1446 2145
882 647 618
852 654 679
829 662 722
807 674 772
802 686 835
849 693 900
892 706 963
934 724 1024
976 749 1087
1019 778 1152
1063 811 1220
1111 848 1291
1158 889 1363
1207 933 1439
1259 979 1516
1312 1030 1595
1369 1081 1668
1427 1134 1740
1485 1189 1812
1541 1243 1882
1598 1297 1950
1655 1352 2017
1710 1408 2081
1767 1465 2145
1827 1526 2210
1006 818 708
977 823 773
952 831 819
926 843 872
904 858 934
901 870 1005
954 878 1077
1003 892 1147
1051 910 1214
1096 934 1282
1143 962 1351
1191 994 1419
1238 1032 1491
1287 1071 1562
1338 1115 1635
1389 1160 1708
1441 1208 1781
1493 1257 1853
1545 1307 1923
1599 1358 1989
1654 1409 2051
1709 1461 2111
1763 1513 2170
1818 1567 2228
1875 1623 2285
1143 1009 814
1119 1013 881
1090 1021 929
1062 1032 983
1036 1045 1045
1010 1061 1114
1013 1076 1193
1071 1083 1271
1124 1097 1345
1176 1115 1417
1226 1139 1487
1277 1166 1557
1325 1198 1626
1375 1233 1695
1425 1271 1764
1476 1312 1833
1526 1355 1900
1577 1399 1966
1627 1446 2031
1676 1492 2093
1726 1540 2153
1775 1588 2211
1824 1635 2267
1877 1685 2318
1933 1738 2370
1291 1215 931
1270 1218 998
1241 1226 1050
1211 1236 1106
1183 1248 1166
1156 1263 1235
1129 1281 1309
1135 1296 1392
1197 1304 1474
1256 1317 1551
1311 1335 1625
1364 1357 1695
1416 1384 1763
1467 1413 1831
1518 1447 1896
1568 1482 1961
1618 1521 2024
1668 1560 2085
1716 1601 2144
1765 1643 2200
1812 1686 2254
1859 1728 2305
1906 1773 2355
1954 1818 2403
2004 1866 2450
1446 1433 1060
1427 1435 1124
1401 1441 1179
1370 1450 1236
1341 1462 1298
1312 1476 1363
1284 1492 1436
1256 1510 1513
1267 1526 1599
1334 1533 1682
1395 1546 1758
1453 1563 1830
1509 1584 1898
1562 1608 1964
1613 1636 2027
1665 1667 2089
1715 1699 2147
1763 1733 2203
1812 1769 2256
1858 1806 2307
1905 1844 2354
1950 1882 2399
1995 1921 2442
2041 1962 2484
2089 2004 2528
1607 1654 1199
1589 1656 1260
1568 1660 1317
1536 1669 1373
1506 1680 1434
1477 1693 1499
1449 1707 1568
1421 1723 1642
1392 1743 1721
1409 1756 1805
1478 1764 1885
1541 1776 1960
1600 1792 2028
1657 1811 2092
1711 1833 2153
1763 1858 2211
1814 1886 2265
1863 1915 2316
1911 1945 2364
1957 1977 2408
2002 2009 2450
2046 2043 2489
2090 2076 2528
2134 2112 2568
2179 2149 2609
1771 1874 1345
1754 1876 1403
1738 1879 1460
1708 1886 1516
1676 1895 1575
1647 1907 1638
1618 1920 1705
1592 1935 1774
1564 1951 1848
1535 1970 1925
1558 1983 2005
1627 1990 2080
1691 2001 2149
1752 2015 2212
1808 2033 2271
1862 2052 2324
1914 2074 2374
1964 2098 2420
2011 2123 2462
2057 2150 2502
2101 2177 2541
2144 2204 2578
2186 2233 2616
2229 2263 2654
2273 2295 2692
1935 2086 1498
1920 2087 1551
1906 2090 1604
1880 2095 1662
1850 2104 1719
1820 2114 1779
1792 2125 1842
1765 2138 1908
1739 2152 1976
1712 2169 2046
1685 2186 2118
1712 2197 2192
1781 2204 2260
1845 2214 2322
1905 2226 2377
1961 2241 2427
2014 2258 2472
2064 2276 2514
2112 2296 2555
2158 2318 2594
2201 2340 2632
2244 2362 2668
2285 2386 2704
2326 2410 2740
2367 2436 2776
2098 2284 1655
2085 2285 1703
2073 2287 1751
2052 2291 1809
2023 2299 1863
1994 2307 1920
1966 2316 1979
1940 2327 2040
1915 2340 2103
1890 2353 2166
1865 2368 2231
1839 2384 2296
1869 2393 2360
1938 2399 2419
2001 2407 2471
2059 2418 2519
2113 2430 2563
2165 2444 2606
2213 2459 2646
2259 2475 2684
2302 2492 2721
2343 2510 2756
2383 2528 2791
2423 2547 2826
2463 2568 2861
2258 2462 1811
2247 2463 1855
2235 2464 1899
2220 2467 1956
2192 2473 2005
2165 2480 2058
2138 2488 2113
2113 2497 2169
2089 2507 2225
2065 2517 2282
2042 2529 2339
2019 2542 2395
1995 2556 2450
2028 2564 2505
2095 2568 2558
2155 2575 2606
2212 2584 2652
2264 2594 2694
2312 2605 2734
2358 2618 2772
2400 2631 2809
2441 2646 2843
2480 2661 2877
2518 2677 2910
2557 2696 2945
2412 2617 1967
2402 2618 2006
2392 2619 2044
2380 2621 2095
2357 2626 2144
2331 2632 2191
2306 2639 2241
2282 2646 2291
2260 2655 2341
2237 2665 2390
2216 2675 2439
2195 2686 2488
2174 2699 2537
2152 2712 2589
2187 2719 2641
2250 2724 2691
2308 2730 2737
2361 2738 2780
2410 2747 2820
2455 2757 2858
2497 2769 2894
2537 2781 2928
2575 2794 2961
2612 2808 2994
2649 2824 3027
2558 2765 2118
2550 2765 2151
2542 2766 2185
2530 2768 2228
2513 2772 2275
2490 2777 2317
2467 2784 2361
2445 2791 2404
2424 2799 2447
2404 2807 2490
2384 2817 2534
2365 2827 2579
2347 2838 2626
2329 2851 2674
2309 2864 2722
2344 2871 2772
2403 2875 2819
2457 2881 2863
2506 2888 2903
2551 2896 2941
2592 2905 2976
2631 2916 3010
2667 2927 3043
2703 2939 3075
2738 2953 3108
2694 2908 2260
2687 2908 2289
2680 2909 2317
2671 2911 2354
2659 2913 2397
2638 2918 2432
2618 2924 2469
2598 2931 2507
2580 2938 2547
2561 2946 2587
2544 2955 2628
2527 2964 2671
2511 2975 2715
2496 2986 2759
2480 2997 2805
2464 3010 2851
2497 3017 2898
2551 3021 2942
2599 3026 2983
2643 3032 3021
2684 3040 3056
2721 3049 3090
2755 3058 3122
2789 3068 3154
2821 3080 3186
2817 3046 2392
2812 3047 2416
2806 3048 2438
2799 3049 2468
2789 3051 2505
2773 3056 2539
2756 3061 2573
2739 3067 2609
2723 3074 2646
2707 3081 2684
2692 3089 2723
2677 3098 2763
2664 3108 2804
2651 3117 2846
2638 3128 2888
2625 3140 2932
2612 3152 2975
2642 3158 3019
2689 3162 3060
2732 3167 3099
2771 3173 3134
2806 3180 3168
2838 3187 3200
2869 3196 3231
2899 3207 3263
2926 3180 2510
2921 3181 2530
2917 3182 2550
2911 3183 2577
2904 3185 2610
2892 3188 2645
2878 3193 2676
2864 3199 2710
2850 3205 2745
2837 3212 2781
2824 3220 2818
2812 3228 2855
2801 3236 2894
2790 3246 2933
2780 3256 2972
2770 3266 3013
2760 3277 3054
2750 3289 3095
2774 3295 3135
2815 3298 3174
2852 3303 3210
2884 3308 3243
2915 3315 3275
2945 3322 3307
2975 3331 3338
3031 3310 2625
3026 3311 2644
3022 3312 2661
3017 3313 2686
3011 3315 2716
3002 3317 2750
2989 3322 2779
2976 3327 2811
2963 3333 2843
2952 3339 2877
2941 3346 2912
2930 3354 2947
2921 3362 2983
2912 3371 3020
2903 3380 3057
2896 3389 3095
2888 3400 3133
2881 3410 3171
2874 3421 3210
2893 3427 3247
2928 3431 3283
2960 3435 3317
2991 3440 3349
3021 3446 3380
3051 3453 3411
3133 3437 2739
3129 3437 2756
3126 3438 2772
3121 3439 2794
3115 3440 2821
3108 3442 2854
3097 3447 2882
3085 3452 2911
3073 3457 2942
3063 3463 2973
3052 3469 3006
3043 3476 3039
3034 3484 3073
3026 3492 3107
3019 3501 3142
3012 3509 3178
3005 3519 3213
2999 3529 3249
2994 3539 3285
2988 3549 3320
3003 3556 3355
3036 3559 3389
3067 3563 3421
3097 3568 3452
3127 3574 3483
3233 3560 2852
3230 3560 2867
3227 3561 2882
3223 3562 2902
3218 3563 2926
3212 3565 2956
3202 3568 2984
3191 3573 3011
3181 3578 3040
3171 3584 3069
3162 3590 3100
3153 3596 3131
3145 3603 3163
3137 3611 3195
3131 3619 3228
3125 3627 3261
3119 3636 3294
3114 3645 3328
3110 3654 3361
3105 3664 3394
3101 3674 3427
3113 3681 3460
3144 3684 3492
3174 3687 3523
3203 3692 3554
3332 3679 2964
3329 3680 2978
3326 3680 2991
3322 3681 3009
3318 3683 3031
3313 3684 3058
3306 3687 3086
3296 3691 3111
3286 3696 3138
3277 3701 3166
3268 3707 3194
3260 3713 3223
3253 3720 3253
3246 3727 3283
3240 3734 3314
3235 3742 3345
3230 3750 3376
3226 3758 3407
3222 3767 3438
3219 3776 3469
3216 3785 3500
3213 3795 3531
3221 3802 3562
3251 3805 3593
3280 3809 3624
3429 3797 3077
3426 3797 3089
3424 3798 3101
3421 3799 3117
3417 3800 3137
3413 3802 3161
3407 3804 3189
3398 3808 3212
3390 3812 3237
3381 3817 3262
3373 3822 3289
3366 3828 3316
3360 3834 3344
3354 3841 3372
3348 3848 3401
3344 3855 3430
3339 3863 3459
3336 3870 3488
3333 3879 3517
3330 3887 3546
3328 3896 3575
3326 3905 3604
3324 3914 3633
3329 3922 3662
3358 3925 3693
3526 3913 3190
3523 3913 3201
3521 3914 3211
3519 3915 3226
3515 3916 3244
3511 3918 3266
3507 3919 3291
3500 3923 3314
3492 3927 3337
3484 3932 3361
3477 3937 3385
3471 3942 3411
3465 3948 3436
3459 3954 3463
3455 3960 3490
3451 3967 3517
3447 3974 3544
3444 3982 3571
3442 3989 3598
3439 3997 3625
3438 4005 3652
3436 4013 3679
3435 4022 3706
3434 4031 3734
3437 4040 3762
625 216 391
602 227 420
600 240 445
610 254 476
635 273 512
670 301 558
711 333 608
758 365 664
805 402 726
857 442 796
910 485 870
966 530 949
1026 581 1033
1086 634 1118
1149 689 1207
1212 747 1296
1277 807 1386
1341 868 1475
1404 929 1561
1467 991 1646
1529 1052 1729
1590 1115 1809
1651 1178 1888
1712 1242 1965
1776 1309 2043
687 292 404
630 306 492
632 313 542
655 326 575
684 342 607
718 364 647
754 390 691
793 420 745
836 454 802
882 492 868
932 534 939
983 579 1013
1039 628 1093
1097 680 1176
1157 734 1260
1217 791 1345
1280 850 1433
1342 911 1518
1404 971 1602
1465 1032 1685
1525 1093 1764
1585 1154 1842
1645 1216 1919
1706 1279 1993
1768 1346 2069
758 387 453
691 401 533
665 410 591
696 415 636
726 428 680
758 444 724
791 467 775
826 492 830
866 524 887
910 559 949
959 599 1017
1010 643 1089
1063 689 1164
1119 739 1243
1178 792 1324
1237 848 1407
1297 905 1489
1357 964 1571
1418 1023 1653
1479 1082 1732
1537 1142 1809
1596 1202 1884
1655 1262 1957
1715 1325 2029
1777 1390 2103
836 505 531
793 515 592
750 526 651
740 537 708
777 543 763
814 556 817
849 573 870
885 597 928
923 624 988
963 657 1053
1007 694 1123
1054 734 1195
1106 778 1265
1162 826 1340
1219 876 1417
1276 928 1494
1335 984 1573
1392 1040 1651
1451 1096 1727
1510 1154 1802
1568 1211 1874
1625 1269 1945
1682 1327 2015
1740 1386 2083
1801 1449 2152
936 651 610
901 658 665
861 668 727
831 681 787
826 693 853
869 700 917
910 713 980
951 732 1042
992 756 1104
1034 785 1170
1077 817 1236
1124 854 1307
1171 894 1380
1221 939 1456
1272 986 1533
1327 1036 1606
1384 1086 1678
1441 1139 1751
1498 1193 1822
1555 1247 1891
1611 1302 1959
1666 1356 2025
1722 1412 2088
1778 1469 2152
1838 1529 2216
1053 821 701
1022 828 754
986 837 819
952 848 881
923 864 947
922 876 1020
972 885 1093
1019 898 1162
1066 917 1230
1111 940 1296
1156 968 1365
1203 1001 1434
1250 1037 1505
1299 1077 1576
1349 1119 1648
1400 1165 1721
1451 1213 1794
1503 1262 1865
1556 1312 1934
1611 1362 1997
1665 1413 2058
1720 1465 2118
1773 1517 2176
1828 1570 2234
1885 1627 2292
1184 1011 806
1157 1017 856
1123 1025 925
1089 1037 987
1057 1051 1054
1027 1067 1127
1031 1081 1206
1086 1089 1284
1139 1103 1359
1191 1122 1430
1239 1144 1499
1288 1172 1569
1337 1203 1637
1386 1238 1706
1435 1276 1775
1486 1317 1843
1535 1360 1911
1586 1404 1976
1636 1450 2041
1685 1497 2102
1734 1544 2162
1783 1591 2219
1834 1639 2273
1886 1689 2323
1942 1741 2374
1325 1218 925
1303 1224 972
1274 1230 1043
1236 1240 1106
1204 1254 1173
1173 1269 1243
1143 1286 1321
1151 1301 1404
1212 1309 1485
1268 1322 1562
1323 1340 1635
1376 1363 1706
1427 1388 1774
1478 1419 1840
1528 1451 1906
1578 1487 1971
1627 1525 2033
1676 1565 2093
1725 1606 2152
1773 1647 2208
1820 1690 2261
1867 1733 2312
1913 1776 2361
1961 1822 2409
2011 1870 2456
1475 1435 1055
1456 1439 1099
1432 1443 1170
1394 1454 1234
1361 1466 1300
1330 1480 1370
1300 1497 1444
1270 1516 1524
1282 1529 1609
1348 1538 1691
1407 1550 1767
1464 1567 1839
1518 1588 1907
1572 1613 1973
1623 1641 2036
1673 1671 2096
1723 1703 2154
1772 1738 2210
1819 1773 2263
1866 1810 2313
1912 1848 2360
1957 1886 2405
2002 1925 2447
2048 1965 2489
2095 2008 2532
1631 1657 1195
1615 1660 1235
1595 1664 1304
1560 1672 1369
1526 1683 1434
1494 1696 1503
1464 1711 1575
1435 1728 1650
1404 1747 1730
1423 1761 1814
1489 1768 1893
1552 1780 1967
1610 1796 2036
1666 1815 2100
1720 1837 2160
1771 1862 2218
1821 1889 2271
1871 1919 2322
1918 1949 2369
1964 1980 2413
2008 2013 2454
2052 2046 2494
2096 2079 2533
2139 2115 2572
2185 2152 2613
1791 1876 1342
1778 1879 1380
1759 1882 1444
1729 1889 1510
1695 1899 1575
1663 1910 1641
1633 1923 1709
1605 1938 1780
1576 1955 1854
1546 1974 1932
1569 1986 2012
1638 1994 2087
1701 2004 2156
1761 2019 2218
1817 2036 2276
1870 2056 2330
1922 2077 2379
1970 2101 2424
2018 2127 2466
2063 2152 2506
2107 2180 2545
2150 2208 2583
2192 2236 2620
2234 2266 2657
2278 2298 2696
