Grading Edition presets/Toning - Style 11 - Film.3dl
#25pt 3DLUT created by 3D LUT Creator Pro (c) Oleg Sharonov
#Copyright Oleg Sharonov
#IMAGEPROFILE sRGB IEC61966-2.1 v.2.10
#INPUTGAMMA sRGB IEC61966-2.1 v.2.10
#OUTPUTGAMMA sRGB IEC61966-2.1 v.2.10
0 256 512 768 1023
26 52 114
83 113 349
205 295 780
398 526 1322
663 804 1912
267 666 494
319 679 707
369 785 1064
557 925 1569
808 1123 2120
821 1601 1244
868 1601 1434
982 1634 1735
1018 1761 2075
1229 1899 2527
1789 2627 2167
1832 2626 2298
1958 2634 2550
2127 2672 2779
2217 2766 2982
2859 3297 2964
2878 3297 3024
2931 3298 3153
3015 3306 3290
3098 3326 3384
320 181 113
302 255 472
342 416 945
514 619 1441
762 880 2002
613 674 301
440 772 793
512 853 1185
673 990 1669
908 1180 2194
1017 1625 1190
968 1654 1471
1086 1685 1784
1095 1814 2134
1346 1937 2578
1883 2654 2190
1923 2654 2320
2045 2661 2571
2209 2698 2802
2276 2792 3007
2899 3306 2976
2917 3306 3035
2966 3307 3162
3045 3314 3297
3123 3334 3391
1073 334 113
947 490 659
885 652 1161
923 857 1703
1084 1094 2246
1580 614 113
1444 756 510
1019 1021 1393
1030 1176 1943
1245 1350 2398
1752 1662 943
1740 1707 1208
1400 1846 1935
1502 1933 2333
1710 2055 2723
2440 2676 2038
2356 2707 2273
2295 2747 2634
2446 2778 2871
2454 2871 3078
3085 3322 2949
3045 3330 3053
3064 3334 3190
3129 3341 3318
3195 3359 3411
2255 549 113
2383 582 400
1884 984 1423
1837 1165 1969
1889 1379 2481
2616 753 113
2671 823 368
2053 1255 1599
1979 1416 2143
1997 1620 2625
2926 1613 562
2974 1627 745
2775 1849 1610
2323 2114 2538
2312 2261 2936
3014 2737 1866
3008 2760 2049
3003 2811 2420
2776 2916 2986
2843 2973 3202
3321 3346 2875
3306 3353 2975
3263 3370 3185
3247 3386 3355
3299 3400 3447
3145 826 113
3193 867 362
2967 1318 1588
2842 1545 2262
2827 1753 2714
3252 995 113
3272 1065 372
3106 1474 1526
2921 1758 2383
2894 1954 2815
3407 1633 390
3415 1642 525
3355 1941 1416
3098 2334 2688
3059 2473 3052
3415 2774 1579
3415 2788 1761
3415 2840 2218
3398 2934 2793
3243 3082 3303
3415 3400 3294
3415 3403 3315
3415 3413 3362
3415 3429 3428
3409 3454 3493
