Grading Edition presets/Toning - Style 1.3dl
#25pt 3DLUT created by 3D LUT Creator Pro (c) Oleg Sharonov
#Copyright Oleg Sharonov
#IMAGEPROFILE sRGB IEC61966-2.1 v.2.10
#INPUTGAMMA sRGB IEC61966-2.1 v.2.10
#OUTPUTGAMMA sRGB IEC61966-2.1 v.2.10
0 128 256 384 512 640 768 896 1023
135 300 487
137 315 538
142 364 661
154 445 814
177 551 1025
211 682 1341
266 857 1737
357 1064 2196
541 1277 2632
146 512 548
144 519 736
158 546 886
178 607 1064
206 699 1309
247 835 1620
313 1006 2009
431 1192 2424
652 1395 2784
196 992 666
195 1001 800
190 1012 1186
230 1042 1547
281 1112 1874
355 1213 2209
483 1345 2539
686 1503 2821
925 1683 3061
444 1707 867
356 1744 906
363 1749 1311
352 1763 1929
487 1773 2447
682 1821 2773
892 1901 3003
1129 2009 3197
1401 2137 3367
1281 2452 1285
1176 2478 1313
944 2530 1448
970 2528 2103
949 2540 2697
1189 2532 3068
1462 2549 3305
1739 2592 3474
2011 2655 3604
2279 2986 1873
2225 2997 1906
2064 3027 1992
1849 3060 2287
1849 3062 2816
1862 3069 3180
2115 3060 3456
2362 3065 3630
2579 3089 3748
2956 3384 2508
2934 3391 2532
2875 3406 2589
2737 3437 2681
2664 3452 2950
2640 3460 3270
2685 3464 3518
2849 3458 3708
3003 3463 3828
3405 3694 2982
3395 3698 2995
3368 3706 3025
3312 3723 3077
3189 3751 3147
3203 3752 3387
3179 3761 3594
3237 3764 3754
3354 3761 3878
3721 3927 3356
3715 3929 3363
3703 3934 3381
3678 3943 3411
3630 3958 3453
3582 3972 3540
3595 3974 3692
3579 3983 3820
3635 3985 3919
204 320 508
209 329 674
165 397 858
172 481 951
194 585 1171
230 714 1472
289 890 1865
390 1092 2305
593 1301 2707
293 493 549
256 525 751
214 569 964
216 635 1173
238 731 1412
281 868 1725
353 1036 2104
492 1217 2498
720 1419 2830
303 1000 666
274 1027 781
263 1038 1193
285 1069 1612
335 1137 1956
418 1237 2286
563 1367 2600
762 1525 2863
997 1703 3093
635 1713 871
572 1736 976
481 1771 1285
461 1783 1937
604 1792 2478
782 1839 2802
983 1918 3030
1214 2025 3220
1479 2152 3385
1435 2458 1279
1373 2473 1392
1098 2536 1469
1104 2539 2093
1088 2549 2700
1302 2542 3077
1553 2561 3314
1815 2603 3482
2079 2664 3612
2368 2990 1861
2326 2998 1966
2185 3026 2051
1934 3067 2271
1950 3067 2815
1968 3073 3181
2196 3065 3458
2421 3072 3632
2620 3095 3750
2996 3388 2500
2975 3392 2566
2921 3408 2620
2794 3437 2709
2703 3457 2945
2689 3463 3271
2733 3467 3519
2886 3461 3709
3032 3468 3829
3426 3697 2979
3415 3699 3012
3390 3708 3041
3337 3724 3093
3227 3751 3160
3226 3755 3386
3205 3764 3595
3262 3766 3755
3374 3764 3879
3732 3929 3355
3727 3930 3373
3715 3935 3390
3691 3944 3420
3645 3959 3462
3593 3974 3540
3607 3976 3693
3593 3985 3820
3647 3986 3919
400 384 573
434 382 692
423 417 965
310 513 1414
269 637 1656
299 783 1877
367 961 2209
509 1152 2569
733 1356 2874
617 512 611
629 536 721
585 563 1082
378 649 1664
336 780 1865
372 930 2105
466 1095 2412
638 1271 2719
862 1469 2977
929 930 694
779 1004 795
742 1043 1215
641 1096 1689
616 1176 2109
675 1285 2450
797 1418 2730
967 1576 2958
1192 1752 3167
1183 1704 874
1065 1738 973
965 1780 1339
908 1809 1939
946 1830 2526
1060 1879 2858
1229 1959 3085
1442 2063 3271
1679 2190 3427
1771 2478 1259
1744 2486 1370
1623 2516 1687
1442 2565 2062
1455 2568 2702
1600 2567 3091
1791 2588 3330
2010 2631 3498
2242 2689 3627
2544 3005 1832
2527 3009 1935
2449 3025 2190
2215 3073 2314
2186 3080 2808
2220 3083 3184
2388 3078 3464
2558 3088 3636
2715 3114 3753
3081 3399 2482
3071 3402 2546
3027 3411 2696
2935 3438 2768
2799 3469 2932
2804 3471 3273
2849 3474 3522
2978 3470 3712
3102 3478 3830
3471 3704 2973
3465 3706 3004
3443 3712 3082
3397 3727 3131
3313 3751 3192
3281 3762 3384
3268 3769 3598
3322 3771 3757
3420 3770 3880
3758 3934 3354
3755 3935 3372
3743 3938 3414
3721 3947 3443
3682 3961 3482
3620 3979 3538
3637 3981 3694
3626 3989 3823
3678 3990 3921
917 484 667
1015 467 738
1007 497 970
1003 550 1449
813 688 1989
689 835 2485
679 1015 2790
812 1218 2951
1012 1426 3141
1136 602 695
1193 607 765
1280 609 1028
1195 669 1589
958 820 2168
832 970 2629
823 1135 2895
950 1329 3045
1153 1531 3217
1595 952 772
1551 999 828
1503 1059 1211
1453 1101 1763
1259 1197 2408
1162 1309 2828
1168 1453 3058
1297 1624 3206
1496 1804 3355
1982 1672 890
1869 1731 980
1695 1801 1401
1641 1846 1937
1630 1875 2527
1650 1931 2898
1728 2015 3146
1852 2126 3330
2022 2254 3479
2332 2497 1193
2296 2510 1295
2194 2540 1638
2053 2580 2168
2020 2600 2692
2078 2609 3088
2183 2635 3337
2341 2674 3516
2493 2734 3644
2791 3030 1774
2775 3035 1876
2742 3045 2138
2641 3069 2526
2512 3107 2782
2563 3104 3181
2652 3103 3464
2755 3117 3637
2869 3145 3754
3207 3420 2450
3207 3420 2511
3177 3429 2669
3119 3443 2877
2998 3480 2955
2978 3488 3268
3026 3489 3524
3118 3487 3713
3212 3498 3831
3541 3718 2962
3540 3719 2992
3523 3724 3071
3493 3733 3193
3432 3755 3250
3366 3776 3377
3366 3780 3600
3419 3781 3761
3495 3781 3882
3798 3943 3353
3799 3943 3369
3789 3947 3412
3773 3952 3480
3744 3965 3515
3689 3983 3560
3687 3989 3695
3680 3996 3826
3729 3997 3924
1623 631 779
1775 596 810
1787 619 1026
1782 670 1439
1784 746 2069
1576 958 2563
1470 1142 2901
1478 1332 3138
1588 1540 3320
1819 751 804
1878 750 863
2034 722 1059
1989 789 1527
1952 874 2189
1728 1083 2664
1615 1257 2973
1618 1445 3194
1728 1648 3362
2226 1091 876
2236 1112 928
2275 1136 1221
2294 1163 1700
2211 1247 2359
2025 1407 2814
1934 1564 3101
1940 1733 3302
2039 1915 3449
2628 1710 1014
2606 1740 1094
2567 1790 1388
2427 1887 2010
2425 1927 2520
2358 1999 2945
2330 2097 3221
2364 2212 3408
2446 2344 3545
2861 2507 1262
2833 2527 1360
2754 2568 1694
2574 2633 2286
2567 2661 2671
2615 2671 3040
2667 2697 3301
2724 2743 3488
2812 2802 3618
3085 3063 1713
3077 3067 1799
3047 3079 2032
2951 3105 2512
2890 3128 2856
2884 3141 3169
2926 3147 3449
2986 3165 3626
3079 3188 3755
3373 3447 2394
3369 3449 2459
3357 3454 2616
3307 3469 2857
3254 3486 3087
3180 3515 3249
3232 3511 3524
3285 3515 3711
3345 3529 3826
3633 3738 2947
3630 3740 2978
3623 3743 3054
3600 3751 3183
3566 3762 3331
3495 3790 3388
3490 3796 3598
3533 3797 3763
3590 3799 3884
3852 3957 3354
3852 3957 3369
3849 3959 3410
3835 3964 3480
3814 3972 3569
3779 3988 3605
3750 4002 3693
3753 4006 3829
3796 4007 3927
2362 859 923
2453 827 954
2541 812 1130
2537 867 1503
2535 955 2038
2536 1052 2649
2371 1296 2971
2292 1513 3215
2303 1731 3395
2495 990 956
2531 988 1022
2682 924 1157
2668 987 1563
2646 1075 2116
2629 1170 2715
2471 1411 3025
2394 1621 3258
2398 1833 3429
2744 1307 1047
2761 1312 1111
2801 1318 1331
2872 1309 1717
2828 1402 2291
2788 1501 2823
2662 1709 3124
2602 1894 3341
2598 2082 3499
3021 1869 1211
3025 1881 1279
3031 1905 1507
2978 1974 2073
2976 2020 2511
2947 2091 2931
2876 2212 3230
2843 2338 3432
2848 2471 3577
3265 2549 1438
3252 2563 1526
3227 2591 1775
3157 2638 2302
3052 2705 2752
3072 2728 3037
3070 2760 3321
3071 2814 3513
3095 2879 3649
3411 3083 1828
3401 3089 1924
3369 3105 2186
3293 3134 2607
3179 3177 2938
3176 3198 3151
3223 3204 3400
3266 3224 3579
3320 3253 3705
3557 3479 2406
3553 3481 2466
3543 3487 2610
3516 3499 2816
3430 3524 3110
3418 3538 3303
3420 3549 3514
3452 3555 3701
3489 3571 3818
3743 3764 2924
3743 3765 2953
3741 3767 3026
3728 3773 3156
3676 3788 3342
3660 3799 3481
3621 3820 3589
3657 3819 3764
3693 3825 3882
3921 3974 3353
3920 3975 3369
3917 3977 3409
3912 3980 3476
3886 3989 3575
3870 3998 3666
3834 4016 3701
3836 4021 3831
3871 4022 3931
2906 1176 1149
2953 1152 1179
3059 1091 1279
3060 1141 1616
3055 1218 2095
3047 1325 2613
3045 1436 3040
2930 1716 3279
2874 1954 3462
2982 1292 1188
3001 1291 1252
3114 1221 1335
3136 1248 1668
3122 1332 2163
3108 1439 2663
3097 1552 3077
2984 1821 3311
2930 2047 3488
3142 1594 1286
3155 1595 1346
3183 1598 1536
3275 1546 1806
3252 1633 2314
3223 1741 2766
3201 1849 3150
3101 2079 3375
3053 2272 3540
3341 2092 1455
3345 2098 1519
3357 2110 1716
3353 2143 2141
3358 2180 2556
3340 2256 2896
3319 2335 3234
3254 2478 3453
3211 2614 3607
3522 2662 1710
3520 2669 1784
3518 2682 1980
3496 2710 2374
3385 2787 2864
3424 2801 3056
3420 2837 3320
3398 2894 3530
3377 2968 3671
3669 3116 2062
3663 3122 2138
3646 3135 2334
3609 3160 2657
3544 3196 3000
3489 3238 3219
3508 3254 3408
3521 3276 3601
3529 3313 3729
3764 3501 2532
3759 3504 2593
3747 3511 2732
3716 3526 2940
3646 3554 3187
3594 3581 3367
3595 3598 3506
3628 3604 3669
3661 3619 3785
3867 3790 2982
3865 3791 3010
3860 3794 3077
3852 3800 3187
3825 3813 3328
3773 3831 3508
3769 3842 3628
3774 3851 3762
3799 3857 3880
3996 3996 3356
3997 3996 3370
3997 3998 3405
3990 4001 3473
3977 4007 3569
3945 4019 3683
3940 4027 3764
3923 4041 3830
3948 4042 3934
3304 1558 1430
3331 1539 1457
3399 1482 1532
3434 1483 1796
3432 1555 2208
3426 1658 2645
3416 1785 3008
3411 1906 3335
3324 2183 3513
3350 1669 1472
3360 1669 1531
3424 1616 1608
3478 1588 1843
3472 1663 2261
3462 1765 2690
3449 1889 3037
3440 2007 3358
3356 2268 3533
3450 1940 1578
3457 1940 1639
3474 1944 1808
3562 1861 1977
3553 1932 2390
3533 2034 2788
3517 2146 3101
3503 2251 3406
3427 2467 3574
3581 2361 1767
3586 2363 1826
3595 2368 1993
3602 2386 2306
3634 2386 2606
3610 2466 2933
3596 2545 3199
3583 2617 3468
3526 2750 3630
3718 2803 2033
3719 2806 2093
3720 2813 2247
3713 2832 2532
3675 2876 2880
3661 2912 3123
3668 2947 3315
3662 2988 3536
3630 3063 3690
3839 3190 2363
3837 3194 2418
3831 3203 2555
3816 3220 2771
3785 3248 3034
3707 3303 3304
3732 3317 3440
3737 3342 3605
3731 3379 3748
3934 3532 2727
3930 3535 2767
3920 3543 2866
3900 3558 3026
3866 3579 3226
3818 3606 3449
3796 3632 3558
3811 3646 3680
3826 3661 3805
4002 3811 3088
3999 3813 3116
3993 3817 3184
3978 3825 3293
3950 3839 3432
3893 3863 3580
3884 3876 3675
3887 3889 3762
3910 3895 3864
4079 4016 3432
4078 4017 3445
4077 4019 3478
4072 4022 3532
4061 4029 3605
4039 4040 3687
4015 4052 3789
4017 4060 3858
4023 4067 3937
3588 1994 1778
3604 1980 1803
3645 1941 1869
3698 1890 2031
3696 1955 2373
3691 2045 2724
3687 2151 3021
3674 2279 3306
3669 2390 3558
3617 2087 1823
3622 2088 1877
3661 2052 1943
3724 1985 2080
3721 2049 2419
3714 2136 2758
3707 2239 3050
3693 2361 3325
3686 2466 3572
3682 2308 1933
3686 2310 1987
3695 2315 2125
3757 2253 2244
3772 2275 2529
3762 2354 2838
3749 2449 3118
3734 2552 3369
3726 2639 3603
3772 2632 2121
3775 2633 2170
3780 2638 2301
3785 2652 2529
3831 2626 2712
3817 2686 2971
3801 2752 3221
3790 2819 3433
3781 2880 3648
3872 2963 2373
3872 2965 2418
3875 2971 2529
3872 2985 2719
3858 3013 2958
3863 3035 3147
3850 3078 3350
3848 3122 3514
3844 3165 3698
3965 3293 2657
3964 3295 2693
3962 3301 2778
3954 3315 2924
3939 3337 3118
3887 3383 3357
3894 3402 3488
3903 3427 3608
3905 3455 3753
4047 3590 2937
4046 3592 2965
4040 3598 3034
4030 3609 3149
4012 3627 3300
3986 3649 3473
3941 3684 3620
3958 3697 3709
3965 3715 3812
4095 3840 3234
4095 3842 3255
4095 3846 3306
4093 3855 3389
4075 3867 3496
4051 3883 3617
4027 3900 3739
4017 3918 3801
4028 3929 3876
4095 4037 3553
4095 4037 3554
4095 4040 3575
4095 4044 3618
4095 4050 3685
4095 4061 3763
4089 4078 3840
4092 4086 3892
4095 4095 3943
