Grading Edition presets/Toning - Style 4.3dl
#25pt 3DLUT created by 3D LUT Creator Pro (c) Oleg Sharonov
#Copyright Oleg Sharonov
#IMAGEPROFILE sRGB IEC61966-2.1 v.2.10
#INPUTGAMMA sRGB IEC61966-2.1 v.2.10
#OUTPUTGAMMA sRGB IEC61966-2.1 v.2.10
0 256 512 768 1023
46 211 354
35 200 1646
22 187 3151
15 180 3928
11 176 4095
35 1473 343
24 1480 1653
11 1485 3149
3 1495 3923
0 1509 4095
23 2945 331
11 2942 1658
0 2939 3146
0 2940 3917
0 2946 4095
15 3704 323
4 3698 1669
0 3692 3148
0 3690 3915
0 3692 4095
10 4095 318
0 4095 1683
0 4095 3152
0 4095 3916
0 4095 4095
1082 202 345
1426 188 1652
1432 176 3148
1443 168 3922
1458 165 4095
1426 1030 335
1433 1486 1659
1442 1493 3146
1448 1499 3916
1463 1512 4095
1716 2941 300
1442 2939 1667
1448 2936 3143
1457 2937 3910
1469 2941 4095
1567 3697 303
1449 3692 1674
1458 3685 3145
1467 3684 3909
1480 3685 4095
1458 4095 306
1463 4095 1687
1467 4095 3148
1478 4095 3909
1495 4095 4095
2685 189 332
2897 176 1658
2893 163 3145
2894 156 3916
2899 153 4095
2716 1011 324
2791 1369 1540
2890 1499 3143
2891 1507 3910
2895 1518 4095
2894 2525 310
2891 2739 1473
2887 2933 3140
2889 2935 3904
2895 2941 4095
3172 3691 285
3003 3684 1840
2889 3679 3143
2891 3677 3902
2897 3680 4095
3117 4095 278
2942 4095 1760
2893 4095 3148
2894 4095 3904
2899 4095 4095
3519 181 324
3581 169 1620
3605 157 3147
3603 149 3915
3605 146 4095
3500 1217 315
3544 1405 1577
3599 1508 3145
3597 1516 3909
3599 1528 4095
3552 2539 304
3547 2743 1476
3560 2893 3100
3591 2937 3903
3593 2944 4095
3604 3312 296
3600 3454 1296
3591 3573 3058
3589 3676 3901
3591 3679 4095
3837 4095 335
3745 4095 2085
3651 4095 3219
3590 4095 3903
3592 4095 4095
4024 175 318
4017 164 1683
4009 152 3151
4005 145 3915
4006 142 4095
4017 1509 307
4009 1513 1688
4001 1517 3148
3998 1527 3909
3998 1543 4095
4010 2690 297
4002 2889 1640
3993 2940 3148
3990 2942 3904
3991 2947 4095
4007 3370 291
4001 3503 1382
3991 3614 3097
3987 3678 3903
3987 3680 4095
4006 3804 287
4001 3891 1123
3990 3965 2978
3986 4034 3858
3986 4095 4095
