Grading Edition presets/Toning - Green & Red.3dl
#25pt 3DLUT created by 3D LUT Creator Pro (c) Oleg Sharonov
#Copyright Oleg Sharonov
#IMAGEPROFILE sRGB IEC61966-2.1 v.2.10
#INPUTGAMMA sRGB IEC61966-2.1 v.2.10
#OUTPUTGAMMA sRGB IEC61966-2.1 v.2.10
0 256 512 768 1023
0 160 60
148 420 1013
665 803 2007
1423 1411 3118
2593 2512 4095
37 1108 348
0 1108 963
50 1439 2007
782 1962 3119
2176 2925 4095
149 2076 758
77 2076 1149
0 2075 1911
139 2531 3119
1744 3362 4095
767 3107 1391
618 3108 1735
353 3108 2252
65 3107 2976
1338 3844 4095
2021 4095 2541
1920 4095 2811
1820 4095 3102
1558 4095 3689
1296 4095 4059
850 161 61
851 301 649
1502 1058 2007
2115 1631 3120
3039 2677 4095
851 1109 61
852 1109 1012
1317 1432 2007
1962 1955 3120
2941 2921 4095
1120 2075 428
1057 2076 1368
744 2076 1959
1332 2524 3120
2534 3358 4095
1641 3107 1377
1534 3107 1931
1387 3108 2294
1008 3107 3025
2113 3831 4095
2619 4095 2691
2524 4095 2970
2428 4095 3272
2255 4095 3727
2003 4095 4068
1949 160 59
1949 160 293
1950 589 1312
2772 1854 3121
3477 2845 4095
1949 815 60
1950 929 627
1951 1324 1655
2627 2182 3121
3379 3093 4095
1950 2075 59
1951 2075 717
1952 2075 2007
2480 2518 3122
3282 3355 4095
2327 3107 555
2328 3107 1632
2277 3108 2501
2025 3107 3073
2881 3829 4095
3077 4095 2101
3077 4095 2960
3008 4095 3446
2915 4095 3764
2676 4095 4077
2978 159 59
2978 396 367
2978 730 1225
2978 1137 2135
3942 3010 4095
2978 899 59
2978 1090 648
2978 1354 1513
2978 1766 2447
3816 3272 4095
2978 1966 59
2978 1966 800
2978 2068 1814
2978 2421 2776
3716 3544 4095
2978 3106 58
2978 3107 799
2978 3108 1895
2977 3108 3123
3618 3824 4095
3518 4095 1493
3518 4095 2292
3516 4095 3183
3482 4095 3935
3320 4095 4086
3958 1279 701
3959 1464 1302
3958 1649 1926
3958 1942 2601
3957 2240 3358
3959 1773 899
3959 1961 1506
3958 2152 2143
3958 2400 2831
3957 2708 3625
3958 2528 913
3958 2528 1672
3958 2676 2367
3957 2878 3077
3956 3201 3897
3958 3361 912
3958 3361 1672
3958 3364 2489
3957 3447 3343
3956 3743 4009
3958 4095 912
3958 4095 1672
3958 4095 2489
3957 4095 3417
3957 4095 4095
