Grading Edition presets/Toning - Style 5.3dl
#25pt 3DLUT created by 3D LUT Creator Pro (c) Oleg Sharonov
#Copyright Oleg Sharonov
#IMAGEPROFILE sRGB IEC61966-2.1 v.2.10
#INPUTGAMMA sRGB IEC61966-2.1 v.2.10
#OUTPUTGAMMA sRGB IEC61966-2.1 v.2.10
0 256 512 768 1023
0 38 48
0 124 401
0 378 1067
0 764 1776
0 1184 2425
262 837 513
0 939 905
0 1091 1337
0 1353 1809
0 1665 2340
988 1999 1275
424 2120 1541
0 2193 2063
0 2272 2547
0 2387 2984
1751 2825 1999
1523 3006 2204
864 3077 2490
189 3131 2953
468 3141 3626
2710 3503 2631
2678 3737 2767
2103 3822 2942
1678 3885 3266
1296 3939 3757
691 66 47
406 275 488
264 423 1271
388 710 2055
535 1053 2729
1215 737 124
754 932 1015
534 1081 1813
424 1309 2367
439 1572 2850
1411 1925 1261
1271 2053 1542
683 2199 2101
288 2300 2646
187 2406 3116
1865 2686 1946
1907 2863 2138
1360 3073 2508
915 3129 2957
1039 3141 3637
2736 3342 2571
2836 3536 2698
2470 3818 2952
1930 3887 3265
1628 3940 3758
1868 167 43
1844 272 469
1340 849 1282
927 1077 2075
1025 1222 2725
2043 861 40
2044 886 825
1647 1248 1630
1216 1376 2390
1295 1504 2987
2555 1913 702
2421 1988 1299
1966 2182 2179
1910 2220 2891
1909 2271 3558
2412 2687 1770
2383 2738 1988
2524 2986 2523
2018 3127 2969
2039 3140 3670
2849 3263 2481
2927 3327 2587
3160 3640 2888
2764 3891 3254
2475 3944 3762
3116 445 173
3270 166 358
2946 900 1383
2507 1392 2267
2016 1661 2882
3061 1223 34
3195 1075 922
3153 1227 1638
2804 1619 2494
2303 1826 3089
3230 2110 272
3192 2165 959
3267 2196 2086
3175 2271 2832
3005 2330 3515
3287 2845 1586
3300 2886 1865
3341 3005 2449
3281 3128 2984
3291 3137 3719
3417 3405 2416
3431 3437 2521
3467 3535 2785
3603 3808 3280
3399 3956 3773
3788 1077 764
3981 662 803
3973 801 1646
3808 1305 2515
3704 1582 3244
3640 1765 524
3815 1534 1290
4042 1218 1835
3897 1569 2655
3810 1765 3378
3603 2508 517
3598 2546 1004
3868 2386 2233
4019 2302 2857
3985 2355 3614
3799 3023 1232
3801 3051 1546
3811 3145 2198
3966 3192 3001
4061 3165 3726
4005 3589 2375
4022 3621 2502
4070 3713 2794
4095 3858 3257
4095 3977 3794
