Grading Edition presets/Toning - Style 1.3dl
#25pt 3DLUT created by 3D LUT Creator Pro (c) Oleg Sharonov
#Copyright Oleg Sharonov
#IMAGEPROFILE sRGB IEC61966-2.1 v.2.10
#INPUTGAMMA sRGB IEC61966-2.1 v.2.10
#OUTPUTGAMMA sRGB IEC61966-2.1 v.2.10
0 256 512 768 1023
135 300 487
142 364 661
177 551 1025
266 857 1737
541 1277 2632
196 992 666
190 1012 1186
281 1112 1874
483 1345 2539
925 1683 3061
1281 2452 1285
944 2530 1448
949 2540 2697
1462 2549 3305
2011 2655 3604
2956 3384 2508
2875 3406 2589
2664 3452 2950
2685 3464 3518
3003 3463 3828
3721 3927 3356
3703 3934 3381
3630 3958 3453
3595 3974 3692
3635 3985 3919
400 384 573
423 417 965
269 637 1656
367 961 2209
733 1356 2874
929 930 694
742 1043 1215
616 1176 2109
797 1418 2730
1192 1752 3167
1771 2478 1259
1623 2516 1687
1455 2568 2702
1791 2588 3330
2242 2689 3627
3081 3399 2482
3027 3411 2696
2799 3469 2932
2849 3474 3522
3102 3478 3830
3758 3934 3354
3743 3938 3414
3682 3961 3482
3637 3981 3694
3678 3990 3921
1623 631 779
1787 619 1026
1784 746 2069
1470 1142 2901
1588 1540 3320
2226 1091 876
2275 1136 1221
2211 1247 2359
1934 1564 3101
2039 1915 3449
2861 2507 1262
2754 2568 1694
2567 2661 2671
2667 2697 3301
2812 2802 3618
3373 3447 2394
3357 3454 2616
3254 3486 3087
3232 3511 3524
3345 3529 3826
3852 3957 3354
3849 3959 3410
3814 3972 3569
3750 4002 3693
3796 4007 3927
2906 1176 1149
3059 1091 1279
3055 1218 2095
3045 1436 3040
2874 1954 3462
3142 1594 1286
3183 1598 1536
3252 1633 2314
3201 1849 3150
3053 2272 3540
3522 2662 1710
3518 2682 1980
3385 2787 2864
3420 2837 3320
3377 2968 3671
3764 3501 2532
3747 3511 2732
3646 3554 3187
3595 3598 3506
3661 3619 3785
3996 3996 3356
3997 3998 3405
3977 4007 3569
3940 4027 3764
3948 4042 3934
3588 1994 1778
3645 1941 1869
3696 1955 2373
3687 2151 3021
3669 2390 3558
3682 2308 1933
3695 2315 2125
3772 2275 2529
3749 2449 3118
3726 2639 3603
3872 2963 2373
3875 2971 2529
3858 3013 2958
3850 3078 3350
3844 3165 3698
4047 3590 2937
4040 3598 3034
4012 3627 3300
3941 3684 3620
3965 3715 3812
4095 4037 3553
4095 4040 3575
4095 4050 3685
4089 4078 3840
4095 4095 3943
