Grading Edition presets/Toning - Style 13 - Blue-Orange.3dl
#25pt 3DLUT created by 3D LUT Creator Pro (c) Oleg Sharonov
#Copyright Oleg Sharonov
#INPUTGAMMA sRGB IEC61966-2.1 v.2.10
#IMAGEPROFILE sRGB IEC61966-2.1 v.2.10
#OUTPUTGAMMA sRGB IEC61966-2.1 v.2.10
0 43 86 128 171 214 256 299 341 384 427 469 512 555 597 640 682 725 768 810 853 896 938 981 1023 
0 223 488
0 224 522
0 224 569
0 224 627
0 223 697
0 223 753
0 223 800
0 223 843
0 223 884
0 223 922
0 223 958
0 223 992
0 223 1023
0 223 1055
0 223 1087
0 223 1119
0 223 1150
0 223 1181
0 223 1212
0 223 1242
0 223 1272
0 223 1300
0 223 1329
0 223 1357
0 223 1385
0 265 497
0 270 534
0 269 594
0 267 656
0 263 728
0 259 812
0 255 906
0 251 1011
0 247 1141
0 243 1299
0 239 1475
0 234 1660
0 230 1843
0 226 2016
0 223 2167
0 223 2157
0 223 2151
0 223 2150
0 223 2151
0 223 2153
0 223 2157
0 223 2163
0 223 2169
0 223 2177
0 223 2185
0 322 504
0 329 539
0 332 597
0 332 676
0 321 763
0 315 849
0 308 945
0 301 1054
0 294 1193
0 287 1355
0 281 1532
0 274 1715
0 268 1892
0 262 2058
0 256 2201
0 250 2321
0 244 2437
0 239 2550
0 234 2659
0 230 2763
0 225 2862
0 223 2912
0 223 2893
0 223 2877
0 223 2865
0 392 512
0 401 549
0 407 595
0 409 675
0 408 769
0 391 879
0 378 987
0 368 1105
0 358 1251
0 348 1418
0 339 1596
0 330 1775
0 321 1947
0 312 2104
0 303 2237
0 295 2353
0 287 2468
0 280 2578
0 273 2684
0 266 2786
0 259 2883
0 253 2974
0 247 3058
0 242 3135
0 237 3204
0 475 519
0 486 559
0 495 607
0 500 673
0 500 768
0 497 876
0 477 1000
0 453 1155
0 438 1316
0 426 1486
0 413 1663
0 401 1839
0 390 2004
0 378 2152
0 367 2275
0 356 2389
0 345 2501
0 335 2610
0 326 2714
0 317 2813
0 308 2907
0 300 2995
0 292 3077
0 284 3152
0 277 3219
0 570 526
0 583 568
0 594 619
0 603 678
0 606 766
0 604 875
0 600 997
0 578 1150
0 549 1343
0 520 1558
0 505 1734
0 490 1905
0 475 2063
0 461 2199
0 447 2316
0 434 2428
0 420 2538
0 408 2644
0 396 2746
0 384 2843
0 373 2934
0 362 3020
0 352 3099
0 342 3171
0 333 3235
0 677 533
0 693 578
0 706 631
0 717 693
0 725 762
0 726 873
0 722 996
0 716 1148
0 694 1339
0 659 1553
0 625 1772
0 596 1971
0 579 2121
0 562 2246
0 545 2359
0 529 2470
0 513 2578
0 498 2682
0 483 2781
0 469 2875
0 456 2964
0 442 3047
0 430 3123
0 418 3192
0 406 3253
0 796 541
0 814 587
0 830 643
0 844 707
0 856 779
0 862 870
0 861 995
0 856 1148
0 847 1339
0 827 1551
0 787 1769
0 748 1976
0 710 2158
0 681 2293
0 662 2404
0 643 2513
0 625 2619
0 607 2721
0 590 2818
0 573 2910
0 557 2996
0 542 3075
0 527 3148
0 512 3214
0 498 3272
0 939 549
0 963 598
0 986 656
0 1006 722
0 1022 796
0 1035 878
0 1040 993
0 1036 1148
0 1028 1340
0 1017 1553
0 998 1770
0 944 1976
0 894 2157
0 847 2304
0 805 2442
0 777 2559
0 756 2663
0 736 2762
0 716 2857
0 697 2946
0 679 3029
0 661 3105
0 644 3175
0 628 3237
0 612 3291
0 1118 559
0 1148 609
0 1175 669
0 1200 738
0 1220 815
0 1238 899
0 1251 991
0 1252 1148
0 1246 1343
0 1236 1557
0 1222 1774
0 1207 1980
0 1151 2160
0 1089 2305
0 1029 2443
0 972 2576
0 920 2703
0 891 2805
0 866 2897
0 844 2983
0 823 3063
0 803 3136
0 784 3203
0 765 3261
0 747 3313
0 1321 569
0 1355 621
0 1385 684
0 1413 755
0 1437 834
0 1457 921
0 1474 1015
0 1484 1148
0 1483 1346
0 1476 1562
0 1465 1781
0 1451 1987
0 1435 2165
0 1391 2310
0 1323 2447
0 1256 2579
0 1191 2706
0 1129 2826
0 1071 2938
0 1042 3021
0 1015 3098
0 988 3168
0 963 3230
0 938 3285
0 915 3335
0 1537 580
0 1572 635
0 1605 699
0 1634 773
0 1659 855
1 1682 945
1 1700 1043
0 1715 1164
0 1721 1349
0 1719 1569
0 1712 1790
0 1701 1996
0 1688 2174
0 1673 2317
0 1648 2454
0 1581 2585
0 1513 2711
0 1446 2831
0 1380 2943
0 1315 3045
0 1261 3133
0 1231 3200
0 1202 3258
0 1173 3310
0 1146 3359
3 1755 592
9 1789 650
14 1821 717
19 1849 793
22 1875 878
25 1897 970
25 1917 1075
25 1933 1204
22 1945 1354
0 1948 1577
0 1945 1800
0 1938 2007
0 1929 2184
0 1917 2327
0 1904 2463
0 1890 2594
0 1843 2720
0 1780 2839
0 1717 2949
0 1653 3051
0 1590 3142
0 1527 3223
0 1480 3285
0 1451 3335
0 1422 3383
24 1961 606
31 1993 666
37 2022 736
43 2048 815
47 2071 902
50 2092 998
52 2110 1110
53 2125 1247
53 2138 1399
40 2146 1586
9 2147 1811
0 2145 2019
0 2140 2195
0 2132 2338
0 2123 2474
0 2113 2606
0 2102 2731
0 2086 2849
0 2035 2958
0 1981 3059
0 1926 3150
0 1869 3229
0 1812 3296
0 1754 3358
0 1718 3409
48 2143 622
56 2170 685
63 2194 757
69 2216 839
74 2235 929
78 2253 1028
81 2269 1150
83 2283 1294
84 2295 1452
84 2306 1615
60 2311 1824
28 2312 2033
0 2310 2208
0 2306 2350
0 2300 2487
0 2293 2619
0 2285 2744
0 2277 2861
0 2269 2970
0 2248 3070
0 2208 3159
0 2167 3237
0 2124 3303
0 2079 3364
0 2032 3422
75 2294 639
84 2318 705
92 2341 781
99 2363 865
105 2383 959
110 2401 1064
114 2418 1195
117 2433 1346
119 2446 1508
120 2458 1673
117 2467 1839
84 2471 2048
50 2472 2222
17 2470 2365
0 2466 2502
0 2461 2634
0 2456 2758
0 2449 2875
0 2442 2983
0 2435 3082
0 2428 3170
0 2405 3246
0 2369 3311
0 2333 3372
0 2298 3430
107 2439 659
116 2463 729
125 2486 807
133 2508 895
140 2528 992
146 2546 1105
151 2563 1245
155 2579 1402
158 2593 1567
160 2605 1734
161 2617 1895
147 2625 2065
112 2628 2236
77 2629 2381
44 2627 2519
12 2625 2651
0 2621 2775
0 2616 2892
0 2611 2999
0 2606 3096
0 2600 3183
0 2594 3257
0 2589 3321
0 2569 3382
0 2537 3439
142 2582 682
152 2606 755
162 2628 837
171 2650 928
179 2670 1028
186 2688 1153
192 2705 1301
198 2721 1463
202 2736 1631
205 2749 1798
206 2760 1956
207 2771 2099
181 2777 2253
145 2780 2398
110 2781 2537
75 2781 2669
42 2779 2794
10 2777 2909
0 2773 3016
0 2770 3112
0 2766 3197
0 2762 3269
0 2757 3332
0 2754 3392
0 2750 3449
182 2722 708
193 2745 784
204 2767 869
214 2787 964
223 2807 1072
232 2825 1207
239 2842 1363
245 2858 1530
251 2872 1700
255 2886 1865
258 2898 2019
261 2909 2155
259 2919 2271
222 2924 2417
185 2927 2557
148 2928 2689
113 2929 2814
78 2928 2929
45 2926 3034
14 2925 3129
0 2922 3212
0 2920 3282
0 2917 3345
0 2915 3405
0 2913 3461
226 2857 736
239 2878 816
251 2899 906
263 2919 1005
273 2938 1124
283 2956 1269
291 2972 1431
299 2988 1601
306 3002 1772
311 3015 1934
316 3027 2082
320 3038 2209
323 3049 2317
308 3057 2438
270 3062 2579
232 3065 2711
194 3067 2835
157 3068 2950
121 3068 3054
87 3068 3147
54 3068 3228
24 3067 3296
0 3066 3359
0 3065 3418
0 3064 3473
276 2985 769
290 3006 853
303 3026 946
316 3044 1051
328 3062 1183
339 3079 1338
349 3094 1505
359 3109 1678
367 3123 1847
374 3135 2005
381 3147 2145
386 3158 2261
390 3168 2368
394 3178 2472
365 3184 2602
326 3189 2735
286 3193 2858
247 3195 2972
209 3197 3075
172 3198 3166
136 3199 3245
103 3200 3311
71 3200 3373
41 3200 3432
13 3201 3487
332 3106 805
347 3125 894
362 3143 992
376 3161 1108
389 3177 1251
402 3192 1414
414 3207 1585
425 3221 1758
435 3233 1924
444 3245 2075
452 3256 2206
459 3267 2315
465 3276 2422
470 3285 2525
471 3293 2627
431 3299 2760
390 3303 2883
349 3307 2996
309 3310 3097
270 3312 3186
232 3314 3262
195 3316 3327
160 3317 3389
127 3319 3447
96 3320 3501
395 3217 846
412 3234 939
428 3251 1043
443 3266 1174
458 3281 1328
472 3295 1497
486 3308 1671
498 3320 1842
510 3332 2003
520 3343 2145
530 3353 2263
539 3362 2372
547 3371 2477
555 3379 2579
561 3386 2677
547 3393 2787
505 3397 2909
464 3402 3020
422 3405 3120
381 3408 3207
341 3411 3280
303 3413 3345
265 3415 3406
230 3417 3463
195 3419 3517
467 3317 892
485 3332 990
502 3346 1107
519 3360 1251
535 3373 1414
551 3385 1587
566 3396 1762
580 3406 1929
593 3416 2082
606 3426 2212
618 3435 2323
629 3443 2431
640 3451 2535
650 3459 2636
659 3466 2732
668 3473 2824
635 3479 2937
592 3484 3046
549 3488 3144
507 3492 3228
466 3495 3298
426 3499 3363
386 3502 3423
348 3504 3480
312 3507 3532
547 3403 944
567 3416 1050
586 3428 1182
604 3440 1338
623 3451 1509
641 3462 1684
659 3473 1856
676 3483 2017
693 3493 2159
709 3502 2276
725 3511 2386
740 3519 2493
754 3528 2596
768 3535 2695
780 3543 2789
792 3550 2878
798 3557 2966
747 3562 3073
697 3567 3168
650 3572 3249
606 3576 3318
564 3580 3381
524 3583 3442
484 3587 3497
446 3590 3549
0 223 489
0 231 510
0 234 554
0 235 609
0 236 675
0 237 754
0 237 844
0 237 944
0 236 1057
0 233 1200
0 230 1368
0 226 1551
0 223 1737
0 223 1756
0 223 1766
0 223 1778
0 223 1792
0 223 1807
0 223 1824
0 223 1841
0 223 1858
0 223 1874
0 223 1891
0 223 1908
0 223 1926
0 273 492
0 280 539
0 281 587
0 282 645
0 282 714
0 282 794
0 282 885
0 282 986
0 281 1106
0 275 1256
0 269 1427
0 263 1608
0 258 1790
0 252 1965
0 247 2123
0 241 2254
0 236 2373
0 232 2488
0 227 2599
0 223 2706
0 223 2705
0 223 2688
0 223 2675
0 223 2665
0 223 2657
0 335 500
0 342 550
0 348 605
0 347 680
0 347 753
0 345 836
0 344 929
0 342 1033
0 341 1164
0 335 1321
0 326 1494
0 317 1673
0 309 1851
0 300 2017
0 292 2165
0 284 2288
0 277 2404
0 270 2517
0 263 2626
0 257 2731
0 251 2830
0 245 2925
0 240 3013
0 234 3095
0 230 3169
0 408 510
0 418 561
0 427 612
0 430 686
0 428 781
0 424 880
0 422 976
0 419 1088
0 416 1229
0 413 1392
0 400 1566
0 388 1743
0 377 1914
0 365 2073
0 354 2210
0 344 2326
0 333 2440
0 324 2551
0 314 2657
0 306 2759
0 297 2856
0 289 2948
0 281 3034
0 274 3113
0 267 3184
0 493 519
0 506 572
0 518 625
0 526 686
0 526 783
0 522 892
0 516 1015
0 511 1150
0 507 1300
0 503 1467
0 492 1641
0 477 1815
0 462 1980
0 448 2129
0 434 2254
0 420 2368
0 407 2479
0 394 2587
0 382 2691
0 371 2791
0 360 2885
0 349 2974
0 339 3057
0 329 3133
0 320 3202
0 591 529
0 607 582
0 622 638
0 633 701
0 639 782
0 636 893
0 630 1017
0 622 1174
0 614 1368
0 608 1545
0 603 1719
0 584 1888
0 566 2046
0 549 2184
0 532 2300
0 515 2411
0 499 2521
0 483 2627
0 468 2728
0 454 2825
0 440 2917
0 427 3003
0 415 3083
0 402 3156
0 391 3221
0 701 540
0 720 592
0 737 650
2 751 717
1 761 790
0 764 894
0 760 1019
0 752 1177
0 742 1370
0 732 1583
0 722 1797
0 710 1961
0 689 2110
0 668 2236
0 648 2347
0 629 2457
0 609 2564
0 591 2668
0 573 2767
0 556 2862
0 540 2950
0 524 3033
0 509 3110
0 495 3180
0 480 3242
5 823 551
12 846 603
17 867 663
20 886 732
21 901 808
18 911 892
0 911 1020
0 904 1181
0 894 1375
0 881 1587
0 868 1801
0 855 2003
0 830 2171
0 807 2287
0 785 2397
0 762 2505
0 740 2610
0 719 2711
0 699 2808
0 679 2900
0 660 2986
0 642 3065
0 624 3139
0 607 3205
0 591 3263
23 976 562
30 1006 614
36 1034 677
39 1058 748
41 1079 827
40 1095 913
27 1104 1020
0 1101 1184
0 1091 1381
0 1078 1594
0 1062 1808
0 1045 2009
0 1029 2182
0 1001 2324
0 955 2448
0 926 2554
0 898 2657
0 871 2756
0 846 2850
0 823 2939
0 802 3022
0 781 3098
0 761 3168
0 742 3231
0 723 3285
42 1163 572
49 1198 627
55 1231 691
60 1260 765
62 1285 846
63 1305 935
62 1321 1031
37 1326 1186
2 1320 1387
0 1309 1602
0 1294 1817
0 1277 2017
0 1258 2189
0 1239 2329
0 1221 2464
0 1157 2595
0 1111 2705
0 1078 2801
0 1046 2893
0 1015 2979
0 986 3059
0 959 3132
0 932 3198
0 907 3257
0 884 3308
63 1372 583
71 1410 640
77 1445 707
83 1477 783
86 1505 867
88 1528 959
88 1547 1060
84 1562 1187
49 1562 1392
14 1555 1611
0 1543 1828
0 1528 2027
0 1511 2197
0 1492 2337
0 1473 2471
0 1454 2601
0 1405 2726
0 1336 2844
0 1295 2936
0 1261 3020
0 1228 3096
0 1196 3166
0 1165 3228
0 1135 3283
0 1106 3333
