Grading Edition presets/Toning - Style 10 - Soft.3dl
#25pt 3DLUT created by 3D LUT Creator Pro (c) Oleg Sharonov
#Copyright Oleg Sharonov
#IMAGEPROFILE sRGB IEC61966-2.1 v.2.10
#INPUTGAMMA sRGB IEC61966-2.1 v.2.10
#OUTPUTGAMMA sRGB IEC61966-2.1 v.2.10
0 256 512 768 1023
533 448 377
676 617 857
835 817 1746
1034 1078 2835
1280 1394 3621
624 867 568
668 1018 922
787 1274 1767
957 1567 2814
1176 1911 3591
721 1547 827
732 1685 1150
816 1960 1962
960 2301 2922
1140 2592 3642
832 2421 1218
842 2508 1546
889 2722 2280
1005 2953 3100
1414 3202 3683
971 3184 1732
976 3218 2084
998 3366 2673
1216 3479 3301
1882 3623 3774
1117 596 453
1172 528 905
1339 614 1811
1575 790 2873
1850 1029 3644
1155 1087 544
1152 1080 938
1238 1226 1822
1406 1457 2861
1629 1751 3619
1088 1751 848
1092 1789 1209
1284 2014 1954
1448 2245 2930
1627 2498 3654
1142 2572 1253
1135 2632 1598
1281 2798 2255
1481 2980 3078
1777 3170 3704
1259 3263 1774
1274 3293 2117
1289 3434 2681
1544 3534 3282
2103 3646 3789
2049 764 530
2095 688 925
2202 608 1901
2368 634 2966
2596 812 3697
2162 1167 561
2170 1175 976
2205 1073 1941
2312 1132 3010
2493 1376 3716
2127 2108 746
2102 2076 1175
2149 2118 2006
2230 2278 2988
2379 2494 3693
2013 2842 1223
1967 2829 1636
2053 2882 2386
2294 3034 3092
2479 3177 3737
2026 3443 1770
1898 3454 2190
1973 3506 2761
2244 3610 3296
2579 3719 3835
2981 974 617
3011 896 1031
3073 768 1935
3146 697 3018
3224 954 3739
3059 1344 607
3093 1319 1036
3098 1277 1834
3158 1107 3031
3213 1300 3765
3078 2172 771
3076 2206 1200
3069 2219 2058
3128 2105 3085
3192 2188 3803
3041 3073 1030
3021 3046 1481
3033 3057 2317
3085 3107 3128
3138 3214 3788
2918 3579 1828
2913 3588 2183
2923 3613 2796
3008 3671 3383
3192 3792 3865
3653 1233 719
3671 1143 1154
3721 1017 1973
3699 1155 3100
3686 1588 3795
3703 1577 681
3716 1528 1104
3741 1478 1968
3751 1511 3009
3722 1848 3775
3724 2311 835
3713 2401 1358
3733 2364 2129
3773 2361 2995
3774 2351 3809
3687 3060 1293
3691 3092 1658
3714 3141 2383
3744 3171 3154
3772 3162 3846
3588 3671 2136
3609 3688 2353
3675 3754 2729
3716 3800 3333
3772 3860 3891
