Grading Edition presets/Toning - Style 7 - Purple.3dl
#25pt 3DLUT created by 3D LUT Creator Pro (c) Oleg Sharonov
#Copyright Oleg Sharonov
#IMAGEPROFILE sRGB IEC61966-2.1 v.2.10
#INPUTGAMMA sRGB IEC61966-2.1 v.2.10
#OUTPUTGAMMA sRGB IEC61966-2.1 v.2.10
0 256 512 768 1023
475 337 403
473 422 885
468 629 1708
471 1024 2596
773 1739 3584
473 697 596
471 760 984
466 949 1796
460 1373 2648
703 2048 3613
467 1567 946
465 1727 1175
460 1840 1974
454 2139 2793
794 2648 3695
458 2767 1487
456 2859 1657
636 3040 2076
747 3088 2981
1264 3335 3794
450 3661 2122
450 3710 2218
774 3794 2532
1526 3819 3157
2205 3872 3889
755 382 419
862 378 899
817 609 1803
890 899 2676
1198 1571 3634
839 774 559
898 880 1053
777 962 1895
771 1322 2725
1032 1996 3657
607 1741 982
677 1849 1247
780 1934 2017
732 2195 2844
1035 2680 3723
457 2865 1525
504 2938 1700
852 3078 2139
1026 3125 3004
1511 3365 3808
633 3717 2146
686 3751 2250
986 3812 2571
1839 3841 3128
2356 3887 3904
1357 528 537
1552 551 819
1852 565 1775
1848 1018 2700
1979 1850 3660
1486 711 600
1645 781 898
1898 948 1860
1849 1391 2754
2014 2081 3687
1746 1851 895
1812 1941 1257
1959 2154 2079
1832 2308 2904
2025 2729 3758
1324 3033 1609
1363 3083 1804
1670 3164 2281
1999 3220 3046
2245 3448 3836
1306 3802 2239
1400 3817 2350
1733 3849 2679
2428 3885 3209
2839 3926 3937
2408 779 731
2548 821 935
2860 957 1699
3068 1230 2666
3150 2076 3632
2509 950 784
2628 1007 992
2895 1210 1750
3084 1556 2710
3157 2324 3657
2726 1670 971
2780 1740 1240
2945 2037 1946
3122 2434 2854
3191 2932 3730
2911 3051 1615
2941 3088 1837
3017 3185 2362
3203 3390 3134
3285 3577 3853
2707 3824 2406
2745 3838 2523
2870 3878 2873
3199 3923 3443
3548 3990 3990
3417 1372 1184
3499 1411 1317
3680 1641 1846
3802 2107 2831
3906 2776 3646
3482 1501 1195
3551 1566 1363
3705 1826 1903
3822 2371 2800
3919 2894 3677
3616 2030 1419
3660 2112 1601
3757 2369 2089
3849 2840 2875
3944 3271 3761
3753 2988 1863
3768 3030 2017
3803 3160 2442
3880 3445 3155
3993 3749 3899
3820 3848 2617
3833 3861 2734
3875 3902 3104
3956 3976 3648
4095 4095 4095
