Grading Edition presets/Toning - Style 9 - Warm.3dl
#25pt 3DLUT created by 3D LUT Creator Pro (c) Oleg Sharonov
#Copyright Oleg Sharonov
#IMAGEPROFILE sRGB IEC61966-2.1 v.2.10
#INPUTGAMMA sRGB IEC61966-2.1 v.2.10
#OUTPUTGAMMA sRGB IEC61966-2.1 v.2.10
0 128 256 384 512 640 768 896 1023
499 455 532
597 488 606
780 530 732
983 554 878
1224 533 1057
1485 566 1251
1748 659 1451
2005 776 1654
2254 913 1856
759 725 641
727 748 697
1017 681 946
1237 635 1089
1448 645 1237
1668 695 1400
1897 772 1576
2128 876 1759
2355 1004 1945
1113 1085 796
1067 1105 836
1039 1139 930
1424 1061 1317
1744 992 1526
1969 993 1674
2173 1036 1824
2370 1114 1978
2562 1218 2136
1562 1521 1028
1537 1534 1058
1464 1569 1105
1462 1603 1239
1787 1548 1692
2211 1462 1944
2458 1448 2124
2651 1487 2262
2819 1562 2399
2044 1986 1319
2029 1995 1339
1982 2020 1396
1907 2064 1434
1941 2094 1595
2161 2077 1962
2629 1980 2335
2868 1973 2519
3033 2018 2652
2544 2452 1696
2537 2458 1710
2515 2475 1748
2472 2505 1798
2420 2550 1844
2480 2573 2006
2633 2572 2324
2999 2508 2688
3202 2517 2838
3029 2891 2153
3026 2896 2163
3019 2907 2187
3002 2927 2232
2983 2957 2270
2972 2993 2328
3027 3017 2462
3119 3027 2726
3344 3001 3029
3443 3290 2661
3442 3293 2667
3441 3300 2683
3439 3313 2714
3440 3330 2765
3447 3353 2811
3468 3378 2880
3511 3400 2981
3569 3420 3142
3786 3634 3303
3787 3636 3307
3790 3640 3317
3795 3649 3335
3802 3662 3361
3812 3679 3391
3827 3702 3428
3847 3727 3477
3873 3757 3536
813 520 576
920 524 701
1007 516 844
1153 460 987
1358 371 1143
1587 519 1319
1827 642 1505
2068 772 1699
2305 917 1894
916 757 603
888 768 774
1103 722 950
1302 687 1104
1503 698 1257
1716 740 1421
1937 812 1596
2162 911 1777
2402 1008 1980
1201 1111 778
1198 1119 890
1152 1156 983
1516 1073 1338
1793 1022 1530
2007 1024 1683
2205 1066 1835
2397 1141 1990
2603 1224 2166
1616 1540 1019
1619 1544 1096
1551 1579 1156
1538 1615 1275
1877 1548 1731
2253 1476 1958
2486 1468 2128
2673 1507 2268
2851 1569 2424
2082 2001 1315
2084 2004 1369
2043 2027 1422
1967 2071 1471
1992 2103 1622
2224 2079 2003
2661 1989 2345
2888 1986 2526
3056 2026 2670
2570 2463 1697
2572 2465 1732
2552 2481 1769
2510 2511 1825
2459 2556 1870
2513 2580 2026
2661 2579 2339
3022 2516 2694
3219 2524 2854
3045 2900 2158
3047 2902 2179
3040 2912 2202
3024 2932 2247
3004 2962 2288
2992 2999 2344
3045 3023 2477
3135 3033 2737
3359 3006 3037
3451 3297 2667
3453 3298 2679
3452 3305 2695
3451 3317 2729
3452 3334 2781
3459 3357 2826
3479 3382 2893
3521 3405 2992
3576 3426 3151
3791 3639 3311
3792 3641 3315
3795 3646 3325
3800 3654 3343
3807 3667 3369
3817 3684 3400
3831 3707 3436
3851 3732 3484
3877 3762 3543
1196 574 565
1397 375 569
1442 372 931
1556 370 1134
1663 368 1294
1829 366 1468
2021 552 1640
2222 753 1809
2428 924 1984
1314 774 538
1313 785 739
1463 715 992
1646 596 1230
1781 599 1406
1935 676 1565
2113 784 1716
2304 907 1878
2518 1015 2066
1456 1160 648
1441 1169 846
1404 1191 1111
1674 1135 1346
1894 1103 1534
2091 1106 1701
2277 1142 1859
2461 1211 2017
2705 1234 2243
1764 1583 1002
1763 1588 1081
1757 1601 1258
1713 1644 1368
2061 1567 1760
2343 1518 1980
2551 1520 2138
2725 1560 2283
2931 1587 2486
2181 2033 1308
2180 2038 1362
2181 2047 1490
2112 2089 1561
2114 2125 1690
2376 2079 2118
2734 2017 2368
2934 2022 2541
3116 2046 2714
2633 2489 1703
2634 2492 1737
2639 2498 1822
2603 2526 1886
2552 2570 1934
2592 2598 2074
2731 2597 2378
3077 2536 2710
3262 2542 2894
3084 2920 2171
3086 2922 2192
3091 2927 2242
3079 2946 2285
3058 2975 2335
3040 3014 2384
3091 3037 2513
3178 3048 2765
3394 3022 3054
3473 3312 2682
3475 3314 2694
3480 3317 2730
3481 3328 2766
3483 3344 2819
3488 3367 2864
3505 3393 2925
3545 3416 3020
3592 3440 3173
3803 3652 3332
3804 3654 3336
3807 3659 3346
3811 3667 3363
3818 3680 3389
3828 3697 3421
3842 3719 3457
3862 3745 3504
3887 3775 3563
1640 672 466
1830 484 466
1962 369 831
2027 366 1233
2138 364 1460
2204 362 1625
2336 360 1802
2477 713 1971
2631 932 2137
1743 850 464
1766 839 681
2075 493 839
2096 365 1285
2201 363 1516
2291 510 1709
2407 721 1875
2539 894 2037
2710 1027 2211
1894 1198 620
1886 1207 829
1887 1221 1084
2013 1191 1359
2251 1095 1637
2402 1078 1853
2524 1136 2018
2662 1223 2160
2876 1250 2377
2058 1641 863
2050 1647 998
2028 1662 1235
1989 1687 1520
2254 1636 1775
2468 1609 1978
2648 1615 2149
2805 1655 2301
3069 1613 2595
2356 2088 1293
2352 2092 1360
2349 2102 1489
2346 2117 1693
2312 2161 1805
2603 2099 2186
2842 2071 2399
3008 2089 2545
3218 2080 2794
2749 2532 1720
2749 2535 1753
2750 2542 1834
2752 2554 1973
2704 2596 2043
2721 2629 2159
2895 2609 2498
3159 2575 2739
3336 2573 2966
3155 2954 2198
3156 2956 2217
3158 2962 2266
3165 2971 2352
3146 2998 2414
3128 3037 2460
3166 3063 2577
3249 3074 2815
3452 3049 3087
3513 3338 2719
3515 3339 2734
3520 3342 2770
3529 3347 2830
3531 3363 2877
3536 3386 2927
3549 3413 2981
3584 3438 3068
3620 3466 3213
3823 3675 3370
3824 3677 3373
3827 3682 3383
3832 3690 3399
3839 3703 3425
3848 3720 3458
3862 3742 3493
3880 3768 3539
3904 3797 3596
2086 842 461
2220 750 461
2489 367 679
2555 363 1130
2619 360 1570
2671 358 1799
2721 356 1955
2805 705 2128
2906 970 2288
2180 969 460
2206 950 655
2554 367 550
2632 362 1152
2645 359 1598
2716 357 1840
2769 690 2010
2851 908 2181
2972 1063 2362
2334 1264 653
2335 1270 825
2327 1290 1075
2572 1173 1264
2590 1185 1650
2751 1119 1915
2846 1162 2121
2946 1245 2301
3106 1285 2530
2475 1688 894
2470 1694 1015
2455 1709 1241
2452 1727 1504
2557 1714 1776
2790 1645 2056
2937 1634 2288
3027 1697 2445
3250 1656 2747
2641 2152 1213
2636 2156 1291
2623 2167 1460
2600 2186 1696
2570 2212 1968
2792 2175 2206
2962 2168 2395
3097 2191 2551
3362 2127 2912
2917 2593 1718
2915 2595 1758
2911 2603 1855
2906 2616 1997
2908 2633 2179
2894 2674 2279
3094 2639 2600
3257 2637 2778
3444 2618 3054
3252 3003 2243
3253 3006 2262
3256 3011 2308
3259 3021 2388
3266 3035 2508
3246 3071 2571
3268 3101 2669
3364 3103 2915
3526 3090 3140
3571 3373 2787
3572 3375 2800
3576 3378 2832
3582 3385 2886
3593 3395 2960
3597 3417 3014
3607 3445 3060
3637 3471 3137
3667 3501 3269
3853 3710 3426
3854 3712 3430
3856 3716 3439
3861 3725 3454
3868 3737 3478
3877 3754 3511
3889 3775 3547
3906 3801 3591
3930 3830 3647
2537 1012 457
2622 953 457
2869 655 457
3033 361 1011
3089 357 1457
3104 354 1893
3131 352 2126
3158 785 2261
3196 1084 2430
2614 1113 456
2616 1115 731
2847 908 674
3063 360 1002
3110 357 1464
3117 354 1908
3153 686 2154
3178 1001 2298
3244 1176 2492
2730 1379 774
2729 1386 896
2720 1407 1109
2999 1236 1200
3067 1211 1549
3071 1248 1951
3166 1247 2211
3216 1361 2379
3342 1397 2629
2842 1772 1055
2845 1775 1130
2849 1785 1292
2840 1809 1523
3020 1752 1718
3029 1780 2049
3178 1753 2302
3258 1797 2500
3456 1743 2829
2980 2214 1333
2977 2218 1394
2969 2228 1533
2955 2246 1740
2952 2267 1975
3026 2271 2208
3202 2242 2451
3311 2256 2663
3532 2193 3030
3140 2662 1751
3138 2665 1790
3132 2673 1882
3122 2686 2027
3109 2706 2214
3095 2734 2436
3245 2720 2636
3382 2716 2837
3581 2674 3172
3380 3068 2272
3380 3070 2293
3380 3075 2345
3378 3085 2436
3378 3099 2558
3386 3118 2704
3388 3153 2788
3499 3145 3030
3611 3147 3217
3638 3423 2883
3639 3424 2894
3642 3428 2922
3648 3436 2968
3656 3447 3032
3665 3465 3099
3672 3493 3153
3695 3521 3221
3732 3546 3355
3890 3757 3504
3891 3759 3507
3893 3763 3515
3898 3771 3529
3905 3783 3551
3914 3800 3581
3925 3821 3620
3941 3846 3661
3962 3874 3716
2941 1221 713
3003 1174 692
3169 1003 626
3388 359 849
3448 355 1335
3471 352 1760
3473 576 2187
3460 991 2421
3455 1294 2533
2983 1321 800
2980 1331 905
3129 1222 899
3372 914 963
3452 792 1358
3462 875 1780
3450 1008 2196
3456 1193 2435
3482 1387 2574
3069 1551 971
3068 1558 1048
3060 1578 1209
3278 1443 1255
3397 1366 1501
3415 1400 1856
3407 1472 2230
3447 1546 2472
3539 1602 2668
3158 1901 1240
3158 1905 1293
3156 1918 1416
3147 1943 1600
3332 1869 1726
3364 1889 1994
3363 1940 2309
3441 1966 2542
3607 1929 2822
3241 2317 1574
3238 2321 1614
3238 2330 1705
3242 2343 1846
3238 2368 2031
3346 2354 2195
3353 2392 2449
3456 2400 2661
3673 2326 3016
3369 2739 1927
3368 2742 1956
3365 2749 2025
3360 2762 2138
3354 2781 2294
3356 2805 2476
3403 2822 2658
3545 2804 2882
3736 2747 3249
3524 3140 2376
3524 3142 2394
3522 3148 2440
3520 3158 2518
3518 3173 2628
3517 3193 2769
3517 3220 2932
3614 3216 3111
3713 3214 3306
3717 3488 2974
3717 3490 2986
3719 3494 3014
3722 3502 3061
3728 3513 3125
3736 3531 3188
3746 3555 3258
3760 3585 3322
3811 3600 3468
3933 3817 3602
3934 3818 3605
3937 3823 3613
3941 3830 3626
3948 3842 3646
3957 3858 3673
3968 3878 3710
3982 3902 3756
4001 3930 3811
3254 1502 1025
3292 1478 1028
3390 1404 1038
3566 1214 1068
3651 1123 1349
3681 1147 1704
3663 1285 2062
3646 1420 2430
3628 1605 2645
3278 1586 1090
3276 1594 1148
3366 1538 1164
3528 1404 1202
3629 1317 1422
3660 1339 1746
3645 1446 2086
3630 1561 2440
3644 1686 2675
3326 1785 1247
3325 1792 1294
3318 1810 1401
3451 1740 1448
3583 1661 1585
3616 1681 1849
3610 1754 2149
3600 1840 2474
3676 1873 2747
3384 2090 1496
3383 2095 1531
3380 2107 1615
3373 2131 1749
3519 2075 1830
3569 2083 2019
3574 2133 2266
3570 2198 2549
3718 2161 2859
3445 2461 1817
3446 2464 1842
3446 2473 1903
3447 2488 2005
3442 2514 2144
3545 2498 2258
3563 2532 2448
3567 2582 2681
3765 2515 3008
3535 2849 2170
3535 2852 2189
3533 2860 2237
3530 2873 2319
3536 2889 2428
3569 2902 2544
3634 2908 2689
3637 2947 2893
3766 2930 3130
3662 3223 2556
3662 3226 2570
3660 3231 2611
3656 3241 2686
3651 3257 2784
3659 3275 2879
3682 3294 2992
3708 3317 3136
3805 3311 3318
3794 3565 3154
3794 3567 3161
3796 3572 3181
3799 3580 3214
3804 3593 3260
3813 3610 3306
3824 3633 3361
3836 3660 3450
3890 3673 3578
3982 3889 3721
3983 3890 3724
3985 3894 3732
3990 3902 3745
3996 3913 3766
4005 3927 3795
4016 3947 3832
4029 3970 3877
4046 3998 3930
3463 1832 1374
3485 1821 1382
3541 1792 1405
3638 1732 1450
3736 1669 1570
3764 1695 1798
3767 1764 2068
3746 1876 2340
3734 1986 2641
3476 1902 1430
3493 1896 1440
3546 1870 1464
3639 1817 1509
3745 1749 1614
3772 1775 1837
3775 1839 2099
3755 1944 2369
3742 2050 2667
3503 2067 1567
3518 2063 1576
3556 2051 1602
3640 2012 1648
3759 1942 1727
3788 1961 1931
3793 2016 2177
3774 2107 2440
3761 2202 2730
3542 2325 1788
3553 2323 1797
3582 2318 1819
3637 2304 1863
3740 2261 1937
3809 2245 2087
3817 2287 2308
3802 2360 2559
3788 2442 2836
3592 2645 2076
3599 2645 2083
3620 2645 2102
3658 2642 2138
3721 2631 2199
3817 2602 2307
3819 2640 2499
3804 2699 2720
3787 2768 2956
3660 2992 2414
3665 2993 2420
3678 2995 2435
3703 2998 2464
3730 3004 2526
3758 3016 2631
3790 3032 2768
3791 3071 2929
3789 3120 3110
3736 3336 2858
3738 3338 2864
3742 3342 2879
3750 3351 2906
3762 3363 2947
3783 3376 3005
3816 3390 3086
3842 3412 3201
3848 3450 3340
3864 3661 3352
3866 3663 3356
3869 3668 3365
3874 3676 3381
3882 3688 3406
3893 3704 3439
3908 3724 3484
3933 3745 3547
3951 3775 3642
4034 3972 3879
4035 3974 3882
4037 3978 3889
4041 3985 3902
4047 3995 3922
4056 4010 3948
4066 4028 3982
4080 4051 4022
4095 4078 4069
