Grading Edition presets/Toning - Almost sepia.3dl
#25pt 3DLUT created by 3D LUT Creator Pro (c) Oleg Sharonov
#Copyright Oleg Sharonov
#IMAGEPROFILE sRGB IEC61966-2.1 v.2.10
#INPUTGAMMA sRGB IEC61966-2.1 v.2.10
#OUTPUTGAMMA sRGB IEC61966-2.1 v.2.10
0 256 512 768 1023
0 0 0
222 102 52
571 325 201
993 571 373
1525 851 559
970 558 364
1009 598 412
1229 690 445
1559 862 561
2019 1100 713
2502 1383 888
2553 1399 881
2592 1495 1004
2827 1604 1011
3067 1793 1111
3700 2498 1596
3720 2507 1583
3755 2553 1625
3775 2665 1825
3875 2779 1921
3988 3612 3446
3991 3619 3456
3998 3643 3489
4002 3690 3559
4006 3759 3659
448 258 164
549 311 190
782 459 305
1165 666 441
1678 928 609
1147 655 429
795 795 795
1241 819 651
1630 962 690
2146 1172 761
2574 1459 962
2395 1555 1208
2496 1629 1263
2790 1717 1211
3129 1852 1147
3729 2543 1643
3667 2604 1856
3689 2656 1929
3750 2738 2014
3882 2827 2017
3992 3635 3479
3994 3642 3490
4002 3665 3521
4007 3711 3588
4011 3778 3686
1096 648 447
1162 676 459
1360 766 504
1651 938 641
2103 1168 778
1638 928 629
1532 996 787
1673 1083 854
2048 1204 862
2495 1395 912
2877 1652 1047
2669 1770 1370
2048 2048 2048
2719 2034 1733
3297 2040 1283
3806 2687 1825
3762 2733 1989
3536 2904 2567
3616 2966 2609
3902 2969 2306
4000 3706 3584
4004 3713 3593
4012 3734 3621
4022 3775 3677
4026 3839 3768
2000 1132 774
2050 1154 784
2211 1223 806
2461 1356 873
2722 1581 1051
2405 1363 917
2366 1411 1011
2491 1480 1045
2684 1613 1126
2978 1790 1182
3250 2015 1291
3190 2076 1452
2978 2261 1917
3063 2379 2046
3539 2366 1566
3894 2946 2264
3843 2989 2425
3656 3119 2847
3300 3300 3300
3925 3203 2772
4024 3828 3752
4026 3834 3760
4031 3854 3786
4045 3890 3832
4053 3947 3908
2925 1753 1167
2954 1771 1172
3034 1833 1204
3193 1936 1219
3362 2109 1327
3147 1950 1286
3161 1972 1309
3226 2031 1343
3369 2119 1336
3514 2279 1439
3643 2487 1656
3648 2506 1686
3683 2555 1731
3776 2620 1730
3874 2739 1832
3936 3293 2933
3937 3303 2953
3935 3340 3022
3933 3404 3136
3966 3483 3250
4069 3991 3963
4070 3996 3970
4075 4014 3992
4083 4046 4034
4095 4095 4095
