Grading Edition presets/Toning - Style 9 - Warm.3dl
#25pt 3DLUT created by 3D LUT Creator Pro (c) Oleg Sharonov
#Copyright Oleg Sharonov
#IMAGEPROFILE sRGB IEC61966-2.1 v.2.10
#INPUTGAMMA sRGB IEC61966-2.1 v.2.10
#OUTPUTGAMMA sRGB IEC61966-2.1 v.2.10
0 43 86 128 171 214 256 299 341 384 427 469 512 555 597 640 682 725 768 810 853 896 938 981 1023 
499 455 532
523 464 550
552 474 572
597 488 606
657 503 647
717 517 689
780 530 732
845 540 778
911 548 825
983 554 878
1058 556 933
1139 548 994
1224 533 1057
1312 527 1121
1399 541 1186
1485 566 1251
1574 594 1318
1661 626 1384
1748 659 1451
1834 696 1519
1920 735 1586
2005 776 1654
2089 820 1722
2173 865 1789
2254 913 1856
569 539 560
560 548 578
637 534 656
709 534 698
763 540 730
814 548 763
868 555 800
926 562 841
986 566 884
1054 567 934
1126 561 987
1204 551 1045
1285 543 1104
1366 551 1164
1448 573 1225
1532 595 1288
1615 622 1351
1700 653 1416
1784 686 1481
1869 722 1547
1952 758 1613
2035 799 1679
2117 842 1745
2198 888 1811
2278 934 1877
659 629 595
638 639 608
636 645 633
713 630 734
818 611 788
888 602 833
950 600 871
1008 596 910
1070 593 954
1137 586 1003
1208 577 1053
1280 573 1106
1357 577 1161
1433 594 1218
1511 613 1276
1590 635 1335
1670 661 1395
1750 688 1457
1831 720 1520
1912 754 1583
1992 790 1647
2073 830 1711
2152 871 1775
2231 915 1840
2309 962 1904
759 725 641
743 732 656
721 743 663
727 748 697
785 741 784
925 705 884
1017 681 946
1095 662 997
1167 647 1044
1237 635 1089
1308 631 1138
1377 636 1186
1448 645 1237
1520 658 1290
1594 675 1344
1668 695 1400
1745 717 1458
1820 743 1516
1897 772 1576
1975 803 1637
2051 839 1697
2128 876 1759
2204 916 1821
2280 959 1883
2355 1004 1945
866 830 691
854 836 702
835 844 713
808 857 722
822 862 765
871 859 860
1029 816 995
1154 781 1068
1252 755 1134
1333 741 1183
1409 736 1232
1481 734 1279
1551 737 1327
1621 745 1377
1692 757 1429
1763 773 1482
1836 793 1536
1908 816 1591
1980 842 1647
2053 871 1705
2125 903 1762
2198 939 1821
2270 977 1879
2342 1017 1939
2413 1061 1998
982 949 741
972 954 751
956 961 765
932 972 775
905 986 790
923 992 842
969 991 952
1133 951 1117
1291 914 1190
1402 888 1262
1496 866 1327
1578 857 1377
1654 854 1425
1726 855 1474
1797 862 1524
1866 873 1575
1937 888 1626
2005 907 1678
2074 930 1731
2143 956 1785
2212 986 1840
2280 1018 1895
2348 1054 1950
2416 1092 2006
2484 1132 2062
1113 1085 796
1104 1089 805
1091 1095 818
1067 1105 836
1038 1118 844
1017 1132 870
1039 1139 930
1097 1135 1052
1238 1108 1200
1424 1061 1317
1552 1031 1393
1654 1008 1464
1744 992 1526
1823 987 1575
1898 987 1625
1969 993 1674
2039 1003 1724
2107 1018 1773
2173 1036 1824
2240 1058 1875
2305 1084 1926
2370 1114 1978
2435 1145 2031
2499 1181 2083
2562 1218 2136
1258 1226 866
1251 1230 874
1240 1235 887
1220 1243 905
1195 1255 918
1162 1269 929
1150 1282 964
1173 1289 1027
1236 1285 1156
1346 1270 1277
1550 1215 1447
1696 1183 1526
1808 1158 1600
1904 1141 1669
1989 1131 1727
2066 1131 1776
2138 1135 1825
2208 1145 1874
2274 1159 1922
2339 1177 1971
2403 1199 2020
2465 1224 2069
2527 1253 2119
2587 1285 2168
2647 1319 2219
1407 1371 944
1401 1374 951
1392 1379 962
1377 1386 978
1353 1396 999
1326 1410 1008
1292 1426 1021
1290 1436 1064
1315 1444 1130
1381 1439 1264
1455 1435 1368
1670 1376 1583
1837 1342 1659
1959 1316 1736
2060 1298 1807
2149 1286 1874
2228 1283 1927
2301 1288 1975
2370 1296 2023
2435 1310 2070
2498 1328 2117
2559 1349 2164
2619 1374 2211
2677 1402 2259
2734 1434 2308
1562 1521 1028
1557 1524 1035
1549 1528 1044
1537 1534 1058
1517 1543 1078
1492 1555 1094
1464 1569 1105
1427 1586 1120
1437 1596 1171
1462 1603 1239
1531 1598 1376
1595 1595 1485
1787 1548 1692
1973 1507 1795
2105 1481 1872
2211 1462 1944
2303 1450 2012
2384 1445 2075
2458 1448 2124
2526 1456 2170
2590 1469 2216
2651 1487 2262
2709 1508 2308
2765 1533 2354
2819 1562 2399
1721 1674 1119
1716 1676 1125
1710 1680 1133
1699 1685 1145
1684 1693 1163
1660 1704 1186
1636 1717 1196
1606 1732 1208
1572 1750 1225
1590 1758 1284
1616 1765 1352
1686 1760 1491
1739 1759 1606
1911 1725 1775
2104 1676 1931
2246 1649 2007
2357 1630 2080
2451 1619 2148
2533 1614 2211
2606 1615 2270
2673 1624 2315
2735 1638 2360
2792 1656 2403
2846 1678 2446
2897 1705 2487
1881 1830 1215
1877 1831 1220
1872 1835 1227
1863 1840 1238
1850 1846 1254
1832 1856 1275
1808 1867 1293
1783 1881 1303
1753 1898 1317
1729 1914 1342
1748 1922 1402
1774 1929 1471
1845 1924 1611
1886 1925 1729
2034 1901 1866
2230 1848 2069
2382 1821 2139
2497 1803 2211
2591 1793 2278
2671 1789 2341
2742 1791 2400
2806 1800 2451
2865 1815 2492
2918 1834 2532
2968 1857 2572
2044 1986 1319
2041 1988 1323
2037 1991 1329
2029 1995 1339
2019 2001 1354
2004 2009 1372
1982 2020 1396
1960 2033 1407
1936 2047 1419
1907 2064 1434
1893 2078 1467
1913 2086 1526
1941 2094 1595
2010 2088 1734
2048 2090 1854
2161 2077 1962
2353 2025 2192
2513 1996 2267
2629 1980 2335
2721 1971 2401
2800 1969 2462
2868 1973 2519
2928 1983 2572
2983 1998 2615
3033 2018 2652
2210 2143 1433
2207 2145 1437
2204 2147 1443
2198 2151 1452
2189 2156 1464
2177 2164 1481
2160 2173 1501
2140 2184 1522
2120 2197 1532
2097 2212 1545
2070 2229 1562
2067 2241 1600
2088 2249 1659
2115 2256 1726
2182 2251 1861
2221 2252 1978
2305 2248 2073
2484 2205 2269
2640 2172 2392
2755 2157 2456
2846 2151 2518
2921 2151 2577
2985 2156 2630
3041 2167 2680
3092 2182 2726
2377 2299 1559
2375 2300 1563
2372 2302 1568
2367 2305 1575
2361 2310 1586
2351 2317 1601
2339 2324 1619
2321 2334 1641
2304 2346 1655
2286 2359 1667
2265 2374 1681
2241 2391 1698
2248 2401 1742
2270 2409 1799
2296 2417 1864
2359 2412 1991
2399 2413 2104
2468 2411 2197
2618 2381 2356
2765 2347 2515
2878 2334 2573
2965 2329 2631
3036 2331 2686
3096 2338 2736
3148 2350 2783
2544 2452 1696
2543 2453 1699
2541 2455 1703
2537 2458 1710
2532 2462 1719
2525 2468 1732
2515 2475 1748
2502 2483 1768
2486 2493 1788
2472 2505 1798
2457 2519 1811
2439 2534 1826
2420 2550 1844
2434 2558 1891
2455 2566 1945
2480 2573 2006
2538 2569 2125
2578 2571 2232
2633 2572 2324
2754 2552 2450
2889 2519 2638
2999 2508 2688
3081 2505 2741
3147 2508 2791
3202 2517 2838
2710 2602 1841
2709 2603 1844
2707 2605 1848
2704 2608 1854
2701 2612 1862
2695 2616 1873
2688 2622 1887
2679 2629 1903
2667 2639 1923
2655 2649 1938
2644 2661 1949
2631 2674 1963
2617 2689 1978
2605 2703 2000
2622 2711 2045
2642 2719 2096
2666 2726 2152
2718 2723 2263
2756 2725 2365
2797 2729 2455
2892 2718 2552
3017 2690 2721
3117 2678 2801
3193 2677 2848
3253 2681 2895
2872 2749 1994
2871 2750 1997
2870 2751 2000
2868 2754 2005
2865 2757 2012
2862 2761 2022
2856 2766 2033
2850 2773 2048
2842 2781 2065
2831 2789 2085
2823 2800 2095
2814 2812 2106
2804 2824 2120
2794 2838 2136
2791 2851 2161
2808 2859 2204
2827 2866 2251
2849 2874 2304
2895 2872 2407
2930 2875 2502
2960 2881 2589
3030 2878 2662
3144 2855 2810
3233 2842 2914
3301 2843 2956
3029 2891 2153
3028 2893 2155
3028 2894 2158
3026 2896 2163
3024 2899 2169
3022 2902 2177
3019 2907 2187
3014 2912 2199
3009 2919 2214
3002 2927 2232
2995 2936 2247
2989 2946 2257
2983 2957 2270
2976 2969 2284
2969 2983 2300
2972 2993 2328
2988 3001 2369
3006 3009 2413
3027 3017 2462
3066 3017 2556
3097 3020 2644
3119 3027 2726
3178 3027 2791
3268 3012 2908
3344 3001 3029
3179 3029 2319
3178 3030 2320
3178 3031 2323
3177 3033 2327
3176 3036 2332
3174 3039 2339
3172 3043 2348
3169 3047 2359
3166 3053 2372
3162 3060 2387
3156 3068 2405
3152 3076 2416
3149 3086 2427
3145 3097 2440
3141 3109 2455
3137 3121 2472
3145 3131 2501
3159 3138 2538
3176 3146 2580
3194 3154 2625
3227 3155 2709
3254 3159 2789
3274 3167 2864
3318 3169 2925
3388 3162 3012
3317 3162 2489
3317 3163 2490
3316 3164 2493
3316 3165 2496
3315 3167 2501
3314 3170 2507
3313 3174 2515
3312 3178 2524
3310 3183 2536
3308 3189 2549
3304 3195 2564
3301 3203 2579
3299 3212 2589
3297 3221 2601
3296 3231 2614
3294 3242 2629
3292 3254 2645
3302 3262 2675
3315 3270 2710
3329 3278 2748
3345 3286 2789
3373 3288 2865
3400 3292 2937
3421 3299 3003
3460 3302 3054
3443 3290 2661
3442 3291 2662
3442 3292 2664
3442 3293 2667
3442 3295 2671
3441 3297 2676
3441 3300 2683
3440 3304 2691
3439 3308 2701
3439 3313 2714
3439 3318 2732
3439 3324 2751
3440 3330 2765
3442 3337 2779
3444 3345 2794
3447 3353 2811
3451 3362 2829
3455 3371 2849
3468 3378 2880
3481 3385 2911
3496 3392 2945
3511 3400 2981
3533 3405 3038
3553 3411 3092
3569 3420 3142
3570 3404 2881
3570 3404 2883
3570 3405 2884
3570 3406 2888
3571 3407 2892
3571 3409 2897
3572 3412 2904
3573 3414 2912
3574 3418 2922
3575 3422 2933
3576 3426 2945
3578 3431 2959
3580 3437 2974
3582 3443 2985
3585 3450 2997
3589 3458 3011
3593 3466 3026
3598 3474 3042
3604 3483 3061
3614 3491 3085
3625 3499 3111
3637 3508 3138
3650 3517 3167
3666 3524 3210
3681 3533 3251
3684 3518 3097
3684 3518 3098
3684 3519 3100
3685 3520 3102
3685 3521 3105
3686 3523 3109
3687 3525 3114
3688 3527 3121
3690 3531 3128
3691 3534 3137
3693 3538 3146
3696 3543 3157
3698 3548 3169
3701 3554 3180
3704 3560 3191
3708 3567 3203
3713 3574 3216
3718 3582 3229
3723 3591 3244
3730 3599 3262
3739 3608 3283
3748 3617 3304
3758 3626 3327
3769 3636 3351
3782 3645 3384
3786 3634 3303
3786 3634 3304
3787 3635 3305
3787 3636 3307
3788 3637 3310
3789 3639 3313
3790 3640 3317
3791 3643 3322
3793 3646 3328
3795 3649 3335
3797 3653 3342
3799 3657 3351
3802 3662 3361
3805 3667 3371
3809 3673 3381
3812 3679 3391
3817 3686 3403
3822 3694 3415
3827 3702 3428
3833 3710 3442
3839 3719 3459
3847 3727 3477
3855 3737 3496
3864 3747 3515
3873 3757 3536
592 477 547
644 488 578
670 497 619
693 506 654
731 515 690
781 524 727
831 532 764
890 539 806
954 544 853
1020 546 902
1094 542 957
1172 529 1016
1254 512 1077
1341 511 1140
1423 531 1202
1510 559 1267
1595 587 1332
1679 620 1397
1765 656 1463
1851 694 1530
1935 733 1597
2019 775 1664
2103 820 1731
2185 866 1798
2266 914 1865
640 551 561
625 556 609
687 549 659
739 548 698
788 553 734
837 559 769
889 565 807
946 572 849
1008 574 894
1073 574 942
1144 569 996
1221 558 1053
1301 555 1112
1381 565 1171
1462 584 1232
1545 608 1294
1628 634 1358
1711 663 1422
1794 695 1486
1878 730 1552
1961 767 1618
2043 807 1683
2125 850 1749
2206 895 1815
2289 935 1885
704 641 593
699 642 635
689 652 658
774 633 743
850 621 794
911 613 834
970 610 874
1027 607 915
1088 603 960
1154 596 1009
1224 585 1060
1297 583 1113
1371 591 1167
1447 606 1224
1524 625 1282
1602 647 1341
1681 671 1401
1761 699 1463
1841 729 1525
1921 763 1588
2002 799 1652
2081 839 1716
2161 880 1780
2238 923 1844
2320 963 1913
790 733 637
789 736 673
769 745 687
766 753 715
837 738 821
958 710 893
1042 688 953
1114 671 999
1185 657 1047
1254 647 1094
1323 643 1142
1391 649 1191
1462 658 1242
1533 670 1295
1606 686 1350
1681 704 1406
1755 728 1463
1830 752 1521
1907 781 1581
1983 813 1641
2059 847 1702
2136 884 1763
2211 924 1825
2287 966 1887
2365 1005 1953
890 838 686
890 840 716
873 847 732
846 860 741
854 867 780
900 864 873
1066 818 1003
1178 785 1075
1270 763 1137
1350 751 1185
1423 746 1233
1493 744 1282
1564 749 1331
1633 756 1382
1704 768 1433
1774 783 1486
1845 802 1540
1917 825 1595
1989 850 1652
2061 879 1708
2133 911 1766
2205 946 1824
2277 983 1883
2349 1024 1942
2424 1061 2005
1002 956 736
1004 958 764
989 965 777
965 976 792
934 990 804
952 998 855
995 996 964
1172 953 1121
1315 919 1197
1421 892 1268
1511 874 1329
1591 865 1378
1665 862 1427
1736 863 1477
1807 871 1527
1875 881 1577
1945 896 1629
2013 915 1681
2081 937 1734
2150 964 1788
2219 993 1843
2287 1025 1898
2355 1060 1953
2422 1098 2009
2493 1133 2069
1132 1091 792
1132 1092 817
1121 1099 830
1098 1108 851
1070 1122 861
1044 1137 883
1067 1143 942
1116 1140 1063
1270 1105 1225
1447 1064 1322
1569 1035 1398
1668 1012 1468
1756 999 1527
1834 994 1577
1908 995 1627
1979 1000 1676
2047 1010 1726
2114 1024 1776
2181 1044 1827
2247 1065 1877
2312 1090 1929
2376 1120 1981
2441 1152 2033
2505 1187 2086
2572 1219 2143
1274 1231 863
1275 1233 886
1265 1237 897
1247 1246 915
1221 1257 933
1189 1272 944
1173 1285 975
1196 1293 1037
1253 1288 1164
1374 1269 1296
1573 1217 1451
1712 1186 1530
1822 1162 1604
1916 1145 1673
1998 1137 1728
2075 1137 1777
2147 1141 1827
2215 1151 1875
2281 1165 1924
2345 1183 1973
2409 1205 2022
2471 1230 2071
2532 1259 2121
2592 1290 2171
2656 1321 2225
1422 1376 942
1422 1377 961
1414 1382 972
1400 1389 988
1377 1399 1010
1349 1412 1021
1316 1428 1034
1310 1440 1074
1334 1447 1139
1396 1443 1272
1478 1436 1380
1693 1378 1585
1853 1344 1663
1971 1319 1740
2070 1302 1811
2158 1290 1877
2236 1288 1928
2309 1293 1976
2377 1302 2024
2442 1315 2071
2504 1332 2118
2565 1354 2166
2624 1380 2213
2682 1407 2261
2742 1435 2314
1575 1525 1026
1575 1527 1044
1568 1530 1053
1556 1536 1067
1538 1545 1086
1511 1557 1106
1484 1571 1116
1449 1589 1131
1454 1598 1179
1480 1606 1247
1545 1601 1383
1610 1598 1491
1807 1547 1709
1988 1508 1797
2116 1483 1875
2221 1465 1947
2311 1454 2015
2391 1449 2077
2464 1452 2125
2532 1461 2171
2596 1474 2218
2656 1491 2264
2715 1513 2310
2770 1538 2356
2826 1564 2405
1732 1678 1117
1732 1679 1133
1726 1682 1141
1716 1688 1153
1701 1696 1171
1678 1706 1194
1653 1719 1206
1624 1735 1218
1589 1752 1234
1605 1761 1291
1631 1768 1360
1699 1763 1498
1753 1762 1611
1928 1724 1789
2118 1678 1934
2257 1651 2009
2366 1633 2082
2458 1622 2150
2539 1617 2214
2612 1619 2270
2679 1628 2316
2740 1642 2361
2797 1660 2404
2850 1683 2447
2904 1706 2493
