Grading Edition presets/Toning - Style 8 - Warm.3dl
#25pt 3DLUT created by 3D LUT Creator Pro (c) Oleg Sharonov
#Copyright Oleg Sharonov
#IMAGEPROFILE ProPhoto RGB v.2.10
#INPUTGAMMA ProPhoto RGB v.2.10
#OUTPUTGAMMA ProPhoto RGB v.2.10
0 43 86 128 171 214 256 299 341 384 427 469 512 555 597 640 682 725 768 810 853 896 938 981 1023 
380 299 643
380 300 696
381 300 764
381 301 841
381 301 924
381 301 1014
381 301 1112
381 302 1219
381 302 1339
381 301 1481
381 306 1641
381 324 1813
380 350 1988
380 385 2157
402 430 2311
449 485 2457
507 552 2608
578 631 2759
663 723 2903
764 830 3038
881 953 3170
1018 1094 3296
1177 1256 3417
1361 1454 3529
1594 1695 3631
384 433 642
380 431 700
381 421 774
381 414 852
381 409 937
381 405 1028
381 403 1127
381 402 1234
381 403 1356
381 409 1500
381 420 1661
381 437 1833
380 461 2006
380 495 2173
407 538 2324
454 592 2469
513 658 2619
584 736 2768
670 827 2911
770 933 3044
887 1056 3174
1024 1198 3299
1183 1365 3418
1368 1574 3530
1600 1818 3630
387 566 642
380 566 692
381 564 775
381 551 862
381 540 948
381 533 1040
381 527 1140
381 525 1249
381 525 1373
381 529 1519
381 538 1681
381 554 1852
380 577 2024
380 609 2189
412 651 2336
460 704 2481
519 768 2630
590 844 2778
676 935 2918
776 1041 3050
894 1164 3179
1030 1307 3302
1189 1486 3420
1374 1701 3530
1607 1943 3630
388 702 641
380 701 681
380 701 766
381 699 859
381 685 956
381 671 1051
381 662 1152
381 656 1262
381 654 1389
381 656 1537
381 663 1700
380 677 1870
380 698 2041
381 728 2203
418 768 2348
465 819 2492
524 882 2641
596 958 2787
682 1047 2925
782 1153 3056
900 1276 3183
1036 1429 3305
1195 1616 3422
1380 1832 3531
1613 2067 3629
390 842 641
380 840 669
380 840 755
381 841 850
381 836 951
381 823 1056
381 808 1163
381 797 1275
381 791 1405
381 790 1554
381 795 1718
380 806 1888
380 825 2058
386 853 2217
423 891 2360
471 941 2504
530 1002 2651
602 1076 2795
688 1165 2932
788 1271 3061
906 1401 3187
1042 1562 3308
1201 1752 3423
1386 1965 3531
1620 2190 3628
391 985 640
381 983 658
380 983 740
380 983 838
381 985 941
381 979 1050
381 966 1165
381 950 1287
381 939 1419
381 934 1570
381 935 1735
380 943 1905
380 959 2073
391 985 2230
429 1021 2371
477 1068 2515
536 1128 2661
608 1201 2804
694 1290 2939
794 1402 3067
912 1540 3191
1048 1704 3311
1207 1892 3425
1392 2097 3531
1626 2309 3628
394 1135 639
383 1133 648
380 1132 726
380 1133 827
381 1133 928
381 1135 1041
381 1127 1158
381 1115 1284
381 1099 1430
381 1088 1586
380 1085 1751
380 1089 1921
380 1102 2088
397 1125 2243
434 1158 2382
482 1203 2525
542 1261 2670
614 1335 2812
700 1430 2945
800 1547 3072
918 1688 3195
1054 1851 3313
1213 2033 3426
1398 2227 3532
1633 2422 3627
398 1293 639
387 1290 639
380 1289 714
380 1289 812
380 1289 917
381 1291 1028
381 1293 1150
381 1283 1276
381 1271 1424
380 1257 1592
380 1247 1766
380 1247 1936
379 1255 2101
402 1275 2255
440 1306 2393
488 1350 2535
547 1410 2679
620 1488 2819
705 1586 2951
806 1704 3077
924 1843 3199
1060 2000 3316
1219 2173 3428
1405 2352 3532
1639 2526 3627
405 1470 638
394 1467 638
384 1466 703
380 1465 799
380 1467 907
380 1467 1016
380 1469 1136
380 1472 1270
380 1457 1415
380 1446 1585
380 1433 1767
379 1425 1950
379 1429 2114
407 1446 2265
445 1475 2403
493 1519 2545
553 1579 2688
625 1657 2827
711 1753 2957
812 1868 3081
930 2001 3202
1067 2149 3318
1225 2308 3429
1411 2469 3533
1646 2626 3627
416 1669 637
405 1666 637
395 1664 694
385 1663 788
379 1664 894
380 1665 1007
380 1666 1125
380 1668 1256
380 1672 1411
380 1653 1575
379 1644 1759
379 1634 1945
386 1631 2123
412 1640 2276
450 1666 2412
499 1706 2554
559 1762 2696
631 1835 2834
717 1926 2962
818 2034 3086
936 2158 3206
1073 2293 3321
1231 2435 3430
1417 2577 3533
1653 2724 3626
431 1880 635
421 1877 635
411 1875 688
401 1873 781
391 1874 885
381 1875 1001
384 1875 1117
386 1877 1246
389 1880 1397
391 1883 1575
379 1862 1749
384 1855 1937
398 1851 2117
421 1854 2278
456 1870 2421
504 1903 2562
564 1953 2704
637 2019 2840
723 2101 2968
824 2199 3090
942 2310 3209
1079 2429 3323
1237 2553 3432
1424 2683 3533
1659 2820 3626
453 2093 634
443 2090 634
433 2088 686
423 2087 777
413 2087 880
403 2087 994
400 2088 1114
402 2089 1241
405 2091 1389
407 2093 1563
409 2097 1754
395 2073 1928
409 2071 2110
432 2073 2273
465 2083 2420
510 2104 2570
570 2145 2711
642 2201 2846
729 2272 2973
830 2357 3094
948 2452 3212
1085 2554 3325
1243 2666 3433
1431 2786 3534
1666 2913 3625
483 2299 633
473 2297 633
463 2295 688
453 2294 779
443 2293 881
434 2294 993
424 2295 1116
426 2295 1241
429 2296 1387
431 2297 1558
433 2300 1745
435 2303 1938
420 2278 2101
443 2281 2267
477 2289 2416
521 2306 2567
577 2333 2715
648 2375 2852
734 2434 2978
836 2503 3098
954 2583 3215
1091 2674 3328
1250 2776 3434
1437 2886 3534
1673 3003 3625
522 2489 632
512 2487 632
502 2486 695
492 2484 786
483 2484 887
473 2484 998
463 2484 1120
459 2485 1249
462 2485 1393
464 2486 1562
466 2487 1745
468 2489 1934
471 2491 2117
454 2468 2260
488 2474 2410
532 2487 2562
588 2508 2712
657 2538 2854
740 2580 2983
842 2638 3103
960 2709 3219
1097 2791 3330
1256 2883 3436
1444 2983 3535
1680 3089 3625
571 2659 631
561 2657 637
551 2656 709
541 2655 800
532 2654 900
522 2654 1010
512 2654 1131
502 2655 1264
505 2654 1408
507 2654 1575
509 2655 1756
511 2656 1940
514 2658 2118
516 2660 2278
499 2637 2403
543 2647 2557
599 2665 2708
668 2690 2851
751 2725 2982
849 2771 3106
967 2832 3222
1104 2904 3332
1262 2987 3437
1451 3076 3535
1687 3171 3624
630 2821 630
620 2820 653
611 2819 729
601 2817 821
591 2817 921
582 2816 1031
572 2816 1151
562 2817 1283
558 2817 1434
561 2816 1600
563 2817 1777
565 2817 1957
567 2818 2129
570 2820 2284
572 2822 2427
554 2799 2551
610 2813 2703
679 2835 2847
762 2865 2979
860 2904 3104
975 2953 3223
1110 3013 3334
1269 3085 3438
1458 3165 3536
1694 3249 3624
701 2975 629
692 2974 677
682 2973 758
673 2972 850
663 2971 951
653 2971 1060
644 2971 1180
634 2971 1313
624 2971 1473
626 2971 1637
628 2970 1811
630 2971 1985
633 2971 2151
635 2972 2298
638 2974 2438
640 2975 2580
620 2953 2698
690 2971 2843
773 2997 2976
871 3030 3102
986 3072 3222
1120 3121 3334
1275 3179 3440
1465 3249 3536
1701 3327 3624
786 3119 642
776 3119 711
767 3118 796
757 3117 889
747 3116 990
738 3116 1100
728 3115 1220
718 3115 1357
708 3115 1518
704 3115 1688
707 3115 1858
709 3114 2026
711 3115 2183
714 3115 2322
716 3116 2458
719 3117 2597
721 3118 2732
700 3097 2839
783 3118 2973
882 3147 3100
997 3182 3220
1131 3224 3333
1287 3275 3439
1473 3333 3537
1708 3403 3624
884 3252 679
875 3252 757
865 3251 844
855 3250 938
846 3250 1040
836 3249 1151
826 3249 1272
817 3248 1415
807 3248 1578
797 3248 1754
799 3247 1918
801 3247 2078
803 3247 2225
806 3247 2357
809 3248 2489
811 3248 2623
814 3249 2753
816 3250 2876
794 3230 2969
893 3253 3097
1009 3284 3218
1143 3322 3332
1299 3368 3438
1487 3422 3536
1718 3483 3623
999 3379 732
989 3379 814
979 3378 902
970 3378 998
960 3377 1102
950 3376 1214
940 3376 1342
930 3375 1491
921 3375 1655
911 3375 1827
907 3374 1992
909 3374 2142
911 3374 2277
914 3374 2403
916 3374 2531
919 3375 2659
922 3375 2784
925 3376 2900
927 3377 3009
904 3356 3094
1019 3383 3216
1155 3418 3331
1311 3460 3438
1500 3509 3536
1733 3566 3623
1131 3504 798
1121 3504 882
1111 3503 973
1102 3503 1072
1092 3502 1178
1082 3501 1295
1072 3501 1432
1062 3500 1585
1052 3500 1749
1042 3499 1915
1032 3499 2077
1034 3499 2214
1037 3499 2337
1039 3499 2460
1042 3499 2584
1044 3499 2706
1047 3499 2824
1050 3500 2933
1053 3500 3037
1056 3501 3137
1030 3481 3213
1166 3512 3329
1322 3550 3437
1514 3595 3535
1748 3648 3623
1283 3627 878
1273 3626 965
1263 3626 1059
1253 3626 1160
1243 3625 1270
1233 3625 1399
1223 3624 1543
1213 3623 1699
1203 3623 1859
1193 3622 2017
1183 3622 2165
1179 3622 2293
1181 3622 2410
1184 3622 2529
1187 3622 2648
1189 3622 2763
1192 3622 2873
1195 3622 2974
1198 3623 3073
1201 3623 3168
1204 3623 3259
1177 3603 3327
1334 3638 3435
1528 3680 3535
1763 3728 3622
1464 3748 973
1453 3748 1064
1442 3748 1161
1432 3747 1267
1421 3747 1390
1410 3746 1528
1399 3746 1677
1388 3745 1830
1377 3745 1983
1367 3744 2128
1356 3744 2260
1346 3744 2381
1349 3744 2495
1352 3744 2610
1354 3744 2722
1357 3743 2829
1360 3744 2929
1363 3744 3025
1366 3744 3117
1370 3744 3207
1373 3745 3292
1376 3745 3374
1346 3725 3434
1542 3762 3534
1778 3801 3622
1689 3850 1085
1677 3850 1181
1666 3849 1285
1654 3849 1405
1642 3848 1538
1630 3848 1682
1618 3847 1829
1606 3846 1976
1595 3846 2115
1583 3845 2243
1572 3845 2359
1560 3845 2478
1556 3844 2592
1559 3844 2700
1563 3844 2804
1566 3843 2901
1569 3843 2994
1573 3843 3083
1576 3843 3170
1580 3843 3253
1584 3842 3333
1587 3842 3409
1591 3842 3481
1555 3829 3533
1793 3855 3622
1950 3915 1219
1938 3915 1324
1926 3915 1444
1914 3914 1575
1902 3913 1713
1890 3913 1855
1878 3912 1994
1866 3911 2127
1854 3911 2248
1842 3911 2359
1831 3910 2472
1819 3910 2586
1807 3909 2698
1810 3909 2797
1814 3908 2891
1818 3908 2980
1821 3908 3066
1825 3907 3149
1828 3907 3230
1832 3907 3307
1836 3906 3381
1840 3906 3451
1843 3906 3518
1847 3906 3580
1808 3897 3622
504 300 647
507 312 699
504 303 775
491 301 853
480 301 937
469 301 1028
459 301 1127
450 302 1235
445 302 1356
443 301 1500
445 313 1661
454 331 1833
471 357 2007
497 392 2174
532 437 2324
578 493 2469
636 559 2619
706 639 2769
791 731 2911
892 838 3044
1010 961 3174
1149 1101 3299
1311 1263 3418
1509 1462 3530
1756 1702 3630
522 410 642
512 439 703
500 408 779
488 378 864
474 372 948
462 368 1039
451 365 1138
443 365 1246
437 367 1369
434 373 1515
437 384 1676
446 401 1847
463 426 2020
489 460 2185
524 505 2333
570 559 2478
628 625 2627
699 703 2775
784 795 2916
885 902 3049
1003 1024 3177
1141 1165 3302
1303 1330 3420
1499 1536 3530
1745 1778 3630
540 577 641
513 573 690
508 572 779
495 546 865
482 522 955
469 509 1048
458 501 1148
449 496 1258
443 496 1384
441 499 1531
443 508 1693
452 523 1864
469 546 2036
495 578 2199
530 620 2345
577 673 2489
635 737 2637
706 814 2784
791 905 2923
891 1010 3054
1010 1133 3182
1148 1275 3305
1309 1450 3421
1506 1663 3530
1752 1905 3629
532 711 641
514 709 677
503 708 767
504 707 863
489 687 959
477 663 1055
465 647 1158
456 637 1269
449 632 1397
447 632 1546
449 638 1710
458 650 1881
475 671 2051
501 701 2212
537 741 2356
583 792 2500
641 854 2647
712 929 2792
797 1019 2930
898 1124 3060
1016 1247 3186
1154 1396 3307
1315 1581 3423
1513 1796 3531
1759 2032 3629
526 849 640
515 848 666
505 847 752
501 848 852
499 844 954
484 829 1060
472 805 1166
463 788 1279
456 777 1410
453 773 1561
456 775 1725
465 785 1896
481 802 2065
507 830 2224
543 867 2366
589 916 2510
647 976 2656
719 1050 2800
804 1139 2936
905 1243 3065
1023 1371 3190
1161 1530 3310
1322 1718 3424
1520 1931 3531
1765 2158 3628
528 994 639
517 992 654
506 991 737
496 991 839
499 992 944
496 986 1054
481 971 1168
469 951 1288
462 934 1422
459 924 1574
462 921 1739
471 927 1911
487 941 2079
513 965 2236
549 1000 2377
596 1046 2520
654 1105 2665
725 1177 2808
810 1265 2942
911 1374 3070
1029 1510 3193
1167 1673 3312
1328 1861 3426
1527 2067 3531
1772 2281 3627
530 1145 639
519 1142 644
509 1141 722
498 1141 823
494 1141 930
497 1143 1044
493 1135 1162
479 1119 1287
469 1103 1433
466 1086 1587
468 1078 1753
477 1078 1924
494 1089 2092
520 1109 2247
555 1141 2386
602 1185 2529
660 1241 2674
731 1313 2815
817 1405 2948
918 1521 3074
1036 1660 3197
1174 1823 3315
1335 2005 3427
1534 2200 3532
1779 2397 3627
534 1303 638
523 1299 638
513 1299 710
502 1299 808
492 1298 918
495 1300 1030
497 1301 1153
491 1291 1281
480 1275 1428
473 1261 1596
474 1247 1766
483 1242 1937
500 1247 2103
526 1263 2257
562 1292 2396
608 1334 2538
667 1392 2682
738 1468 2822
823 1563 2954
924 1680 3079
1042 1818 3200
1180 1975 3317
1341 2148 3428
1541 2329 3532
1786 2506 3626
541 1482 637
530 1478 637
519 1477 699
509 1477 795
498 1477 903
494 1478 1018
497 1479 1139
500 1480 1273
492 1467 1421
485 1452 1589
483 1437 1769
489 1428 1949
506 1426 2114
532 1439 2266
568 1465 2404
614 1506 2547
673 1564 2690
744 1639 2829
829 1733 2959
930 1847 3083
1049 1979 3203
1187 2127 3319
1347 2287 3429
1548 2450 3532
1793 2608 3626
551 1682 636
540 1677 636
530 1676 690
519 1675 784
509 1676 891
498 1675 1008
501 1678 1128
504 1679 1259
506 1680 1415
497 1664 1582
495 1650 1764
499 1639 1948
512 1635 2124
538 1640 2274
574 1661 2412
620 1698 2555
679 1751 2697
750 1822 2835
835 1911 2964
936 2018 3087
1055 2140 3207
1193 2276 3321
1354 2419 3431
1555 2561 3533
1800 2708 3625
566 1892 635
555 1888 635
545 1886 684
534 1886 777
524 1886 882
513 1886 997
510 1887 1119
512 1889 1249
515 1890 1401
517 1892 1579
507 1873 1756
511 1862 1942
523 1856 2120
545 1858 2280
579 1872 2420
626 1901 2562
685 1947 2704
756 2011 2841
842 2091 2968
943 2187 3091
1061 2297 3210
1200 2416 3324
1361 2540 3432
1562 2669 3533
1807 2806 3625
