Grading Edition presets/Toning - Style 9 - Warm.3dl
#25pt 3DLUT created by 3D LUT Creator Pro (c) Oleg Sharonov
#Copyright Oleg Sharonov
#IMAGEPROFILE sRGB IEC61966-2.1 v.2.10
#INPUTGAMMA sRGB IEC61966-2.1 v.2.10
#OUTPUTGAMMA sRGB IEC61966-2.1 v.2.10
0 256 512 768 1023
499 455 532
780 530 732
1224 533 1057
1748 659 1451
2254 913 1856
1113 1085 796
1039 1139 930
1744 992 1526
2173 1036 1824
2562 1218 2136
2044 1986 1319
1982 2020 1396
1941 2094 1595
2629 1980 2335
3033 2018 2652
3029 2891 2153
3019 2907 2187
2983 2957 2270
3027 3017 2462
3344 3001 3029
3786 3634 3303
3790 3640 3317
3802 3662 3361
3827 3702 3428
3873 3757 3536
1196 574 565
1442 372 931
1663 368 1294
2021 552 1640
2428 924 1984
1456 1160 648
1404 1191 1111
1894 1103 1534
2277 1142 1859
2705 1234 2243
2181 2033 1308
2181 2047 1490
2114 2125 1690
2734 2017 2368
3116 2046 2714
3084 2920 2171
3091 2927 2242
3058 2975 2335
3091 3037 2513
3394 3022 3054
3803 3652 3332
3807 3659 3346
3818 3680 3389
3842 3719 3457
3887 3775 3563
2086 842 461
2489 367 679
2619 360 1570
2721 356 1955
2906 970 2288
2334 1264 653
2327 1290 1075
2590 1185 1650
2846 1162 2121
3106 1285 2530
2641 2152 1213
2623 2167 1460
2570 2212 1968
2962 2168 2395
3362 2127 2912
3252 3003 2243
3256 3011 2308
3266 3035 2508
3268 3101 2669
3526 3090 3140
3853 3710 3426
3856 3716 3439
3868 3737 3478
3889 3775 3547
3930 3830 3647
2941 1221 713
3169 1003 626
3448 355 1335
3473 576 2187
3455 1294 2533
3069 1551 971
3060 1578 1209
3397 1366 1501
3407 1472 2230
3539 1602 2668
3241 2317 1574
3238 2330 1705
3238 2368 2031
3353 2392 2449
3673 2326 3016
3524 3140 2376
3522 3148 2440
3518 3173 2628
3517 3220 2932
3713 3214 3306
3933 3817 3602
3937 3823 3613
3948 3842 3646
3968 3878 3710
4001 3930 3811
3463 1832 1374
3541 1792 1405
3736 1669 1570
3767 1764 2068
3734 1986 2641
3503 2067 1567
3556 2051 1602
3759 1942 1727
3793 2016 2177
3761 2202 2730
3592 2645 2076
3620 2645 2102
3721 2631 2199
3819 2640 2499
3787 2768 2956
3736 3336 2858
3742 3342 2879
3762 3363 2947
3816 3390 3086
3848 3450 3340
4034 3972 3879
4037 3978 3889
4047 3995 3922
4066 4028 3982
4095 4078 4069
