Grading Edition presets/Toning - Style 12 - Grunge.3dl
#25pt 3DLUT created by 3D LUT Creator Pro (c) Oleg Sharonov
#Copyright Oleg Sharonov
#IMAGEPROFILE sRGB IEC61966-2.1 v.2.10
#INPUTGAMMA sRGB IEC61966-2.1 v.2.10
#OUTPUTGAMMA sRGB IEC61966-2.1 v.2.10
0 43 86 128 171 214 256 299 341 384 427 469 512 555 597 640 682 725 768 810 853 896 938 981 1023 
79 28 0
84 33 0
89 37 0
101 48 0
116 62 0
137 82 0
166 109 22
204 145 54
243 181 88
285 221 126
324 259 164
360 295 201
397 330 237
433 365 275
472 403 316
512 442 360
553 482 406
594 524 454
638 566 506
683 611 561
729 657 619
777 705 681
827 756 746
880 808 814
934 863 885
118 82 0
101 71 0
113 86 0
133 100 0
154 116 15
181 136 41
211 162 67
245 192 98
281 224 130
316 257 163
348 289 195
381 320 228
415 353 263
451 386 301
487 422 340
526 459 383
565 499 428
607 539 477
649 581 527
694 625 583
739 671 641
787 719 702
837 768 767
889 821 836
943 875 907
181 168 0
149 156 0
142 153 0
164 176 24
193 194 55
229 213 86
262 234 116
293 255 145
322 277 174
351 300 203
380 326 232
410 355 263
443 386 298
477 419 334
513 452 374
550 488 416
588 526 460
628 565 507
670 606 558
714 650 614
759 695 671
806 741 733
855 791 797
907 842 866
961 897 937
274 274 43
237 269 36
222 263 41
216 262 52
239 281 89
264 298 125
299 312 156
331 326 187
362 344 217
391 363 247
422 385 279
452 409 311
482 434 346
515 464 383
549 496 421
585 530 463
623 567 507
662 605 555
702 645 606
745 688 660
790 732 718
837 778 780
886 827 844
937 878 912
990 932 982
356 371 97
318 368 89
303 361 88
291 356 96
283 355 109
307 374 150
328 392 189
363 408 226
398 424 261
432 441 295
466 461 330
497 482 365
530 506 402
563 531 441
597 560 482
631 589 525
668 623 571
706 659 619
746 699 670
789 740 725
832 783 782
878 829 844
927 877 908
978 929 975
1030 981 1044
442 475 156
401 474 149
386 466 145
372 459 147
360 455 157
354 454 172
379 475 217
402 496 262
430 515 304
469 532 344
507 550 384
543 570 424
578 592 465
614 616 506
649 642 550
686 670 596
723 702 645
761 734 696
801 769 750
842 807 806
886 850 864
932 895 924
980 943 988
1030 993 1054
1083 1046 1123
534 590 223
491 591 218
476 584 210
460 576 210
446 569 216
435 566 227
429 565 244
456 589 294
480 612 344
503 634 392
546 653 439
586 673 484
626 694 530
665 716 577
703 741 625
742 768 676
782 798 728
822 829 781
863 863 838
906 900 896
951 939 957
996 980 1020
1044 1025 1086
1095 1074 1151
1146 1125 1219
635 718 298
587 721 295
572 714 285
557 707 282
542 699 284
528 694 292
518 691 307
512 692 327
539 716 381
565 741 436
590 767 491
626 790 546
670 811 599
714 834 652
757 858 706
800 884 761
843 913 817
886 944 875
930 977 934
975 1012 995
1022 1050 1057
1070 1090 1122
1119 1132 1188
1169 1177 1257
1221 1224 1327
744 861 381
691 867 379
676 862 369
660 853 363
644 845 363
629 838 369
616 835 380
606 833 397
600 835 421
630 862 481
658 889 542
684 917 604
712 945 669
761 968 729
809 993 789
856 1019 850
904 1047 911
951 1076 973
999 1108 1035
1048 1142 1099
1096 1178 1165
1147 1217 1231
1198 1257 1299
1250 1300 1368
1302 1345 1438
862 1023 473
805 1031 473
788 1027 464
772 1019 454
755 1011 452
739 1004 455
724 999 465
711 995 479
702 994 500
696 998 527
728 1028 594
757 1057 663
786 1088 734
813 1118 806
858 1145 874
912 1171 941
964 1198 1007
1017 1227 1075
1069 1257 1142
1121 1290 1209
1174 1324 1277
1227 1361 1346
1280 1400 1416
1334 1440 1486
1388 1483 1557
994 1201 577
931 1210 578
911 1209 570
894 1202 558
877 1194 552
860 1187 554
843 1181 561
828 1176 574
816 1175 593
807 1176 618
802 1181 649
835 1212 724
867 1244 801
897 1275 879
927 1307 956
965 1338 1034
1023 1364 1106
1081 1393 1178
1138 1422 1250
1195 1453 1321
1251 1485 1393
1307 1521 1464
1363 1557 1536
1420 1596 1608
1477 1636 1681
1137 1392 693
1069 1404 696
1046 1404 689
1028 1398 677
1010 1391 668
992 1385 667
974 1379 672
958 1374 683
944 1372 700
931 1372 723
923 1374 753
918 1380 788
953 1413 870
988 1445 953
1021 1478 1037
1053 1510 1120
1085 1544 1204
1143 1572 1282
1206 1600 1359
1267 1630 1434
1327 1661 1510
1387 1693 1584
1447 1728 1658
1506 1764 1732
1565 1802 1808
1291 1594 821
1218 1608 826
1192 1609 820
1174 1606 809
1156 1600 797
1137 1594 793
1119 1589 795
1101 1584 805
1084 1582 820
1070 1581 841
1058 1583 869
1050 1587 903
1046 1595 942
1083 1627 1031
1120 1660 1119
1155 1692 1208
1190 1726 1297
1223 1759 1384
1271 1791 1469
1337 1819 1549
1402 1848 1627
1466 1879 1705
1530 1911 1782
1592 1944 1865
1654 1979 1950
1454 1805 961
1378 1820 966
1349 1823 962
1328 1822 952
1311 1817 939
1293 1812 932
1273 1808 932
1255 1804 939
1237 1802 952
1221 1800 972
1208 1802 998
1197 1805 1030
1189 1811 1067
1184 1820 1111
1224 1852 1204
1262 1884 1297
1299 1917 1390
1335 1950 1481
1370 1983 1573
1406 2017 1663
1475 2044 1745
1543 2073 1829
1610 2103 1918
1677 2134 2005
1742 2166 2091
1624 2022 1110
1545 2037 1117
1515 2041 1114
1491 2042 1105
1474 2039 1091
1455 2035 1082
1437 2031 1080
1418 2028 1085
1400 2026 1096
1383 2026 1114
1368 2027 1137
1355 2029 1167
1345 2035 1203
1337 2042 1245
1334 2053 1292
1374 2084 1389
1414 2115 1485
1452 2147 1580
1489 2177 1675
1526 2208 1767
1561 2239 1866
1618 2267 1963
1689 2293 2054
1759 2320 2143
1827 2347 2230
1799 2236 1269
1719 2251 1276
1687 2256 1274
1661 2257 1267
1643 2257 1255
1625 2254 1242
1607 2252 1238
1589 2250 1241
1570 2248 1250
1553 2248 1265
1537 2249 1287
1523 2252 1315
1510 2256 1348
1501 2263 1387
1495 2271 1432
1492 2282 1483
1533 2310 1582
1573 2338 1681
1612 2366 1778
1650 2395 1882
1687 2424 1987
1724 2454 2090
1767 2483 2189
1839 2507 2278
1911 2532 2366
1979 2441 1434
1898 2457 1443
1864 2462 1442
1837 2465 1436
1817 2466 1425
1801 2464 1411
1783 2463 1405
1764 2462 1405
1746 2461 1412
1729 2462 1425
1713 2463 1445
1697 2466 1471
1684 2470 1502
1673 2475 1539
1665 2483 1581
1659 2492 1629
1656 2504 1682
1698 2530 1783
1739 2556 1892
1778 2582 2001
1817 2609 2107
1854 2636 2211
1891 2664 2311
1927 2692 2409
1992 2716 2498
2159 2641 1605
2079 2656 1614
2044 2662 1614
2015 2665 1609
1994 2667 1600
1978 2667 1587
1961 2667 1578
1944 2667 1576
1926 2667 1580
1909 2668 1591
1893 2670 1609
1877 2673 1633
1863 2677 1662
1851 2682 1697
1841 2689 1736
1834 2698 1781
1829 2708 1835
1827 2719 1896
1868 2743 2010
1909 2766 2120
1948 2790 2227
1987 2815 2330
2025 2839 2430
2061 2865 2527
2097 2890 2620
2330 2832 1779
2255 2847 1790
2223 2853 1790
2195 2857 1786
2173 2860 1779
2157 2861 1767
2141 2861 1756
2125 2862 1752
2108 2863 1754
2091 2864 1763
2075 2867 1779
2060 2870 1801
2046 2874 1831
2033 2879 1866
2022 2885 1908
2013 2893 1956
2007 2902 2008
2003 2912 2065
2002 2924 2128
2043 2945 2239
2083 2966 2345
2122 2987 2449
2160 3008 2548
2196 3030 2643
2230 3052 2734
2497 3012 1976
2423 3025 1987
2391 3031 1989
2363 3035 1986
2341 3039 1979
2325 3041 1968
2312 3042 1954
2297 3043 1947
2282 3045 1948
2268 3047 1956
2253 3049 1971
2239 3053 1992
2227 3057 2019
2214 3062 2052
2204 3068 2091
2195 3074 2135
2187 3082 2183
2182 3092 2237
2179 3102 2295
2178 3113 2356
2216 3130 2463
2253 3148 2565
2289 3166 2662
2323 3184 2755
2357 3203 2843
2661 3175 2173
2589 3187 2185
2558 3192 2187
2529 3197 2185
2506 3200 2180
2489 3203 2171
2477 3205 2158
2464 3206 2149
2450 3208 2148
2436 3211 2153
2423 3214 2165
2409 3217 2184
2396 3221 2208
2385 3226 2238
2374 3231 2274
2364 3237 2314
2356 3244 2359
2350 3252 2408
2346 3261 2461
2344 3271 2518
2344 3282 2578
2380 3297 2678
2416 3313 2773
2451 3329 2863
2484 3345 2947
2820 3324 2368
2751 3336 2380
2721 3341 2382
2693 3346 2382
2669 3350 2377
2652 3353 2370
2639 3355 2358
2628 3357 2349
2615 3360 2345
2602 3362 2349
2589 3366 2358
2577 3369 2374
2564 3374 2395
2553 3378 2422
2542 3384 2454
2533 3390 2491
2525 3397 2531
2518 3405 2576
2513 3413 2625
2509 3422 2676
2508 3433 2731
2509 3444 2788
2544 3457 2880
2578 3471 2965
2611 3486 3046
2972 3468 2556
2907 3479 2568
2877 3484 2571
2850 3489 2571
2827 3493 2568
2809 3497 2562
2797 3500 2553
2786 3502 2542
2775 3505 2538
2763 3508 2539
2751 3512 2546
2740 3516 2559
2728 3520 2578
2717 3525 2601
2707 3531 2630
2698 3537 2662
2690 3544 2699
2683 3551 2739
2677 3560 2783
2673 3569 2829
2670 3578 2878
2669 3588 2929
2671 3600 2982
2704 3612 3063
2737 3625 3141
3113 3607 2736
3054 3618 2747
3026 3623 2751
3000 3628 2751
2978 3632 2749
2960 3636 2745
2947 3640 2738
2937 3643 2728
2927 3646 2722
2917 3649 2721
2906 3653 2727
2896 3657 2737
2885 3662 2753
2875 3667 2773
2866 3673 2797
2857 3679 2826
2849 3686 2859
2842 3693 2894
2836 3701 2933
2832 3710 2974
2828 3719 3017
2827 3729 3062
2826 3740 3109
2828 3751 3159
2859 3763 3236
3244 3742 2904
3189 3753 2915
3164 3758 2918
3140 3763 2920
3119 3768 2919
3101 3772 2915
3088 3776 2910
3079 3779 2902
3071 3782 2895
3062 3786 2893
3052 3790 2896
3043 3795 2904
3034 3800 2917
3025 3805 2934
3016 3811 2955
3008 3818 2980
3001 3825 3008
2994 3832 3039
2988 3840 3073
2983 3849 3109
2980 3858 3149
2978 3867 3190
2976 3878 3235
2977 3889 3281
2979 3900 3329
91 31 0
101 37 0
116 48 0
133 62 0
149 80 0
173 104 13
202 131 38
237 166 70
273 203 103
310 238 139
347 275 176
380 308 210
415 342 245
452 379 285
489 416 325
528 455 369
568 494 414
610 535 462
653 578 513
698 623 568
744 670 626
791 717 688
841 767 753
893 820 821
948 875 892
142 69 0
207 147 13
197 138 26
197 138 36
209 149 51
229 168 70
253 190 93
281 218 120
313 249 150
343 277 179
372 305 210
404 337 242
437 368 276
472 403 313
508 438 353
546 475 396
585 513 441
625 553 488
667 595 539
711 639 594
757 685 652
804 732 714
853 782 779
905 834 846
960 889 917
237 143 0
256 226 39
235 224 46
224 221 67
249 224 91
271 235 115
296 250 141
320 269 165
345 290 191
371 314 217
398 340 245
429 368 277
460 397 310
493 429 346
528 463 385
564 499 427
602 536 471
642 576 519
683 617 570
726 659 624
772 705 682
818 751 743
868 801 808
918 852 875
972 906 947
348 249 38
324 312 80
290 307 77
281 305 91
283 312 119
303 319 151
331 328 179
359 340 207
386 356 235
413 374 264
440 394 295
468 418 326
498 445 360
530 475 395
564 507 433
599 541 474
635 577 518
674 615 565
715 655 617
757 697 671
801 740 729
847 786 789
896 835 854
947 887 921
1000 941 992
430 347 84
394 402 127
355 395 119
340 390 125
333 389 139
343 399 175
356 413 212
390 423 246
423 437 280
454 453 313
484 471 346
515 492 381
546 515 417
578 540 455
610 567 496
644 598 537
680 632 582
718 669 630
758 707 681
799 748 735
843 791 793
889 837 853
937 886 917
988 936 984
1041 989 1053
517 451 136
474 501 182
431 497 173
414 489 173
401 485 182
394 484 199
408 498 239
425 515 282
454 530 323
491 545 362
527 562 401
561 580 440
595 602 479
629 624 520
663 650 564
699 678 610
735 708 658
772 740 708
811 775 762
853 815 817
896 858 874
942 903 934
990 951 997
1040 1001 1063
1092 1053 1132
611 567 204
562 613 246
515 612 238
497 602 233
481 595 238
470 592 250
463 592 268
482 610 314
502 630 362
524 649 410
564 666 455
604 684 500
643 704 545
680 726 592
718 750 640
756 776 690
795 805 741
834 836 794
875 871 850
917 906 908
961 945 968
1006 986 1031
1054 1032 1094
1104 1081 1159
1156 1132 1227
714 695 279
659 739 319
607 740 312
589 731 304
572 723 305
557 716 313
546 714 328
541 715 348
563 736 400
585 758 453
607 781 508
644 802 562
687 822 614
730 843 667
772 867 720
813 893 775
856 921 831
899 951 888
942 984 946
987 1019 1007
1033 1056 1069
1080 1096 1133
1129 1138 1199
1179 1183 1267
1231 1230 1337
826 837 362
765 880 400
708 885 396
690 877 384
672 868 382
656 860 387
643 856 399
632 854 416
626 856 440
651 880 498
676 906 558
700 932 621
729 957 684
777 979 743
824 1002 803
871 1028 864
917 1055 924
965 1084 986
1012 1116 1049
1060 1149 1111
1108 1184 1176
1158 1223 1242
1208 1263 1310
1260 1306 1378
1312 1351 1449
950 998 454
882 1041 491
819 1048 488
800 1041 476
782 1032 471
764 1024 473
748 1018 482
736 1015 497
726 1014 518
720 1018 545
747 1045 611
774 1073 679
801 1101 749
826 1130 821
874 1155 888
926 1180 954
978 1207 1021
1030 1235 1087
1082 1265 1154
1133 1296 1221
1186 1331 1289
1238 1367 1357
1291 1406 1426
1344 1446 1497
1399 1489 1567
1086 1175 557
1013 1217 594
942 1227 593
921 1222 580
902 1213 572
883 1205 571
866 1199 578
851 1195 591
838 1193 610
829 1194 635
824 1199 667
853 1228 741
883 1257 816
912 1288 893
941 1318 971
979 1347 1047
1037 1373 1118
1094 1401 1190
1151 1430 1262
1207 1460 1333
1263 1492 1404
1319 1527 1475
1375 1563 1547
1431 1601 1618
1487 1641 1691
