Grading Edition presets/Toning - Green & Red.3dl
#25pt 3DLUT created by 3D LUT Creator Pro (c) Oleg Sharonov
#Copyright Oleg Sharonov
#IMAGEPROFILE sRGB IEC61966-2.1 v.2.10
#INPUTGAMMA sRGB IEC61966-2.1 v.2.10
#OUTPUTGAMMA sRGB IEC61966-2.1 v.2.10
0 128 256 384 512 640 768 896 1023
0 160 60
69 279 535
148 420 1013
379 591 1500
665 803 2007
1010 1072 2540
1423 1411 3118
1955 1883 3770
2593 2512 4095
12 635 193
0 634 510
0 767 1012
82 924 1500
287 1120 2007
656 1368 2541
1104 1684 3119
1686 2125 3770
2387 2717 4095
37 1108 348
0 1108 561
0 1108 963
0 1259 1499
50 1439 2007
304 1668 2541
782 1962 3119
1413 2371 3770
2176 2925 4095
80 1587 532
43 1587 736
0 1586 1033
0 1586 1427
0 1766 2006
63 1972 2540
460 2244 3119
1137 2621 3770
1962 3138 4095
149 2076 758
112 2076 952
77 2076 1149
0 2075 1523
0 2075 1911
0 2303 2540
139 2531 3119
860 2877 3770
1744 3362 4095
407 2581 1038
325 2581 1221
244 2581 1408
121 2581 1680
39 2580 2044
0 2580 2423
94 2864 3119
582 3139 3770
1523 3597 4095
767 3107 1391
692 3107 1561
618 3108 1735
544 3108 1913
353 3108 2252
163 3108 2605
65 3107 2976
589 3471 3771
1338 3844 4095
1307 3687 1881
1243 3687 2035
1179 3687 2192
1115 3687 2352
1001 3688 2586
836 3688 2903
671 3687 3249
507 3687 3615
1377 4049 4095
2021 4095 2541
1970 4095 2675
1920 4095 2811
1870 4095 2953
1820 4095 3102
1689 4095 3391
1558 4095 3689
1427 4095 3961
1296 4095 4059
294 161 61
295 219 350
598 560 1013
822 725 1500
1085 931 2007
1398 1191 2540
1772 1521 3119
2247 1981 3771
2818 2594 4095
295 636 61
295 636 536
495 764 1013
722 921 1500
992 1117 2007
1313 1365 2541
1697 1682 3119
2184 2123 3771
2769 2715 4095
386 1109 168
351 1109 679
180 1109 988
322 1256 1501
611 1436 2007
960 1665 2541
1379 1959 3119
1919 2369 3771
2565 2924 4095
516 1587 524
448 1587 851
356 1587 1057
134 1588 1453
232 1758 2008
606 1969 2541
1058 2241 3120
1648 2619 3771
2358 3137 4095
690 2076 865
602 2076 1061
514 2076 1259
358 2076 1548
136 2076 1936
282 2283 2541
736 2528 3120
1374 2875 3771
2146 3361 4095
912 2581 1139
830 2581 1324
749 2581 1512
666 2581 1701
458 2581 2068
249 2581 2448
542 2845 3120
1097 3137 3771
1931 3596 4095
1227 3107 1485
1152 3107 1658
1078 3108 1833
1004 3108 2011
871 3108 2274
680 3108 2628
489 3108 3000
1018 3453 3771
1712 3835 4095
1699 3688 1967
1635 3688 2122
1572 3688 2281
1509 3688 2442
1445 3688 2606
1282 3688 2925
1118 3688 3271
954 3687 3638
1718 4042 4095
2325 4095 2616
2275 4095 2751
2226 4095 2890
2177 4095 3036
2128 4095 3186
2039 4095 3411
1911 4095 3709
1782 4095 3965
1653 4095 4064
850 161 61
850 161 93
851 301 649
1265 860 1500
1502 1058 2007
1782 1310 2541
2115 1631 3120
2532 2078 3771
3039 2677 4095
850 426 61
851 489 277
851 705 830
1165 1055 1500
1409 1245 2007
1698 1485 2541
2040 1793 3120
2470 2222 3772
2991 2799 4095
851 1109 61
851 1109 326
852 1109 1012
1066 1252 1500
1317 1432 2007
1611 1661 2541
1962 1955 3120
2405 2366 3772
2941 2921 4095
962 1587 60
962 1587 676
929 1587 1172
764 1587 1476
937 1755 2007
1262 1965 2541
1649 2237 3120
2144 2616 3772
2739 3134 4095
1120 2075 428
1121 2076 1053
1057 2076 1368
970 2076 1570
744 2076 1959
909 2275 2541
1332 2524 3120
1878 2871 3772
2534 3358 4095
1342 2580 876
1334 2581 1427
1253 2581 1616
1172 2581 1807
1027 2581 2089
817 2581 2471
1038 2823 3120
1607 3132 3772
2326 3592 4095
1641 3107 1377
1607 3107 1754
1534 3107 1931
1461 3108 2110
1387 3108 2294
1198 3108 2649
1008 3107 3025
1443 3431 3772
2113 3831 4095
2070 3688 1994
2019 3688 2209
1958 3688 2369
1896 3688 2532
1833 3688 2697
1722 3688 2944
1561 3688 3294
1398 3688 3661
2052 4035 4095
2619 4095 2691
2572 4095 2828
2524 4095 2970
2476 4095 3119
2428 4095 3272
2379 4095 3428
2255 4095 3727
2129 4095 3970
2003 4095 4068
1404 160 60
1404 160 60
1405 166 432
1406 420 967
1937 1182 2007
2157 1431 2541
2448 1742 3120
2810 2177 3772
3259 2761 4095
1404 272 60
1405 391 77
1405 554 605
1406 806 1142
1821 1373 2007
2074 1606 2541
2375 1905 3120
2749 2321 3772
3211 2884 4095
1405 927 60
1405 927 171
1406 987 782
1407 1195 1321
1728 1561 2007
1990 1783 2541
2299 2068 3121
2685 2466 3772
3161 3007 4095
1406 1586 60
1406 1586 171
1407 1587 829
1407 1586 1500
1637 1751 2007
1906 1961 2541
2226 2234 3121
2624 2613 3773
3111 3132 4095
1539 2075 60
1539 2075 571
1539 2075 1199
1508 2075 1683
1354 2075 1983
1560 2271 2541
1918 2522 3121
2368 2869 3773
2911 3356 4095
1728 2580 430
1729 2580 1010
1728 2580 1608
1670 2581 1914
1590 2581 2110
1384 2581 2494
1604 2816 3121
2107 3131 3773
2709 3591 4095
1988 3107 962
1988 3107 1504
1982 3108 2030
1910 3108 2211
1838 3108 2396
1709 3108 2670
1521 3107 3048
1862 3415 3772
2503 3830 4095
2362 3688 1619
2361 3688 2110
2334 3689 2459
2273 3689 2623
2213 3689 2790
2153 3689 2964
1995 3688 3315
1836 3688 3684
2379 4028 4095
2854 4095 2420
2854 4095 2853
2815 4095 3052
2768 4095 3203
2721 4095 3358
2674 4095 3516
2589 4095 3746
2467 4095 3974
2345 4095 4073
1949 160 59
1949 160 59
1949 160 293
1950 349 799
1950 589 1312
2475 1388 2380
2772 1854 3121
3083 2276 3773
3477 2845 4095
1949 210 59
1949 364 60
1949 518 460
1950 714 964
1951 954 1481
2463 1723 2541
2700 2018 3121
3023 2422 3773
3429 2969 4095
1949 815 60
1949 814 94
1950 929 627
1950 1083 1131
1951 1324 1655
2358 1906 2541
2627 2182 3121
2960 2567 3773
3379 3093 4095
1950 1437 60
1950 1437 94
1950 1438 718
1951 1495 1302
1951 1696 1830
2275 2085 2541
2554 2349 3121
2899 2716 3773
3330 3221 4095
1950 2075 59
1950 2075 93
1951 2075 717
1951 2075 1348
1952 2075 2007
2196 2268 2541
2480 2518 3122
2838 2866 3774
3282 3355 4095
2107 2580 59
2107 2580 563
2107 2580 1147
2108 2580 1750
2079 2580 2223
1940 2580 2517
2180 2812 3122
2586 3128 3773
3082 3590 4095
2327 3107 555
2327 3107 1086
2328 3107 1632
2327 3108 2204
2277 3108 2501
2207 3108 2692
2025 3107 3073
2329 3406 3773
2881 3829 4095
2645 3687 1255
2645 3688 1730
2645 3689 2227
2638 3689 2715
2580 3689 2886
2521 3689 3065
2416 3689 3337
2262 3688 3705
2696 4021 4095
3077 4095 2101
3076 4095 2518
3077 4095 2960
3054 4095 3289
3008 4095 3446
2962 4095 3605
2915 4095 3764
2796 4095 3978
2676 4095 4077
2474 160 59
2474 160 59
2474 192 263
2475 375 731
2475 599 1207
2475 822 1697
2978 1656 2787
3354 2376 3774
3695 2931 4095
2474 287 59
2474 430 59
2474 573 418
2475 716 884
2475 939 1363
2475 1163 1858
2978 1976 2955
3294 2523 3774
3647 3055 4095
2474 797 59
2474 810 108
2475 954 573
2475 1099 1041
2475 1283 1523
2476 1507 2025
2966 2293 3122
3232 2670 3774
3597 3181 4095
2475 1376 59
2475 1375 119
2475 1377 699
2475 1484 1201
2476 1629 1684
2476 1859 2196
2873 2465 3122
3170 2820 3774
3548 3313 4095
2475 1967 59
2475 1967 119
2475 1967 698
2476 1968 1286
2476 2022 1850
2476 2215 2366
2802 2636 3122
3109 2971 3774
3499 3449 4095
2475 2580 59
2475 2580 118
2475 2580 697
2476 2580 1285
2476 2580 1895
2476 2580 2542
2733 2810 3122
3049 3125 3774
3449 3587 4095
2656 3106 151
2656 3107 677
2657 3107 1210
2656 3108 1763
2657 3108 2342
2631 3108 2801
2510 3107 3097
2800 3404 3774
3251 3826 4095
2923 3687 899
2922 3688 1363
2923 3689 1843
2922 3689 2346
2922 3690 2880
2880 3690 3169
2822 3689 3361
2673 3689 3729
3052 4016 4095
3298 4095 1793
3297 4095 2196
3298 4095 2618
3297 4095 3069
3291 4095 3535
3245 4095 3694
3199 4095 3852
3118 4095 3983
3001 4095 4082
2978 159 59
2978 266 59
2978 396 367
2978 527 790
2978 730 1225
2978 933 1672
2978 1137 2135
3468 2060 3291
3942 3010 4095
2978 483 59
2978 613 84
2978 743 507
2978 873 932
2978 1040 1367
2978 1244 1818
2978 1449 2289
3468 2343 3452
3866 3142 4095
2978 899 59
2978 959 225
2978 1090 648
2978 1221 1076
2978 1354 1513
2978 1559 1969
2978 1766 2447
3467 2633 3620
3816 3272 4095
2978 1427 59
2978 1427 273
2978 1440 791
2978 1574 1222
2978 1708 1662
2978 1880 2123
2978 2091 2610
3456 2921 3775
3765 3407 4095
2978 1966 59
2978 1966 273
2978 1966 800
2978 1968 1340
2978 2068 1814
2978 2205 2278
2978 2421 2776
3378 3077 3775
3716 3544 4095
2978 2523 59
2978 2523 272
2978 2524 800
2978 2525 1339
2978 2525 1895
2978 2577 2439
2978 2759 2943
3318 3235 3775
3666 3683 4095
2978 3106 58
2978 3107 272
2978 3107 799
2978 3108 1338
2978 3108 1895
2978 3108 2483
2977 3108 3123
3260 3401 3775
3618 3824 4095
3197 3687 548
3196 3688 1005
3197 3689 1472
3196 3689 1958
3196 3690 2468
3195 3690 3013
3174 3690 3470
3072 3690 3752
3420 4015 4095
3518 4095 1493
3517 4095 1885
3518 4095 2292
3517 4095 2719
3516 4095 3183
3516 4095 3689
3482 4095 3935
3437 4095 3988
3320 4095 4086
3469 590 59
3469 703 338
3469 815 703
3469 927 1071
3469 1071 1449
3469 1248 1841
3469 1425 2247
3469 1603 2672
3956 2626 3907
3469 889 94
3469 1002 459
3469 1114 825
3469 1227 1195
3469 1340 1575
3469 1518 1970
3469 1697 2381
3469 1878 2813
3956 2866 3971
3469 1208 201
3469 1302 580
3469 1416 948
3469 1530 1321
3469 1645 1704
3469 1793 2102
3469 1974 2519
3468 2158 2960
3956 3111 4014
3469 1668 201
3469 1668 654
3469 1721 1071
3469 1838 1448
3469 1956 1835
3469 2074 2236
3469 2258 2660
3468 2444 3117
3957 3373 4058
3469 2138 200
3469 2138 654
3469 2138 1113
3469 2152 1578
3469 2271 1969
3469 2391 2375
3468 2546 2804
3468 2738 3279
3947 3637 4095
3469 2624 200
3469 2624 654
3469 2624 1112
3469 2626 1586
3469 2626 2076
3469 2716 2515
3468 2841 2950
3467 3038 3444
3884 3780 4095
3469 3130 200
3469 3130 654
3469 3131 1112
3469 3132 1585
3469 3132 2076
3468 3132 2591
3468 3180 3108
3467 3353 3608
3836 3921 4095
3468 3687 199
3468 3688 653
3468 3689 1111
3468 3689 1584
3468 3690 2075
3468 3690 2591
3467 3690 3152
3466 3690 3776
3788 4012 4095
3738 4095 1200
3737 4095 1582
3737 4095 1977
3737 4095 2389
3736 4095 2822
3736 4095 3299
3735 4095 3808
3719 4095 4016
3638 4095 4091
3958 1279 701
3958 1371 1000
3959 1464 1302
3959 1556 1610
3958 1649 1926
3958 1795 2257
3958 1942 2601
3958 2090 2962
3957 2240 3358
3958 1525 800
3959 1618 1099
3959 1711 1403
3959 1804 1714
3958 1898 2034
3958 2020 2367
3958 2169 2713
3958 2319 3085
3957 2472 3491
3959 1773 899
3959 1867 1200
3959 1961 1506
3959 2056 1820
3958 2152 2143
3958 2248 2479
3958 2400 2831
3957 2553 3214
3957 2708 3625
3959 2136 913
3959 2136 1288
3959 2216 1609
3958 2312 1926
3958 2411 2254
3958 2510 2594
3958 2637 2951
3957 2792 3347
3956 2949 3761
3958 2528 913
3958 2528 1288
3958 2528 1672
3958 2575 2036
3958 2676 2367
3958 2777 2711
3957 2878 3077
3957 3037 3482
3956 3201 3897
3958 2933 913
3958 2933 1288
3958 2933 1672
3958 2934 2073
3958 2946 2482
3958 3048 2830
3957 3153 3209
3956 3291 3618
3956 3467 3966
3958 3361 912
3958 3361 1287
3958 3361 1672
3958 3362 2072
3958 3364 2489
3957 3364 2928
3957 3447 3343
3956 3561 3751
3956 3743 4009
3957 3825 911
3957 3826 1287
3957 3826 1672
3957 3827 2071
3957 3828 2489
3957 3828 2927
3956 3828 3416
3955 3870 3888
3956 3997 4051
3958 4095 912
3958 4095 1287
3958 4095 1672
3958 4095 2071
3958 4095 2489
3957 4095 2928
3957 4095 3417
3956 4095 3927
3957 4095 4095
