Grading Edition presets/Toning - Style 10 - Soft.3dl
#25pt 3DLUT created by 3D LUT Creator Pro (c) Oleg Sharonov
#Copyright Oleg Sharonov
#IMAGEPROFILE sRGB IEC61966-2.1 v.2.10
#INPUTGAMMA sRGB IEC61966-2.1 v.2.10
#OUTPUTGAMMA sRGB IEC61966-2.1 v.2.10
0 43 86 128 171 214 256 299 341 384 427 469 512 555 597 640 682 725 768 810 853 896 938 981 1023 
533 448 377
557 475 441
580 503 508
603 531 580
627 559 660
651 588 751
676 617 857
701 648 977
726 679 1111
752 711 1256
779 745 1409
807 780 1571
835 817 1746
865 855 1931
896 896 2122
928 938 2313
962 983 2499
997 1029 2675
1034 1078 2835
1072 1127 2983
1112 1178 3124
1152 1231 3257
1194 1284 3384
1236 1339 3505
1280 1394 3621
548 508 407
556 524 447
574 548 509
595 574 578
618 601 657
640 630 746
664 660 850
688 691 968
713 723 1101
738 757 1245
764 792 1397
791 830 1557
819 868 1731
848 909 1915
878 952 2106
910 997 2297
942 1044 2483
977 1092 2659
1013 1142 2821
1050 1193 2970
1089 1246 3111
1128 1299 3245
1169 1354 3372
1211 1409 3494
1254 1465 3610
563 571 438
565 582 465
578 604 521
596 632 588
614 656 663
636 684 750
658 713 852
681 745 968
705 778 1099
729 813 1242
755 850 1392
781 889 1551
808 930 1723
836 973 1906
865 1018 2096
895 1064 2286
927 1113 2472
960 1162 2649
995 1214 2811
1032 1266 2960
1070 1319 3101
1109 1374 3236
1149 1429 3363
1190 1484 3485
1232 1540 3601
579 636 469
580 644 492
587 664 538
600 691 601
619 723 676
635 749 763
655 778 863
678 809 977
701 843 1106
724 879 1247
748 918 1395
774 958 1553
800 1001 1723
827 1046 1905
855 1092 2093
885 1140 2282
915 1189 2468
948 1240 2643
982 1292 2805
1017 1345 2954
1054 1399 3095
1092 1454 3230
1132 1509 3357
1172 1565 3479
1214 1623 3595
594 706 500
595 712 522
598 733 560
608 756 620
622 786 692
641 822 779
659 855 880
676 886 995
698 920 1122
721 958 1260
745 997 1406
769 1039 1562
794 1083 1730
821 1128 1910
848 1175 2097
877 1224 2284
907 1274 2468
938 1325 2643
971 1378 2804
1006 1431 2952
1042 1485 3093
1079 1539 3227
1118 1595 3354
1158 1653 3475
1199 1712 3591
609 783 533
610 788 554
613 806 589
619 831 642
630 860 713
645 895 798
663 935 899
684 977 1014
700 1011 1142
718 1048 1280
741 1088 1424
766 1130 1578
791 1174 1745
816 1220 1923
843 1267 2107
871 1316 2293
900 1366 2475
931 1417 2648
963 1469 2807
997 1522 2954
1032 1576 3094
1069 1632 3227
1107 1689 3353
1146 1748 3474
1186 1809 3590
624 867 568
625 871 588
628 889 622
630 917 669
640 944 738
653 978 822
668 1018 922
686 1063 1036
708 1112 1164
725 1151 1302
743 1189 1446
762 1231 1601
787 1274 1767
813 1320 1942
839 1367 2124
867 1415 2307
896 1464 2487
926 1515 2657
957 1567 2814
990 1620 2960
1025 1676 3098
1061 1733 3230
1098 1791 3356
1136 1850 3476
1176 1911 3591
640 962 604
640 965 625
642 981 658
645 1008 703
651 1040 767
662 1072 851
675 1111 950
691 1155 1063
710 1203 1190
731 1254 1326
752 1301 1470
769 1341 1625
787 1383 1793
809 1427 1969
836 1473 2148
863 1520 2328
892 1569 2504
921 1619 2671
952 1672 2825
985 1727 2969
1019 1783 3106
1054 1840 3236
1091 1899 3360
1128 1958 3480
1167 2018 3594
655 1065 643
655 1068 664
658 1083 697
661 1109 742
663 1145 801
673 1175 883
685 1212 981
699 1254 1094
715 1301 1220
733 1352 1354
755 1405 1497
779 1459 1652
796 1499 1819
814 1541 1995
835 1585 2175
859 1632 2354
888 1682 2526
918 1733 2690
948 1786 2840
981 1841 2981
1014 1897 3116
1049 1954 3245
1085 2012 3368
1122 2071 3486
1160 2130 3599
671 1178 684
671 1179 706
673 1193 739
676 1218 784
679 1251 842
685 1287 920
696 1321 1018
708 1361 1130
722 1406 1253
739 1455 1386
758 1506 1528
780 1561 1683
804 1618 1849
824 1665 2024
843 1709 2202
863 1755 2380
886 1804 2552
913 1855 2712
944 1908 2859
976 1962 2998
1010 2017 3130
1044 2073 3257
1080 2130 3379
1117 2187 3495
1154 2245 3607
687 1296 728
687 1297 751
689 1310 785
692 1333 831
695 1365 889
697 1405 961
707 1437 1058
719 1474 1169
732 1517 1291
747 1563 1422
764 1613 1563
783 1668 1718
806 1725 1883
830 1785 2056
854 1841 2232
873 1887 2407
894 1934 2576
916 1984 2735
941 2035 2881
972 2087 3017
1005 2141 3147
1040 2195 3272
1075 2250 3391
1112 2306 3506
1150 2361 3617
704 1420 775
703 1420 800
705 1432 835
708 1453 881
711 1483 940
713 1520 1011
720 1557 1102
730 1593 1211
743 1633 1332
756 1679 1461
772 1729 1603
790 1783 1757
810 1840 1921
832 1899 2092
857 1961 2265
885 2024 2436
905 2070 2603
926 2118 2758
949 2167 2901
974 2217 3037
1001 2268 3167
1035 2320 3289
1071 2372 3407
1108 2425 3520
1145 2477 3628
721 1547 827
720 1547 853
721 1557 889
724 1577 936
727 1605 995
730 1641 1066
732 1685 1150
743 1720 1258
754 1759 1376
767 1804 1505
782 1852 1646
798 1905 1799
816 1960 1962
837 2018 2131
860 2079 2302
886 2140 2470
914 2203 2631
939 2255 2782
960 2301 2922
984 2348 3057
1009 2396 3185
1036 2445 3308
1066 2494 3425
1103 2543 3536
1140 2592 3642
738 1681 882
737 1680 909
738 1690 946
741 1709 994
744 1736 1054
747 1771 1125
749 1814 1207
756 1855 1307
767 1892 1424
779 1935 1552
793 1982 1693
808 2032 1846
825 2086 2007
844 2141 2174
865 2199 2342
889 2259 2507
916 2319 2664
945 2379 2809
974 2436 2945
997 2479 3077
1021 2524 3204
1046 2568 3325
1073 2613 3441
1102 2658 3552
1160 2707 3650
756 1823 941
755 1821 970
755 1830 1008
758 1848 1057
761 1874 1117
764 1908 1187
767 1948 1268
769 1996 1360
780 2031 1475
792 2071 1603
805 2116 1744
819 2163 1896
835 2214 2056
853 2267 2220
873 2322 2385
895 2378 2546
920 2435 2698
947 2492 2839
977 2549 2972
1010 2606 3100
1035 2648 3224
1059 2688 3343
1085 2729 3458
1113 2769 3568
1198 2816 3655
774 1970 1005
773 1968 1035
773 1976 1074
775 1992 1123
778 2017 1183
782 2049 1253
785 2087 1333
787 2132 1422
794 2174 1530
805 2211 1658
818 2252 1799
832 2297 1950
847 2344 2108
864 2393 2269
882 2445 2430
903 2497 2587
926 2550 2734
952 2603 2871
980 2656 3002
1011 2708 3127
1045 2759 3246
1075 2802 3363
1099 2838 3476
1141 2876 3579
1242 2920 3661
792 2120 1072
791 2118 1103
792 2124 1143
794 2140 1193
796 2163 1252
800 2192 1322
803 2228 1400
806 2270 1489
808 2317 1590
820 2351 1718
832 2389 1857
845 2430 2007
860 2473 2162
876 2519 2321
894 2566 2478
913 2614 2630
935 2662 2772
960 2711 2905
986 2759 3033
1015 2806 3155
1047 2853 3273
1081 2899 3386
1122 2944 3492
1176 2980 3591
1293 3020 3667
812 2272 1143
810 2268 1175
811 2274 1216
812 2288 1266
815 2309 1325
819 2336 1393
822 2369 1471
825 2407 1560
828 2450 1660
834 2490 1781
847 2524 1920
860 2561 2067
874 2600 2220
889 2641 2375
906 2683 2527
925 2727 2674
946 2770 2811
969 2814 2941
994 2857 3066
1022 2901 3186
1052 2945 3301
1082 2989 3412
1139 3031 3513
1227 3077 3602
1350 3116 3675
832 2421 1218
830 2418 1250
830 2422 1291
832 2434 1341
835 2453 1399
838 2478 1468
842 2508 1546
845 2542 1635
848 2581 1736
850 2624 1848
862 2654 1985
875 2687 2130
889 2722 2280
904 2758 2431
920 2795 2579
939 2834 2720
959 2873 2852
981 2913 2978
1005 2953 3100
1031 2994 3218
1059 3036 3330
1090 3075 3439
1175 3115 3531
1290 3158 3610
1414 3202 3683
853 2566 1295
851 2563 1328
851 2566 1369
852 2577 1419
855 2593 1478
858 2615 1546
862 2641 1625
865 2672 1715
869 2706 1815
871 2744 1926
878 2778 2054
891 2806 2196
905 2836 2342
920 2868 2489
936 2902 2631
953 2937 2767
973 2973 2894
994 3011 3017
1017 3049 3136
1042 3087 3251
1052 3124 3365
1133 3158 3459
1241 3196 3543
1357 3236 3621
1480 3277 3693
874 2704 1374
872 2700 1408
872 2703 1450
874 2712 1500
876 2726 1560
879 2745 1630
883 2768 1710
887 2795 1800
890 2824 1899
893 2857 2008
895 2894 2125
908 2919 2265
922 2946 2407
936 2975 2548
952 3006 2685
969 3039 2814
988 3073 2938
1008 3107 3058
1031 3143 3174
1023 3178 3290
1101 3208 3387
1201 3240 3475
1310 3274 3557
1427 3311 3634
1549 3349 3705
897 2832 1457
895 2828 1492
895 2830 1534
896 2837 1586
898 2849 1647
901 2865 1718
905 2885 1798
909 2909 1888
912 2936 1987
916 2966 2093
918 3000 2207
926 3029 2335
939 3054 2472
954 3081 2608
970 3109 2739
987 3139 2863
1005 3170 2983
1023 3203 3099
1004 3237 3216
1078 3262 3315
1170 3289 3406
1272 3319 3492
1383 3350 3574
1500 3384 3650
1623 3420 3719
920 2953 1544
918 2949 1580
918 2950 1624
919 2956 1677
921 2966 1739
924 2981 1810
928 2999 1890
932 3021 1979
935 3046 2077
939 3073 2181
942 3104 2291
944 3137 2406
958 3159 2539
973 3184 2669
988 3210 2793
1005 3238 2912
1011 3268 3028
993 3300 3143
1063 3320 3244
1149 3343 3338
1244 3368 3428
1348 3395 3513
1460 3424 3593
1577 3456 3667
1703 3489 3735
945 3070 1635
943 3066 1673
942 3066 1718
943 3071 1772
945 3080 1835
948 3093 1906
951 3110 1986
955 3130 2073
960 3152 2169
963 3178 2270
967 3206 2376
969 3237 2487
978 3264 2606
992 3286 2730
1008 3311 2848
999 3339 2959
990 3366 3070
1057 3382 3174
1136 3401 3271
1225 3422 3364
1323 3444 3452
1429 3469 3535
1541 3496 3614
1660 3526 3686
1789 3557 3753
971 3184 1732
968 3179 1770
968 3179 1816
968 3183 1871
970 3191 1934
973 3203 2005
976 3218 2084
980 3236 2170
985 3257 2262
989 3281 2361
992 3307 2463
996 3335 2567
998 3366 2673
999 3389 2783
988 3414 2890
997 3435 3000
1060 3448 3105
1133 3462 3205
1216 3479 3301
1307 3498 3392
1407 3519 3478
1514 3542 3560
1628 3567 3637
1751 3594 3708
1882 3623 3774
612 472 390
617 461 446
633 475 512
654 500 583
676 526 663
700 553 754
725 581 860
751 609 980
777 639 1114
804 669 1260
833 701 1412
862 734 1574
893 768 1749
925 804 1935
958 842 2126
993 881 2317
1029 923 2502
1066 967 2677
1105 1013 2837
1146 1061 2985
1187 1110 3126
1229 1161 3259
1272 1213 3386
1316 1266 3507
1361 1320 3623
616 532 404
615 530 449
623 544 513
639 564 582
658 589 660
680 615 749
703 643 852
727 673 970
752 704 1102
778 737 1246
805 771 1397
833 806 1557
862 844 1730
892 883 1914
924 925 2104
957 968 2295
992 1013 2481
1028 1061 2657
1065 1109 2818
1104 1160 2967
1144 1211 3109
1185 1264 3243
1227 1318 3370
1271 1372 3492
1314 1428 3608
608 588 440
609 591 470
627 609 520
642 627 588
657 648 666
676 672 754
696 699 856
718 728 973
742 759 1104
766 793 1246
792 828 1396
819 865 1555
847 905 1726
877 946 1909
907 990 2098
939 1035 2288
973 1082 2473
1008 1131 2649
1045 1181 2811
1083 1232 2960
1122 1285 3101
1163 1339 3235
1204 1393 3363
1247 1448 3484
1290 1504 3600
612 650 472
612 656 496
626 673 537
644 695 600
665 719 675
679 741 763
696 766 865
716 795 981
737 826 1111
760 860 1252
784 896 1401
809 935 1559
837 976 1729
865 1019 1910
895 1064 2097
926 1111 2286
959 1159 2471
993 1209 2646
1029 1260 2807
1066 1312 2956
1104 1365 3097
1144 1419 3230
1185 1474 3358
1227 1529 3479
1269 1586 3595
621 718 504
623 724 525
629 743 563
645 764 618
664 791 691
688 822 776
703 847 878
719 875 994
738 906 1123
758 940 1263
781 977 1411
804 1017 1568
829 1059 1738
857 1103 1917
886 1148 2103
916 1196 2290
948 1244 2473
981 1295 2647
1016 1346 2807
1052 1398 2955
1090 1452 3095
1129 1505 3229
1169 1560 3356
1210 1617 3477
1252 1675 3592
635 794 536
636 799 557
640 817 591
650 843 640
665 869 711
685 899 796
708 935 895
728 968 1011
744 999 1140
762 1033 1279
782 1070 1425
804 1110 1582
827 1152 1751
852 1196 1930
878 1241 2115
908 1289 2300
939 1338 2481
972 1388 2653
1006 1439 2811
1041 1491 2958
1078 1544 3097
1116 1598 3230
1155 1654 3356
1196 1712 3476
1237 1771 3592
649 878 570
650 883 590
654 900 623
657 928 671
670 957 736
686 988 820
706 1024 919
730 1064 1033
754 1105 1159
770 1138 1298
788 1175 1444
807 1213 1600
829 1255 1768
852 1298 1947
876 1343 2131
903 1390 2315
932 1438 2494
964 1487 2664
997 1537 2819
1032 1590 2964
1069 1644 3102
1106 1699 3234
1145 1756 3359
1184 1815 3479
1225 1875 3593
664 972 605
665 976 626
668 993 659
672 1020 704
677 1056 764
691 1086 848
709 1120 946
730 1160 1059
753 1204 1185
779 1251 1321
797 1289 1465
815 1326 1622
834 1366 1790
856 1408 1967
879 1452 2150
903 1497 2332
930 1544 2510
958 1593 2678
991 1644 2831
1025 1697 2974
1061 1752 3111
1098 1808 3241
1136 1865 3365
1175 1924 3483
1215 1983 3597
679 1076 643
680 1080 665
683 1095 697
687 1120 742
690 1156 801
699 1192 880
715 1225 977
734 1263 1090
754 1306 1215
777 1353 1349
803 1402 1491
826 1447 1646
844 1485 1814
863 1525 1991
884 1567 2172
907 1612 2353
932 1659 2528
959 1708 2694
988 1760 2846
1019 1813 2988
1054 1867 3122
1090 1923 3250
1128 1980 3373
1167 2038 3490
1206 2097 3603
695 1188 684
695 1191 706
698 1205 739
702 1229 784
705 1263 842
707 1306 916
723 1337 1013
740 1373 1124
758 1414 1248
779 1459 1380
802 1508 1522
828 1558 1676
856 1611 1842
874 1650 2018
893 1692 2197
915 1737 2376
938 1783 2549
963 1832 2712
991 1883 2861
1020 1935 3001
1050 1989 3135
1084 2044 3262
1121 2100 3383
1160 2156 3499
1199 2213 3611
711 1306 728
711 1309 751
714 1322 785
717 1345 830
721 1376 888
724 1416 961
732 1454 1053
748 1488 1163
765 1527 1285
784 1570 1415
805 1618 1557
828 1669 1711
854 1723 1875
884 1780 2048
906 1827 2225
925 1870 2401
947 1916 2572
971 1963 2732
997 2013 2878
1024 2064 3017
1053 2116 3149
1084 2169 3275
1116 2223 3396
1153 2277 3511
1192 2332 3621
