Grading Edition presets/Toning - Style 6 v2.3dl
#25pt 3DLUT created by 3D LUT Creator Pro (c) Oleg Sharonov
#Copyright Oleg Sharonov
#IMAGEPROFILE sRGB IEC61966-2.1 v.2.10
#INPUTGAMMA sRGB IEC61966-2.1 v.2.10
#OUTPUTGAMMA sRGB IEC61966-2.1 v.2.10
0 256 512 768 1023
413 406 406
406 446 1484
397 631 2834
393 940 3443
388 1248 4054
455 1266 405
501 1251 1490
408 1581 2831
387 1898 3439
382 2141 4051
539 2642 438
778 2639 1944
697 2609 2829
658 2771 3436
495 2871 4052
671 3330 517
1045 3321 2188
1159 3318 3041
996 3279 3434
1209 3364 4052
854 4073 635
1282 4067 2339
1649 4067 3185
1600 4068 3668
1292 3921 4053
1218 401 401
774 446 1488
508 557 2835
406 754 3444
389 995 4055
1262 1269 408
1263 1302 1492
804 1586 2831
545 1859 3439
427 2059 4052
1329 2640 415
1632 2637 1768
1715 2636 2825
1409 2774 3433
1081 2870 4051
1411 3327 435
1865 3318 1984
2156 3313 3012
2052 3291 3430
2118 3369 4049
1640 4070 507
2079 4065 2175
2405 4065 3138
2421 4067 3636
2274 3949 4050
2492 392 392
2491 392 1620
1760 615 2831
1285 848 3441
979 1041 4055
2492 1177 387
2492 1186 1420
2127 1764 2826
1715 2004 3434
1380 2175 4050
2531 2638 480
2505 2635 1721
2518 2659 2824
2250 2782 3429
1979 2873 4048
2566 3322 511
2532 3316 1797
2759 3312 2962
2754 3308 3428
2666 3375 4049
2602 4069 551
2621 4065 1963
2864 4065 3047
2977 4067 3604
2888 3982 4050
3250 387 387
3246 380 1388
3240 683 3060
2726 821 3436
2447 1247 4050
3248 1136 382
3245 1089 1318
3236 1637 2911
2878 2137 3430
2678 2327 4047
3242 2568 423
3237 2578 1568
3232 2586 2794
3043 2872 3428
2892 2954 4048
3272 3320 666
3253 3314 2066
3239 3311 2913
3243 3325 3428
3129 3384 4050
3289 4070 718
3265 4066 2127
3250 4066 2941
3382 4069 3544
3361 4023 4052
4095 384 383
4095 374 1356
4095 364 2838
4095 1058 3770
3477 879 4054
4095 1152 375
4095 1000 1222
4095 977 2737
4095 2058 3596
3612 2177 4050
4095 2519 370
4095 2521 1261
4095 2508 2723
4095 2696 3450
3775 2930 4050
4095 3262 517
4095 3263 1841
4095 3269 2807
4095 3272 3394
3951 3408 4052
4095 4000 903
4095 4017 2304
4095 4038 3055
4095 4057 3519
4095 4070 4053
