Grading Edition presets/Toning - Style 6.3dl
#25pt 3DLUT created by 3D LUT Creator Pro (c) Oleg Sharonov
#Copyright Oleg Sharonov
#IMAGEPROFILE sRGB IEC61966-2.1 v.2.10
#INPUTGAMMA sRGB IEC61966-2.1 v.2.10
#OUTPUTGAMMA sRGB IEC61966-2.1 v.2.10
0 256 512 768 1023
413 406 406
408 433 1229
399 575 2613
394 853 3312
388 1248 4054
454 1248 405
487 1184 1234
430 1493 2611
388 1805 3307
382 2132 4051
537 2626 436
778 2623 1745
650 2546 2609
713 2726 3303
487 2859 4052
669 3321 516
982 3313 1968
1164 3309 2893
932 3246 3302
1207 3357 4052
854 4073 635
1219 4068 2169
1662 4066 3070
1611 4068 3520
1292 3921 4053
1471 399 399
1213 400 1232
765 473 2613
530 600 3313
416 837 4055
1478 1218 409
1482 1255 1237
1020 1506 2611
677 1779 3307
470 2045 4052
1578 2623 421
1711 2621 1456
1835 2580 2606
1655 2731 3299
1210 2858 4050
1657 3317 444
1939 3310 1692
2293 3304 2854
2154 3261 3296
2221 3362 4049
1785 4070 489
2147 4065 1921
2424 4064 2952
2533 4066 3487
2386 3954 4050
2721 390 391
2720 385 1168
2434 425 2609
2032 611 3306
1619 800 4053
2721 1207 385
2720 1242 1208
2576 1473 2607
2270 1832 3300
1907 2074 4049
2718 2586 483
2715 2602 1557
2713 2617 2605
2461 2744 3296
2178 2863 4048
2782 3312 541
2756 3307 1670
2824 3303 2717
2883 3281 3294
2789 3369 4049
2814 4069 584
2783 4066 1755
2925 4065 2824
3104 4067 3458
3028 3992 4050
3367 386 386
3364 381 1151
3358 391 2702
3107 501 3303
2839 822 4052
3364 1254 380
3362 1250 1200
3357 1044 2548
3187 1703 3298
2965 2129 4048
3359 2571 417
3355 2642 1440
3350 2609 2588
3266 2729 3294
3091 2897 4048
3357 3281 646
3351 3285 1886
3348 3292 2766
3348 3302 3293
3199 3378 4050
3408 4071 766
3387 4067 2016
3371 4066 2814
3422 4068 3359
3468 4032 4052
4095 384 383
4095 375 1146
4095 366 2538
4095 555 3446
3589 618 4054
4095 1306 374
4095 1224 1166
4095 1053 2540
4095 1546 3346
3706 1928 4051
4095 2574 381
4095 2687 1337
4095 2602 2573
4095 2491 3256
3841 2831 4050
4095 3268 531
4095 3307 1778
4095 3313 2704
4095 3295 3281
3984 3367 4052
4095 4000 903
4095 4015 2170
4095 4032 2912
4095 4052 3390
4095 4070 4053
