Grading Edition presets/Toning - Style 14 - Warm counterpoint.3dl
#25pt 3DLUT created by 3D LUT Creator Pro (c) Oleg Sharonov
#Copyright Oleg Sharonov
#INPUTGAMMA sRGB IEC61966-2.1 v.2.10
#IMAGEPROFILE sRGB IEC61966-2.1 v.2.10
#OUTPUTGAMMA sRGB IEC61966-2.1 v.2.10
0 256 512 768 1023
537 213 389
684 320 592
998 574 1019
1377 927 1552
1751 1309 2036
1143 1009 814
1013 1076 1193
1325 1198 1626
1627 1446 2031
1933 1738 2370
2098 2284 1655
1966 2316 1979
1869 2393 2360
2213 2459 2646
2463 2568 2861
2926 3180 2510
2878 3193 2676
2801 3236 2894
2774 3295 3135
2975 3331 3338
3526 3913 3190
3507 3919 3291
3465 3948 3436
3442 3989 3598
3437 4040 3762
1372 259 417
1207 429 772
1248 700 1186
1548 1035 1667
1886 1396 2113
1703 1045 616
1389 1142 1332
1528 1269 1840
1812 1505 2165
2093 1786 2446
2365 2300 1604
2194 2345 1955
2008 2426 2429
2304 2491 2702
2531 2596 2910
3017 3190 2496
2965 3207 2637
2859 3253 2917
2830 3310 3167
3011 3347 3365
3568 3921 3188
3548 3930 3261
3498 3958 3444
3467 4000 3614
3464 4050 3781
2466 428 540
2303 628 911
2189 911 1514
2152 1285 1985
2261 1644 2328
2546 1190 477
2549 1194 1269
2462 1370 1982
2337 1699 2331
2465 1967 2571
2910 2356 1225
2860 2385 1694
2556 2497 2537
2594 2570 2906
2757 2668 3085
3294 3214 2388
3238 3235 2570
3060 3300 2935
2977 3361 3264
3126 3398 3454
3704 3944 3182
3687 3954 3236
3619 3988 3433
3549 4036 3663
3546 4083 3836
3213 796 833
3144 980 1124
3046 1277 1804
2994 1608 2280
3007 1903 2629
3227 1461 771
3259 1417 1454
3147 1685 2001
3101 1929 2480
3089 2181 2787
3353 2520 1064
3345 2529 1573
3336 2550 2460
3285 2636 2967
3222 2788 3178
3649 3287 2229
3629 3300 2419
3572 3340 2805
3415 3423 3303
3363 3485 3669
3969 3989 3063
3956 3999 3134
3901 4030 3370
3745 4095 3693
3710 4095 3917
3774 1519 1454
3741 1629 1655
3672 1879 2045
3616 2122 2557
3586 2367 2818
3771 1998 1423
3804 1942 1898
3729 2160 2214
3671 2358 2653
3638 2546 2922
3848 2738 1756
3848 2746 2034
3866 2746 2628
3800 2874 2906
3766 2988 3210
3975 3470 2357
3973 3475 2500
3967 3493 2850
3968 3516 3301
3934 3576 3667
4095 4095 3566
4095 4095 3589
4095 4095 3641
4095 4095 3753
4095 4095 3917
