Grading Edition presets/Toning - Style 6 v2.3dl
#25pt 3DLUT created by 3D LUT Creator Pro (c) Oleg Sharonov
#Copyright Oleg Sharonov
#IMAGEPROFILE sRGB IEC61966-2.1 v.2.10
#INPUTGAMMA sRGB IEC61966-2.1 v.2.10
#OUTPUTGAMMA sRGB IEC61966-2.1 v.2.10
0 43 86 128 171 214 256 299 341 384 427 469 512 555 597 640 682 725 768 810 853 896 938 981 1023 
413 406 406
413 406 423
412 406 506
412 410 653
410 418 878
408 430 1165
406 446 1484
404 466 1805
402 491 2098
401 520 2331
400 553 2510
399 590 2679
397 631 2834
396 676 2973
396 725 3093
395 778 3193
394 832 3279
393 886 3361
393 940 3443
392 993 3531
391 1044 3626
390 1093 3725
390 1142 3827
389 1192 3935
388 1248 4054
417 415 406
422 416 424
413 423 506
412 433 654
410 447 878
408 466 1166
406 488 1485
404 515 1806
402 546 2098
401 581 2331
399 620 2510
398 664 2679
397 713 2834
396 766 2973
395 823 3093
394 881 3193
393 941 3279
393 1000 3360
392 1058 3442
391 1114 3530
391 1167 3626
390 1218 3725
389 1268 3827
388 1320 3935
387 1377 4054
423 476 406
435 476 436
433 476 507
425 494 655
413 512 879
408 533 1166
406 560 1486
404 591 1807
402 627 2099
400 668 2332
399 716 2510
398 768 2678
396 824 2833
395 883 2972
394 945 3093
393 1008 3192
393 1071 3278
392 1133 3360
391 1194 3442
390 1251 3529
390 1306 3625
389 1358 3725
388 1409 3827
387 1461 3934
386 1518 4053
430 589 405
448 590 448
450 591 535
446 588 655
443 618 881
425 644 1168
411 674 1487
403 709 1807
401 750 2099
399 797 2331
398 850 2510
397 907 2678
395 967 2833
394 1030 2972
393 1094 3092
393 1160 3191
392 1225 3278
391 1288 3359
390 1349 3441
390 1406 3529
389 1461 3624
388 1512 3724
387 1562 3826
386 1613 3934
385 1669 4053
437 760 404
458 762 457
472 763 567
469 763 704
462 756 881
467 802 1169
444 840 1488
424 881 1808
408 924 2099
398 972 2331
397 1025 2510
396 1083 2678
394 1144 2832
393 1207 2971
392 1271 3091
391 1336 3191
391 1400 3277
390 1462 3358
389 1521 3440
389 1577 3528
388 1629 3624
387 1679 3723
386 1726 3825
385 1775 3933
384 1827 4052
445 993 404
469 995 467
495 996 597
494 997 753
490 997 953
480 983 1170
497 1045 1489
468 1091 1809
444 1138 2100
423 1188 2331
407 1239 2509
396 1293 2677
393 1351 2832
392 1410 2970
391 1472 3090
390 1533 3190
390 1593 3276
389 1651 3357
388 1707 3440
387 1758 3527
387 1807 3623
386 1852 3723
385 1896 3825
384 1940 3933
383 1987 4052
455 1266 405
480 1268 478
508 1270 615
523 1271 806
518 1271 1017
512 1267 1253
501 1251 1490
520 1320 1810
500 1374 2100
470 1425 2331
446 1476 2509
425 1529 2677
408 1581 2831
395 1634 2970
390 1688 3089
389 1743 3189
388 1797 3275
388 1848 3356
387 1898 3439
386 1944 3527
386 1986 3622
385 2026 3722
384 2064 3824
383 2101 3932
382 2141 4051
465 1558 407
493 1560 490
522 1562 635
557 1563 862
552 1563 1084
546 1563 1331
525 1521 1543
525 1538 1810
547 1608 2100
538 1667 2330
504 1716 2509
475 1766 2676
449 1815 2831
428 1863 2969
411 1910 3089
397 1955 3188
387 2000 3274
386 2044 3355
386 2085 3438
385 2122 3526
385 2157 3622
384 2190 3722
383 2220 3824
382 2250 3932
382 2281 4051
477 1846 410
507 1848 503
538 1849 657
574 1850 893
589 1850 1153
583 1850 1404
577 1850 1660
538 1774 1830
552 1821 2100
576 1887 2330
584 1946 2508
545 1990 2676
511 2034 2830
482 2076 2968
456 2116 3088
434 2155 3187
417 2190 3273
403 2223 3355
392 2254 3437
384 2282 3525
384 2308 3622
383 2332 3722
382 2354 3824
382 2376 3932
381 2401 4051
490 2107 415
522 2109 517
555 2110 680
593 2110 925
632 2110 1225
625 2110 1478
618 2110 1733
613 2110 1973
557 2020 2100
582 2080 2330
609 2137 2508
637 2189 2675
594 2225 2829
556 2258 2968
522 2290 3087
492 2319 3186
467 2346 3273
446 2371 3354
428 2395 3437
413 2417 3525
401 2437 3622
391 2458 3722
384 2477 3824
381 2498 3932
380 2520 4051
505 2320 421
539 2321 533
574 2322 705
614 2321 959
660 2321 1270
673 2320 1553
665 2319 1805
659 2319 2038
653 2318 2238
589 2246 2329
616 2293 2507
647 2334 2675
679 2372 2829
651 2402 2967
608 2428 3087
570 2454 3186
538 2479 3272
509 2503 3354
484 2525 3437
463 2546 3525
445 2566 3622
430 2584 3722
416 2602 3824
404 2620 3932
392 2640 4051
521 2486 428
557 2486 551
594 2486 733
636 2486 994
685 2485 1309
727 2484 1628
719 2483 1875
711 2482 2101
705 2482 2288
699 2482 2433
624 2418 2507
655 2456 2675
688 2493 2829
723 2529 2967
719 2559 3086
671 2584 3185
628 2608 3271
592 2630 3353
561 2651 3436
533 2671 3525
509 2690 3622
488 2707 3722
469 2724 3824
451 2740 3932
433 2759 4051
539 2642 438
577 2642 569
616 2642 761
660 2642 1030
711 2641 1348
769 2639 1682
778 2639 1944
770 2638 2159
762 2638 2333
756 2638 2474
750 2638 2609
663 2573 2675
697 2609 2829
733 2644 2967
770 2677 3086
798 2708 3184
746 2730 3271
699 2752 3353
658 2771 3436
623 2790 3525
593 2807 3622
566 2823 3722
542 2838 3825
518 2854 3932
495 2871 4052
558 2789 448
598 2789 589
639 2789 791
686 2788 1068
740 2787 1388
799 2786 1720
842 2785 2010
833 2784 2214
825 2784 2374
818 2784 2514
811 2784 2648
804 2783 2772
706 2720 2829
742 2753 2967
780 2785 3086
819 2815 3184
858 2844 3270
832 2866 3352
782 2884 3435
739 2901 3524
700 2916 3622
666 2931 3722
635 2945 3825
605 2959 3933
575 2974 4052
578 2925 459
620 2925 610
664 2924 823
713 2923 1106
770 2922 1428
831 2920 1759
899 2919 2064
901 2919 2266
893 2918 2415
885 2918 2553
877 2918 2685
870 2918 2808
839 2904 2907
753 2856 2967
791 2886 3085
830 2914 3184
869 2941 3270
908 2966 3351
929 2987 3435
878 3003 3524
833 3017 3621
792 3030 3722
753 3042 3825
716 3054 3933
678 3068 4052
599 3047 472
644 3047 632
690 3046 855
742 3045 1144
801 3043 1469
865 3041 1797
934 3040 2096
973 3039 2312
964 3039 2455
956 3039 2592
947 3039 2722
940 3038 2843
933 3038 2953
878 3015 3028
802 2980 3085
841 3006 3184
881 3030 3269
920 3053 3351
958 3073 3434
995 3091 3524
986 3105 3621
939 3117 3722
895 3127 3825
852 3138 3933
807 3150 4052
621 3152 486
669 3152 656
718 3151 889
773 3149 1184
833 3147 1510
899 3146 1835
970 3144 2127
1045 3143 2352
1039 3143 2495
1030 3142 2630
1021 3142 2758
1013 3142 2876
1006 3142 2984
999 3142 3078
923 3114 3133
853 3088 3183
892 3110 3269
932 3129 3351
970 3147 3434
1008 3164 3524
1043 3179 3621
1076 3192 3722
1055 3203 3824
1007 3213 3933
956 3224 4052
645 3244 501
696 3243 682
748 3242 924
805 3240 1223
867 3238 1550
935 3236 1873
1007 3235 2158
1083 3234 2374
1117 3233 2535
1107 3233 2668
1098 3232 2793
1089 3232 2909
1081 3232 3013
1074 3232 3104
1068 3232 3183
975 3203 3224
905 3180 3269
944 3198 3351
983 3215 3434
1020 3230 3524
1055 3244 3621
1090 3258 3722
1123 3270 3825
1157 3283 3933
1121 3294 4052
671 3330 517
725 3329 709
779 3328 959
838 3326 1264
902 3324 1591
971 3323 1910
1045 3321 2188
1122 3320 2396
1197 3319 2574
1187 3319 2705
1177 3318 2827
1168 3318 2940
1159 3318 3041
1151 3318 3129
1144 3318 3205
1138 3318 3275
1035 3286 3310
957 3263 3351
996 3279 3434
1033 3294 3524
1068 3309 3621
1102 3322 3722
1136 3335 3825
1171 3349 3933
1209 3364 4052
698 3420 535
755 3419 737
811 3418 996
872 3416 1304
938 3414 1632
1008 3412 1947
1083 3411 2216
1162 3410 2417
1243 3409 2597
1268 3409 2741
1258 3408 2861
1249 3408 2971
1239 3408 3068
1231 3408 3152
1223 3408 3227
1217 3408 3296
1211 3409 3364
1106 3374 3399
1009 3344 3434
1046 3360 3524
1082 3375 3621
1116 3389 3722
1149 3404 3825
1184 3418 3933
1222 3435 4052
727 3521 553
786 3521 767
844 3519 1033
907 3518 1345
974 3516 1672
1046 3515 1982
1122 3513 2244
1202 3513 2438
1283 3512 2616
1350 3512 2776
1340 3511 2893
1330 3511 3000
1321 3512 3094
1312 3512 3175
1304 3512 3248
1296 3512 3317
1290 3512 3387
1284 3512 3460
1189 3476 3501
1060 3430 3524
1095 3446 3622
1129 3463 3722
1163 3479 3825
1197 3496 3933
1235 3515 4052
757 3643 572
818 3642 797
878 3641 1070
942 3640 1385
1011 3638 1711
1084 3637 2017
1161 3636 2270
1242 3635 2459
1324 3635 2636
1407 3635 2800
1422 3635 2925
1412 3635 3028
1403 3635 3118
1394 3635 3197
1385 3635 3269
1377 3636 3339
1370 3636 3411
1364 3636 3487
1358 3636 3569
1284 3604 3622
1112 3528 3623
1143 3546 3722
1176 3565 3825
1211 3584 3933
1249 3606 4053
788 3779 592
851 3778 829
913 3777 1109
979 3776 1426
1049 3775 1751
1123 3774 2051
1201 3773 2294
1282 3772 2480
1364 3772 2655
1448 3772 2818
1504 3772 2955
1494 3772 3055
1485 3772 3141
1476 3773 3218
1467 3773 3289
1459 3773 3360
1451 3774 3435
1444 3774 3515
1438 3774 3601
1433 3774 3690
1393 3756 3759
1227 3675 3759
1191 3661 3825
1225 3683 3933
1263 3706 4053
820 3924 613
886 3923 861
949 3922 1147
1016 3921 1467
1088 3920 1789
1163 3919 2084
1241 3918 2317
1323 3918 2500
1405 3917 2674
1489 3917 2835
1572 3917 2979
1576 3917 3080
1567 3918 3164
1558 3918 3238
1549 3918 3310
1541 3919 3383
1533 3919 3460
1526 3919 3544
1519 3919 3634
1513 3919 3724
1508 3919 3813
1504 3919 3898
1349 3841 3903
1239 3787 3933
1277 3812 4053
854 4073 635
921 4072 895
986 4071 1187
1055 4070 1508
1127 4069 1828
1203 4068 2116
1282 4067 2339
1364 4067 2521
1447 4066 2693
1530 4066 2852
1613 4066 2994
1658 4066 3105
1649 4067 3185
1640 4067 3259
1631 4068 3331
1622 4068 3406
1614 4068 3486
1607 4068 3575
1600 4068 3668
1594 4069 3760
1589 4069 3850
1584 4069 3936
1580 4069 4020
1472 4014 4052
1292 3921 4053
445 406 406
427 406 423
416 406 506
412 407 653
410 413 878
408 422 1165
406 435 1484
404 452 1805
402 474 2098
401 501 2331
400 531 2510
399 566 2679
398 604 2834
397 646 2973
396 691 3093
395 741 3193
394 792 3280
394 845 3361
393 897 3443
392 948 3531
392 997 3626
391 1045 3726
390 1093 3828
389 1142 3935
388 1197 4054
447 415 406
448 417 424
430 423 506
417 431 654
410 442 878
408 458 1165
406 478 1485
404 502 1806
402 531 2098
401 564 2331
399 601 2510
398 642 2679
397 688 2834
396 739 2973
395 793 3093
394 849 3193
394 907 3279
393 964 3360
392 1021 3443
392 1075 3530
391 1128 3626
390 1178 3725
389 1228 3827
388 1279 3935
387 1336 4054
450 476 406
470 476 433
471 478 507
451 494 655
432 511 880
416 531 1167
406 554 1486
404 582 1807
402 615 2098
400 653 2332
399 697 2510
398 746 2679
396 799 2833
395 856 2972
394 916 3093
394 977 3192
393 1039 3279
392 1099 3360
391 1159 3442
391 1215 3530
390 1269 3625
389 1321 3725
388 1371 3827
387 1423 3934
386 1479 4053
455 589 405
481 590 440
494 591 532
491 592 656
477 619 881
452 645 1168
431 674 1487
415 706 1808
402 742 2099
399 786 2331
398 835 2510
397 889 2678
396 946 2833
395 1006 2972
394 1069 3092
393 1132 3192
392 1196 3278
391 1258 3359
390 1317 3441
390 1374 3529
389 1428 3625
388 1479 3724
387 1529 3826
386 1579 3934
385 1634 4053
466 760 403
494 762 448
524 763 562
520 763 698
513 761 882
509 804 1170
478 841 1489
452 881 1809
431 924 2100
414 969 2331
401 1018 2510
396 1071 2678
394 1129 2832
393 1189 2971
392 1251 3091
392 1314 3191
391 1376 3277
390 1436 3358
389 1495 3440
389 1550 3528
388 1601 3624
387 1650 3724
386 1698 3826
385 1745 3933
384 1797 4052
478 993 402
508 995 457
540 997 580
553 997 747
548 997 945
538 991 1170
547 1048 1490
511 1092 1810
480 1139 2100
454 1188 2331
432 1239 2510
414 1291 2677
400 1344 2832
392 1400 2970
391 1458 3090
390 1517 3190
390 1575 3276
389 1632 3357
388 1686 3440
388 1737 3527
387 1785 3623
386 1830 3723
385 1873 3825
384 1916 3933
383 1963 4052
490 1266 402
523 1269 466
556 1270 597
590 1272 799
584 1272 1010
579 1272 1249
566 1259 1490
590 1327 1811
550 1376 2101
515 1426 2331
484 1477 2509
457 1529 2677
435 1581 2831
416 1632 2970
402 1683 3090
391 1735 3189
388 1786 3275
388 1836 3356
387 1884 3439
386 1929 3527
386 1970 3623
385 2009 3722
384 2047 3824
383 2084 3932
383 2124 4051
504 1558 403
538 1561 477
574 1562 616
615 1563 835
625 1564 1076
619 1564 1322
596 1530 1544
597 1546 1811
623 1615 2101
596 1669 2331
556 1718 2509
521 1767 2676
490 1815 2831
463 1863 2969
440 1910 3089
421 1955 3188
406 1997 3274
394 2038 3355
386 2077 3438
385 2114 3526
385 2148 3622
384 2180 3722
383 2209 3824
383 2239 3932
382 2270 4051
519 1846 405
556 1848 490
593 1850 636
635 1851 864
671 1851 1145
664 1851 1395
658 1851 1651
613 1783 1831
631 1829 2100
661 1894 2330
651 1948 2508
605 1992 2676
565 2035 2830
530 2077 2968
499 2117 3088
472 2155 3187
449 2190 3273
430 2223 3355
415 2253 3437
402 2280 3526
392 2304 3622
384 2327 3722
382 2348 3824
382 2370 3932
381 2394 4051
535 2108 409
574 2109 503
613 2110 658
658 2111 896
709 2111 1198
716 2110 1469
709 2110 1724
702 2110 1965
638 2028 2100
669 2087 2330
703 2142 2507
715 2191 2675
663 2226 2829
617 2259 2968
578 2290 3087
543 2320 3186
513 2346 3273
487 2371 3354
464 2394 3437
445 2417 3526
429 2437 3622
416 2456 3722
404 2475 3824
394 2495 3932
385 2517 4051
553 2321 414
594 2322 518
635 2322 682
683 2322 928
737 2321 1235
774 2320 1544
766 2319 1796
758 2319 2030
751 2318 2231
677 2252 2329
713 2298 2507
749 2338 2675
788 2376 2829
731 2402 2967
680 2429 3087
635 2454 3186
597 2479 3272
563 2503 3354
534 2525 3437
509 2546 3525
487 2566 3622
467 2584 3722
450 2602 3824
434 2620 3932
419 2639 4051
