Grading Edition presets/Toning - Style 12 - Grunge.3dl
#25pt 3DLUT created by 3D LUT Creator Pro (c) Oleg Sharonov
#Copyright Oleg Sharonov
#IMAGEPROFILE sRGB IEC61966-2.1 v.2.10
#INPUTGAMMA sRGB IEC61966-2.1 v.2.10
#OUTPUTGAMMA sRGB IEC61966-2.1 v.2.10
0 128 256 384 512 640 768 896 1023
79 28 0
101 48 0
166 109 22
285 221 126
397 330 237
512 442 360
638 566 506
777 705 681
934 863 885
274 274 43
216 262 52
299 312 156
391 363 247
482 434 346
585 530 463
702 645 606
837 778 780
990 932 982
534 590 223
460 576 210
429 565 244
503 634 392
626 694 530
742 768 676
863 863 838
996 980 1020
1146 1125 1219
862 1023 473
772 1019 454
724 999 465
696 998 527
786 1088 734
912 1171 941
1069 1257 1142
1227 1361 1346
1388 1483 1557
1291 1594 821
1174 1606 809
1119 1589 795
1070 1581 841
1046 1595 942
1155 1692 1208
1271 1791 1469
1466 1879 1705
1654 1979 1950
1799 2236 1269
1661 2257 1267
1607 2252 1238
1553 2248 1265
1510 2256 1348
1492 2282 1483
1612 2366 1778
1724 2454 2090
1911 2532 2366
2330 2832 1779
2195 2857 1786
2141 2861 1756
2091 2864 1763
2046 2874 1831
2013 2893 1956
2002 2924 2128
2122 2987 2449
2230 3052 2734
2820 3324 2368
2693 3346 2382
2639 3355 2358
2602 3362 2349
2564 3374 2395
2533 3390 2491
2513 3413 2625
2509 3444 2788
2611 3486 3046
3244 3742 2904
3140 3763 2920
3088 3776 2910
3062 3786 2893
3034 3800 2917
3008 3818 2980
2988 3840 3073
2978 3867 3190
2979 3900 3329
173 51 0
207 89 0
304 174 80
379 274 172
466 371 272
571 481 393
690 604 537
826 742 712
981 900 915
380 250 38
467 397 199
457 388 259
494 424 320
564 493 404
655 583 515
765 693 655
895 824 826
1046 976 1025
687 534 214
657 689 329
582 680 352
602 697 472
702 737 600
804 802 738
914 893 893
1042 1013 1065
1189 1158 1257
1062 961 436
951 1100 554
834 1086 543
802 1086 611
853 1146 804
978 1212 1002
1127 1290 1197
1277 1388 1395
1432 1507 1601
1522 1535 764
1361 1651 892
1212 1653 866
1158 1643 908
1132 1658 1012
1215 1738 1264
1328 1824 1518
1516 1905 1749
1698 2002 1994
2037 2185 1211
1853 2273 1327
1684 2291 1301
1625 2287 1319
1580 2295 1401
1561 2320 1537
1663 2396 1824
1763 2478 2132
1952 2550 2401
2539 2792 1725
2366 2855 1829
2199 2883 1814
2148 2886 1808
2100 2895 1875
2067 2914 1999
2055 2945 2171
2162 3003 2481
2259 3066 2761
3001 3296 2315
2845 3336 2405
2681 3365 2407
2640 3373 2385
2602 3384 2427
2570 3400 2520
2549 3423 2653
2546 3454 2814
2639 3495 3065
3389 3718 2864
3260 3750 2929
3120 3780 2939
3087 3792 2919
3059 3806 2938
3033 3823 2998
3013 3846 3090
3002 3873 3206
3004 3905 3344
430 143 10
409 177 36
460 255 109
540 340 218
622 438 347
703 547 466
807 668 611
935 806 785
1083 963 985
517 280 81
566 312 132
635 431 246
692 481 358
734 562 471
800 657 586
894 768 728
1015 900 897
1158 1052 1092
744 543 216
839 662 338
928 857 587
911 840 699
928 857 782
985 915 886
1072 1003 1017
1185 1118 1174
1320 1256 1356
1175 927 458
1239 1014 548
1183 1277 778
1090 1286 834
1049 1286 992
1161 1308 1166
1280 1366 1341
1406 1454 1522
1543 1565 1712
1740 1474 819
1740 1552 869
1539 1786 1074
1387 1791 1080
1358 1807 1191
1371 1848 1410
1480 1904 1644
1647 1969 1869
1811 2056 2105
2266 2134 1213
2242 2191 1237
1986 2361 1473
1807 2378 1457
1756 2386 1533
1737 2411 1672
1791 2466 1945
1863 2535 2239
2059 2594 2489
2751 2757 1656
2712 2791 1726
2456 2908 1956
2280 2937 1933
2231 2946 1986
2199 2964 2107
2188 2994 2276
2257 3043 2563
2333 3099 2827
3175 3272 2249
3138 3292 2310
2907 3366 2498
2736 3398 2483
2693 3409 2506
2660 3426 2593
2640 3448 2721
2636 3478 2877
2709 3516 3111
3539 3699 2814
3502 3713 2857
3299 3769 2989
3150 3804 2988
3120 3819 2990
3093 3837 3043
3073 3859 3131
3063 3886 3246
3065 3918 3382
666 257 91
641 282 111
633 330 156
709 420 252
807 523 385
924 630 557
1021 758 729
1131 900 903
1265 1059 1102
731 358 150
751 359 169
769 441 241
849 548 358
936 633 494
1044 729 681
1115 855 839
1216 993 1010
1342 1148 1204
901 593 274
968 639 338
1105 733 479
1179 897 657
1240 923 801
1277 1004 974
1322 1107 1114
1406 1228 1273
1518 1367 1452
1283 966 479
1350 1055 574
1483 1262 820
1527 1469 1142
1519 1461 1321
1529 1471 1441
1578 1522 1565
1657 1604 1704
1761 1712 1869
1838 1483 818
1876 1545 895
1959 1695 1089
1836 1983 1393
1744 2014 1484
1653 2018 1671
1767 2027 1880
1888 2071 2093
2015 2143 2298
2436 2108 1285
2454 2150 1347
2471 2256 1483
2210 2497 1727
2057 2523 1758
2037 2548 1908
2013 2578 2153
2086 2619 2415
2246 2663 2641
2960 2719 1800
2949 2749 1830
2905 2827 1889
2608 2994 2175
2444 3024 2177
2407 3042 2287
2398 3070 2450
2417 3106 2699
2461 3152 2941
3354 3247 2324
3337 3264 2336
3284 3310 2365
3010 3416 2653
2849 3450 2646
2812 3467 2716
2791 3489 2835
2788 3517 2981
2827 3551 3191
3709 3681 2803
3690 3693 2805
3627 3722 2890
3366 3802 3089
3222 3841 3083
3193 3860 3120
3172 3882 3203
3163 3908 3314
3165 3940 3447
949 383 187
922 407 207
901 443 241
935 526 326
1031 624 440
1150 743 604
1287 870 810
1437 1007 1058
1538 1179 1259
1010 471 244
1040 469 256
995 512 295
1060 620 403
1156 728 533
1266 838 702
1393 961 916
1522 1098 1159
1616 1265 1355
1190 664 362
1194 670 385
1277 707 457
1366 876 619
1451 1015 789
1538 1093 960
1644 1195 1193
1715 1329 1406
1795 1477 1587
1477 1078 565
1532 1118 627
1660 1218 790
1824 1356 1037
1862 1538 1255
1935 1545 1429
1969 1616 1648
1992 1719 1798
2053 1837 1978
1989 1558 867
2027 1621 948
2110 1770 1150
2201 1988 1475
2191 2161 1802
2195 2166 2045
2208 2179 2211
2247 2221 2360
2310 2288 2509
2551 2155 1306
2567 2192 1368
2607 2284 1521
2656 2428 1773
2487 2655 2111
2413 2695 2230
2313 2715 2446
2408 2720 2664
2513 2749 2855
3073 2740 1837
3079 2762 1889
3093 2816 2019
3101 2907 2226
2815 3099 2474
2690 3133 2527
2680 3160 2677
2641 3186 2882
2675 3216 3092
3507 3241 2449
3507 3252 2486
3499 3283 2563
3437 3350 2626
3149 3482 2864
3017 3519 2883
2993 3541 2985
2991 3569 3116
2989 3599 3304
3883 3667 2955
3871 3676 2964
3838 3701 2986
3763 3748 3001
3463 3847 3229
3331 3889 3235
3307 3912 3305
3297 3938 3411
3299 3968 3538
1321 532 308
1290 555 328
1266 590 361
1245 642 414
1325 759 541
1436 874 686
1567 1015 887
1711 1164 1123
1867 1320 1392
1373 615 365
1411 608 372
1362 652 412
1339 708 469
1438 848 620
1544 969 774
1667 1104 977
1802 1247 1215
1950 1397 1486
1556 794 483
1561 800 502
1607 803 538
1619 918 649
1708 1088 832
1799 1219 1005
1901 1330 1204
2018 1457 1447
2148 1591 1722
1818 1128 679
1846 1150 718
1931 1218 830
2054 1298 984
2113 1516 1210
2173 1664 1412
2249 1724 1596
2333 1813 1848
2399 1932 2121
2197 1707 985
2221 1749 1041
2283 1845 1186
2409 1963 1441
2532 2094 1736
2530 2247 1962
2609 2247 2167
2645 2297 2430
2651 2385 2586
2705 2250 1383
2721 2287 1447
2756 2376 1606
2802 2515 1871
2830 2673 2226
2786 2790 2540
2799 2804 2773
2817 2822 2931
2851 2858 3060
3186 2804 1892
3191 2824 1944
3202 2874 2072
3217 2955 2280
3225 3056 2547
3050 3205 2816
2994 3242 2924
2906 3270 3103
2982 3278 3282
3603 3283 2483
3603 3293 2519
3603 3318 2606
3601 3360 2747
3591 3418 2930
3313 3558 3104
3221 3598 3158
3218 3624 3281
3180 3655 3447
4002 3691 3014
3999 3696 3035
3993 3710 3087
3979 3734 3175
3901 3789 3231
3589 3902 3406
3478 3946 3435
3464 3972 3531
3466 4001 3651
1765 709 458
1733 733 479
1707 769 512
1683 821 566
1679 902 655
1784 1048 822
1901 1184 1001
2031 1343 1229
2172 1506 1483
1806 791 516
1849 781 520
1799 827 562
1768 883 619
1780 979 722
1880 1132 899
1991 1271 1083
2114 1423 1309
2243 1581 1563
1975 968 640
1982 973 657
2037 970 686
1969 1042 756
2023 1180 900
2108 1351 1099
2202 1490 1289
2300 1623 1509
2409 1765 1759
2234 1286 850
2237 1292 872
2246 1308 927
2335 1349 1030
2382 1547 1228
2433 1739 1454
2497 1872 1643
2577 1965 1851
2664 2076 2121
2527 1790 1150
2549 1811 1192
2603 1864 1301
2686 1956 1483
2787 2046 1689
2795 2248 1935
2823 2370 2152
2892 2408 2348
2960 2473 2599
2891 2399 1524
2901 2424 1571
2925 2487 1687
2960 2590 1892
3045 2682 2207
3120 2769 2514
3097 2879 2699
3173 2878 2879
3212 2910 3100
3319 2902 2001
3322 2921 2054
3331 2968 2183
3342 3042 2391
3347 3135 2654
3334 3226 2924
3281 3297 3146
3296 3313 3338
3316 3333 3484
3717 3346 2556
3717 3356 2591
3716 3379 2676
3713 3417 2813
3704 3470 2987
3683 3532 3178
3498 3638 3366
3456 3675 3460
3385 3711 3626
4095 3742 3059
4095 3747 3079
4095 3759 3130
4087 3781 3216
4064 3811 3333
4030 3850 3476
3737 3963 3613
3657 4007 3672
3658 4034 3785
2247 925 645
2218 951 670
2193 988 705
2169 1043 761
2148 1117 841
2180 1244 985
2273 1395 1170
2376 1546 1373
2488 1713 1616
2274 1010 708
2316 996 709
2269 1046 755
2242 1103 813
2218 1178 896
2259 1317 1051
2346 1472 1242
2443 1623 1446
2550 1783 1686
2409 1185 837
2417 1189 852
2472 1180 874
2412 1256 949
2381 1336 1035
2444 1503 1220
2517 1667 1423
2602 1814 1628
2695 1958 1866
2630 1488 1052
2634 1494 1072
2643 1508 1119
2700 1512 1180
2687 1658 1329
2728 1831 1519
2777 2002 1735
2840 2139 1950
2915 2246 2185
2889 1934 1349
2892 1938 1373
2914 1967 1445
2970 2037 1584
3048 2090 1731
3055 2281 1961
3069 2442 2202
3106 2550 2399
3166 2614 2596
3156 2517 1723
3168 2529 1760
3197 2560 1859
3242 2614 2035
3298 2688 2271
3362 2756 2498
3338 2902 2704
3345 2990 2871
3407 3014 3024
3470 3031 2167
3472 3045 2206
3478 3077 2303
3486 3130 2461
3493 3200 2671
3536 3255 2929
3580 3302 3151
3546 3373 3279
3624 3375 3430
3850 3431 2668
3848 3440 2702
3845 3461 2785
3838 3497 2917
3825 3546 3082
3800 3603 3268
3761 3661 3462
3700 3714 3644
3718 3732 3823
4095 3833 3402
4095 3836 3405
4095 3846 3431
4095 3862 3478
4095 3885 3542
4095 3911 3598
4095 3945 3692
3905 4028 3844
3868 4066 3933
2707 1184 877
2679 1211 904
2656 1250 941
2633 1306 998
2613 1380 1078
2596 1472 1185
2649 1639 1380
2732 1785 1568
2822 1941 1783
2723 1271 943
2763 1252 940
2721 1304 991
2695 1363 1050
2672 1438 1131
2652 1531 1238
2710 1706 1442
2788 1854 1632
2873 2008 1852
2832 1441 1073
2839 1444 1086
2893 1430 1103
2839 1506 1180
2810 1584 1264
2803 1695 1388
2855 1873 1597
2919 2023 1792
2992 2171 2026
3014 1729 1289
3017 1734 1305
3027 1746 1347
3082 1741 1396
3021 1840 1499
3040 1986 1658
3072 2159 1870
3115 2301 2093
3168 2430 2314
3228 2139 1585
3230 2144 1605
3235 2157 1655
3248 2183 1741
3310 2207 1854
3310 2379 2069
3319 2528 2278
3338 2663 2493
3373 2769 2682
3444 2623 1955
3452 2632 1986
3470 2656 2066
3501 2698 2200
3541 2757 2380
3601 2800 2551
3578 2944 2742
3568 3057 2923
3587 3133 3065
3668 3155 2387
3675 3161 2418
3692 3175 2497
3719 3198 2628
3754 3232 2802
3792 3276 2998
3837 3316 3167
3790 3408 3304
3787 3467 3426
3997 3538 2818
3995 3544 2842
3992 3560 2903
3986 3586 3002
3974 3624 3132
3956 3671 3288
3972 3704 3483
3998 3732 3665
3956 3787 3769
4095 3947 3740
4095 3951 3755
4095 3957 3762
4095 3970 3797
4095 3988 3838
4095 4010 3891
4095 4035 3948
4095 4063 4015
4095 4095 4095
