Grading Edition presets/Toning - Style 2.3dl
#25pt 3DLUT created by 3D LUT Creator Pro (c) Oleg Sharonov
#Copyright Oleg Sharonov
#IMAGEPROFILE sRGB IEC61966-2.1 v.2.10
#INPUTGAMMA sRGB IEC61966-2.1 v.2.10
#OUTPUTGAMMA sRGB IEC61966-2.1 v.2.10
0 43 86 128 171 214 256 299 341 384 427 469 512 555 597 640 682 725 768 810 853 896 938 981 1023 
305 286 444
305 287 455
306 288 479
307 290 523
309 293 583
312 298 659
318 306 755
325 317 873
336 331 1009
350 348 1170
366 365 1348
384 384 1542
405 405 1744
427 427 1952
453 453 2162
480 481 2368
511 512 2568
544 544 2751
580 580 2921
618 618 3074
659 659 3205
703 703 3321
751 751 3428
802 802 3521
856 856 3598
308 326 445
305 330 470
306 330 511
309 331 574
312 334 646
317 341 731
323 349 834
333 359 959
344 371 1099
359 384 1261
374 400 1438
393 418 1629
414 438 1826
437 460 2029
462 485 2232
491 513 2430
520 543 2620
554 576 2799
590 611 2962
628 649 3107
669 690 3231
714 734 3344
762 782 3447
813 833 3537
867 887 3610
315 393 448
309 395 481
306 399 523
308 399 586
312 400 673
320 402 781
328 408 899
339 414 1033
352 424 1186
367 436 1354
385 450 1534
403 466 1721
425 486 1919
448 508 2118
474 531 2314
503 558 2505
533 587 2686
567 619 2855
602 654 3009
642 691 3146
682 732 3264
727 776 3373
775 823 3471
827 874 3556
881 928 3624
329 483 454
323 485 486
313 489 546
307 495 605
311 496 693
319 496 803
331 497 945
346 501 1106
361 508 1274
378 517 1451
396 529 1641
417 543 1832
439 561 2027
464 580 2222
491 602 2413
520 628 2596
551 656 2770
585 687 2929
622 721 3072
661 758 3198
702 799 3309
747 842 3413
796 889 3504
848 940 3582
903 992 3643
356 603 466
341 609 493
339 608 560
318 614 641
309 622 718
316 624 831
329 624 973
347 625 1147
369 626 1346
388 632 1541
409 641 1742
431 652 1941
455 666 2139
481 684 2333
509 704 2520
540 728 2696
573 755 2862
607 784 3009
645 817 3141
685 854 3257
728 893 3362
774 936 3459
824 982 3543
876 1030 3612
931 1082 3665
393 752 485
366 763 502
377 759 569
355 763 665
327 772 767
314 781 865
325 782 1010
344 784 1183
366 784 1381
392 786 1599
421 789 1828
445 798 2039
471 810 2243
500 824 2439
530 842 2624
562 863 2795
596 889 2952
633 916 3090
671 947 3211
714 981 3319
758 1019 3419
806 1059 3507
856 1102 3582
910 1149 3642
966 1198 3688
438 939 511
403 951 519
409 950 581
414 947 682
374 957 803
340 967 931
322 979 1055
339 981 1229
361 982 1427
388 982 1642
419 986 1873
452 987 2107
487 992 2333
518 1004 2532
550 1019 2716
585 1036 2884
622 1058 3034
660 1083 3163
701 1110 3276
745 1141 3380
792 1175 3473
842 1212 3554
894 1252 3619
948 1295 3669
1006 1341 3713
494 1156 544
461 1168 553
449 1172 597
467 1167 698
443 1171 831
397 1183 984
357 1195 1138
335 1208 1282
356 1209 1479
383 1211 1693
414 1212 1920
450 1215 2153
489 1217 2381
531 1221 2602
572 1229 2797
609 1243 2961
648 1260 3105
689 1281 3228
733 1304 3338
779 1331 3437
829 1361 3524
881 1394 3596
935 1430 3651
992 1468 3696
1050 1510 3738
561 1396 584
529 1407 593
498 1416 619
515 1412 718
531 1406 857
476 1419 1025
421 1432 1206
378 1445 1379
352 1459 1539
378 1461 1752
408 1463 1976
445 1464 2203
486 1467 2429
530 1469 2644
578 1473 2843
628 1478 3022
674 1489 3165
718 1505 3284
765 1524 3392
815 1547 3487
867 1571 3567
921 1599 3630
978 1631 3678
1037 1665 3722
1098 1701 3761
636 1652 632
606 1661 641
563 1674 654
573 1673 745
596 1666 884
578 1669 1063
511 1682 1260
451 1696 1460
402 1711 1647
373 1726 1816
402 1728 2037
438 1729 2259
480 1731 2480
526 1733 2689
576 1736 2882
629 1740 3055
686 1744 3202
747 1751 3332
799 1765 3439
852 1782 3529
907 1802 3602
965 1825 3657
1024 1851 3703
1085 1880 3745
1148 1911 3782
725 1916 689
696 1924 698
655 1936 712
639 1940 778
663 1934 917
690 1927 1101
625 1939 1309
551 1953 1527
483 1968 1737
431 1983 1930
399 1999 2103
432 2000 2321
473 2002 2535
520 2004 2738
572 2006 2924
627 2008 3090
687 2012 3231
751 2016 3358
819 2022 3471
889 2030 3564
947 2046 3630
1008 2064 3681
1070 2085 3726
1134 2108 3766
1200 2134 3800
827 2180 756
799 2186 765
760 2197 779
716 2207 819
741 2202 959
769 2195 1141
761 2196 1360
676 2209 1586
595 2224 1814
522 2239 2026
464 2254 2218
428 2269 2385
467 2271 2594
513 2272 2789
565 2274 2968
622 2276 3126
684 2278 3261
751 2282 3385
823 2286 3493
898 2291 3583
976 2297 3649
1051 2307 3701
1117 2323 3746
1184 2341 3784
1253 2362 3816
944 2436 835
917 2443 845
878 2451 859
817 2464 882
830 2462 1009
861 2456 1189
894 2449 1408
832 2457 1646
733 2472 1881
644 2485 2109
565 2500 2315
503 2515 2497
463 2530 2654
507 2531 2843
558 2532 3014
616 2534 3163
679 2536 3293
749 2538 3412
823 2541 3516
902 2545 3600
984 2549 3661
1069 2555 3714
1156 2561 3761
1234 2573 3799
1305 2588 3829
1074 2678 928
1048 2684 939
1012 2691 953
953 2701 976
933 2705 1070
964 2700 1247
998 2694 1461
1003 2692 1705
908 2703 1947
796 2717 2180
699 2731 2399
614 2744 2591
547 2758 2756
503 2772 2897
552 2773 3060
610 2774 3201
673 2776 3327
744 2777 3441
821 2779 3539
903 2781 3616
989 2784 3674
1078 2788 3725
1168 2793 3770
1261 2798 3808
1355 2805 3840
1216 2899 1036
1191 2903 1047
1157 2908 1062
1102 2917 1084
1047 2925 1140
1078 2921 1314
1113 2916 1523
1150 2910 1763
1099 2914 2012
987 2925 2249
866 2938 2472
761 2950 2671
669 2963 2843
598 2975 2987
550 2987 3106
604 2988 3240
667 2989 3361
738 2990 3470
817 2991 3562
902 2992 3632
990 2994 3687
1083 2997 3737
1177 2999 3780
1274 3003 3816
1372 3007 3846
1368 3090 1158
1345 3093 1169
1313 3097 1183
1262 3104 1206
1187 3113 1236
1203 3111 1392
1237 3106 1596
1275 3102 1827
1295 3098 2077
1199 3105 2318
1073 3116 2540
944 3127 2741
831 3138 2916
732 3149 3062
654 3160 3180
602 3171 3279
662 3172 3396
732 3172 3499
811 3173 3584
899 3174 3648
990 3175 3701
1085 3177 3749
1184 3179 3790
1284 3181 3824
1385 3184 3853
1529 3258 1293
1507 3260 1303
1477 3264 1318
1430 3270 1340
1361 3277 1369
1337 3280 1481
1371 3276 1677
1408 3271 1901
1448 3266 2142
1412 3268 2384
1302 3276 2606
1164 3287 2805
1029 3298 2979
909 3308 3124
803 3319 3242
718 3329 3344
661 3339 3430
729 3340 3528
807 3340 3606
893 3341 3664
987 3342 3715
1085 3342 3761
1187 3344 3800
1291 3345 3832
1396 3347 3859
1695 3410 1439
1675 3412 1450
1647 3415 1463
1604 3419 1484
1541 3426 1513
1480 3432 1579
1512 3428 1768
1548 3424 1982
1588 3420 2213
1624 3415 2450
1531 3421 2672
1408 3429 2867
1259 3439 3036
1120 3449 3177
995 3458 3296
883 3467 3399
791 3476 3485
728 3484 3555
804 3484 3626
890 3485 3680
983 3485 3729
1083 3485 3773
1187 3485 3809
1295 3486 3840
1403 3487 3865
1867 3536 1596
1849 3537 1606
1823 3539 1619
1783 3543 1639
1725 3547 1667
1645 3553 1703
1661 3551 1869
1696 3548 2073
1735 3545 2292
1775 3541 2517
1756 3541 2735
1652 3545 2926
1519 3552 3089
1362 3560 3224
1219 3567 3344
1087 3574 3447
970 3581 3531
873 3587 3596
805 3593 3644
887 3593 3696
980 3593 3744
1081 3593 3785
1186 3592 3819
1297 3592 3848
1409 3592 3872
2041 3627 1762
2024 3628 1771
2001 3629 1784
1964 3632 1803
1912 3635 1829
1840 3639 1863
1816 3640 1978
1849 3637 2170
1886 3634 2377
1926 3631 2590
1966 3628 2798
1888 3630 2983
1775 3635 3140
1633 3641 3270
1470 3647 3387
1324 3654 3487
1189 3660 3568
1067 3666 3627
963 3672 3673
890 3678 3712
980 3677 3758
1079 3677 3797
1185 3677 3829
1297 3677 3856
1412 3676 3878
2214 3704 1933
2200 3705 1942
2179 3706 1953
2146 3708 1971
2099 3711 1995
2034 3715 2027
1974 3718 2094
2005 3715 2275
2040 3713 2468
2078 3710 2666
2117 3707 2860
2115 3706 3038
2021 3709 3187
1900 3714 3315
1750 3720 3428
1584 3726 3523
1435 3732 3598
1295 3738 3652
1169 3744 3698
1062 3750 3738
983 3755 3772
1080 3755 3808
1185 3754 3838
1297 3754 3864
1414 3754 3884
2386 3775 2108
2373 3776 2116
2354 3777 2127
2325 3778 2143
2283 3781 2166
2226 3784 2195
2149 3788 2230
2164 3786 2384
2196 3784 2564
2232 3781 2747
2270 3779 2926
2307 3776 3091
2252 3778 3233
2152 3781 3358
2026 3786 3466
1871 3791 3555
1701 3798 3622
1552 3803 3674
1410 3809 3720
1280 3814 3759
1168 3819 3792
1085 3824 3819
1188 3824 3848
1299 3823 3871
1419 3823 3890
2554 3838 2284
2542 3838 2291
2525 3839 2300
2500 3841 2315
2463 3842 2336
2412 3845 2362
2345 3848 2395
2323 3849 2498
2353 3847 2663
2386 3845 2831
2421 3842 2994
2457 3840 3144
2468 3839 3279
2387 3841 3400
2283 3845 3502
2152 3849 3584
1995 3854 3643
1825 3860 3694
1673 3865 3739
1530 3870 3777
1397 3875 3808
1282 3880 3835
1194 3884 3856
1303 3883 3878
1813 3874 3889
2727 3891 2477
2727 3891 2499
2728 3891 2528
2729 3890 2572
2730 3890 2629
2732 3890 2699
2734 3889 2779
2743 3889 2872
2780 3886 2994
2820 3884 3112
2862 3881 3223
2904 3879 3331
2945 3876 3432
2906 3878 3511
2804 3883 3574
2659 3890 3624
2453 3897 3669
2159 3907 3713
1951 3913 3756
1798 3917 3792
1654 3921 3823
1520 3925 3847
1402 3929 3868
1311 3933 3885
2305 3915 3887
3320 3903 3274
3321 3903 3281
3321 3903 3291
3323 3903 3305
3324 3903 3324
3326 3903 3347
3328 3903 3375
3331 3903 3406
3346 3902 3450
3365 3901 3496
3384 3900 3542
3405 3899 3584
3425 3898 3621
3441 3897 3654
3413 3900 3682
3376 3904 3709
3326 3908 3735
3261 3914 3760
3177 3920 3784
3082 3925 3806
2995 3931 3827
2909 3936 3846
2830 3940 3863
2768 3944 3877
2849 3944 3886
324 288 444
329 287 461
327 289 498
328 291 546
331 295 608
337 300 690
343 308 782
352 320 901
363 335 1043
376 351 1199
393 369 1381
410 386 1569
430 407 1769
453 431 1980
477 455 2183
506 484 2390
535 515 2584
567 547 2766
603 583 2934
641 622 3084
681 662 3213
726 706 3328
773 754 3434
824 805 3526
878 860 3602
328 319 444
336 330 470
336 330 526
335 329 615
336 330 722
339 334 822
346 342 936
354 353 1064
366 366 1210
379 379 1365
395 395 1538
413 413 1723
433 433 1913
456 456 2108
481 481 2302
509 509 2493
539 539 2677
572 572 2845
608 608 3000
646 646 3138
686 687 3257
731 731 3366
779 779 3465
830 830 3551
881 881 3626
345 397 446
346 397 474
329 404 527
331 403 609
336 401 721
342 402 839
351 406 972
361 411 1116
373 421 1274
388 432 1444
404 446 1621
424 463 1808
444 482 1997
468 504 2189
493 527 2378
522 554 2562
552 584 2736
585 616 2899
621 651 3046
659 688 3174
700 730 3289
746 774 3394
793 822 3489
845 872 3569
896 923 3639
366 487 451
364 488 483
352 491 540
320 501 612
327 501 714
340 500 843
355 499 1002
368 502 1165
382 507 1341
398 516 1524
417 527 1712
437 541 1902
459 559 2096
483 578 2286
510 601 2471
539 626 2648
570 654 2814
603 684 2965
640 719 3104
678 756 3223
720 796 3331
766 841 3431
814 887 3519
866 938 3594
916 987 3656
393 606 461
390 609 496
383 611 548
351 619 637
320 629 725
332 630 851
349 629 1007
369 627 1192
390 627 1397
409 633 1597
429 641 1798
450 652 1997
475 666 2196
501 683 2387
529 703 2569
559 727 2740
591 753 2898
626 783 3042
663 816 3168
703 852 3278
746 892 3381
792 934 3475
841 980 3556
894 1029 3621
945 1077 3676
430 756 480
425 759 515
408 765 555
402 765 656
354 778 766
325 790 874
341 789 1028
362 789 1212
386 789 1420
414 788 1644
441 791 1873
465 799 2082
492 810 2286
519 824 2480
549 842 2662
581 863 2829
615 888 2982
651 915 3115
689 946 3231
732 981 3338
776 1018 3435
823 1058 3521
875 1101 3593
928 1147 3649
979 1193 3699
475 942 505
469 945 540
438 956 568
456 950 670
413 960 796
363 975 932
335 988 1064
354 987 1245
379 987 1450
408 987 1674
440 988 1908
475 989 2145
507 995 2367
538 1006 2565
570 1021 2748
605 1038 2912
640 1058 3058
678 1082 3183
720 1111 3295
764 1141 3396
811 1174 3487
860 1211 3565
912 1251 3627
966 1294 3675
1018 1337 3722
531 1159 538
525 1162 572
482 1177 587
496 1173 685
491 1173 822
428 1187 977
378 1201 1139
348 1216 1290
371 1216 1494
399 1217 1714
433 1217 1945
470 1218 2180
510 1219 2410
553 1222 2630
591 1231 2819
627 1245 2982
667 1262 3124
708 1282 3244
752 1305 3352
799 1331 3450
847 1361 3534
899 1394 3604
954 1430 3657
1010 1468 3702
1062 1507 3746
595 1400 578
590 1402 612
549 1415 627
544 1418 705
567 1411 845
519 1421 1017
451 1436 1201
397 1451 1380
365 1466 1547
392 1468 1765
425 1468 1992
463 1469 2223
504 1470 2449
550 1472 2665
598 1475 2864
650 1479 3041
693 1491 3179
738 1507 3297
785 1526 3404
834 1547 3497
886 1572 3575
941 1600 3636
997 1631 3683
1056 1665 3726
1109 1700 3768
670 1656 626
665 1657 660
626 1670 674
600 1678 732
624 1672 871
623 1670 1053
548 1685 1252
477 1701 1457
421 1717 1649
386 1733 1823
417 1734 2048
454 1735 2274
497 1735 2495
545 1736 2705
596 1738 2898
649 1742 3069
707 1745 3215
767 1752 3343
818 1766 3448
871 1783 3537
927 1804 3609
984 1827 3662
1043 1853 3708
1104 1881 3749
1159 1911 3788
758 1919 682
754 1920 718
716 1931 732
665 1945 766
690 1939 904
718 1932 1089
670 1940 1302
583 1957 1521
509 1972 1735
449 1988 1932
412 2005 2108
446 2005 2331
489 2006 2545
537 2008 2749
590 2009 2936
646 2011 3100
706 2014 3241
771 2018 3367
840 2023 3480
908 2032 3570
967 2047 3635
1027 2066 3684
1089 2086 3729
1153 2110 3769
1210 2134 3805
