Grading Edition presets/Toning - Style 13 - Blue-Orange.3dl
#25pt 3DLUT created by 3D LUT Creator Pro (c) Oleg Sharonov
#Copyright Oleg Sharonov
#INPUTGAMMA sRGB IEC61966-2.1 v.2.10
#IMAGEPROFILE sRGB IEC61966-2.1 v.2.10
#OUTPUTGAMMA sRGB IEC61966-2.1 v.2.10
0 128 256 384 512 640 768 896 1023
0 223 488
0 224 627
0 223 800
0 223 922
0 223 1023
0 223 1119
0 223 1212
0 223 1300
0 223 1385
0 392 512
0 409 675
0 378 987
0 348 1418
0 321 1947
0 295 2353
0 273 2684
0 253 2974
0 237 3204
0 677 533
0 717 693
0 722 996
0 659 1553
0 579 2121
0 529 2470
0 483 2781
0 442 3047
0 406 3253
0 1118 559
0 1200 738
0 1251 991
0 1236 1557
0 1151 2160
0 972 2576
0 866 2897
0 803 3136
0 747 3313
3 1755 592
19 1849 793
25 1917 1075
0 1948 1577
0 1929 2184
0 1890 2594
0 1717 2949
0 1527 3223
0 1422 3383
75 2294 639
99 2363 865
114 2418 1195
120 2458 1673
50 2472 2222
0 2461 2634
0 2442 2983
0 2405 3246
0 2298 3430
182 2722 708
214 2787 964
239 2842 1363
255 2886 1865
259 2919 2271
148 2928 2689
45 2926 3034
0 2920 3282
0 2913 3461
332 3106 805
376 3161 1108
414 3207 1585
444 3245 2075
465 3276 2422
431 3299 2760
309 3310 3097
195 3316 3327
96 3320 3501
547 3403 944
604 3440 1338
659 3473 1856
709 3502 2276
754 3528 2596
792 3550 2878
697 3567 3168
564 3580 3381
446 3590 3549
49 223 493
40 247 567
0 255 780
0 252 1092
0 248 1601
0 244 2126
0 239 2497
0 229 2817
0 223 2923
111 425 493
172 484 718
85 468 964
11 452 1355
0 437 1865
0 425 2283
0 412 2612
0 394 2905
0 359 3147
173 748 520
251 822 768
204 850 1080
62 811 1629
0 784 2102
0 760 2442
0 736 2748
0 716 3013
0 673 3224
258 1258 557
335 1382 822
353 1471 1134
241 1471 1705
85 1407 2249
0 1350 2609
0 1312 2892
0 1278 3128
0 1248 3303
364 1913 607
439 2024 889
469 2108 1249
470 2154 1741
304 2141 2291
146 2101 2681
16 2055 3013
0 2024 3238
0 2005 3387
499 2411 676
576 2491 977
618 2560 1399
640 2609 1907
582 2635 2337
407 2627 2735
245 2606 3061
108 2583 3294
0 2562 3468
685 2834 773
775 2906 1103
839 2967 1591
885 3016 2085
910 3053 2429
765 3070 2796
572 3070 3116
408 3064 3335
265 3058 3504
981 3200 908
1084 3256 1303
1168 3303 1827
1235 3341 2260
1284 3371 2581
1309 3394 2865
1087 3406 3177
864 3412 3383
669 3417 3546
1382 3469 1092
1490 3507 1579
1585 3542 2086
1665 3572 2442
1730 3598 2750
1781 3621 3011
1745 3640 3241
1554 3654 3436
1351 3665 3591
291 223 504
500 233 502
381 271 681
302 285 964
228 282 1399
153 275 1941
85 268 2353
23 261 2687
0 254 2981
578 384 488
624 445 606
576 535 884
480 542 1266
371 518 1773
270 494 2221
182 472 2552
106 452 2853
34 439 3102
586 772 494
716 886 724
899 1050 1213
687 988 1663
529 934 2111
398 891 2438
283 856 2733
186 826 2996
103 803 3207
675 1369 525
869 1539 803
1064 1695 1318
969 1740 1877
663 1664 2332
525 1610 2632
404 1561 2903
298 1516 3132
206 1478 3303
870 2038 576
1085 2165 900
1260 2260 1449
1307 2323 1970
1087 2325 2407
757 2285 2776
553 2250 3060
445 2229 3252
349 2211 3397
1127 2518 649
1351 2611 1022
1505 2692 1614
1568 2756 2117
1581 2796 2454
1283 2792 2838
962 2771 3136
684 2746 3343
541 2734 3489
1448 2940 752
1660 3014 1205
1791 3080 1817
1861 3134 2262
1900 3174 2584
1834 3198 2898
1571 3201 3191
1279 3197 3387
996 3191 3545
1816 3289 898
1993 3339 1472
2090 3383 2046
2152 3420 2418
2195 3450 2730
2222 3473 2994
2124 3489 3246
1934 3497 3435
1713 3503 3587
2172 3536 1109
2296 3570 1804
2359 3605 2266
2409 3636 2598
2451 3663 2890
2483 3685 3127
2505 3705 3301
2406 3719 3486
2298 3731 3629
548 223 515
1010 223 499
1081 250 577
890 295 827
747 320 1209
639 318 1752
533 311 2227
430 302 2568
335 293 2874
1327 335 488
1378 407 527
1372 477 723
1223 587 1088
1075 618 1628
907 601 2124
742 577 2469
603 553 2776
488 531 3040
1398 710 488
1567 817 663
1684 942 975
1648 1151 1543
1482 1160 2070
1267 1097 2414
1055 1039 2713
868 986 2980
710 941 3196
1443 1392 503
1649 1591 742
1861 1801 1236
2064 2008 2053
1843 1939 2376
1610 1875 2662
1378 1818 2923
1158 1770 3142
960 1727 3308
1585 2130 544
1828 2254 839
2050 2372 1428
2209 2475 2162
2147 2507 2527
1859 2465 2859
1667 2437 3091
1470 2413 3271
1279 2393 3410
1879 2608 619
2083 2710 974
2248 2807 1656
2351 2886 2276
2381 2940 2606
2267 2949 2937
2028 2927 3206
1794 2909 3378
1642 2903 3506
2162 3032 729
2308 3110 1165
2432 3178 1909
2513 3235 2408
2549 3280 2728
2561 3309 2992
2421 3315 3257
2259 3312 3437
2056 3308 3584
2406 3364 886
2524 3411 1454
2629 3451 2164
2697 3488 2564
2735 3520 2865
2761 3546 3107
2735 3565 3304
2621 3574 3483
2496 3581 3623
2652 3599 1115
2754 3633 1814
2843 3663 2390
2896 3693 2740
2934 3719 3013
2964 3741 3222
2987 3760 3372
2940 3775 3530
2858 3788 3660
859 223 528
1427 223 514
1978 230 504
1813 271 687
1622 323 1008
1439 359 1534
1304 361 2079
1141 355 2454
976 346 2774
2109 293 488
2141 369 488
2173 423 602
2082 529 888
1958 643 1383
1821 698 1980
1676 690 2381
1497 671 2702
1306 649 2978
2191 638 488
2263 754 579
2317 860 810
2335 1019 1211
2269 1265 1888
2178 1332 2343
2045 1296 2662
1879 1244 2938
1698 1193 3164
2247 1324 488
2357 1513 693
2465 1705 1115
2539 1894 1744
2526 2110 2311
2442 2122 2648
2330 2072 2918
2209 2022 3142
2072 1975 3310
2305 2149 526
2421 2284 792
2539 2417 1317
2656 2552 2104
2770 2684 2646
2653 2647 2900
2540 2614 3120
2429 2588 3289
2321 2568 3424
2398 2689 590
2534 2792 919
2664 2892 1561
2786 2986 2274
2882 3063 2741
2847 3091 3030
2697 3072 3259
2610 3062 3399
2525 3056 3523
2606 3114 706
2726 3190 1119
2838 3258 1856
2938 3317 2445
3008 3364 2853
3032 3396 3102
2960 3407 3313
2831 3406 3483
2726 3406 3609
2822 3426 874
2924 3471 1431
3016 3513 2147
3097 3550 2630
3150 3582 2981
3175 3611 3201
3188 3632 3355
3107 3644 3526
3015 3652 3654
3041 3657 1124
3124 3689 1822
3196 3719 2395
3258 3743 2827
3297 3767 3117
3321 3789 3298
3339 3807 3436
3331 3822 3568
3276 3834 3686
1252 223 541
1832 223 529
2352 223 503
2451 247 579
2353 296 836
2241 356 1265
2105 406 1878
2012 412 2328
1888 410 2669
2599 260 488
2618 323 488
2640 391 527
2606 473 731
2538 588 1103
2454 710 1732
2365 786 2262
2292 790 2613
2192 779 2911
2667 570 488
2707 705 514
2748 801 686
2786 909 974
2744 1149 1562
2681 1398 2192
2611 1510 2578
2536 1501 2884
2444 1469 3127
2733 1226 488
2815 1424 645
2879 1611 956
2929 1800 1446
2949 2002 2072
2904 2212 2539
2845 2262 2871
2769 2245 3116
2683 2219 3294
2802 2125 514
2893 2259 756
2981 2385 1230
3063 2507 1997
3116 2626 2464
3106 2770 2854
3051 2786 3113
2980 2762 3289
2905 2740 3428
2880 2713 582
2969 2825 892
3055 2933 1489
3136 3035 2214
3211 3130 2709
3279 3216 3111
3213 3202 3281
3148 3191 3417
3084 3185 3537
2971 3190 685
3070 3260 1075
3160 3324 1790
3242 3379 2402
3314 3426 2860
3367 3465 3191
3350 3485 3363
3270 3485 3518
3228 3489 3622
3162 3485 866
3241 3529 1409
3311 3569 2125
3372 3606 2612
3423 3639 3014
3457 3666 3275
3470 3689 3417
3439 3703 3563
3381 3712 3679
3341 3712 1140
3398 3741 1836
3447 3768 2400
3488 3791 2829
3525 3810 3165
3550 3828 3362
3564 3845 3493
3574 3859 3600
3540 3870 3705
1670 223 554
2175 223 544
2548 223 523
2900 228 508
2822 271 694
2741 328 1023
2648 397 1598
2540 462 2180
2486 474 2551
2993 235 488
3007 288 488
3024 363 488
3020 428 616
2967 536 909
2910 660 1423
2838 789 2069
2756 894 2496
2704 911 2828
3051 514 488
3080 655 488
3110 758 595
3140 857 828
3127 1044 1257
3089 1303 1937
3034 1554 2433
2973 1698 2799
2923 1713 3076
3127 1138 488
3178 1356 589
3215 1545 823
3250 1730 1201
3281 1900 1786
3257 2146 2350
3217 2319 2760
3172 2394 3064
3125 2398 3269
3194 2100 502
3257 2232 722
3315 2351 1147
3358 2471 1794
3389 2588 2298
3400 2717 2691
3372 2866 3043
3339 2912 3265
3299 2910 3414
3267 2721 576
3328 2830 876
3383 2933 1445
3432 3029 2169
3474 3115 2658
3500 3195 2999
3491 3288 3257
3466 3305 3412
3436 3301 3537
3345 3218 695
3398 3292 1079
3445 3357 1775
3486 3413 2378
3524 3464 2828
3560 3511 3179
3593 3554 3408
3563 3556 3530
3536 3560 3631
3426 3541 869
3469 3585 1398
3515 3623 2107
3559 3657 2593
3598 3688 2997
3634 3715 3283
3662 3737 3471
3654 3754 3594
3617 3764 3695
3547 3764 1168
3589 3790 1860
3626 3813 2410
3660 3832 2833
3691 3849 3164
3717 3863 3384
3736 3875 3541
3745 3887 3637
3730 3898 3720
2059 223 568
2438 223 558
2775 223 539
3138 223 501
3196 250 589
3137 302 852
3073 370 1300
2999 448 1942
2907 528 2412
3270 223 492
3314 262 488
3326 327 488
3338 393 538
3302 492 762
3262 612 1150
3217 746 1797
3161 891 2333
3090 1040 2721
3348 471 488
3368 603 488
3388 728 533
3408 824 718
3413 966 1033
3389 1216 1649
3359 1484 2252
3317 1730 2668
3268 1894 3001
3415 1073 488
3439 1318 533
3462 1504 722
3483 1689 1026
3504 1861 1543
3500 2081 2161
3479 2279 2603
3450 2439 2968
3418 2532 3225
3468 2085 494
3506 2213 694
3538 2332 1044
3561 2455 1578
3583 2571 2143
3602 2678 2533
3586 2839 2920
3561 2972 3207
3537 3035 3386
3524 2734 573
3563 2838 863
3600 2936 1405
3633 3025 2125
3658 3111 2558
3677 3192 2895
3682 3274 3173
3660 3362 3375
3642 3393 3520
3587 3247 708
3623 3315 1095
3657 3376 1786
3688 3427 2376
3716 3474 2817
3741 3516 3163
3756 3558 3356
3745 3610 3513
3732 3627 3626
3655 3572 910
3687 3614 1463
3715 3654 2145
3740 3689 2608
3763 3721 2996
3783 3749 3276
3801 3774 3469
3816 3795 3619
3804 3805 3698
3728 3808 1229
3753 3833 1910
3776 3853 2430
3801 3869 2843
3822 3882 3167
3841 3893 3382
3856 3901 3550
3868 3908 3668
3866 3917 3731
2363 223 582
2690 223 572
2998 223 553
3287 223 521
3462 234 519
3425 281 717
3384 345 1058
3338 424 1658
3284 513 2237
3424 223 505
3526 243 488
3535 301 488
3544 379 493
3531 459 652
3505 574 961
3478 706 1510
3448 854 2144
3410 1032 2572
3554 441 488
3568 565 488
3583 711 494
3598 806 635
3612 916 888
3594 1151 1383
3574 1421 2048
3550 1688 2511
3520 1921 2890
3607 1028 488
3626 1308 498
3645 1491 647
3663 1676 910
3679 1850 1340
3686 2039 1951
3670 2248 2449
3651 2422 2845
3625 2573 3152
3665 2086 489
3693 2214 667
3712 2339 941
3730 2460 1398
3747 2576 1983
3762 2682 2412
3758 2822 2797
3742 2967 3122
3720 3086 3339
3718 2758 574
3747 2857 860
3774 2949 1383
3795 3039 2048
3809 3127 2459
3822 3205 2805
3833 3273 3090
3820 3365 3319
3801 3435 3487
3775 3280 727
3800 3343 1122
3823 3398 1809
3843 3445 2382
3860 3488 2814
3872 3531 3120
3880 3573 3315
3881 3618 3471
3865 3671 3605
3831 3606 961
3851 3645 1545
3869 3681 2197
3884 3714 2643
3896 3742 3018
3906 3767 3285
3915 3789 3472
3919 3811 3597
3912 3839 3689
3884 3837 1354
3898 3858 2026
3909 3876 2501
3918 3891 2891
3926 3903 3192
3931 3913 3393
3936 3920 3553
3939 3926 3670
3941 3930 3738
