Grading Edition presets/Toning - Style 10 - Soft.3dl
#25pt 3DLUT created by 3D LUT Creator Pro (c) Oleg Sharonov
#Copyright Oleg Sharonov
#IMAGEPROFILE sRGB IEC61966-2.1 v.2.10
#INPUTGAMMA sRGB IEC61966-2.1 v.2.10
#OUTPUTGAMMA sRGB IEC61966-2.1 v.2.10
0 128 256 384 512 640 768 896 1023
533 448 377
603 531 580
676 617 857
752 711 1256
835 817 1746
928 938 2313
1034 1078 2835
1152 1231 3257
1280 1394 3621
579 636 469
600 691 601
655 778 863
724 879 1247
800 1001 1723
885 1140 2282
982 1292 2805
1092 1454 3230
1214 1623 3595
624 867 568
630 917 669
668 1018 922
725 1151 1302
787 1274 1767
867 1415 2307
957 1567 2814
1061 1733 3230
1176 1911 3591
671 1178 684
676 1218 784
696 1321 1018
739 1455 1386
804 1618 1849
863 1755 2380
944 1908 2859
1044 2073 3257
1154 2245 3607
721 1547 827
724 1577 936
732 1685 1150
767 1804 1505
816 1960 1962
886 2140 2470
960 2301 2922
1036 2445 3308
1140 2592 3642
774 1970 1005
775 1992 1123
785 2087 1333
805 2211 1658
847 2344 2108
903 2497 2587
980 2656 3002
1075 2802 3363
1242 2920 3661
832 2421 1218
832 2434 1341
842 2508 1546
850 2624 1848
889 2722 2280
939 2834 2720
1005 2953 3100
1090 3075 3439
1414 3202 3683
897 2832 1457
896 2837 1586
905 2885 1798
916 2966 2093
939 3054 2472
987 3139 2863
1004 3237 3216
1272 3319 3492
1623 3420 3719
971 3184 1732
968 3183 1871
976 3218 2084
989 3281 2361
998 3366 2673
997 3435 3000
1216 3479 3301
1514 3542 3560
1882 3623 3774
782 521 415
800 488 596
857 531 877
940 607 1276
1038 693 1765
1150 791 2330
1272 906 2847
1402 1039 3267
1538 1188 3628
797 717 459
793 712 606
823 762 880
880 840 1270
958 944 1747
1053 1068 2301
1162 1209 2816
1282 1362 3236
1410 1524 3599
770 941 576
771 955 687
838 1039 920
895 1128 1306
954 1231 1781
1034 1354 2328
1129 1493 2831
1239 1646 3243
1358 1814 3601
785 1247 696
784 1277 802
833 1364 1011
903 1475 1378
986 1598 1842
1049 1712 2381
1131 1847 2866
1227 1999 3268
1336 2162 3618
818 1607 843
825 1635 951
845 1733 1163
905 1846 1493
984 1980 1948
1090 2135 2454
1162 2260 2916
1245 2392 3306
1341 2531 3646
870 2025 1017
875 2049 1135
890 2138 1342
926 2265 1641
990 2383 2091
1078 2514 2570
1191 2652 2986
1289 2770 3353
1409 2880 3668
931 2466 1226
934 2481 1349
949 2550 1550
962 2663 1854
1015 2764 2260
1089 2861 2703
1187 2965 3084
1311 3072 3421
1519 3182 3699
1002 2863 1461
1003 2870 1590
1017 2917 1799
1033 2994 2092
1054 3095 2449
1121 3171 2843
1184 3254 3194
1385 3323 3496
1714 3416 3728
1083 3207 1731
1082 3208 1870
1095 3243 2080
1112 3303 2354
1125 3387 2668
1142 3463 2971
1330 3497 3288
1608 3552 3555
1965 3627 3774
1117 596 453
1130 563 602
1172 528 905
1239 541 1324
1339 614 1811
1452 696 2370
1575 790 2873
1707 900 3287
1850 1029 3644
1169 746 468
1171 749 622
1174 710 917
1216 729 1348
1291 804 1835
1381 911 2382
1487 1036 2875
1604 1175 3281
1733 1327 3634
1155 1087 544
1141 1071 682
1152 1080 938
1184 1142 1337
1238 1226 1822
1313 1332 2369
1406 1457 2861
1512 1596 3267
1629 1751 3619
1095 1393 690
1077 1385 817
1109 1415 1060
1209 1511 1390
1277 1603 1865
1335 1700 2409
1413 1820 2890
1506 1958 3288
1610 2109 3634
1088 1751 848
1054 1747 986
1092 1789 1209
1184 1894 1502
1284 2014 1954
1386 2139 2463
1448 2245 2930
1527 2365 3319
1627 2498 3654
1106 2158 1034
1066 2155 1185
1101 2217 1388
1176 2309 1679
1270 2421 2092
1376 2538 2568
1501 2662 2982
1573 2756 3359
1684 2858 3675
1142 2572 1253
1116 2573 1396
1135 2632 1598
1190 2708 1891
1281 2798 2255
1371 2885 2697
1481 2980 3078
1614 3078 3413
1777 3170 3704
1189 2936 1499
1182 2939 1636
1199 2977 1842
1221 3049 2134
1298 3119 2471
1388 3196 2834
1453 3278 3187
1636 3344 3492
1865 3428 3753
1259 3263 1774
1259 3264 1913
1274 3293 2117
1295 3349 2387
1289 3434 2681
1362 3503 2966
1544 3534 3282
1765 3579 3567
2103 3646 3789
1553 676 491
1572 648 636
1603 598 915
1652 568 1352
1720 557 1877
1824 624 2430
1946 705 2914
2078 799 3317
2217 908 3666
1621 809 488
1651 802 643
1620 778 883
1661 720 1359
1705 711 1910
1790 785 2457
1885 897 2931
1998 1023 3326
2123 1161 3670
1637 1118 553
1643 1136 695
1620 1129 964
1643 1073 1391
1683 1087 1931
1745 1174 2474
1828 1280 2943
1930 1402 3334
2042 1542 3673
1611 1564 638
1594 1542 779
1594 1541 1046
1616 1561 1415
1649 1629 1907
1698 1715 2451
1767 1822 2925
1853 1946 3318
1957 2086 3657
1537 1924 821
1521 1918 954
1516 1911 1232
1563 1953 1567
1679 2061 1974
1751 2157 2492
1807 2252 2955
1880 2360 3342
1982 2487 3670
1513 2325 1026
1485 2328 1165
1466 2307 1436
1534 2371 1749
1644 2470 2113
1760 2575 2579
1871 2676 2994
1932 2757 3373
2032 2851 3690
1517 2709 1252
1475 2704 1406
1452 2699 1667
1523 2757 1957
1623 2836 2311
1736 2919 2706
1857 3004 3081
2003 3093 3413
2109 3169 3717
1543 3040 1499
1490 3032 1671
1477 3049 1912
1537 3092 2194
1623 3153 2519
1711 3237 2841
1817 3301 3187
1981 3369 3496
2185 3448 3760
1585 3348 1780
1525 3337 1970
1529 3359 2182
1553 3408 2439
1567 3477 2709
1690 3525 2992
1840 3577 3289
2046 3620 3575
2292 3679 3817
2049 764 530
2069 734 673
2095 688 925
2146 636 1365
2202 608 1901
2272 595 2485
2368 634 2966
2480 718 3357
2596 812 3697
2125 893 518
2139 875 662
2153 836 922
2174 791 1328
2217 739 1901
2261 711 2519
2346 778 2985
2437 893 3371
2537 1021 3707
2162 1167 561
2212 1207 714
2170 1175 976
2163 1158 1332
2205 1073 1941
2244 1042 2560
2312 1132 3010
2395 1238 3391
2493 1376 3716
2156 1595 651
2159 1611 789
2138 1612 1071
2144 1612 1442
2179 1553 1977
2220 1564 2561
2274 1653 3011
2344 1761 3390
2437 1898 3711
2127 2108 746
2109 2084 897
2102 2076 1175
2116 2087 1544
2149 2118 2006
2183 2192 2535
2230 2278 2988
2291 2376 3371
2379 2494 3693
2049 2492 974
2035 2488 1110
2020 2471 1393
2031 2480 1769
2089 2523 2188
2217 2618 2599
2290 2697 3019
2343 2771 3394
2420 2857 3712
2013 2842 1223
1988 2844 1360
1967 2829 1636
1969 2830 2020
2053 2882 2386
2180 2958 2726
2294 3034 3092
2410 3109 3426
2479 3177 3737
2008 3151 1483
1968 3146 1641
1939 3142 1914
1937 3139 2275
2034 3195 2588
2120 3269 2883
2252 3330 3194
2393 3394 3503
2552 3470 3769
2026 3443 1770
1975 3436 1947
1898 3454 2190
1880 3473 2482
1973 3506 2761
2095 3552 3031
2244 3610 3296
2394 3662 3589
2579 3719 3835
2559 862 572
2573 828 716
2600 788 978
2638 724 1377
2681 678 1919
2728 650 2508
2785 636 3001
2852 645 3404
2937 834 3715
2609 992 554
2622 968 695
2648 934 959
2664 889 1309
2710 812 1875
2746 764 2500
2784 740 3017
2841 778 3416
2907 1006 3724
2661 1245 580
2712 1270 732
2696 1239 1003
2679 1215 1362
2705 1165 1882
2738 1084 2535
2766 1026 3063
2820 1104 3442
2888 1295 3742
2676 1633 655
2700 1678 806
2682 1673 1080
2667 1662 1462
2686 1648 1899
2721 1547 2571
2752 1503 3085
2797 1599 3452
2861 1741 3756
2658 2139 766
2658 2153 905
2643 2144 1189
2637 2161 1576
2659 2168 2032
2696 2110 2602
2729 2121 3077
2769 2214 3444
2825 2331 3753
2634 2643 877
2620 2623 1036
2610 2612 1320
2616 2617 1691
2636 2635 2152
2670 2667 2627
2698 2728 3054
2735 2796 3423
2787 2874 3738
2574 2966 1149
2565 2964 1281
2547 2948 1571
2548 2948 1955
2564 2959 2397
2617 2997 2784
2726 3068 3106
2785 3130 3451
2828 3192 3760
2539 3258 1432
2520 3258 1570
2501 3248 1853
2486 3251 2218
2490 3258 2627
2570 3299 2936
2685 3361 3208
2790 3424 3513
2882 3490 3788
2484 3535 1741
2457 3529 1913
2438 3534 2156
2421 3535 2485
2424 3537 2823
2529 3582 3081
2651 3639 3335
2769 3698 3601
2886 3758 3852
2981 974 617
2989 935 765
3011 896 1031
3038 835 1392
3073 768 1935
3107 723 2526
3146 697 3018
3184 731 3423
3224 954 3739
3010 1107 595
3019 1078 737
3041 1047 999
3069 981 1366
3100 911 1858
3133 839 2483
3163 799 3007
3185 838 3428
3213 1073 3747
3059 1344 607
3082 1339 755
3093 1319 1036
3090 1285 1398
3098 1277 1834
3131 1181 2489
3158 1107 3031
3181 1089 3459
3213 1300 3765
3078 1695 667
3101 1728 822
3103 1741 1101
3089 1712 1471
3093 1702 1928
3120 1649 2507
3147 1552 3060
3168 1497 3495
3212 1645 3790
3078 2172 771
3084 2206 922
3076 2206 1200
3065 2225 1590
3069 2219 2058
3100 2213 2527
3128 2105 3085
3154 2061 3509
3192 2188 3803
3058 2667 903
3057 2676 1043
3045 2664 1330
3040 2673 1714
3047 2692 2182
3071 2707 2647
3107 2660 3108
3133 2671 3501
3167 2751 3802
3041 3073 1030
3030 3058 1194
3021 3046 1481
3019 3044 1874
3033 3057 2317
3055 3078 2751
3085 3107 3128
3108 3157 3482
3138 3214 3788
2990 3346 1391
2985 3344 1514
2977 3338 1787
2973 3335 2161
2980 3343 2568
2996 3358 2942
3042 3392 3255
3132 3457 3527
3181 3512 3811
2918 3579 1828
2911 3578 1976
2913 3588 2183
2922 3609 2455
2923 3613 2796
2935 3625 3121
3008 3671 3383
3105 3734 3617
3192 3792 3865
3334 1099 666
3339 1055 822
3358 1014 1090
3381 960 1459
3413 880 1952
3443 817 2541
3459 825 3041
3457 986 3448
3474 1243 3758
3353 1234 640
3359 1200 788
3378 1168 1047
3403 1116 1419
3436 1037 1850
3470 945 2471
3478 958 3007
3468 1108 3432
3476 1344 3755
3400 1457 640
3406 1436 792
3419 1417 1062
3438 1370 1445
3445 1351 1881
3471 1297 2451
3492 1232 3004
3491 1298 3438
3489 1507 3769
3419 1780 689
3440 1799 844
3450 1813 1138
3443 1777 1497
3445 1763 1953
3462 1768 2450
3486 1676 3017
3503 1631 3460
3510 1739 3799
3428 2221 779
3434 2247 940
3436 2272 1219
3429 2278 1593
3416 2281 2087
3442 2272 2555
3474 2219 3033
3496 2133 3485
3516 2119 3837
3419 2691 911
3417 2710 1065
3409 2713 1347
3392 2726 1760
3394 2751 2230
3417 2752 2673
3456 2747 3049
3483 2660 3508
3506 2638 3855
3383 3077 1153
3380 3083 1291
3378 3082 1550
3380 3084 1916
3387 3100 2353
3401 3123 2779
3430 3138 3142
3464 3102 3528
3488 3111 3853
3341 3397 1481
3346 3397 1573
3359 3408 1758
3363 3411 2109
3375 3422 2504
3392 3441 2881
3416 3464 3226
3445 3492 3545
3465 3538 3839
3276 3625 1960
3277 3626 2079
3290 3641 2254
3313 3667 2474
3330 3689 2766
3344 3704 3081
3365 3727 3390
3412 3765 3657
3490 3826 3878
3653 1233 719
3655 1185 884
3671 1143 1154
3692 1092 1524
3721 1017 1973
3714 1052 2599
3699 1155 3100
3686 1329 3494
3686 1588 3795
3664 1369 689
3668 1331 845
3685 1298 1105
3707 1253 1472
3733 1188 1934
3735 1212 2508
3720 1300 3043
3704 1451 3459
3699 1685 3778
3703 1577 681
3704 1549 839
3716 1528 1104
3735 1490 1479
3741 1478 1968
3756 1482 2453
3751 1511 3009
3732 1637 3443
3722 1848 3775
3724 1885 718
3742 1889 875
3745 1893 1172
3725 1914 1602
3738 1892 2035
3755 1888 2510
3775 1853 2996
3769 1898 3442
3752 2073 3787
3724 2311 835
3714 2347 1042
3713 2401 1358
3720 2385 1699
3733 2364 2129
3750 2355 2589
3773 2361 2995
3774 2304 3453
3774 2351 3809
3708 2718 1028
3704 2731 1199
3707 2768 1464
3713 2793 1825
3723 2804 2248
3740 2796 2684
3763 2796 3067
3773 2780 3467
3773 2792 3823
3687 3060 1293
3685 3067 1436
3691 3092 1658
3702 3130 1984
3714 3141 2383
3725 3163 2791
3744 3171 3154
3772 3174 3479
3772 3162 3846
3648 3375 1654
3648 3378 1774
3660 3397 1959
3680 3428 2209
3698 3454 2544
3713 3472 2899
3726 3499 3242
3755 3518 3553
3772 3503 3872
3588 3671 2136
3592 3672 2219
3609 3688 2353
3638 3716 2523
3675 3754 2729
3694 3775 3031
3716 3800 3333
3742 3828 3625
3772 3860 3891
