Grading Edition presets/Toning - Style 6.3dl
#25pt 3DLUT created by 3D LUT Creator Pro (c) Oleg Sharonov
#Copyright Oleg Sharonov
#IMAGEPROFILE sRGB IEC61966-2.1 v.2.10
#INPUTGAMMA sRGB IEC61966-2.1 v.2.10
#OUTPUTGAMMA sRGB IEC61966-2.1 v.2.10
0 43 86 128 171 214 256 299 341 384 427 469 512 555 597 640 682 725 768 810 853 896 938 981 1023 
413 406 406
413 406 413
413 406 468
412 408 576
411 413 739
410 421 963
408 433 1229
406 448 1517
404 466 1803
403 488 2068
401 513 2288
400 542 2456
399 575 2613
398 611 2761
397 650 2898
396 695 3022
395 744 3131
395 797 3225
394 853 3312
393 913 3401
392 976 3501
391 1041 3620
390 1108 3757
389 1177 3903
388 1248 4054
417 415 406
420 414 413
416 420 469
412 427 577
411 438 739
410 452 963
408 469 1230
406 489 1517
404 513 1804
402 541 2068
401 572 2288
400 606 2456
399 644 2613
398 687 2761
397 734 2898
396 786 3022
395 841 3131
394 900 3225
393 962 3311
392 1026 3400
392 1093 3500
391 1161 3620
389 1231 3757
388 1302 3903
387 1374 4054
423 473 406
435 474 424
429 467 469
432 484 577
419 499 740
409 515 964
408 536 1231
406 560 1518
404 588 1805
402 620 2069
400 656 2289
399 697 2456
398 743 2613
397 793 2760
396 846 2897
395 903 3022
394 963 3130
393 1026 3224
392 1092 3311
392 1159 3400
391 1228 3500
390 1299 3619
389 1370 3756
387 1441 3903
386 1513 4053
429 584 405
443 585 430
451 585 500
441 569 578
451 598 741
436 621 966
421 645 1232
409 672 1519
403 703 1805
401 740 2069
400 781 2289
398 827 2456
397 878 2612
396 932 2760
395 989 2897
394 1049 3021
393 1112 3130
392 1177 3223
392 1244 3310
391 1312 3399
390 1382 3499
389 1452 3619
388 1522 3756
387 1593 3902
385 1663 4053
437 751 404
452 752 437
472 753 526
469 753 632
454 721 741
466 764 967
460 802 1234
439 835 1521
422 872 1806
409 910 2069
399 952 2288
397 999 2456
396 1050 2612
395 1105 2759
394 1163 2896
393 1223 3021
392 1286 3129
391 1350 3222
390 1416 3309
390 1483 3398
389 1551 3498
388 1619 3618
387 1686 3755
386 1753 3902
384 1819 4052
445 979 404
462 980 445
484 982 541
494 983 673
491 983 829
469 932 967
483 986 1234
491 1038 1522
466 1078 1807
444 1121 2070
425 1165 2289
410 1211 2455
399 1259 2611
394 1310 2759
393 1365 2896
392 1423 3020
391 1482 3128
390 1543 3222
389 1606 3308
389 1669 3398
388 1732 3498
387 1795 3618
386 1857 3755
385 1918 3901
383 1978 4052
454 1248 405
473 1250 453
496 1252 557
524 1253 718
519 1253 887
515 1253 1086
487 1184 1234
502 1245 1522
520 1306 1808
499 1353 2071
473 1399 2288
450 1445 2455
430 1493 2611
413 1541 2758
400 1589 2895
390 1640 3019
390 1694 3127
389 1749 3221
388 1805 3307
387 1861 3397
387 1917 3497
386 1973 3617
385 2027 3754
384 2080 3901
382 2132 4051
464 1537 406
485 1539 463
510 1540 574
539 1542 743
552 1542 948
547 1542 1155
543 1542 1378
507 1459 1522
524 1522 1808
544 1584 2071
540 1639 2288
509 1684 2455
482 1729 2610
457 1775 2758
436 1820 2894
418 1866 3018
403 1911 3126
392 1957 3220
387 2004 3306
386 2051 3396
386 2098 3496
385 2144 3616
384 2188 3754
383 2231 3900
382 2272 4051
476 1824 410
498 1825 474
525 1827 592
556 1828 770
590 1828 1012
584 1828 1225
579 1828 1451
574 1828 1679
529 1736 1808
549 1797 2071
570 1857 2288
589 1914 2454
554 1955 2610
521 1996 2757
492 2037 2894
466 2076 3018
444 2115 3126
424 2153 3219
408 2190 3306
395 2226 3395
385 2261 3496
384 2296 3616
383 2329 3753
382 2360 3900
381 2392 4051
489 2086 414
513 2088 486
541 2089 611
573 2089 798
609 2089 1046
625 2089 1297
619 2089 1525
614 2089 1752
609 2089 1966
554 1997 2070
576 2052 2287
600 2104 2454
626 2154 2609
606 2192 2757
568 2225 2893
535 2257 3017
504 2288 3125
477 2317 3218
453 2344 3305
432 2371 3395
414 2398 3496
399 2425 3616
387 2453 3753
381 2481 3900
380 2510 4051
504 2303 420
529 2304 500
559 2304 632
593 2304 828
630 2304 1082
673 2303 1370
666 2303 1599
660 2302 1823
654 2302 2031
649 2301 2213
583 2221 2287
607 2265 2453
633 2306 2609
663 2343 2756
667 2374 2893
624 2399 3017
585 2425 3124
550 2450 3218
518 2476 3305
490 2502 3394
464 2527 3495
441 2553 3616
421 2578 3754
404 2603 3900
390 2629 4051
520 2469 428
547 2470 515
578 2470 655
614 2470 860
654 2469 1119
699 2468 1409
719 2467 1672
712 2467 1892
706 2466 2093
700 2466 2264
695 2466 2399
614 2394 2453
641 2428 2609
671 2463 2756
703 2497 2893
736 2531 3016
689 2555 3124
644 2579 3217
603 2604 3304
567 2628 3394
533 2652 3495
503 2676 3616
475 2700 3754
450 2724 3901
428 2747 4051
537 2626 436
566 2626 531
599 2626 679
636 2626 893
678 2625 1156
726 2624 1449
778 2623 1745
770 2622 1960
763 2622 2152
757 2621 2311
751 2621 2440
745 2621 2564
650 2546 2609
679 2580 2756
712 2612 2893
746 2645 3016
783 2677 3123
764 2703 3216
713 2726 3303
666 2749 3393
623 2771 3495
584 2794 3616
549 2816 3754
517 2837 3901
487 2859 4052
555 2773 447
586 2773 549
621 2773 705
660 2773 927
705 2772 1195
755 2771 1488
809 2770 1783
834 2769 2025
826 2768 2207
819 2768 2354
812 2768 2480
806 2768 2603
801 2768 2720
689 2691 2756
721 2723 2892
756 2754 3016
793 2784 3123
832 2814 3216
848 2841 3303
791 2862 3393
738 2883 3494
689 2904 3616
643 2924 3754
602 2944 3901
565 2963 4052
575 2910 458
607 2910 567
644 2910 733
686 2909 962
733 2908 1234
785 2907 1528
841 2905 1821
902 2904 2088
893 2904 2259
886 2904 2394
878 2903 2520
871 2903 2641
865 2903 2756
860 2903 2864
731 2828 2892
766 2857 3015
803 2885 3123
843 2913 3215
884 2940 3302
926 2967 3392
877 2986 3494
819 3005 3616
764 3023 3754
713 3040 3901
665 3058 4052
596 3033 470
630 3033 587
670 3033 762
714 3032 998
763 3031 1274
817 3029 1569
875 3028 1858
937 3027 2119
965 3026 2306
957 3026 2435
949 3026 2559
941 3025 2678
934 3025 2791
928 3025 2897
923 3025 2995
777 2952 3015
814 2979 3123
854 3005 3215
895 3029 3302
938 3053 3392
982 3076 3493
970 3095 3615
907 3111 3754
847 3126 3901
791 3141 4052
619 3141 484
655 3141 608
697 3140 793
743 3139 1035
794 3137 1315
850 3136 1609
909 3134 1895
973 3133 2150
1040 3132 2349
1032 3132 2475
1024 3131 2598
1015 3131 2715
1008 3131 2826
1001 3131 2930
994 3131 3024
989 3131 3109
826 3064 3122
866 3087 3215
907 3109 3302
950 3130 3392
994 3151 3493
1039 3170 3615
1069 3188 3754
1002 3202 3901
938 3215 4052
643 3234 499
681 3234 631
725 3233 825
774 3231 1073
827 3230 1356
884 3228 1650
945 3227 1932
1010 3225 2180
1079 3224 2371
1109 3224 2515
1101 3223 2636
1093 3223 2751
1084 3223 2860
1077 3223 2961
1069 3222 3053
1063 3222 3134
1058 3222 3206
878 3160 3215
919 3180 3302
962 3200 3392
1006 3218 3493
1052 3237 3616
1099 3255 3754
1145 3273 3901
1102 3287 4052
669 3321 516
709 3321 655
756 3320 858
806 3318 1112
861 3317 1397
919 3315 1690
982 3313 1968
1048 3312 2209
1118 3311 2392
1190 3310 2555
1181 3310 2674
1172 3310 2787
1164 3309 2893
1155 3309 2991
1148 3309 3080
1141 3309 3157
1134 3309 3228
1129 3309 3297
932 3246 3302
975 3265 3392
1019 3283 3493
1065 3301 3616
1112 3320 3754
1159 3338 3901
1207 3357 4052
696 3411 533
739 3411 681
787 3410 892
839 3408 1152
896 3407 1438
956 3405 1730
1020 3404 2004
1088 3403 2237
1158 3402 2414
1230 3401 2575
1263 3400 2711
1254 3400 2822
1245 3400 2925
1237 3400 3020
1228 3400 3105
1221 3400 3180
1214 3400 3250
1207 3400 3318
1202 3400 3390
989 3330 3392
1033 3349 3494
1078 3368 3616
1125 3388 3754
1173 3408 3901
1221 3428 4052
725 3513 551
770 3513 708
820 3512 928
874 3511 1192
932 3509 1480
993 3508 1770
1059 3506 2039
1127 3505 2264
1198 3505 2435
1271 3504 2596
1346 3504 2747
1337 3503 2856
1328 3503 2956
1319 3503 3048
1311 3503 3130
1303 3504 3203
1295 3504 3271
1288 3504 3341
1282 3504 3414
1267 3500 3493
1047 3419 3494
1092 3440 3616
1139 3462 3754
1186 3485 3902
1234 3509 4052
755 3636 571
802 3635 737
854 3634 964
910 3633 1232
969 3632 1521
1032 3631 1809
1098 3630 2073
1167 3629 2289
1239 3628 2457
1312 3628 2616
1387 3628 2766
1420 3628 2889
1411 3628 2986
1403 3628 3075
1394 3628 3153
1386 3628 3224
1378 3629 3293
1370 3629 3363
1363 3629 3439
1357 3629 3525
1330 3619 3615
1107 3521 3616
1153 3547 3755
1200 3574 3902
1248 3601 4053
787 3774 591
835 3774 766
889 3773 1001
946 3772 1273
1007 3771 1563
1071 3770 1848
1138 3769 2106
1208 3768 2313
1280 3768 2478
1354 3767 2636
1429 3767 2784
1505 3767 2920
1495 3767 3015
1487 3767 3100
1478 3768 3175
1469 3768 3245
1461 3768 3314
1453 3769 3386
1446 3769 3465
1439 3769 3556
1432 3769 3659
1393 3753 3754
1167 3644 3755
1214 3673 3902
1262 3703 4053
820 3922 613
870 3921 797
925 3921 1038
984 3919 1314
1045 3918 1604
1110 3917 1886
1178 3916 2138
1249 3916 2336
1322 3915 2499
1396 3915 2655
1470 3915 2802
1546 3915 2936
1579 3915 3043
1570 3915 3124
1562 3916 3197
1553 3916 3266
1545 3916 3335
1536 3917 3409
1529 3917 3492
1521 3917 3588
1514 3917 3694
1508 3917 3807
1457 3894 3901
1229 3779 3902
1277 3810 4053
854 4073 635
905 4072 829
962 4072 1077
1022 4071 1355
1085 4069 1645
1151 4068 1924
1219 4068 2169
1290 4067 2358
1363 4067 2520
1438 4067 2675
1512 4066 2820
1587 4066 2952
1662 4066 3070
1653 4067 3148
1645 4067 3219
1636 4067 3287
1628 4068 3357
1619 4068 3434
1611 4068 3520
1603 4068 3621
1596 4069 3730
1589 4069 3845
1583 4069 3963
1521 4039 4052
1292 3921 4053
464 406 406
453 406 413
434 406 469
422 405 576
414 407 738
410 410 962
408 417 1229
406 428 1516
404 441 1803
403 458 2067
401 479 2288
400 504 2456
399 532 2613
398 563 2761
397 598 2898
396 636 3023
396 679 3131
395 726 3225
394 777 3312
394 833 3401
393 891 3501
392 953 3621
391 1017 3758
390 1083 3904
388 1151 4054
465 414 406
465 415 413
445 420 469
430 426 577
418 434 739
410 445 963
408 459 1230
406 476 1517
404 497 1804
402 521 2068
401 549 2288
400 581 2456
399 616 2613
398 655 2761
397 699 2898
396 747 3022
395 800 3131
394 856 3225
393 915 3312
393 977 3401
392 1042 3501
391 1108 3620
390 1177 3757
389 1247 3903
387 1318 4054
470 473 406
476 474 417
483 470 469
473 485 578
452 499 741
434 515 965
420 532 1231
408 552 1518
404 576 1805
402 604 2069
400 636 2289
399 674 2456
398 716 2613
397 762 2760
396 812 2898
395 866 3022
394 923 3131
393 984 3224
393 1047 3311
392 1113 3400
391 1180 3500
390 1249 3620
389 1319 3757
388 1390 3903
387 1461 4053
473 584 405
489 585 422
515 586 495
503 575 578
508 601 742
481 622 966
457 645 1233
438 671 1520
421 700 1806
408 731 2069
400 767 2289
398 809 2456
397 855 2612
396 905 2760
395 959 2897
394 1016 3021
393 1076 3130
393 1139 3223
392 1204 3310
391 1270 3399
390 1338 3499
389 1407 3619
388 1476 3756
387 1546 3902
386 1616 4053
479 751 404
502 752 427
530 753 508
543 754 625
525 729 742
544 772 967
516 804 1234
488 837 1521
463 872 1807
442 910 2070
424 950 2289
410 992 2456
399 1037 2612
395 1087 2760
394 1141 2897
393 1198 3021
392 1257 3129
391 1319 3223
391 1383 3309
390 1448 3399
389 1514 3499
388 1580 3618
387 1647 3755
386 1713 3902
385 1779 4052
491 979 402
516 981 434
545 982 521
579 983 665
574 984 820
549 942 968
569 995 1235
559 1041 1522
526 1080 1808
496 1122 2071
470 1166 2289
448 1211 2456
429 1257 2612
413 1305 2759
400 1355 2896
392 1407 3020
391 1463 3128
390 1521 3222
389 1581 3308
389 1641 3398
388 1703 3498
387 1764 3618
386 1825 3755
385 1886 3901
384 1946 4052
505 1248 401
531 1250 441
562 1252 536
597 1253 687
613 1254 877
608 1254 1075
575 1196 1235
596 1256 1523
609 1313 1809
571 1356 2071
536 1400 2289
506 1446 2455
479 1493 2611
455 1541 2759
435 1589 2895
417 1637 3019
403 1686 3127
392 1737 3221
388 1789 3307
387 1843 3397
387 1897 3497
386 1951 3617
385 2004 3754
384 2057 3901
383 2108 4051
520 1537 402
548 1539 449
580 1541 551
616 1542 711
657 1543 937
651 1543 1143
645 1543 1366
603 1471 1523
627 1533 1809
653 1595 2071
623 1642 2288
584 1686 2455
549 1731 2611
517 1776 2758
489 1821 2895
464 1866 3018
442 1910 3126
423 1955 3220
407 1998 3307
394 2042 3396
386 2087 3496
385 2131 3616
384 2174 3754
383 2216 3900
382 2257 4051
536 1824 403
565 1826 458
599 1827 568
637 1828 736
680 1829 969
700 1829 1213
693 1829 1439
687 1829 1667
634 1748 1809
660 1808 2071
690 1867 2288
686 1917 2454
640 1958 2610
600 1998 2757
564 2038 2894
530 2077 3018
501 2116 3126
474 2153 3219
451 2190 3306
430 2225 3395
412 2258 3496
398 2291 3616
386 2322 3754
382 2352 3900
381 2382 4051
553 2086 406
584 2088 469
620 2089 586
660 2090 762
705 2090 1003
756 2090 1285
748 2089 1512
741 2089 1739
735 2089 1955
669 2008 2071
699 2061 2288
731 2112 2454
759 2160 2609
707 2194 2757
660 2226 2893
617 2258 3017
580 2288 3125
545 2317 3218
514 2344 3305
486 2371 3395
461 2398 3496
438 2424 3616
419 2451 3754
402 2477 3900
389 2505 4051
572 2303 411
605 2304 482
642 2304 605
684 2304 791
732 2304 1037
785 2303 1322
808 2303 1586
801 2302 1811
794 2302 2020
787 2301 2204
707 2230 2287
741 2273 2453
775 2312 2609
812 2348 2756
783 2375 2893
730 2400 3016
681 2425 3124
637 2451 3217
597 2476 3305
562 2502 3394
529 2527 3495
499 2553 3616
472 2578 3754
448 2603 3901
426 2628 4051
