Grading Edition presets/Toning - Style 5.3dl
#25pt 3DLUT created by 3D LUT Creator Pro (c) Oleg Sharonov
#Copyright Oleg Sharonov
#IMAGEPROFILE sRGB IEC61966-2.1 v.2.10
#INPUTGAMMA sRGB IEC61966-2.1 v.2.10
#OUTPUTGAMMA sRGB IEC61966-2.1 v.2.10
0 43 86 128 171 214 256 299 341 384 427 469 512 555 597 640 682 725 768 810 853 896 938 981 1023 
0 38 48
0 43 72
0 50 104
0 61 159
0 76 226
0 96 305
0 124 401
0 155 505
0 189 609
0 228 720
0 272 834
0 322 950
0 378 1067
0 438 1185
0 499 1303
0 563 1422
0 629 1542
0 696 1659
0 764 1776
0 834 1893
0 904 2004
0 974 2113
0 1045 2217
0 1115 2320
0 1184 2425
0 101 81
0 113 128
0 120 163
0 133 203
0 151 249
0 172 301
0 198 366
0 230 448
0 265 534
0 306 629
0 354 728
0 407 832
0 461 939
0 520 1050
0 579 1162
0 642 1276
0 707 1391
0 773 1508
0 841 1625
0 910 1743
0 979 1859
0 1049 1974
0 1119 2087
0 1188 2195
0 1258 2302
0 185 129
0 204 175
0 210 233
0 220 283
0 235 333
0 256 392
0 281 455
0 311 519
0 349 591
0 392 667
0 438 755
0 486 849
0 540 950
0 595 1052
0 653 1158
0 713 1265
0 775 1375
0 839 1486
0 904 1598
0 971 1713
0 1039 1827
0 1106 1941
0 1175 2052
0 1243 2161
0 1310 2266
21 306 201
0 328 250
0 342 300
0 350 375
0 364 440
0 383 494
0 407 558
0 435 624
0 469 692
0 506 762
0 550 838
0 595 915
0 644 996
0 696 1087
0 749 1186
0 806 1287
0 866 1391
0 926 1496
0 989 1604
0 1053 1714
0 1117 1824
0 1183 1934
0 1248 2043
0 1314 2149
0 1378 2253
84 466 291
1 490 344
0 505 384
0 520 458
0 529 542
0 544 614
0 563 673
0 589 737
0 617 806
0 649 875
0 687 948
0 727 1021
0 772 1098
0 819 1177
0 870 1259
0 924 1343
0 980 1435
0 1036 1535
0 1094 1637
0 1154 1742
0 1214 1847
0 1276 1952
0 1338 2057
0 1400 2160
0 1461 2261
164 645 397
70 668 450
7 686 492
0 704 541
0 717 630
0 727 718
0 742 797
0 763 862
0 787 923
0 816 995
0 847 1066
0 883 1140
0 922 1213
0 964 1289
0 1010 1368
0 1059 1447
0 1110 1531
0 1162 1615
0 1218 1702
0 1274 1794
0 1329 1894
0 1386 1994
0 1443 2094
0 1500 2192
0 1557 2291
262 837 513
158 860 565
83 878 606
10 897 653
0 916 718
0 927 813
0 939 905
0 954 987
0 975 1057
0 998 1121
0 1027 1190
0 1057 1263
0 1091 1337
0 1128 1411
0 1168 1488
0 1211 1565
0 1257 1645
0 1303 1726
0 1353 1809
0 1404 1893
0 1455 1978
0 1508 2064
0 1561 2150
0 1613 2243
0 1665 2340
371 1038 635
261 1063 683
182 1080 725
94 1098 772
10 1119 822
0 1136 904
0 1147 1003
0 1159 1097
0 1174 1182
0 1194 1255
0 1217 1323
0 1245 1388
0 1273 1464
0 1305 1539
0 1339 1615
0 1376 1692
0 1415 1769
0 1457 1848
0 1500 1928
0 1545 2007
0 1591 2088
0 1638 2168
0 1685 2247
0 1733 2331
0 1781 2417
486 1242 761
375 1268 805
301 1284 847
202 1302 894
102 1322 944
7 1344 999
0 1359 1096
0 1369 1197
0 1381 1291
0 1396 1381
0 1414 1457
0 1437 1526
0 1462 1595
0 1489 1669
0 1518 1746
0 1549 1823
0 1583 1899
0 1618 1975
0 1655 2051
0 1694 2127
0 1734 2202
0 1774 2278
0 1815 2358
0 1857 2441
0 1899 2527
606 1445 889
496 1473 930
431 1488 973
330 1506 1018
221 1525 1067
110 1546 1121
5 1564 1191
0 1580 1290
0 1589 1392
0 1600 1488
0 1614 1581
0 1631 1660
0 1651 1733
0 1674 1804
0 1699 1874
0 1725 1952
0 1753 2028
0 1783 2103
0 1814 2176
0 1847 2248
0 1880 2323
0 1914 2400
0 1950 2480
0 1985 2563
0 2021 2647
732 1642 1019
623 1671 1057
562 1688 1097
469 1705 1142
358 1723 1191
240 1742 1244
117 1762 1299
6 1778 1385
0 1792 1486
0 1801 1589
0 1812 1685
0 1824 1780
0 1840 1863
0 1857 1938
0 1877 2010
0 1899 2079
0 1922 2152
0 1947 2225
0 1973 2299
0 1999 2374
0 2027 2451
0 2055 2530
0 2084 2610
0 2113 2687
0 2143 2755
859 1827 1147
756 1859 1183
697 1877 1222
615 1895 1267
506 1911 1314
388 1929 1366
262 1948 1420
127 1966 1477
11 1980 1580
0 1993 1682
0 2001 1784
0 2010 1878
0 2021 1975
0 2035 2058
0 2050 2133
0 2067 2205
0 2085 2274
0 2106 2345
0 2126 2423
0 2147 2502
0 2168 2581
0 2191 2659
0 2214 2728
0 2239 2793
0 2263 2860
988 1999 1275
893 2034 1308
837 2053 1345
772 2073 1391
663 2088 1437
547 2104 1488
424 2120 1541
290 2137 1597
152 2153 1669
28 2165 1773
0 2177 1874
0 2184 1973
0 2193 2063
0 2202 2159
0 2213 2240
0 2225 2318
0 2240 2395
0 2255 2471
0 2272 2547
0 2289 2627
0 2307 2701
0 2326 2767
0 2346 2831
0 2366 2901
0 2387 2984
1117 2156 1401
1031 2192 1433
982 2212 1468
926 2234 1513
829 2250 1558
716 2265 1608
595 2279 1661
465 2295 1715
327 2312 1771
191 2325 1858
60 2337 1961
0 2349 2058
0 2356 2150
0 2365 2234
0 2372 2332
0 2382 2420
0 2394 2505
0 2406 2587
0 2420 2666
0 2434 2733
0 2450 2796
0 2465 2864
0 2482 2941
0 2498 3029
0 2515 3121
1246 2299 1525
1171 2340 1555
1127 2362 1589
1078 2387 1632
1001 2407 1678
892 2421 1726
775 2436 1777
650 2451 1830
518 2467 1884
377 2483 1939
248 2494 2039
111 2506 2136
0 2518 2228
0 2527 2316
0 2535 2401
0 2542 2504
0 2550 2598
0 2560 2683
0 2570 2754
0 2582 2820
0 2594 2891
0 2607 2972
0 2620 3062
0 2633 3157
0 2645 3256
1374 2438 1647
1311 2483 1677
1273 2509 1708
1231 2536 1750
1176 2563 1797
1072 2576 1841
961 2590 1890
842 2605 1941
716 2620 1993
583 2635 2045
449 2649 2111
324 2660 2206
189 2672 2299
51 2683 2391
0 2693 2480
0 2701 2566
0 2706 2669
0 2713 2750
0 2721 2823
0 2729 2900
0 2737 2988
0 2747 3081
0 2756 3178
0 2766 3278
0 2775 3384
1501 2573 1767
1449 2622 1796
1418 2650 1826
1383 2679 1865
1344 2710 1911
1255 2725 1954
1150 2738 1999
1038 2751 2047
920 2765 2096
794 2779 2145
661 2794 2194
538 2805 2271
417 2815 2366
290 2825 2460
154 2836 2551
21 2846 2639
0 2855 2713
0 2860 2798
0 2865 2880
0 2870 2974
0 2876 3074
0 2882 3175
0 2888 3277
0 2894 3380
56 2900 3485
1627 2703 1885
1585 2754 1913
1559 2782 1941
1531 2812 1977
1500 2843 2020
1435 2864 2062
1339 2876 2104
1235 2888 2148
1124 2901 2193
1007 2914 2240
883 2927 2288
753 2940 2336
642 2950 2429
528 2959 2524
409 2968 2615
284 2978 2696
152 2988 2764
26 2997 2829
26 3000 2923
41 3004 3028
67 3007 3134
103 3011 3240
149 3014 3348
206 3018 3456
270 3021 3565
1751 2825 1999
1719 2877 2027
1699 2905 2052
1676 2935 2086
1651 2967 2125
1612 2995 2167
1523 3006 2204
1428 3017 2245
1326 3029 2289
1218 3041 2334
1103 3053 2382
983 3066 2429
864 3077 2490
761 3085 2584
654 3094 2670
542 3103 2743
428 3112 2809
310 3121 2878
189 3131 2953
209 3133 3065
247 3134 3176
293 3136 3288
345 3138 3401
403 3140 3513
468 3141 3626
1874 2941 2109
1849 2993 2136
1834 3021 2159
1817 3052 2189
1798 3084 2226
1777 3118 2268
1701 3130 2304
1614 3140 2343
1521 3152 2385
1423 3163 2430
1318 3175 2475
1207 3187 2521
1092 3199 2568
987 3209 2640
890 3218 2717
790 3226 2785
686 3235 2853
582 3244 2927
475 3253 3008
368 3263 3089
406 3263 3206
459 3264 3322
516 3264 3438
578 3265 3553
644 3266 3668
1994 3052 2214
1976 3104 2240
1965 3132 2262
1952 3163 2292
1937 3197 2327
1922 3232 2368
1871 3253 2405
1792 3263 2442
1708 3274 2482
1618 3286 2524
1523 3297 2568
1423 3309 2612
1318 3322 2653
1208 3334 2692
1118 3343 2759
1027 3351 2826
934 3360 2898
839 3369 2978
741 3378 3061
645 3387 3143
549 3397 3225
603 3396 3345
666 3396 3463
733 3396 3581
802 3395 3698
2118 3162 2319
2104 3215 2345
2095 3244 2367
2085 3276 2395
2073 3311 2429
2061 3348 2468
2032 3378 2508
1961 3389 2542
1885 3399 2579
1804 3411 2618
1718 3422 2656
1627 3434 2691
1532 3446 2726
1433 3459 2759
1336 3471 2800
1255 3479 2869
1170 3487 2947
1084 3495 3029
997 3504 3112
908 3513 3195
820 3522 3278
734 3532 3360
799 3531 3481
870 3530 3600
943 3529 3718
2288 3273 2424
2271 3327 2451
2260 3358 2472
2247 3391 2499
2233 3427 2531
2218 3464 2569
2204 3504 2610
2125 3515 2639
2052 3526 2669
1978 3537 2699
1901 3548 2730
1820 3560 2761
1734 3571 2792
1645 3584 2824
1553 3596 2858
1470 3606 2916
1394 3614 2997
1317 3622 3079
1238 3631 3162
1158 3640 3245
1077 3649 3328
998 3658 3411
921 3667 3494
994 3666 3614
1071 3664 3733
2532 3387 2529
2521 3442 2555
2513 3473 2576
2503 3507 2601
2492 3542 2630
2480 3580 2661
2467 3620 2693
2378 3641 2720
2250 3652 2745
2149 3663 2771
2075 3674 2800
1999 3685 2830
1923 3697 2862
1843 3709 2896
1761 3721 2934
1674 3733 2973
1605 3742 3049
1536 3750 3131
1465 3758 3213
1393 3766 3296
1321 3775 3379
1249 3784 3462
1178 3793 3544
1108 3803 3626
1187 3801 3745
2710 3503 2631
2705 3559 2654
2701 3590 2670
2696 3623 2690
2691 3659 2713
2684 3697 2739
2678 3737 2767
2646 3767 2794
2558 3778 2817
2439 3788 2844
2303 3800 2874
2184 3811 2906
2103 3822 2942
2028 3834 2979
1954 3846 3017
1878 3858 3056
1802 3869 3104
1742 3877 3185
1678 3885 3266
1614 3893 3348
1549 3902 3431
1484 3911 3513
1420 3920 3594
1357 3929 3676
1296 3939 3757
1 40 49
1 52 79
0 60 128
0 65 201
0 76 290
0 94 399
0 115 510
0 142 633
0 171 763
0 204 892
0 242 1028
0 284 1163
0 334 1295
0 393 1410
0 452 1519
0 515 1634
0 580 1745
6 646 1854
11 713 1963
18 782 2068
25 851 2169
33 921 2266
43 991 2365
54 1060 2465
67 1129 2566
48 90 54
0 112 144
0 121 226
0 132 305
0 148 386
0 166 468
0 191 556
0 220 647
0 253 744
0 291 842
0 335 945
0 386 1053
0 438 1161
0 495 1271
0 553 1383
0 614 1496
0 677 1610
0 741 1722
0 807 1834
0 875 1945
0 942 2053
0 1010 2157
0 1079 2257
0 1147 2358
0 1215 2462
80 177 108
15 196 189
0 212 250
0 230 310
0 249 378
0 270 446
0 295 508
0 325 572
0 361 652
0 402 740
0 446 832
0 494 930
0 544 1029
0 599 1132
0 656 1237
0 714 1345
0 775 1454
0 839 1565
0 903 1678
0 969 1790
0 1036 1903
0 1103 2014
0 1170 2122
0 1236 2225
0 1304 2332
107 299 206
61 317 252
0 340 310
0 354 389
0 376 463
0 400 530
0 422 596
0 449 661
0 483 730
0 520 801
0 561 875
0 606 952
0 654 1044
0 704 1140
0 757 1238
0 813 1339
0 871 1443
0 930 1548
0 993 1657
0 1055 1765
0 1119 1873
0 1183 1982
0 1248 2089
0 1313 2193
0 1377 2296
174 457 305
122 475 337
34 502 401
0 520 468
0 536 554
0 558 633
0 579 697
0 601 764
0 630 834
0 662 905
0 698 976
0 738 1050
0 782 1127
0 829 1206
0 880 1287
0 933 1375
0 986 1473
0 1042 1573
0 1100 1676
0 1158 1779
0 1218 1884
0 1279 1988
0 1340 2092
0 1401 2193
0 1462 2294
260 634 421
201 654 439
92 681 503
26 702 555
0 719 638
0 736 730
0 755 813
0 775 880
0 799 945
0 826 1017
0 859 1090
0 893 1162
0 931 1236
0 974 1312
0 1019 1390
0 1066 1470
0 1118 1553
0 1170 1637
0 1224 1723
0 1279 1822
0 1333 1922
0 1390 2022
0 1446 2121
0 1503 2218
0 1559 2317
358 825 544
296 844 550
175 872 612
89 894 665
17 915 725
0 933 820
0 950 915
0 965 1001
0 985 1071
0 1010 1137
0 1036 1208
0 1066 1282
0 1100 1357
0 1137 1432
0 1176 1507
0 1219 1585
0 1264 1664
0 1310 1745
0 1359 1828
0 1409 1912
0 1460 1996
0 1513 2080
0 1565 2171
0 1617 2265
0 1668 2362
465 1024 671
402 1044 667
279 1073 728
175 1095 781
85 1116 834
8 1136 911
0 1153 1008
0 1169 1105
0 1183 1193
0 1202 1268
0 1226 1335
0 1252 1404
0 1281 1480
0 1312 1555
0 1346 1631
0 1383 1708
0 1422 1786
0 1463 1864
0 1506 1943
0 1550 2023
0 1596 2102
0 1642 2182
0 1689 2262
0 1737 2345
0 1784 2431
580 1226 801
514 1248 789
390 1278 846
285 1300 900
179 1321 954
80 1342 1008
0 1360 1102
0 1376 1201
0 1389 1299
0 1404 1390
0 1422 1467
0 1444 1538
0 1468 1607
0 1495 1682
0 1524 1759
0 1555 1836
0 1588 1912
0 1624 1989
0 1661 2065
0 1698 2140
0 1738 2215
0 1779 2292
0 1820 2372
0 1861 2454
0 1903 2541
700 1425 932
632 1450 915
507 1482 968
409 1503 1022
298 1523 1075
183 1544 1129
78 1564 1195
0 1581 1296
0 1596 1395
0 1607 1494
0 1620 1588
0 1638 1669
0 1657 1743
0 1680 1814
0 1705 1886
0 1731 1964
0 1758 2039
0 1787 2114
0 1819 2187
0 1851 2259
0 1884 2335
0 1919 2413
0 1954 2493
0 1989 2576
0 2024 2659
823 1618 1063
755 1646 1042
632 1680 1091
543 1701 1144
429 1721 1196
312 1740 1250
190 1760 1306
78 1778 1389
0 1793 1491
0 1807 1592
0 1817 1690
0 1830 1787
0 1845 1870
0 1862 1946
0 1882 2018
0 1904 2088
0 1927 2161
0 1951 2235
0 1976 2309
0 2003 2384
0 2030 2462
0 2059 2541
0 2087 2622
0 2116 2697
0 2145 2764
