Grading Edition presets/Toning - Style 5.3dl
#25pt 3DLUT created by 3D LUT Creator Pro (c) Oleg Sharonov
#Copyright Oleg Sharonov
#IMAGEPROFILE sRGB IEC61966-2.1 v.2.10
#INPUTGAMMA sRGB IEC61966-2.1 v.2.10
#OUTPUTGAMMA sRGB IEC61966-2.1 v.2.10
0 128 256 384 512 640 768 896 1023
0 38 48
0 61 159
0 124 401
0 228 720
0 378 1067
0 563 1422
0 764 1776
0 974 2113
0 1184 2425
21 306 201
0 350 375
0 407 558
0 506 762
0 644 996
0 806 1287
0 989 1604
0 1183 1934
0 1378 2253
262 837 513
10 897 653
0 939 905
0 998 1121
0 1091 1337
0 1211 1565
0 1353 1809
0 1508 2064
0 1665 2340
606 1445 889
330 1506 1018
5 1564 1191
0 1600 1488
0 1651 1733
0 1725 1952
0 1814 2176
0 1914 2400
0 2021 2647
988 1999 1275
772 2073 1391
424 2120 1541
28 2165 1773
0 2193 2063
0 2225 2318
0 2272 2547
0 2326 2767
0 2387 2984
1374 2438 1647
1231 2536 1750
961 2590 1890
583 2635 2045
189 2672 2299
0 2701 2566
0 2721 2823
0 2747 3081
0 2775 3384
1751 2825 1999
1676 2935 2086
1523 3006 2204
1218 3041 2334
864 3077 2490
542 3103 2743
189 3131 2953
293 3136 3288
468 3141 3626
2118 3162 2319
2085 3276 2395
2032 3378 2508
1804 3411 2618
1532 3446 2726
1255 3479 2869
997 3504 3112
734 3532 3360
943 3529 3718
2710 3503 2631
2696 3623 2690
2678 3737 2767
2439 3788 2844
2103 3822 2942
1878 3858 3056
1678 3885 3266
1484 3911 3513
1296 3939 3757
180 46 49
69 107 192
23 153 521
53 226 897
81 345 1288
113 503 1688
151 680 2073
197 870 2418
252 1064 2729
433 265 66
206 347 432
120 405 803
67 498 1110
37 623 1404
23 775 1703
19 946 2004
25 1128 2289
49 1312 2581
586 812 487
412 868 671
163 946 940
0 1035 1190
0 1128 1428
0 1243 1655
0 1379 1895
0 1526 2162
0 1675 2445
846 1415 923
716 1467 998
316 1560 1214
90 1614 1513
0 1679 1779
0 1748 2006
0 1834 2227
0 1931 2455
0 2033 2696
1161 1951 1310
1071 2014 1354
675 2114 1560
326 2164 1782
37 2204 2079
0 2240 2347
0 2285 2583
0 2337 2798
0 2395 3028
1484 2364 1664
1437 2451 1706
1153 2584 1896
789 2632 2059
450 2671 2303
124 2705 2574
16 2728 2836
19 2753 3102
100 2778 3402
1813 2731 1998
1798 2837 2041
1661 3001 2204
1356 3038 2342
1019 3077 2489
732 3102 2744
444 3130 2954
513 3136 3290
655 3141 3629
2155 3063 2310
2155 3173 2350
2101 3357 2499
1895 3409 2621
1631 3445 2730
1366 3479 2869
1128 3504 3112
894 3532 3361
1078 3529 3718
2739 3394 2620
2748 3513 2652
2724 3706 2757
2562 3786 2845
2175 3821 2946
1947 3858 3061
1755 3886 3266
1572 3911 3513
1398 3939 3757
691 66 47
649 114 188
406 275 488
233 371 891
264 423 1271
326 554 1672
388 710 2055
456 880 2399
535 1053 2729
861 288 46
830 315 326
576 476 668
376 530 1112
394 583 1497
430 704 1879
473 848 2222
526 1004 2548
593 1162 2831
1215 737 124
1096 796 501
754 932 1015
634 995 1457
534 1081 1813
464 1187 2108
424 1309 2367
416 1440 2629
439 1572 2850
1366 1369 729
1275 1408 894
979 1518 1251
716 1604 1557
407 1697 1844
223 1779 2113
89 1868 2353
4 1962 2600
0 2056 2816
1411 1925 1261
1385 1953 1353
1271 2053 1542
864 2159 1799
683 2199 2101
421 2251 2386
288 2300 2646
202 2352 2859
187 2406 3116
1616 2328 1618
1616 2356 1689
1586 2483 1845
1216 2624 2086
930 2668 2309
727 2702 2584
595 2729 2848
576 2754 3123
615 2778 3432
1865 2686 1946
1883 2716 2003
1907 2863 2138
1665 3031 2352
1360 3073 2508
1120 3102 2744
915 3129 2957
944 3135 3296
1039 3141 3637
2169 3017 2257
2202 3044 2303
2284 3195 2422
2115 3402 2624
1856 3442 2739
1612 3479 2865
1416 3505 3112
1234 3532 3362
1370 3530 3720
2736 3342 2571
2770 3370 2610
2836 3536 2698
2792 3779 2845
2470 3818 2952
2113 3857 3073
1930 3887 3265
1773 3912 3514
1628 3940 3758
1289 106 45
1390 46 100
1112 312 491
849 543 861
574 682 1298
560 726 1665
616 804 2036
708 947 2395
805 1097 2732
1338 374 44
1404 334 308
1289 464 624
984 699 999
684 812 1454
662 836 1815
717 917 2175
798 1050 2520
886 1188 2820
1667 752 41
1602 806 342
1531 867 825
1211 1059 1274
930 1106 1753
911 1105 2110
960 1196 2460
1015 1302 2767
1080 1409 3052
1916 1322 317
1854 1362 647
1740 1439 1078
1377 1590 1628
1287 1635 2078
1208 1693 2422
1153 1760 2715
1131 1831 2947
1142 1901 3232
1959 1901 998
1930 1923 1130
1843 1980 1396
1585 2113 1836
1358 2190 2136
1117 2252 2437
993 2301 2715
923 2351 2942
909 2400 3224
1923 2313 1480
1893 2331 1578
1833 2386 1798
1833 2542 2069
1509 2664 2316
1374 2698 2598
1247 2728 2868
1214 2752 3162
1227 2774 3483
1967 2646 1892
1983 2670 1944
2028 2736 2076
2097 2916 2300
1820 3066 2541
1613 3101 2745
1477 3127 2962
1479 3135 3307
1534 3141 3651
2248 2976 2207
2283 2997 2246
2391 3054 2349
2573 3240 2549
2212 3436 2751
1960 3479 2866
1806 3506 3112
1677 3533 3364
1767 3531 3723
2772 3298 2523
2797 3318 2555
2863 3373 2637
2979 3576 2772
2848 3811 2958
2553 3853 3090
2217 3889 3261
2063 3915 3515
1952 3942 3760
1868 167 43
1975 47 71
1844 272 469
1590 597 867
1340 849 1282
1028 1020 1735
927 1077 2075
943 1128 2391
1025 1222 2725
1860 471 42
1945 387 304
1987 384 562
1703 726 975
1443 968 1394
1121 1122 1851
1014 1167 2178
1020 1208 2488
1104 1304 2800
2043 861 40
2026 890 255
2044 886 825
1911 1035 1208
1647 1248 1630
1325 1358 2086
1216 1376 2390
1213 1407 2695
1295 1504 2987
2380 1346 45
2291 1389 417
2160 1474 914
2052 1558 1505
1849 1683 1937
1608 1724 2359
1526 1712 2673
1555 1767 2956
1607 1825 3301
2555 1913 702
2513 1936 917
2421 1988 1299
2217 2074 1762
1966 2182 2179
1933 2199 2592
1910 2220 2891
1901 2245 3220
1909 2271 3558
2486 2353 1327
2476 2369 1417
2453 2407 1621
2360 2477 1902
2146 2617 2337
1969 2694 2618
1876 2724 2896
1845 2746 3216
1850 2765 3552
2412 2687 1770
2403 2701 1833
2383 2738 1988
2317 2803 2228
2524 2986 2523
2115 3100 2743
2018 3127 2969
2009 3135 3319
2039 3140 3670
2534 2968 2160
2529 2978 2198
2560 3017 2298
2683 3101 2462
2861 3307 2710
2568 3472 2897
2276 3508 3113
2139 3534 3367
2214 3534 3728
2849 3263 2481
2870 3280 2510
2927 3327 2587
3021 3412 2706
3160 3640 2888
2994 3847 3111
2764 3891 3254
2614 3917 3515
2475 3944 3762
2531 260 55
2707 70 95
2720 120 349
2293 594 898
2042 908 1303
1843 1148 1761
1579 1332 2184
1416 1408 2487
1388 1463 2770
2449 600 39
2613 484 336
2785 324 491
2470 702 985
2124 1008 1394
1922 1237 1855
1658 1408 2266
1496 1476 2569
1463 1525 2829
2570 1039 36
2611 1026 232
2721 949 847
2763 962 1180
2370 1252 1597
2088 1450 2054
1835 1587 2449
1681 1637 2731
1641 1673 2983
2839 1483 33
2816 1511 311
2741 1579 820
2809 1561 1447
2684 1660 1858
2383 1795 2292
2073 1876 2685
1950 1899 2927
1910 1916 3229
2982 1970 380
2961 1990 628
2907 2038 1054
2835 2116 1536
2750 2178 2122
2636 2224 2517
2410 2248 2848
2272 2247 3155
2276 2280 3509
2977 2407 1156
2976 2425 1289
2970 2463 1568
2961 2524 1933
2890 2610 2312
2728 2690 2636
2726 2696 2961
2729 2703 3325
2742 2714 3686
2941 2776 1693
2947 2790 1754
2957 2818 1895
2973 2869 2107
2966 2938 2414
2941 3059 2751
2763 3126 2976
2751 3133 3334
2769 3140 3689
2983 3047 2099
2986 3057 2140
2996 3083 2239
3007 3127 2408
3002 3193 2641
3153 3389 2882
2945 3510 3106
2855 3536 3370
2897 3537 3731
3114 3309 2448
3115 3318 2477
3121 3343 2552
3129 3384 2670
3223 3492 2814
3370 3722 3065
3196 3888 3295
3080 3922 3517
3008 3949 3766
3116 445 173
3243 170 212
3270 166 358
3155 510 909
2946 900 1383
2724 1187 1815
2507 1392 2267
2169 1575 2642
2016 1661 2882
3066 771 39
3145 648 442
3287 406 536
3220 617 987
3018 993 1461
2806 1264 1892
2615 1457 2337
2267 1629 2699
2087 1709 2942
3061 1223 34
3085 1207 295
3195 1075 922
3351 889 1160
3153 1227 1638
2974 1459 2059
2804 1619 2494
2561 1760 2814
2303 1826 3089
3138 1692 31
3126 1713 310
3097 1762 794
3239 1644 1508
3280 1640 1878
3149 1789 2272
3025 1899 2690
2846 1988 2995
2705 2030 3303
3230 2110 272
3220 2128 530
3192 2165 959
3160 2227 1447
3267 2196 2086
3250 2222 2465
3175 2271 2832
3076 2309 3183
3005 2330 3515
3277 2481 863
3276 2495 1008
3264 2523 1304
3257 2579 1698
3239 2661 2123
3241 2707 2619
3248 2711 2937
3206 2722 3301
3182 2730 3653
3287 2845 1586
3293 2859 1674
3300 2886 1865
3319 2937 2140
3341 3005 2449
3330 3076 2742
3281 3128 2984
3285 3131 3354
3291 3137 3719
3326 3152 2064
3332 3163 2105
3344 3184 2196
3368 3225 2365
3391 3283 2596
3406 3355 2821
3432 3474 3119
3320 3541 3376
3336 3543 3740
3417 3405 2416
3421 3414 2446
3431 3437 2521
3448 3476 2643
3467 3535 2785
3477 3614 2989
3603 3808 3280
3453 3930 3513
3399 3956 3773
3486 722 424
3618 398 455
3656 344 516
3665 387 945
3514 846 1494
3387 1149 1951
3270 1387 2358
3187 1542 2758
3062 1716 3060
3418 1049 271
3501 897 646
3658 584 695
3705 522 1019
3553 946 1562
3428 1230 2013
3316 1450 2416
3236 1593 2800
3117 1756 3114
3380 1473 202
3401 1453 471
3530 1274 1072
3704 1022 1242
3634 1198 1717
3515 1433 2149
3414 1611 2546
3341 1727 2899
3234 1861 3238
3352 1954 151
3346 1970 402
3387 1943 883
3560 1779 1613
3720 1627 1926
3616 1783 2326
3536 1895 2705
3477 1971 3056
3390 2058 3410
3423 2294 351
3419 2307 561
3406 2338 945
3393 2392 1411
3585 2275 2149
3674 2232 2496
3634 2275 2827
3591 2314 3205
3533 2358 3571
3497 2613 725
3495 2626 880
3486 2653 1196
3479 2704 1608
3472 2774 2040
3609 2744 2621
3670 2723 2922
3656 2735 3304
3625 2755 3672
3565 2918 1364
3569 2928 1455
3571 2948 1654
3582 2988 1947
3598 3046 2268
3596 3120 2612
3645 3152 2984
3687 3141 3356
3679 3150 3718
3633 3216 2000
3640 3228 2056
3650 3250 2178
3674 3295 2376
3703 3358 2625
3729 3431 2845
3738 3502 3115
3714 3549 3384
3719 3554 3747
3719 3526 2417
3725 3536 2447
3736 3555 2516
3758 3592 2631
3782 3641 2769
3810 3708 2959
3832 3784 3221
3860 3900 3530
3764 3965 3782
3788 1077 764
3931 752 797
3981 662 803
4034 556 1113
3973 801 1646
3878 1097 2113
3808 1305 2515
3740 1482 2850
3704 1582 3244
3702 1388 611
3796 1221 935
3974 873 965
4030 780 1201
3996 922 1705
3905 1190 2161
3836 1379 2560
3772 1540 2886
3738 1631 3286
3640 1765 524
3666 1738 731
3815 1534 1290
4012 1240 1410
4042 1218 1835
3958 1424 2265
3897 1569 2655
3842 1692 2975
3810 1765 3378
3575 2188 431
3591 2178 637
3641 2145 1050
3840 1957 1763
4050 1737 2007
4018 1806 2408
3970 1894 2761
3930 1965 3100
3905 2012 3502
3603 2508 517
3601 2519 680
3598 2546 1004
3633 2552 1484
3868 2386 2233
4043 2267 2547
4019 2302 2857
4001 2330 3219
3985 2355 3614
3687 2782 823
3687 2792 951
3685 2815 1223
3684 2854 1595
3688 2913 2008
3909 2812 2660
4038 2751 2940
4040 2757 3303
4033 2769 3687
3799 3023 1232
3801 3032 1330
3801 3051 1546
3802 3087 1857
3811 3145 2198
3817 3215 2540
3966 3192 3001
4057 3160 3356
4061 3165 3726
3905 3289 1867
3910 3298 1924
3917 3316 2052
3929 3348 2241
3952 3401 2487
3978 3468 2735
3978 3543 2982
4040 3579 3391
4086 3568 3757
4005 3589 2375
4011 3599 2413
4022 3621 2502
4042 3658 2642
4070 3713 2794
4095 3784 3001
4095 3858 3257
4095 3932 3532
4095 3977 3794
