Grading Edition presets/Toning - Style 4.3dl
#25pt 3DLUT created by 3D LUT Creator Pro (c) Oleg Sharonov
#Copyright Oleg Sharonov
#IMAGEPROFILE sRGB IEC61966-2.1 v.2.10
#INPUTGAMMA sRGB IEC61966-2.1 v.2.10
#OUTPUTGAMMA sRGB IEC61966-2.1 v.2.10
0 43 86 128 171 214 256 299 341 384 427 469 512 555 597 640 682 725 768 810 853 896 938 981 1023 
46 211 354
46 211 325
45 210 380
44 208 567
41 206 875
38 203 1251
35 200 1646
32 197 2011
30 195 2309
27 192 2576
26 191 2790
24 189 2976
22 187 3151
21 186 3314
19 185 3465
18 183 3603
17 182 3726
16 181 3834
15 180 3928
14 179 4016
13 178 4095
12 177 4095
12 177 4095
11 177 4095
11 176 4095
46 183 354
46 183 325
45 183 381
43 181 569
41 179 878
38 177 1254
35 174 1649
32 172 2014
29 170 2311
27 168 2578
25 167 2792
24 165 2978
22 164 3153
21 163 3316
19 162 3466
18 161 3604
17 161 3727
16 160 3835
15 159 3929
14 159 4017
13 158 4095
12 158 4095
12 158 4095
11 158 4095
11 159 4095
45 236 353
45 237 325
44 238 381
43 237 570
40 236 880
37 234 1256
34 232 1651
31 230 2016
29 229 2313
26 228 2579
25 227 2793
23 227 2978
21 227 3153
20 226 3316
18 226 3467
17 226 3604
16 226 3727
15 226 3835
14 226 3929
13 227 4017
12 227 4095
11 227 4095
11 228 4095
10 229 4095
10 230 4095
44 419 351
43 421 324
43 422 381
41 423 571
38 422 881
35 422 1258
32 421 1652
29 420 2017
27 420 2313
25 419 2579
23 420 2793
21 420 2978
20 421 3153
18 421 3316
17 422 3467
15 423 3604
14 424 3727
13 425 3835
12 426 3928
11 428 4016
10 429 4095
9 430 4095
9 432 4095
9 434 4095
8 436 4095
41 721 349
41 723 322
40 725 380
38 726 570
36 726 882
33 726 1258
30 726 1653
27 726 2017
24 726 2313
22 727 2579
20 727 2792
19 728 2977
17 730 3152
16 731 3315
14 732 3466
13 734 3603
12 735 3725
10 737 3833
9 739 3927
8 740 4015
7 742 4095
7 744 4095
6 747 4095
6 749 4095
6 751 4095
38 1088 346
38 1091 319
37 1093 378
35 1094 570
33 1095 881
30 1095 1258
27 1095 1653
24 1095 2017
21 1095 2312
19 1096 2578
17 1097 2791
16 1099 2976
14 1100 3151
13 1102 3314
11 1103 3464
10 1105 3601
9 1107 3724
8 1109 3831
6 1110 3925
6 1113 4013
5 1115 4095
4 1117 4095
4 1120 4095
3 1122 4095
3 1125 4095
35 1473 343
35 1476 317
34 1478 376
32 1480 569
30 1480 881
27 1480 1259
24 1480 1653
21 1480 2016
18 1481 2312
16 1482 2577
14 1483 2789
13 1484 2975
11 1485 3149
10 1487 3312
8 1488 3462
7 1490 3599
6 1492 3722
4 1493 3829
3 1495 3923
3 1497 4011
2 1499 4094
1 1501 4095
1 1504 4095
0 1507 4095
0 1509 4095
32 1831 340
32 1833 314
31 1835 375
30 1836 568
27 1836 881
24 1836 1259
21 1835 1653
18 1835 2016
16 1835 2311
13 1836 2576
12 1836 2788
10 1837 2974
8 1838 3148
7 1839 3311
5 1840 3461
4 1842 3598
3 1843 3720
2 1844 3828
1 1846 3921
0 1847 4009
0 1849 4092
0 1851 4095
0 1853 4095
0 1855 4095
0 1857 4095
30 2121 338
30 2124 312
29 2125 373
27 2126 568
25 2125 881
22 2125 1259
19 2124 1654
16 2123 2016
13 2123 2311
11 2123 2576
9 2124 2787
7 2124 2973
6 2125 3147
4 2126 3310
3 2126 3460
2 2127 3597
0 2128 3719
0 2129 3826
0 2131 3920
0 2132 4007
0 2133 4090
0 2135 4095
0 2136 4095
0 2138 4095
0 2140 4095
28 2382 336
28 2384 311
27 2385 372
25 2386 568
22 2385 882
19 2384 1260
16 2383 1655
13 2382 2017
11 2382 2311
9 2382 2576
7 2382 2787
5 2383 2972
4 2383 3147
2 2383 3309
1 2384 3459
0 2385 3596
0 2385 3718
0 2386 3825
0 2387 3919
0 2388 4006
0 2389 4089
0 2390 4095
0 2392 4095
0 2394 4095
0 2395 4095
26 2592 334
26 2593 309
25 2594 372
23 2594 569
21 2593 883
18 2592 1261
15 2591 1656
12 2589 2018
9 2589 2312
7 2588 2576
5 2588 2787
3 2588 2972
2 2588 3146
0 2588 3309
0 2588 3459
0 2589 3595
0 2589 3717
0 2590 3825
0 2590 3918
0 2591 4006
0 2592 4088
0 2593 4095
0 2594 4095
0 2595 4095
0 2596 4095
24 2774 332
24 2775 308
23 2776 372
22 2776 569
19 2775 884
16 2773 1263
13 2772 1657
10 2771 2019
8 2770 2312
5 2769 2577
4 2769 2787
2 2769 2972
0 2769 3146
0 2769 3309
0 2769 3458
0 2769 3595
0 2770 3717
0 2770 3824
0 2771 3917
0 2771 4005
0 2772 4088
0 2773 4095
0 2774 4095
0 2775 4095
0 2776 4095
23 2945 331
22 2946 307
22 2947 371
20 2946 570
17 2945 886
14 2944 1265
11 2942 1658
8 2941 2020
6 2940 2313
4 2939 2577
2 2939 2787
0 2939 2972
0 2939 3146
0 2939 3309
0 2939 3458
0 2939 3595
0 2940 3717
0 2940 3824
0 2940 3917
0 2941 4004
0 2942 4087
0 2942 4095
0 2943 4095
0 2945 4095
0 2946 4095
21 3104 329
21 3105 306
20 3106 371
18 3106 571
16 3105 887
13 3103 1266
10 3101 1660
7 3100 2021
5 3099 2314
2 3098 2578
1 3098 2787
0 3098 2972
0 3098 3146
0 3098 3308
0 3098 3458
0 3098 3594
0 3098 3716
0 3098 3823
0 3099 3916
0 3099 4004
0 3100 4086
0 3100 4095
0 3101 4095
0 3102 4095
0 3103 4095
20 3252 328
20 3253 305
19 3253 371
17 3253 572
15 3252 889
12 3250 1268
8 3248 1662
6 3247 2022
3 3246 2315
1 3245 2578
0 3244 2787
0 3244 2972
0 3244 3146
0 3244 3309
0 3244 3458
0 3244 3594
0 3244 3716
0 3244 3823
0 3244 3916
0 3245 4003
0 3245 4086
0 3246 4095
0 3247 4095
0 3248 4095
0 3249 4095
18 3386 327
18 3387 304
18 3387 371
16 3387 573
13 3386 890
10 3384 1270
7 3382 1664
4 3380 2023
2 3379 2315
0 3378 2579
0 3378 2788
0 3377 2973
0 3377 3147
0 3377 3309
0 3377 3458
0 3377 3594
0 3377 3716
0 3377 3823
0 3377 3915
0 3377 4003
0 3378 4086
0 3378 4095
0 3379 4095
0 3380 4095
0 3381 4095
17 3506 325
17 3507 304
16 3508 371
15 3507 574
12 3506 892
9 3504 1272
6 3502 1665
3 3500 2025
1 3499 2316
0 3498 2580
0 3497 2788
0 3497 2973
0 3496 3147
0 3496 3309
0 3496 3458
0 3496 3594
0 3496 3716
0 3496 3822
0 3496 3915
0 3496 4003
0 3496 4085
0 3497 4095
0 3497 4095
0 3498 4095
0 3499 4095
16 3612 324
16 3613 303
15 3613 371
13 3612 575
11 3611 894
8 3609 1274
5 3607 1667
2 3605 2026
0 3604 2318
0 3603 2581
0 3602 2789
0 3601 2974
0 3601 3147
0 3600 3309
0 3600 3459
0 3600 3594
0 3600 3716
0 3600 3822
0 3600 3915
0 3600 4003
0 3600 4085
0 3600 4095
0 3601 4095
0 3601 4095
0 3602 4095
15 3704 323
15 3705 302
14 3705 371
12 3704 576
10 3702 896
7 3700 1276
4 3698 1669
1 3696 2028
0 3695 2319
0 3694 2582
0 3693 2789
0 3692 2974
0 3692 3148
0 3691 3310
0 3691 3459
0 3691 3595
0 3690 3716
0 3690 3822
0 3690 3915
0 3690 4003
0 3690 4085
0 3691 4095
0 3691 4095
0 3692 4095
0 3692 4095
14 3790 322
14 3791 302
13 3791 372
11 3790 578
9 3788 898
6 3786 1278
3 3784 1672
0 3782 2030
0 3781 2320
0 3780 2583
0 3779 2790
0 3778 2975
0 3778 3148
0 3777 3310
0 3777 3459
0 3776 3595
0 3776 3716
0 3776 3822
0 3776 3915
0 3776 4003
0 3776 4085
0 3776 4095
0 3777 4095
0 3777 4095
0 3778 4095
13 3871 321
13 3872 302
12 3872 372
11 3871 579
8 3869 900
5 3867 1281
2 3865 1674
0 3863 2031
0 3862 2322
0 3861 2584
0 3860 2791
0 3859 2975
0 3858 3149
0 3858 3311
0 3857 3460
0 3857 3595
0 3857 3716
0 3856 3823
0 3856 3915
0 3856 4003
0 3856 4085
0 3857 4095
0 3857 4095
0 3858 4095
0 3858 4095
12 3947 321
12 3948 301
11 3948 373
10 3947 581
7 3945 902
4 3943 1283
1 3941 1676
0 3939 2033
0 3937 2323
0 3936 2585
0 3935 2792
0 3934 2976
0 3933 3150
0 3933 3311
0 3932 3460
0 3932 3596
0 3932 3717
0 3931 3823
0 3931 3915
0 3931 4003
0 3931 4085
0 3931 4095
0 3932 4095
0 3932 4095
0 3933 4095
12 4016 320
11 4017 301
11 4017 373
9 4016 582
6 4014 904
3 4012 1285
0 4010 1678
0 4008 2035
0 4006 2325
0 4005 2586
0 4004 2792
0 4003 2977
0 4002 3150
0 4002 3312
0 4001 3461
0 4000 3596
0 4000 3717
0 4000 3823
0 4000 3915
0 4000 4003
0 3999 4085
0 4000 4095
0 4000 4095
0 4001 4095
0 4001 4095
11 4079 319
11 4079 301
10 4079 374
8 4078 584
5 4076 906
2 4074 1288
0 4072 1681
0 4070 2037
0 4068 2326
0 4067 2587
0 4066 2793
0 4065 2978
0 4064 3151
0 4063 3312
0 4063 3461
0 4062 3596
0 4062 3717
0 4061 3823
0 4061 3916
0 4061 4003
0 4061 4085
0 4061 4095
0 4061 4095
0 4062 4095
0 4062 4095
10 4095 318
10 4095 300
9 4095 374
7 4095 585
5 4095 908
2 4095 1290
0 4095 1683
0 4095 2039
0 4095 2328
0 4095 2589
0 4095 2794
0 4095 2978
0 4095 3152
0 4095 3313
0 4095 3462
0 4095 3597
0 4095 3718
0 4095 3823
0 4095 3916
0 4095 4003
0 4095 4085
0 4095 4095
0 4095 4095
0 4095 4095
0 4095 4095
16 211 354
16 211 325
16 210 381
14 208 569
12 206 878
10 203 1254
7 200 1649
5 197 2014
3 194 2311
1 192 2578
0 190 2792
0 189 2978
0 187 3153
0 186 3316
0 184 3466
0 183 3604
0 182 3727
0 181 3835
0 180 3929
0 179 4017
0 178 4095
0 177 4095
0 177 4095
0 177 4095
0 176 4095
16 184 354
16 183 326
16 183 382
15 182 571
13 180 881
10 177 1257
7 174 1651
5 172 2016
3 170 2313
1 168 2580
0 167 2793
0 166 2979
0 164 3154
0 163 3317
0 162 3468
0 162 3605
0 161 3728
0 160 3836
0 160 3930
0 159 4018
0 159 4095
0 158 4095
0 159 4095
0 159 4095
0 159 4095
17 238 349
16 238 325
16 239 382
14 238 572
12 237 883
10 235 1259
7 233 1654
5 231 2018
3 230 2315
1 229 2581
0 228 2794
0 228 2980
0 228 3155
0 227 3318
0 227 3468
0 227 3605
0 227 3728
0 227 3836
0 227 3930
0 228 4018
0 228 4095
0 228 4095
0 229 4095
0 230 4095
0 231 4095
15 421 350
15 423 324
14 424 382
13 425 573
11 424 884
8 423 1261
6 422 1655
3 422 2019
1 421 2315
0 421 2581
0 422 2794
0 422 2980
0 423 3154
0 423 3317
0 424 3468
0 425 3605
0 426 3728
0 427 3835
0 428 3929
0 429 4017
0 431 4095
0 432 4095
0 434 4095
0 436 4095
0 438 4095
12 723 349
13 726 322
12 728 381
11 729 572
9 729 884
6 729 1261
4 728 1656
1 728 2019
0 728 2315
0 729 2581
0 730 2793
0 731 2979
0 732 3153
0 733 3316
0 734 3467
0 736 3604
0 737 3726
0 739 3834
0 741 3928
0 743 4015
0 744 4095
0 746 4095
0 749 4095
0 751 4095
0 754 4095
10 1091 346
10 1093 320
10 1096 379
9 1097 572
6 1098 884
4 1098 1261
1 1097 1656
0 1097 2019
0 1098 2314
0 1099 2580
0 1100 2792
0 1101 2978
0 1103 3152
0 1104 3315
0 1106 3465
0 1107 3602
0 1109 3725
0 1111 3832
0 1113 3926
0 1115 4013
0 1117 4095
0 1119 4095
0 1122 4095
0 1125 4095
0 1127 4095
7 1476 343
8 1479 317
7 1481 377
6 1482 571
4 1483 884
1 1483 1261
0 1483 1656
0 1483 2019
0 1483 2314
0 1484 2579
0 1485 2791
0 1486 2976
0 1488 3151
0 1489 3313
0 1491 3463
0 1492 3600
0 1494 3723
0 1496 3830
0 1498 3924
0 1500 4011
0 1502 4094
0 1504 4095
0 1506 4095
0 1509 4095
0 1511 4095
5 1833 340
5 1836 315
5 1837 375
4 1838 570
1 1838 883
0 1838 1262
0 1838 1656
0 1837 2019
0 1838 2313
0 1838 2578
0 1839 2790
0 1839 2975
0 1840 3149
0 1841 3312
0 1843 3462
0 1844 3599
0 1845 3721
0 1846 3828
0 1848 3922
0 1850 4010
0 1851 4092
0 1853 4095
0 1855 4095
0 1857 4095
0 1859 4095
3 2124 338
3 2126 313
3 2127 374
2 2128 570
0 2127 884
0 2127 1262
0 2126 1657
0 2125 2019
0 2125 2313
0 2125 2578
0 2126 2789
0 2126 2974
0 2127 3149
0 2127 3311
0 2128 3461
0 2129 3598
0 2130 3720
0 2131 3827
0 2132 3920
0 2134 4008
0 2135 4091
0 2136 4095
0 2138 4095
0 2140 4095
0 2142 4095
1 2384 336
2 2386 311
1 2387 373
0 2388 570
0 2387 885
0 2386 1263
0 2385 1657
0 2384 2019
0 2384 2313
0 2384 2578
0 2384 2788
0 2384 2974
0 2385 3148
0 2385 3310
0 2386 3460
0 2386 3597
0 2387 3719
0 2388 3826
0 2389 3919
0 2390 4007
0 2391 4090
0 2392 4095
0 2394 4095
0 2395 4095
0 2397 4095
0 2593 334
0 2595 310
0 2596 373
0 2596 571
0 2595 886
0 2593 1264
0 2592 1658
0 2591 2020
0 2590 2314
0 2589 2578
0 2589 2788
0 2589 2974
0 2589 3148
0 2590 3310
0 2590 3460
0 2590 3596
0 2590 3718
0 2591 3825
0 2592 3918
0 2592 4006
0 2593 4089
0 2594 4095
0 2595 4095
0 2596 4095
0 2598 4095
