Grading Edition presets/Toning - Style 3.3dl
#25pt 3DLUT created by 3D LUT Creator Pro (c) Oleg Sharonov
#Copyright Oleg Sharonov
#IMAGEPROFILE sRGB IEC61966-2.1 v.2.10
#INPUTGAMMA sRGB IEC61966-2.1 v.2.10
#OUTPUTGAMMA sRGB IEC61966-2.1 v.2.10
0 128 256 384 512 640 768 896 1023
0 0 0
0 39 239
4 132 557
31 275 880
91 431 1216
185 604 1573
312 788 1940
472 980 2300
656 1178 2637
0 375 153
0 450 489
0 494 920
19 557 1207
98 660 1496
203 793 1808
338 948 2132
500 1117 2453
686 1297 2758
1 802 371
0 819 535
0 1012 969
0 1099 1475
0 1136 1916
121 1208 2205
304 1309 2482
502 1433 2749
710 1573 3011
28 1298 601
9 1303 706
0 1386 971
0 1636 1492
0 1759 2055
0 1786 2503
8 1833 2859
301 1904 3102
596 1995 3339
90 1848 849
66 1850 927
18 1869 1108
0 2015 1482
0 2258 2051
0 2392 2601
0 2412 3013
0 2442 3386
119 2489 3684
199 2415 1126
172 2417 1191
111 2427 1346
17 2479 1620
0 2625 2057
0 2821 2595
0 2947 3094
0 2961 3490
0 2983 3861
370 2964 1451
339 2965 1507
269 2971 1643
158 2988 1865
1 3058 2204
0 3172 2631
0 3299 3098
0 3391 3561
0 3401 3954
611 3443 1824
581 3445 1873
505 3449 1992
376 3458 2185
195 3482 2450
0 3540 2786
0 3615 3172
0 3696 3589
0 3764 4020
923 3886 2234
894 3887 2276
819 3891 2377
686 3898 2542
497 3911 2758
208 3939 3034
0 3979 3354
0 4024 3710
0 4069 4090
232 29 11
200 67 394
173 185 666
186 294 1053
209 431 1447
295 610 1747
419 795 2075
573 988 2404
750 1186 2717
268 477 34
281 476 505
259 510 881
272 580 1196
325 686 1505
412 818 1824
531 969 2150
679 1137 2470
780 1303 2833
47 870 160
241 934 600
257 1048 995
241 1105 1488
281 1148 1884
409 1221 2190
556 1323 2478
720 1447 2750
804 1579 3074
56 1338 487
249 1397 750
202 1444 1004
229 1666 1516
237 1764 2065
214 1793 2516
348 1840 2841
599 1912 3092
688 2000 3389
122 1876 774
317 1920 958
255 1933 1145
187 2051 1507
197 2277 2067
232 2396 2608
199 2417 3024
192 2447 3397
203 2494 3723
233 2435 1068
437 2463 1214
369 2471 1373
271 2511 1643
170 2645 2072
157 2833 2605
229 2950 3099
181 2965 3500
0 2989 3902
406 2978 1402
613 2992 1523
543 2998 1661
433 3014 1885
277 3075 2218
148 3182 2639
109 3306 3106
230 3393 3564
0 3406 3980
648 3453 1782
852 3458 1882
783 3462 2002
664 3471 2196
500 3493 2459
269 3547 2794
116 3621 3177
45 3702 3597
0 3770 4035
961 3893 2200
931 3894 2243
854 3898 2348
718 3905 2519
523 3918 2743
230 3944 3024
0 3984 3350
0 4029 3712
0 4074 4095
936 93 38
977 81 446
845 224 820
741 385 1103
778 525 1412
800 659 1861
825 804 2310
877 976 2676
1013 1186 2927
1078 474 0
1028 494 498
974 537 906
914 619 1247
900 717 1622
878 825 2061
880 957 2455
974 1137 2704
1046 1301 3030
1050 1085 117
1062 1085 536
1088 1084 1013
1045 1115 1443
1030 1171 1827
1052 1252 2169
1111 1355 2477
1202 1479 2759
1070 1578 3244
594 1518 344
612 1527 580
997 1596 1093
1054 1710 1547
1020 1767 2072
997 1799 2503
1096 1855 2802
1218 1930 3071
950 2005 3525
220 1957 496
427 1990 759
963 2070 1221
905 2126 1558
1016 2311 2095
1022 2397 2613
972 2419 3030
973 2452 3390
456 2504 3827
332 2489 894
538 2511 1061
1028 2558 1424
940 2575 1687
897 2691 2109
988 2858 2626
1028 2949 3101
971 2965 3502
0 3003 4012
505 3015 1263
710 3027 1396
1173 3052 1697
1079 3063 1924
971 3106 2245
902 3204 2660
958 3316 3117
1036 3391 3565
0 3420 4048
747 3477 1667
946 3481 1776
1379 3490 2024
1287 3497 2221
1165 3512 2477
1008 3561 2808
913 3631 3188
925 3706 3602
0 3782 4073
1054 3912 2104
1026 3913 2150
948 3917 2264
804 3924 2454
593 3935 2699
294 3959 2995
0 3998 3338
0 4043 3716
806 4074 4095
1801 203 83
1887 128 436
1840 218 872
1678 416 1265
1537 614 1578
1538 773 1886
1583 927 2235
1608 1074 2652
1634 1229 3041
1911 514 38
1869 542 504
1896 545 926
1771 658 1333
1665 795 1680
1658 926 1997
1667 1057 2368
1669 1191 2767
1658 1306 3216
1976 1080 0
1977 1081 499
1941 1097 1003
1895 1137 1444
1853 1196 1852
1837 1277 2223
1792 1368 2635
1760 1471 3010
1614 1509 3597
1942 1747 248
1948 1747 587
1960 1746 1041
1981 1744 1564
1944 1772 2028
1918 1817 2424
1915 1880 2756
1932 1960 3048
1496 1968 3812
1528 2212 527
1538 2210 721
1568 2218 1066
1911 2262 1654
1961 2354 2127
1922 2397 2618
1877 2422 3031
1915 2463 3331
1071 2502 4021
1023 2612 658
1038 2619 803
1223 2645 1157
1881 2712 1788
1833 2757 2161
1930 2883 2645
1923 2948 3104
1874 2966 3508
962 3007 4095
698 3083 932
899 3091 1106
1338 3110 1477
1918 3140 1986
1848 3157 2288
1825 3232 2686
1913 3329 3129
1928 3389 3567
985 3424 4095
930 3521 1416
1118 3524 1547
1522 3530 1840
2030 3539 2257
1958 3550 2513
1883 3584 2829
1851 3647 3205
1904 3713 3610
1034 3785 4095
1223 3947 1905
1197 3948 1955
1125 3951 2081
979 3957 2302
741 3967 2598
431 3985 2928
2 4024 3310
0 4067 3718
1843 4071 4094
2471 327 152
2574 188 403
2526 284 923
2490 399 1326
2346 635 1747
2221 862 2068
2200 1035 2365
2223 1203 2648
2253 1362 2976
2540 590 110
2514 618 526
2567 582 940
2530 658 1368
2400 829 1800
2292 1007 2142
2268 1159 2440
2285 1312 2719
2310 1432 3111
2646 1083 1
2624 1099 506
2575 1134 1002
2590 1142 1458
2494 1238 1900
2424 1341 2281
2403 1452 2589
2408 1570 2883
2409 1598 3448
2650 1741 0
2651 1742 497
2651 1743 1009
2622 1758 1553
2585 1792 2018
2561 1835 2437
2551 1898 2774
2506 1971 3154
2418 1926 3902
2612 2382 382
2615 2382 660
2623 2381 1084
2635 2380 1594
2653 2378 2138
2620 2401 2581
2594 2436 2949
2579 2482 3272
2360 2488 3967
2334 2843 707
2337 2839 872
2345 2831 1193
2373 2838 1631
2612 2856 2240
2639 2915 2668
2601 2949 3111
2556 2969 3514
2261 3001 4055
2007 3197 874
2015 3199 998
2031 3205 1268
2095 3222 1683
2592 3246 2372
2555 3276 2728
2621 3348 3147
2602 3388 3573
2256 3415 4091
1585 3587 1045
1596 3589 1154
1738 3593 1460
2171 3597 2003
2639 3608 2568
2583 3621 2864
2560 3669 3227
2615 3722 3619
2274 3777 4092
1469 4000 1499
1448 4001 1560
1390 4004 1714
1267 4009 1977
1028 4016 2359
650 4030 2792
138 4061 3242
0 4095 3713
2572 4072 4092
3052 468 236
3164 259 350
3134 344 907
3101 450 1383
3053 609 1811
2917 872 2230
2789 1122 2537
2756 1307 2804
2761 1481 3064
3098 691 203
3082 717 559
3159 623 918
3122 701 1418
3081 817 1845
2954 1029 2270
2840 1241 2588
2806 1409 2856
2828 1544 3157
3180 1135 93
3165 1152 533
3128 1192 1010
3162 1173 1481
3132 1238 1920
3026 1379 2353
2942 1521 2691
2910 1654 2968
2972 1698 3381
3230 1741 0
3230 1742 496
3220 1751 1008
3175 1784 1551
3182 1796 2028
3108 1874 2457
3061 1949 2824
3039 2036 3119
3151 1951 3751
3229 2376 0
3229 2377 497
3228 2377 1006
3228 2377 1563
3205 2389 2128
3176 2417 2566
3162 2448 2955
3155 2492 3277
3135 2477 3893
3191 2939 519
3193 2939 749
3197 2938 1140
3203 2936 1637
3213 2934 2168
3227 2932 2674
3201 2951 3077
3150 2970 3538
3087 2991 3987
2998 3351 884
2999 3348 1028
3003 3340 1331
3010 3331 1750
3032 3333 2221
3210 3333 2778
3219 3365 3160
3143 3392 3611
3037 3407 4090
2752 3662 1097
2757 3662 1212
2767 3663 1467
2782 3666 1837
2815 3682 2272
3050 3678 2817
3000 3702 3213
3181 3732 3626
3046 3770 4091
2850 4008 1843
2829 4009 1875
2770 4011 1953
2640 4016 2079
2521 4026 2319
2256 4047 2671
1846 4076 3141
2171 4095 3683
3180 4074 4091
3493 621 321
3564 422 370
3568 415 881
3538 534 1427
3522 643 1871
3477 840 2292
3377 1122 2681
3272 1391 2963
3238 1582 3214
3517 812 296
3508 835 601
3580 677 891
3552 761 1439
3534 850 1898
3493 1010 2319
3398 1253 2709
3303 1489 3001
3290 1635 3290
3567 1212 213
3558 1228 574
3535 1269 1028
3579 1206 1463
3557 1270 1962
3524 1373 2380
3440 1551 2773
3367 1725 3083
3403 1764 3473
3624 1755 29
3615 1765 517
3596 1790 1019
3566 1828 1552
3582 1819 2058
3562 1875 2467
3494 1987 2861
3445 2092 3197
3549 1978 3779
3631 2377 0
3630 2378 496
3628 2379 1008
3625 2380 1563
3591 2409 2124
3594 2420 2572
3545 2480 2960
3520 2530 3321
3582 2481 3858
3629 2934 0
3628 2934 497
3627 2934 1007
3625 2933 1564
3624 2933 2140
3608 2941 2666
3587 2965 3061
3600 2966 3499
3599 2981 3899
3597 3385 659
3597 3385 852
3599 3384 1214
3601 3382 1691
3605 3380 2208
3611 3378 2702
3620 3375 3162
3598 3388 3576
3566 3401 4015
3486 3757 1058
3486 3755 1189
3488 3750 1473
3492 3742 1874
3499 3736 2325
3517 3721 2786
3572 3708 3224
3610 3739 3628
3549 3764 4091
3578 4019 2382
3574 4019 2406
3564 4020 2464
3543 4022 2561
3500 4026 2691
3402 4033 2844
3280 4056 3138
3178 4091 3637
3596 4079 4092
3805 782 406
3849 622 447
3877 497 847
3857 605 1411
3835 728 1935
3820 862 2353
3779 1086 2737
3697 1381 3096
3613 1661 3369
3820 949 385
3814 969 653
3884 739 856
3865 820 1420
3842 924 1960
3828 1033 2374
3789 1227 2756
3710 1490 3118
3650 1704 3430
3853 1307 324
3847 1323 625
3831 1362 1055
3881 1248 1441
3856 1324 2007
3844 1398 2423
3810 1538 2804
3738 1744 3170
3734 1809 3579
3894 1810 181
3889 1820 568
3875 1846 1041
3852 1888 1564
3880 1846 2039
3864 1898 2500
3838 1984 2876
3777 2125 3247
3855 1984 3829
3923 2379 0
3922 2380 498
3916 2386 1012
3897 2409 1566
3872 2441 2125
3881 2437 2602
3866 2482 2964
3817 2565 3338
3866 2505 3865
3921 2935 0
3919 2935 497
3917 2935 1010
3915 2935 1565
3913 2934 2142
3901 2946 2649
3892 2962 3067
3863 3003 3448
3875 2998 3903
3919 3381 0
3917 3381 499
3916 3380 1010
3914 3379 1566
3911 3378 2142
3909 3377 2678
3901 3381 3152
3883 3399 3533
3888 3401 3952
3891 3760 800
3890 3759 966
3890 3758 1302
3891 3756 1755
3892 3754 2255
3894 3749 2805
3899 3749 3205
3905 3748 3630
3887 3758 4051
3910 4043 2845
3910 4044 2863
3910 4044 2909
3909 4045 2986
3907 4047 3095
3899 4050 3233
3874 4054 3390
3799 4073 3607
3894 4086 4093
4034 950 493
4060 816 526
4094 586 802
4081 685 1388
4062 818 1965
4052 931 2410
4036 1098 2793
4002 1340 3148
3940 1642 3493
4043 1096 475
4068 981 509
4095 653 683
4095 693 1329
4093 828 1955
4080 950 2436
4063 1119 2830
4028 1367 3192
3965 1675 3542
4063 1419 427
4084 1339 459
4095 1178 729
4095 1202 1358
4095 1241 1965
4094 1300 2478
4084 1399 2877
4066 1536 3267
4021 1755 3663
4089 1881 319
4095 1834 351
4095 1791 790
4095 1804 1405
4095 1828 1997
4094 1864 2542
4085 1928 2926
4068 2023 3306
4037 2144 3718
4095 2401 89
4095 2389 345
4095 2395 907
4095 2402 1462
4095 2414 2046
4095 2434 2582
4087 2470 2997
4073 2530 3362
4044 2612 3761
4095 2937 9
4095 2937 505
4095 2937 1015
4095 2937 1570
4095 2942 2104
4095 2952 2624
4091 2971 3090
4079 3007 3439
4053 3061 3821
4095 3383 3
4095 3382 502
4095 3381 1013
4095 3380 1570
4095 3379 2145
4095 3378 2679
4095 3385 3136
4087 3401 3534
4065 3435 3896
4095 3757 1
4095 3756 502
4095 3755 1014
4095 3753 1571
4095 3752 2146
4095 3751 2679
4095 3750 3166
4095 3752 3619
4079 3772 3988
4074 4065 2851
4074 4065 2876
4075 4066 2937
4076 4068 3042
4078 4071 3188
4081 4075 3371
4085 4080 3586
4090 4087 3828
4095 4095 4095
