Grading Edition presets/Toning - Style 1.3dl
#25pt 3DLUT created by 3D LUT Creator Pro (c) Oleg Sharonov
#Copyright Oleg Sharonov
#IMAGEPROFILE sRGB IEC61966-2.1 v.2.10
#INPUTGAMMA sRGB IEC61966-2.1 v.2.10
#OUTPUTGAMMA sRGB IEC61966-2.1 v.2.10
0 43 86 128 171 214 256 299 341 384 427 469 512 555 597 640 682 725 768 810 853 896 938 981 1023 
135 300 487
135 303 498
136 308 513
137 315 538
138 327 575
140 343 616
142 364 661
145 389 710
148 415 759
154 445 814
160 478 871
168 514 942
177 551 1025
187 592 1123
198 635 1230
211 682 1341
227 735 1463
245 794 1594
266 857 1737
291 925 1887
321 993 2041
357 1064 2196
403 1134 2349
464 1204 2496
541 1277 2632
137 348 500
137 351 554
138 354 591
139 363 623
141 375 656
143 389 691
146 408 730
149 430 774
154 455 818
160 483 870
166 515 931
175 549 1007
183 585 1094
194 625 1191
206 667 1295
219 715 1405
235 769 1526
254 828 1660
276 892 1801
303 958 1950
333 1026 2101
371 1094 2252
422 1162 2400
487 1232 2541
566 1304 2670
140 419 518
140 421 568
139 422 637
141 427 686
144 435 725
147 449 763
151 465 802
155 484 842
161 507 890
167 534 947
174 563 1016
183 594 1094
192 631 1184
203 670 1279
216 713 1381
230 762 1492
247 817 1615
267 875 1746
290 937 1885
318 1002 2031
351 1067 2177
394 1133 2322
449 1200 2464
519 1268 2597
599 1340 2718
146 512 548
145 515 590
145 516 658
144 519 736
148 523 794
153 533 840
158 546 886
164 563 938
171 584 998
178 607 1064
186 635 1141
195 665 1222
206 699 1309
217 740 1402
231 785 1506
247 835 1620
266 889 1745
287 947 1874
313 1006 2009
344 1067 2149
381 1129 2288
431 1192 2424
494 1257 2555
570 1325 2676
652 1395 2784
156 631 587
155 634 625
155 635 677
154 637 759
154 640 847
160 646 923
167 655 992
175 669 1064
183 687 1139
192 708 1214
201 736 1295
212 768 1377
224 804 1468
237 844 1567
253 889 1674
272 937 1790
293 988 1912
318 1042 2038
347 1097 2168
384 1153 2298
431 1211 2426
491 1272 2550
562 1336 2665
640 1402 2770
724 1471 2865
173 787 627
172 790 663
171 793 704
171 795 779
170 797 875
169 802 991
177 807 1103
187 819 1201
197 835 1290
208 856 1376
220 880 1466
234 910 1561
249 944 1661
265 981 1766
284 1022 1876
306 1064 1991
332 1111 2111
362 1158 2229
400 1207 2349
449 1261 2468
508 1317 2581
577 1376 2687
652 1437 2783
732 1501 2873
816 1567 2959
196 992 666
196 995 699
195 998 740
195 1001 800
194 1003 898
193 1006 1031
190 1012 1186
202 1017 1320
215 1027 1437
230 1042 1547
246 1061 1657
263 1085 1765
281 1112 1874
303 1142 1985
327 1176 2097
355 1213 2209
389 1254 2322
432 1298 2432
483 1345 2539
545 1395 2641
613 1448 2735
686 1503 2821
762 1561 2904
843 1622 2984
925 1683 3061
234 1216 712
230 1220 737
229 1222 776
229 1226 830
229 1228 923
229 1230 1066
226 1234 1234
224 1239 1405
240 1242 1564
259 1250 1710
279 1263 1843
301 1280 1969
327 1302 2089
355 1327 2205
388 1357 2317
430 1389 2425
479 1426 2528
537 1466 2626
601 1509 2716
668 1554 2798
740 1603 2877
814 1654 2953
891 1707 3026
973 1762 3098
1061 1819 3167
310 1452 784
290 1464 786
280 1471 810
280 1474 867
281 1477 952
282 1479 1100
281 1481 1274
276 1485 1458
274 1492 1655
297 1493 1842
324 1498 2007
353 1509 2152
389 1525 2286
433 1544 2406
484 1567 2517
542 1594 2618
605 1624 2709
670 1658 2790
740 1695 2867
810 1735 2940
882 1778 3011
959 1823 3079
1041 1871 3145
1128 1920 3209
1220 1972 3270
444 1707 867
417 1718 870
382 1732 874
356 1744 906
358 1746 997
361 1749 1136
363 1749 1311
360 1752 1505
351 1757 1716
352 1763 1929
388 1762 2130
433 1764 2301
487 1773 2447
549 1784 2574
615 1800 2681
682 1821 2773
751 1844 2855
821 1871 2931
892 1901 3003
967 1934 3071
1045 1970 3135
1129 2009 3197
1215 2049 3257
1307 2092 3313
1401 2137 3367
684 1967 978
652 1975 982
612 1988 988
545 2006 998
491 2021 1047
497 2024 1175
507 2023 1350
510 2023 1549
503 2027 1770
481 2034 1994
493 2037 2208
556 2033 2406
622 2034 2569
692 2039 2700
763 2048 2805
836 2060 2895
908 2076 2977
984 2096 3052
1063 2119 3122
1146 2144 3186
1232 2173 3247
1320 2204 3304
1410 2238 3357
1503 2274 3408
1598 2311 3456
963 2218 1122
936 2225 1127
902 2236 1135
846 2250 1147
764 2271 1164
702 2288 1233
715 2288 1393
727 2286 1596
728 2287 1820
714 2292 2050
682 2299 2270
706 2300 2470
777 2296 2651
848 2294 2787
923 2296 2897
1002 2302 2993
1083 2311 3078
1169 2323 3154
1255 2338 3222
1344 2356 3285
1434 2378 3342
1525 2402 3396
1617 2428 3445
1710 2456 3492
1803 2487 3535
1281 2452 1285
1257 2458 1291
1225 2466 1300
1176 2478 1313
1104 2494 1331
1002 2516 1355
944 2530 1448
961 2528 1649
973 2527 1873
970 2528 2103
948 2533 2324
907 2542 2524
949 2540 2697
1024 2534 2844
1105 2532 2966
1189 2532 3068
1279 2535 3158
1369 2541 3235
1462 2549 3305
1554 2561 3367
1646 2575 3423
1739 2592 3474
1831 2611 3521
1921 2632 3564
2011 2655 3604
1624 2659 1461
1603 2664 1468
1577 2669 1478
1535 2678 1493
1474 2690 1514
1389 2707 1542
1268 2727 1575
1224 2735 1711
1244 2733 1933
1254 2732 2159
1247 2734 2377
1215 2739 2573
1163 2747 2739
1231 2743 2878
1314 2738 3011
1402 2735 3122
1490 2734 3217
1583 2735 3299
1677 2738 3370
1770 2745 3433
1862 2752 3488
1953 2762 3538
2043 2775 3583
2130 2789 3624
2215 2806 3662
1965 2831 1660
1947 2834 1667
1926 2839 1678
1892 2845 1694
1844 2854 1716
1776 2866 1745
1681 2882 1780
1547 2902 1822
1532 2905 1999
1553 2903 2220
1559 2902 2431
1544 2905 2620
1508 2910 2778
1459 2918 2912
1543 2913 3037
1629 2908 3158
1718 2904 3260
1805 2903 3345
1897 2904 3420
1988 2906 3484
2076 2911 3539
2164 2917 3590
2247 2926 3634
2328 2936 3673
2405 2949 3709
2279 2986 1873
2266 2989 1880
2250 2992 1891
2225 2997 1906
2188 3004 1929
2136 3014 1956
2064 3027 1992
1965 3043 2032
1825 3062 2079
1849 3060 2287
1867 3058 2488
1869 3058 2668
1849 3062 2816
1808 3068 2949
1779 3074 3066
1862 3069 3180
1948 3064 3288
2033 3061 3379
2115 3060 3456
2200 3060 3522
2284 3061 3580
2362 3065 3630
2439 3071 3674
2511 3079 3713
2579 3089 3748
2550 3129 2091
2540 3132 2098
2529 3134 2108
2511 3139 2123
2485 3144 2143
2448 3152 2169
2397 3162 2201
2327 3175 2239
2228 3190 2283
2130 3204 2364
2154 3202 2551
2168 3201 2717
2166 3202 2857
2142 3206 2984
2102 3212 3102
2092 3216 3205
2171 3212 3306
2250 3208 3402
2328 3205 3484
2401 3203 3552
2474 3204 3611
2545 3205 3662
2611 3209 3707
2671 3214 3745
2729 3221 3780
2766 3262 2305
2759 3264 2312
2751 3266 2321
2739 3269 2334
2721 3274 2351
2696 3280 2375
2663 3288 2403
2617 3298 2436
2552 3311 2474
2460 3326 2515
2412 3334 2621
2431 3333 2769
2439 3332 2901
2435 3334 3024
2410 3338 3135
2372 3345 3239
2381 3347 3329
2451 3343 3418
2520 3339 3503
2584 3337 3575
2644 3336 3635
2702 3337 3687
2759 3338 3733
2816 3341 3772
2869 3347 3806
2956 3384 2508
2950 3386 2514
2944 3388 2521
2934 3391 2532
2920 3394 2546
2901 3400 2565
2875 3406 2589
2842 3414 2616
2796 3424 2647
2737 3437 2681
2655 3452 2716
2651 3453 2827
2664 3452 2950
2669 3453 3066
2661 3455 3173
2640 3460 3270
2607 3466 3361
2629 3467 3440
2685 3464 3518
2742 3460 3592
2795 3458 3655
2849 3458 3708
2900 3459 3753
2953 3460 3793
3003 3463 3828
3126 3497 2688
3122 3498 2692
3116 3500 2698
3109 3502 2706
3098 3505 2718
3083 3510 2732
3063 3515 2750
3037 3521 2770
3004 3530 2794
2959 3540 2822
2900 3552 2851
2835 3564 2893
2850 3562 3006
2860 3562 3113
2863 3563 3213
2854 3566 3306
2834 3570 3391
2806 3576 3470
2835 3577 3538
2886 3574 3607
2939 3571 3671
2988 3569 3725
3037 3569 3772
3082 3570 3811
3129 3572 3846
3275 3600 2840
3271 3601 2844
3267 3602 2848
3261 3604 2855
3253 3607 2864
3242 3610 2876
3227 3615 2891
3207 3620 2909
3183 3627 2929
3150 3635 2953
3108 3645 2978
3051 3656 3005
3021 3662 3068
3033 3662 3165
3041 3662 3258
3041 3663 3345
3032 3666 3425
3014 3670 3499
2988 3676 3567
3024 3676 3626
3071 3673 3685
3119 3671 3741
3162 3670 3788
3205 3670 3828
3244 3671 3862
3405 3694 2982
3403 3695 2985
3399 3696 2989
3395 3698 2995
3388 3700 3002
3380 3703 3013
3368 3706 3025
3354 3711 3040
3335 3716 3057
3312 3723 3077
3281 3731 3099
3241 3740 3123
3189 3751 3147
3189 3752 3224
3199 3752 3308
3203 3752 3387
3203 3754 3462
3194 3757 3530
3179 3761 3594
3156 3767 3653
3196 3766 3703
3237 3764 3754
3279 3762 3802
3316 3761 3843
3354 3761 3878
3522 3780 3115
3520 3780 3118
3517 3781 3121
3513 3783 3126
3508 3784 3132
3502 3787 3141
3493 3790 3151
3482 3793 3164
3468 3798 3178
3450 3803 3195
3427 3810 3213
3399 3817 3234
3362 3826 3255
3327 3833 3288
3337 3833 3362
3345 3833 3434
3348 3834 3502
3346 3836 3565
3338 3839 3624
3326 3843 3679
3310 3848 3729
3348 3847 3772
3384 3845 3816
3421 3844 3857
3454 3844 3891
3626 3857 3240
3624 3858 3242
3622 3858 3245
3619 3859 3249
3615 3861 3254
3610 3863 3261
3604 3865 3270
3595 3868 3280
3584 3872 3292
3571 3877 3306
3554 3882 3322
3533 3888 3339
3506 3895 3357
3472 3903 3376
3461 3906 3422
3469 3906 3485
3475 3907 3546
3478 3908 3603
3475 3910 3657
3468 3913 3706
3458 3917 3753
3450 3921 3796
3484 3920 3833
3516 3919 3870
3549 3918 3906
3721 3927 3356
3720 3927 3358
3718 3928 3360
3715 3929 3363
3712 3930 3368
3708 3932 3373
3703 3934 3381
3696 3937 3389
3688 3940 3399
3678 3943 3411
3665 3947 3424
3650 3952 3438
3630 3958 3453
3606 3964 3470
3575 3972 3487
3582 3972 3540
3589 3972 3593
3593 3973 3644
3595 3974 3692
3593 3977 3738
3587 3980 3780
3579 3983 3820
3576 3987 3855
3606 3986 3887
3635 3985 3919
148 304 492
149 305 531
142 311 592
140 322 605
141 336 626
142 354 661
144 375 698
147 399 742
152 426 790
157 454 840
164 488 899
172 522 970
180 559 1056
190 600 1155
202 643 1259
215 690 1371
231 743 1491
249 801 1622
271 865 1765
296 932 1914
327 1000 2067
363 1071 2221
412 1140 2371
474 1210 2516
553 1282 2649
169 343 500
160 352 559
151 360 612
148 371 651
147 383 685
149 398 719
151 417 756
155 440 797
159 464 842
165 491 892
172 522 955
180 556 1033
188 593 1120
199 632 1217
211 674 1319
225 722 1429
242 777 1552
260 836 1683
283 899 1824
310 965 1972
341 1032 2121
381 1100 2271
434 1168 2417
501 1238 2556
581 1309 2683
165 421 511
156 427 556
154 430 640
151 435 705
152 444 749
154 456 785
158 473 823
162 492 864
167 515 912
173 541 972
180 571 1041
188 603 1121
198 638 1209
209 676 1303
221 720 1404
236 770 1516
254 824 1639
274 883 1771
298 945 1910
326 1008 2052
360 1075 2198
405 1140 2342
461 1206 2481
533 1274 2611
615 1346 2731
157 521 527
159 523 574
157 525 646
155 527 737
156 532 805
161 540 859
166 554 908
171 571 961
178 591 1022
185 615 1091
192 642 1166
201 672 1246
212 708 1334
224 748 1427
238 793 1532
254 843 1645
273 897 1768
295 953 1896
322 1013 2033
352 1074 2169
392 1135 2306
443 1197 2441
509 1263 2570
585 1330 2689
667 1401 2794
165 641 557
169 642 609
167 644 663
166 646 752
164 649 848
168 654 931
176 663 1011
183 675 1086
190 694 1161
199 716 1238
208 744 1317
219 775 1399
231 812 1492
245 852 1592
261 896 1699
280 945 1814
301 995 1934
327 1049 2060
357 1104 2188
395 1159 2317
444 1216 2443
506 1278 2564
578 1341 2678
656 1407 2780
739 1475 2874
181 798 600
185 799 647
183 801 695
183 804 770
182 806 869
180 812 994
186 817 1111
196 827 1215
206 843 1310
217 862 1396
229 889 1488
242 918 1582
257 951 1683
274 988 1788
294 1028 1898
316 1071 2012
342 1117 2130
373 1164 2248
413 1213 2366
463 1266 2484
524 1322 2595
592 1381 2699
668 1442 2794
747 1506 2882
830 1571 2967
210 999 652
209 1003 687
208 1006 731
207 1010 790
207 1011 890
205 1015 1028
202 1020 1189
213 1024 1327
226 1035 1448
240 1049 1565
256 1068 1675
273 1091 1783
293 1119 1895
314 1148 2005
338 1182 2116
367 1219 2228
403 1259 2338
447 1302 2447
501 1350 2554
562 1400 2653
630 1453 2746
702 1508 2830
779 1566 2912
858 1626 2992
941 1687 3068
258 1217 714
249 1224 734
244 1229 768
243 1233 825
243 1236 913
243 1237 1059
240 1240 1231
236 1247 1407
252 1249 1570
271 1256 1720
291 1269 1856
314 1286 1984
339 1307 2104
369 1332 2220
404 1361 2332
447 1394 2439
498 1431 2542
556 1471 2638
620 1513 2726
687 1559 2808
757 1608 2885
831 1659 2960
908 1711 3034
990 1767 3105
1077 1823 3173
339 1453 785
327 1461 805
299 1476 807
296 1481 862
297 1484 945
298 1485 1092
297 1488 1269
292 1492 1456
289 1497 1657
312 1498 1846
339 1504 2015
370 1515 2162
407 1529 2297
452 1548 2417
505 1572 2527
563 1599 2628
626 1629 2719
692 1663 2800
759 1700 2875
828 1740 2948
900 1782 3018
977 1828 3086
1059 1875 3152
1145 1924 3214
1238 1975 3275
487 1708 868
468 1715 888
429 1729 893
375 1751 901
378 1753 993
381 1754 1126
384 1755 1306
381 1757 1502
371 1763 1715
372 1768 1932
410 1767 2134
457 1770 2308
512 1777 2454
574 1789 2581
638 1804 2689
704 1825 2780
772 1848 2861
841 1875 2937
912 1905 3009
986 1938 3076
1065 1974 3141
1148 2013 3203
1235 2054 3262
1325 2097 3318
1419 2141 3372
729 1967 978
708 1974 1002
668 1986 1009
603 2004 1019
520 2026 1045
527 2028 1172
537 2028 1343
542 2028 1545
534 2031 1767
512 2038 1993
522 2042 2210
585 2038 2410
649 2038 2573
717 2043 2705
786 2052 2809
857 2064 2900
929 2080 2982
1005 2099 3057
1084 2122 3126
1167 2147 3191
1252 2177 3251
1340 2208 3308
1429 2241 3361
1521 2277 3412
1616 2315 3460
