Grading Edition presets/Toning - Style 8 - Warm.3dl
#25pt 3DLUT created by 3D LUT Creator Pro (c) Oleg Sharonov
#Copyright Oleg Sharonov
#IMAGEPROFILE ProPhoto RGB v.2.10
#INPUTGAMMA ProPhoto RGB v.2.10
#OUTPUTGAMMA ProPhoto RGB v.2.10
0 256 512 768 1023
380 299 643
381 301 1112
380 350 1988
663 723 2903
1594 1695 3631
394 1135 639
381 1127 1158
380 1102 2088
700 1430 2945
1633 2422 3627
483 2299 633
424 2295 1116
420 2278 2101
734 2434 2978
1673 3003 3625
884 3252 679
826 3249 1272
803 3247 2225
794 3230 2969
1718 3483 3623
1950 3915 1219
1878 3912 1994
1807 3909 2698
1828 3907 3230
1808 3897 3622
1198 300 661
1218 361 1145
1245 382 2091
1551 762 2946
2581 1733 3626
1310 964 636
1260 1180 1187
1212 1015 2137
1516 1194 2986
2527 2194 3624
1531 2367 628
1312 2346 1090
1270 2334 2136
1570 2396 2990
2565 2909 3621
1880 3270 674
1734 3265 1241
1644 3260 2229
1645 3250 2981
2603 3478 3619
2811 3911 1189
2755 3908 1954
2698 3905 2664
2678 3902 3221
2670 3894 3618
2438 341 719
2468 362 1212
2480 495 2066
2768 783 2980
3299 1760 3623
2526 959 630
2528 1063 1110
2492 1027 2141
2656 1221 2993
3225 2169 3621
2632 1801 625
2607 2148 1007
2566 2386 2168
2695 2389 2994
3232 2862 3618
3179 3296 761
2952 3288 1267
2788 3277 2200
2752 3269 2994
3260 3467 3616
3537 3907 1289
3410 3905 1941
3345 3902 2632
3304 3899 3217
3302 3893 3615
3465 720 992
3477 764 1531
3479 815 2328
3481 935 2934
3806 1794 3621
3492 1286 852
3501 1320 1331
3497 1315 2289
3473 1300 2988
3723 2120 3620
3524 2080 706
3523 2295 1189
3510 2439 2224
3491 2405 2997
3732 2881 3617
3549 2777 616
3544 3009 1070
3532 3155 2098
3520 3289 3007
3747 3461 3615
3989 3905 1430
3923 3902 2046
3850 3899 2649
3787 3897 3191
3770 3893 3614
4040 1677 1822
4037 1738 2342
4035 1722 2848
4032 1874 3281
4030 2012 3598
4038 2275 1620
4035 2310 2194
4032 2255 2743
4030 2260 3266
4024 2383 3619
4036 2788 1409
4033 2873 1946
4029 2923 2664
4026 2948 3249
4016 2879 3617
4035 3197 1212
4031 3307 1831
4027 3411 2579
4024 3484 3204
4018 3467 3615
4035 3535 1034
4031 3672 1671
4026 3779 2461
4022 3847 3124
4020 3895 3614
