Grading Edition presets/Toning - Style 11 - Film.3dl
#25pt 3DLUT created by 3D LUT Creator Pro (c) Oleg Sharonov
#Copyright Oleg Sharonov
#IMAGEPROFILE sRGB IEC61966-2.1 v.2.10
#INPUTGAMMA sRGB IEC61966-2.1 v.2.10
#OUTPUTGAMMA sRGB IEC61966-2.1 v.2.10
0 43 86 128 171 214 256 299 341 384 427 469 512 555 597 640 682 725 768 810 853 896 938 981 1023 
26 52 114
26 58 132
26 65 165
26 74 217
37 84 261
57 97 302
83 113 349
103 137 403
118 169 464
134 200 534
156 231 611
180 262 694
205 295 780
232 331 868
261 368 959
292 405 1050
326 444 1141
361 484 1232
398 526 1322
438 568 1416
480 613 1512
524 659 1611
569 706 1711
615 754 1812
663 804 1912
42 118 153
46 121 174
44 131 200
45 142 239
57 153 279
77 164 321
98 180 371
113 200 426
129 224 491
148 249 562
169 276 639
192 305 720
218 336 806
245 369 893
274 403 982
305 439 1072
338 476 1162
372 514 1251
409 554 1342
449 596 1435
491 640 1531
534 684 1629
579 731 1728
626 778 1828
673 827 1927
74 199 205
80 200 225
85 205 245
85 215 270
86 229 305
100 239 350
114 253 402
130 270 460
147 288 525
166 310 596
186 334 672
209 360 753
234 387 837
261 417 924
290 448 1012
321 482 1100
354 516 1189
388 554 1277
425 592 1367
464 633 1460
505 675 1555
548 719 1652
593 764 1751
640 810 1849
687 857 1947
115 295 270
119 298 286
125 300 309
130 306 333
135 315 356
132 331 396
140 345 447
154 359 507
171 374 572
189 392 642
210 413 718
232 435 797
256 460 880
284 486 966
313 514 1052
344 544 1139
376 577 1227
411 613 1313
447 650 1403
485 688 1496
526 728 1591
569 770 1687
614 813 1784
660 857 1881
708 902 1977
156 410 334
160 410 352
166 411 377
175 413 411
182 419 438
190 429 461
187 446 509
186 464 562
201 477 628
220 492 699
240 509 774
263 529 852
287 550 933
313 574 1017
343 600 1102
374 628 1188
406 658 1273
441 691 1360
477 725 1450
515 761 1543
555 799 1637
597 838 1732
642 878 1827
687 919 1922
735 962 2016
206 532 407
211 532 428
217 532 457
225 533 492
236 535 533
245 542 563
255 554 589
253 570 639
250 590 697
258 608 764
278 623 838
300 641 915
325 659 995
351 681 1077
379 704 1160
410 730 1243
443 757 1327
478 786 1415
514 817 1506
552 850 1598
591 885 1692
632 921 1787
676 959 1880
721 996 1973
768 1036 2064
267 666 494
272 666 518
277 666 548
285 666 586
296 668 629
309 671 676
319 679 707
330 691 734
331 708 784
328 729 845
325 752 910
345 768 986
369 785 1064
395 803 1144
423 824 1224
453 847 1305
486 871 1390
521 897 1478
557 925 1569
595 954 1662
634 985 1755
675 1018 1848
717 1052 1941
762 1087 2031
808 1123 2120
338 811 596
342 811 622
347 810 652
355 811 690
365 811 734
378 814 782
394 817 832
404 827 863
417 839 892
421 856 938
417 877 1001
414 900 1067
422 921 1138
447 937 1216
475 956 1294
505 975 1375
536 997 1460
570 1019 1548
606 1044 1639
645 1070 1731
684 1097 1824
724 1126 1915
766 1156 2006
809 1188 2095
855 1221 2182
418 962 712
422 961 737
427 961 766
434 961 803
444 962 847
456 963 894
471 965 945
488 969 997
500 980 1026
514 993 1057
522 1008 1099
518 1029 1162
514 1052 1227
512 1076 1293
534 1093 1370
563 1110 1452
594 1129 1537
627 1149 1625
662 1171 1714
700 1193 1806
739 1217 1897
779 1242 1987
821 1270 2076
865 1299 2162
912 1331 2247
508 1114 838
511 1114 860
516 1113 888
523 1113 924
532 1113 966
543 1115 1013
558 1116 1063
575 1120 1115
593 1124 1165
605 1135 1194
620 1148 1224
634 1162 1260
629 1182 1324
625 1204 1390
622 1228 1460
629 1249 1537
659 1266 1621
692 1284 1707
726 1304 1795
762 1325 1884
800 1348 1973
841 1372 2062
884 1398 2148
929 1426 2233
977 1456 2315
605 1267 970
609 1266 990
613 1266 1015
620 1266 1049
629 1266 1090
640 1266 1135
653 1268 1183
669 1270 1234
688 1274 1286
706 1280 1333
720 1291 1363
736 1304 1395
754 1318 1429
749 1339 1495
745 1362 1565
742 1386 1638
740 1413 1713
763 1433 1796
796 1451 1881
831 1472 1967
869 1493 2053
911 1516 2139
956 1540 2223
1003 1566 2305
1053 1594 2385
710 1429 1106
714 1428 1124
719 1428 1147
725 1427 1178
733 1427 1216
744 1428 1259
757 1429 1305
771 1431 1355
788 1434 1408
809 1438 1465
828 1445 1513
843 1457 1545
860 1471 1578
880 1486 1613
879 1507 1676
875 1531 1748
872 1556 1821
869 1584 1895
874 1610 1971
911 1629 2054
950 1649 2136
991 1671 2217
1037 1693 2298
1085 1717 2378
1136 1742 2456
821 1601 1244
825 1601 1260
830 1600 1280
836 1599 1309
845 1599 1345
856 1599 1387
868 1601 1434
883 1602 1486
901 1605 1540
920 1609 1597
944 1613 1655
965 1621 1702
982 1634 1735
1002 1648 1769
1024 1664 1804
1029 1685 1861
1024 1709 1932
1020 1734 2003
1018 1761 2075
1017 1790 2146
1042 1812 2221
1084 1832 2299
1129 1853 2376
1178 1875 2452
1229 1899 2527
946 1779 1386
950 1779 1401
955 1779 1421
962 1778 1449
971 1778 1484
982 1778 1526
996 1778 1572
1011 1779 1623
1029 1782 1677
1050 1785 1733
1072 1789 1791
1099 1794 1850
1121 1803 1894
1140 1816 1927
1162 1831 1960
1187 1847 1995
1199 1866 2045
1193 1890 2112
1189 1916 2180
1186 1942 2248
1185 1970 2315
1188 1999 2382
1233 2018 2455
1281 2038 2527
1332 2059 2599
1087 1960 1537
1091 1960 1551
1096 1959 1570
1103 1959 1597
1112 1958 1631
1124 1958 1671
1138 1958 1716
1155 1959 1765
1173 1961 1818
1193 1963 1872
1217 1967 1928
1242 1971 1985
1272 1976 2043
1294 1987 2083
1316 2000 2114
1339 2014 2147
1366 2030 2180
1385 2049 2222
1379 2072 2286
1374 2097 2350
1371 2123 2414
1370 2150 2477
1370 2178 2539
1395 2202 2604
1445 2221 2671
1243 2140 1694
1247 2139 1708
1252 2139 1725
1259 2139 1750
1269 2138 1782
1280 2138 1820
1295 2138 1863
1312 2139 1910
1331 2140 1960
1352 2142 2012
1374 2145 2066
1400 2148 2120
1428 2153 2175
1459 2159 2230
1483 2169 2265
1505 2183 2295
1530 2197 2326
1559 2212 2357
1585 2229 2392
1579 2251 2452
1574 2274 2512
1571 2298 2572
1570 2323 2631
1570 2349 2688
1571 2375 2745
1415 2313 1853
1418 2313 1866
1422 2312 1882
1429 2312 1906
1438 2312 1935
1450 2312 1971
1464 2312 2011
1480 2312 2055
1500 2313 2101
1521 2314 2150
1544 2316 2200
1569 2319 2252
1597 2323 2304
1627 2328 2356
1660 2333 2408
1682 2344 2438
1706 2356 2467
1732 2369 2495
1761 2383 2525
1792 2398 2555
1790 2418 2609
1785 2440 2665
1782 2462 2720
1780 2485 2775
1780 2508 2827
1598 2474 2012
1601 2474 2023
1605 2473 2038
1611 2473 2059
1619 2473 2087
1629 2473 2119
1643 2473 2156
1659 2473 2197
1678 2474 2240
1699 2475 2285
1722 2477 2332
1747 2479 2380
1774 2482 2429
1803 2486 2478
1835 2490 2527
1869 2495 2576
1890 2506 2602
1915 2518 2628
1942 2530 2655
1971 2544 2683
2003 2558 2711
2007 2576 2756
2002 2596 2808
1999 2617 2858
1998 2638 2907
1789 2627 2167
1792 2627 2177
1796 2627 2190
1801 2627 2209
1809 2626 2234
1819 2626 2264
1832 2626 2298
1847 2627 2335
1864 2627 2375
1885 2628 2417
1907 2629 2460
1932 2631 2505
1958 2634 2550
1986 2637 2596
2016 2641 2642
2049 2645 2688
2081 2651 2731
2103 2661 2755
2127 2672 2779
2153 2684 2804
2182 2697 2829
2213 2711 2855
2223 2727 2892
2219 2746 2938
2217 2766 2982
1987 2774 2317
1989 2774 2326
1993 2774 2338
1998 2774 2355
2006 2774 2377
2015 2774 2404
2026 2774 2435
2040 2774 2469
2056 2774 2506
2075 2775 2544
2096 2776 2584
2119 2778 2625
2144 2780 2668
2171 2782 2710
2199 2785 2753
2229 2789 2795
2260 2794 2837
2290 2800 2874
2312 2810 2895
2335 2821 2917
2360 2832 2940
2386 2844 2962
2415 2856 2984
2431 2870 3013
2428 2887 3053
2185 2911 2461
2187 2910 2469
2190 2910 2479
2195 2910 2495
2201 2910 2514
2210 2910 2539
2220 2910 2567
2233 2910 2598
2247 2911 2631
2264 2911 2667
2282 2912 2704
2303 2913 2741
2326 2915 2779
2351 2917 2818
2377 2919 2857
2404 2922 2896
2432 2926 2934
2462 2930 2971
2488 2936 3001
2508 2944 3020
2530 2954 3039
2553 2963 3059
2577 2974 3078
2602 2984 3097
2623 2996 3120
2376 3029 2599
2378 3029 2606
2381 3029 2615
2386 3029 2628
2391 3029 2646
2399 3029 2668
2408 3029 2693
2419 3029 2721
2432 3029 2751
2446 3030 2783
2462 3031 2817
2480 3032 2851
2500 3033 2885
2522 3034 2920
2545 3036 2955
2569 3038 2989
2594 3041 3023
2620 3044 3056
2647 3048 3088
2669 3053 3113
2687 3061 3130
2706 3069 3146
2726 3078 3163
2747 3086 3180
2769 3096 3196
2555 3132 2730
2557 3132 2736
2559 3132 2744
2563 3132 2756
2569 3132 2771
2575 3132 2790
2584 3132 2812
2593 3132 2837
2604 3132 2864
2616 3133 2893
2630 3133 2922
2645 3134 2953
2662 3135 2983
2680 3136 3014
2700 3138 3044
2720 3139 3074
2742 3141 3104
2764 3144 3134
2786 3147 3163
2809 3150 3190
2827 3155 3210
2843 3162 3224
2859 3169 3239
2876 3176 3253
2893 3183 3267
2717 3221 2852
2719 3221 2857
2721 3221 2864
2724 3221 2874
2728 3221 2888
2734 3221 2904
2741 3221 2923
2749 3221 2945
2758 3221 2968
2768 3221 2993
2779 3222 3019
2792 3222 3045
2806 3223 3072
2820 3224 3099
2836 3225 3126
2853 3226 3152
2871 3228 3179
2889 3230 3204
2908 3232 3229
2927 3235 3254
2947 3237 3277
2962 3242 3293
2975 3248 3305
2988 3254 3317
3003 3260 3329
2859 3297 2964
2860 3297 2968
2861 3297 2974
2864 3297 2983
2867 3297 2994
2872 3297 3008
2878 3297 3024
2884 3297 3043
2892 3297 3063
2900 3297 3084
2910 3297 3107
2920 3298 3130
2931 3298 3153
2943 3299 3177
2956 3300 3200
2969 3301 3223
2984 3302 3246
2999 3304 3268
3015 3306 3290
3031 3308 3311
3047 3310 3332
3064 3312 3351
3076 3316 3364
3086 3321 3374
3098 3326 3384
55 58 113
45 66 151
42 74 190
45 83 232
58 94 273
78 106 314
99 124 362
114 151 416
127 181 477
145 210 548
166 240 625
189 272 707
214 305 792
241 338 879
270 375 969
301 413 1060
334 451 1150
369 491 1240
406 532 1330
446 575 1423
487 619 1520
530 665 1618
576 711 1717
622 760 1818
669 809 1918
83 121 126
61 136 185
63 142 216
67 151 254
78 163 292
96 174 335
111 190 384
124 212 440
140 234 504
158 259 575
179 285 652
201 313 733
226 344 817
253 376 904
282 410 992
313 445 1082
346 482 1171
380 520 1259
417 561 1349
456 602 1442
498 645 1538
541 690 1636
586 736 1735
632 783 1834
680 831 1933
90 210 210
92 213 232
98 216 255
96 227 281
103 236 319
114 248 364
126 261 416
141 278 473
158 297 539
176 317 609
195 341 684
218 367 764
242 395 848
269 424 934
298 455 1021
329 488 1109
362 523 1197
396 560 1284
432 599 1374
471 639 1467
512 681 1562
555 724 1659
600 769 1757
646 814 1855
693 861 1953
125 307 275
129 308 291
134 310 314
141 314 340
142 325 367
140 340 407
152 352 460
165 365 519
181 381 584
199 399 654
220 419 729
241 442 808
265 466 890
292 492 975
321 520 1061
352 551 1148
385 583 1234
419 618 1321
455 655 1410
493 694 1503
533 734 1598
576 775 1693
620 818 1790
666 861 1887
714 906 1982
166 418 337
170 418 356
176 419 381
184 421 416
192 427 444
197 438 471
194 454 519
197 470 574
212 483 640
230 497 710
250 515 784
272 534 862
296 556 943
322 580 1026
351 605 1111
382 633 1196
415 663 1280
449 696 1367
485 730 1457
522 766 1550
562 803 1644
604 842 1738
648 883 1833
694 924 1928
741 966 2022
216 539 410
221 539 432
226 539 460
235 539 497
245 542 539
254 549 570
263 560 595
259 577 648
256 597 705
268 613 774
288 628 848
310 645 925
334 665 1004
360 686 1085
388 710 1167
418 735 1251
451 762 1334
485 791 1422
522 822 1513
559 855 1605
598 889 1699
639 926 1793
682 963 1886
728 1001 1978
775 1040 2069
276 673 498
280 672 522
286 672 552
294 672 590
305 674 633
318 677 680
327 686 712
338 698 740
337 715 792
334 735 853
334 757 919
355 772 995
379 789 1073
405 808 1151
432 829 1231
462 852 1312
494 876 1397
528 902 1485
564 929 1576
602 958 1668
641 989 1761
682 1022 1854
724 1056 1946
768 1091 2036
815 1127 2125
346 817 600
350 816 625
355 816 655
363 816 693
374 817 738
386 819 785
401 822 836
412 832 867
424 844 897
427 861 946
423 883 1008
420 905 1074
431 925 1146
456 941 1223
484 959 1300
513 979 1382
544 1000 1467
578 1023 1555
614 1048 1645
652 1074 1737
691 1101 1829
731 1130 1921
772 1160 2011
816 1192 2100
862 1224 2186
426 967 715
430 966 740
435 966 769
442 966 806
452 966 850
464 968 898
479 970 948
496 974 1002
507 985 1031
521 997 1061
528 1013 1105
523 1034 1168
520 1056 1232
517 1081 1299
543 1097 1377
571 1114 1459
602 1132 1543
635 1153 1631
670 1174 1720
707 1196 1811
746 1220 1902
786 1246 1992
827 1273 2081
872 1303 2167
918 1334 2251
515 1119 841
518 1118 863
523 1118 890
530 1117 927
539 1118 969
550 1119 1016
565 1121 1066
582 1123 1118
600 1128 1169
612 1139 1198
627 1151 1228
639 1166 1266
634 1187 1329
630 1208 1396
627 1231 1466
637 1253 1543
668 1269 1627
699 1287 1713
733 1307 1801
769 1328 1890
807 1351 1978
847 1375 2066
891 1401 2153
936 1429 2237
984 1459 2319
612 1271 972
616 1270 993
620 1269 1018
627 1269 1052
636 1269 1092
647 1270 1137
660 1272 1186
676 1274 1236
694 1277 1288
713 1283 1337
727 1294 1367
742 1307 1399
760 1322 1434
754 1343 1500
750 1366 1570
747 1390 1643
745 1417 1718
771 1436 1801
804 1454 1887
839 1474 1972
876 1496 2057
918 1519 2143
963 1543 2227
1010 1569 2309
1060 1597 2388
