Grading Edition presets/Toning - Style 4.3dl
#25pt 3DLUT created by 3D LUT Creator Pro (c) Oleg Sharonov
#Copyright Oleg Sharonov
#IMAGEPROFILE sRGB IEC61966-2.1 v.2.10
#INPUTGAMMA sRGB IEC61966-2.1 v.2.10
#OUTPUTGAMMA sRGB IEC61966-2.1 v.2.10
0 128 256 384 512 640 768 896 1023
46 211 354
44 208 567
35 200 1646
27 192 2576
22 187 3151
18 183 3603
15 180 3928
12 177 4095
11 176 4095
44 419 351
41 423 571
32 421 1652
25 419 2579
20 421 3153
15 423 3604
12 426 3928
9 430 4095
8 436 4095
35 1473 343
32 1480 569
24 1480 1653
16 1482 2577
11 1485 3149
7 1490 3599
3 1495 3923
1 1501 4095
0 1509 4095
28 2382 336
25 2386 568
16 2383 1655
9 2382 2576
4 2383 3147
0 2385 3596
0 2387 3919
0 2390 4095
0 2395 4095
23 2945 331
20 2946 570
11 2942 1658
4 2939 2577
0 2939 3146
0 2939 3595
0 2940 3917
0 2942 4095
0 2946 4095
18 3386 327
16 3387 573
7 3382 1664
0 3378 2579
0 3377 3147
0 3377 3594
0 3377 3915
0 3378 4095
0 3381 4095
15 3704 323
12 3704 576
4 3698 1669
0 3694 2582
0 3692 3148
0 3691 3595
0 3690 3915
0 3691 4095
0 3692 4095
12 3947 321
10 3947 581
1 3941 1676
0 3936 2585
0 3933 3150
0 3932 3596
0 3931 3915
0 3931 4095
0 3933 4095
10 4095 318
7 4095 585
0 4095 1683
0 4095 2589
0 4095 3152
0 4095 3597
0 4095 3916
0 4095 4095
0 4095 4095
168 209 352
276 206 571
274 197 1652
274 190 2579
276 185 3153
278 180 3604
282 177 3928
287 175 4095
293 174 4095
276 296 350
280 426 575
280 425 1659
277 422 2583
279 424 3155
282 426 3605
286 429 3928
290 433 4095
296 439 4095
387 1480 329
280 1486 574
278 1486 1659
277 1487 2580
278 1490 3151
281 1495 3600
284 1500 3923
289 1506 4095
295 1514 4095
320 2386 328
278 2389 571
277 2386 1661
276 2385 2579
278 2386 3148
281 2387 3596
284 2390 3918
289 2393 4095
295 2397 4095
277 2946 328
280 2948 573
278 2944 1664
278 2941 2580
280 2940 3148
283 2941 3595
287 2942 3916
292 2943 4095
298 2947 4095
280 3387 324
283 3388 576
281 3383 1669
280 3379 2582
283 3378 3148
287 3377 3595
290 3377 3915
295 3378 4095
301 3381 4095
284 3704 320
287 3704 580
285 3698 1675
284 3694 2584
286 3692 3149
290 3690 3595
295 3690 3915
300 3690 4095
306 3692 4095
288 3947 318
292 3946 584
289 3940 1681
289 3935 2588
290 3933 3151
294 3931 3596
299 3930 3915
305 3930 4095
311 3932 4095
293 4095 315
297 4095 589
294 4095 1688
294 4095 2591
295 4095 3153
299 4095 3597
304 4095 3915
310 4095 4095
317 4095 4095
1082 202 345
1425 197 568
1426 188 1652
1428 181 2576
1432 176 3148
1437 171 3598
1443 168 3922
1450 166 4095
1458 165 4095
1136 278 343
1265 375 522
1432 422 1659
1434 421 2580
1438 421 3150
1442 424 3599
1448 427 3922
1455 431 4095
1463 436 4095
1426 1030 335
1432 1263 507
1433 1486 1659
1436 1488 2577
1442 1493 3146
1444 1496 3594
1448 1499 3916
1454 1505 4095
1463 1512 4095
1787 2383 301
1580 2385 629
1437 2383 1663
1439 2382 2576
1445 2384 3144
1448 2385 3591
1451 2386 3912
1457 2389 4095
1465 2393 4095
1716 2941 300
1500 2943 595
1442 2939 1667
1444 2936 2578
1448 2936 3143
1455 2936 3590
1457 2937 3910
1461 2938 4095
1469 2941 4095
1643 3381 301
1443 3382 573
1444 3377 1669
1448 3374 2580
1453 3372 3144
1455 3372 3589
1463 3372 3909
1467 3373 4095
1474 3375 4095
1567 3697 303
1449 3698 577
1449 3692 1674
1451 3687 2581
1458 3685 3145
1461 3684 3590
1467 3684 3909
1473 3684 4095
1480 3685 4095
1490 3940 306
1456 3940 581
1456 3933 1680
1457 3929 2584
1461 3926 3146
1467 3925 3590
1472 3924 3909
1480 3924 4095
1488 3925 4095
1458 4095 306
1463 4095 586
1463 4095 1687
1464 4095 2588
1467 4095 3148
1473 4095 3592
1478 4095 3909
1486 4095 4095
1495 4095 4095
2063 194 337
2267 190 535
2355 181 1654
2353 173 2575
2354 168 3146
2356 164 3595
2359 161 3918
2362 158 4095
2366 157 4095
2023 295 336
2176 362 509
2358 421 1660
2357 419 2578
2357 420 3147
2359 423 3596
2361 426 3918
2364 430 4095
2369 436 4095
2195 976 329
2199 1191 481
2262 1391 1563
2354 1490 2576
2356 1496 3143
2357 1499 3591
2358 1501 3912
2361 1506 4095
2365 1514 4095
2354 1913 320
2357 2080 448
2355 2237 1565
2353 2380 2575
2354 2382 3141
2356 2384 3587
2359 2387 3908
2361 2389 4095
2364 2393 4095
2652 2940 288
2549 2940 737
2436 2936 1749
2355 2933 2577
2355 2933 3140
2358 2934 3586
2361 2935 3906
2363 2937 4095
2366 2939 4095
2616 3378 285
2511 3378 700
2393 3373 1709
2357 3370 2580
2357 3369 3141
2360 3368 3586
2363 3369 3905
2366 3370 4095
2369 3372 4095
2579 3693 284
2473 3692 666
2360 3687 1678
2360 3683 2583
2361 3681 3143
2362 3680 3587
2364 3679 3904
2369 3680 4095
2372 3682 4095
2542 3935 284
2433 3934 633
2361 3929 1681
2361 3924 2584
2363 3921 3145
2366 3920 3588
2367 3919 3905
2369 3919 4095
2375 3921 4095
2506 4095 285
2390 4095 601
2365 4095 1688
2362 4095 2586
2364 4095 3146
2367 4095 3589
2370 4095 3905
2372 4095 4095
2375 4095 4095
2685 189 332
2797 186 527
2897 176 1658
2894 168 2576
2893 163 3145
2893 159 3594
2894 156 3916
2896 154 4095
2899 153 4095
2634 325 330
2749 364 511
2848 400 1601
2895 420 2579
2894 423 3147
2894 425 3595
2895 428 3916
2897 433 4095
2900 438 4095
2716 1011 324
2719 1222 485
2791 1369 1540
2891 1495 2578
2890 1499 3143
2891 1505 3590
2891 1507 3910
2892 1510 4095
2895 1518 4095
2806 1874 317
2809 2039 443
2802 2188 1498
2836 2323 2517
2887 2383 3140
2888 2386 3586
2890 2389 3906
2891 2391 4095
2893 2394 4095
2894 2525 310
2895 2635 401
2891 2739 1473
2888 2836 2515
2887 2933 3140
2887 2933 3585
2889 2935 3904
2891 2937 4095
2895 2941 4095
3200 3378 291
3120 3376 860
3033 3371 1879
2945 3369 2628
2888 3367 3141
2888 3367 3585
2890 3368 3903
2892 3369 4095
2895 3372 4095
3172 3691 285
3091 3690 821
3003 3684 1840
2914 3681 2605
2889 3679 3143
2889 3678 3586
2891 3677 3902
2893 3678 4095
2897 3680 4095
3145 3933 281
3063 3931 784
2973 3925 1800
2892 3922 2589
2892 3919 3146
2891 3918 3587
2892 3917 3903
2895 3917 4095
2899 3919 4095
3117 4095 278
3034 4095 748
2942 4095 1760
2893 4095 2590
2893 4095 3148
2894 4095 3589
2894 4095 3904
2897 4095 4095
2899 4095 4095
3149 185 328
3220 182 530
3282 172 1622
3310 164 2578
3308 160 3146
3308 155 3593
3308 152 3915
3309 150 4095
3311 149 4095
3115 345 326
3190 373 521
3252 397 1588
3310 423 2581
3309 425 3147
3308 428 3594
3308 432 3915
3309 436 4095
3311 441 4095
3142 1095 320
3151 1296 506
3214 1376 1547
3274 1459 2542
3304 1503 3144
3303 1505 3590
3303 1513 3909
3304 1516 4095
3306 1523 4095
3198 1907 313
3201 2066 454
3193 2213 1507
3237 2308 2501
3300 2386 3142
3300 2388 3586
3300 2392 3905
3301 2394 4095
3303 2397 4095
3254 2509 307
3256 2618 405
3250 2718 1449
3244 2812 2472
3268 2900 3107
3298 2934 3585
3299 2936 3903
3300 2938 4095
3303 2942 4095
3309 2952 303
3310 3047 362
3305 3133 1384
3300 3214 2455
3298 3293 3099
3298 3367 3585
3298 3367 3902
3300 3369 4095
3302 3372 4095
3580 3691 311
3527 3688 994
3468 3683 2003
3406 3679 2700
3341 3678 3178
3298 3677 3586
3299 3676 3902
3300 3677 4095
3303 3679 4095
3562 3932 301
3508 3929 954
3447 3923 1967
3384 3920 2680
3318 3918 3161
3300 3916 3587
3300 3916 3902
3301 3916 4095
3304 3917 4095
3544 4095 293
3489 4095 914
3426 4095 1931
3362 4095 2658
3302 4095 3150
3301 4095 3589
3301 4095 3903
3302 4095 4095
3305 4095 4095
3519 181 324
3553 178 541
3581 169 1620
3607 161 2581
3605 157 3147
3604 153 3594
3603 149 3915
3604 147 4095
3605 146 4095
3501 370 322
3538 389 537
3566 403 1602
3592 418 2561
3605 428 3149
3603 431 3595
3603 436 3914
3603 440 4095
3605 445 4095
3500 1217 315
3517 1358 527
3544 1405 1577
3571 1454 2536
3599 1508 3145
3598 1510 3590
3597 1516 3909
3597 1521 4095
3599 1528 4095
3526 1983 309
3527 2139 479
3523 2273 1556
3550 2320 2513
3579 2367 3122
3593 2391 3587
3593 2393 3905
3593 2398 4095
3595 2401 4095
3552 2539 304
3553 2646 420
3547 2743 1476
3540 2838 2487
3560 2893 3100
3591 2936 3586
3591 2937 3903
3591 2940 4095
3593 2944 4095
3578 2952 300
3579 3046 371
3573 3129 1388
3567 3210 2443
3564 3285 3079
3575 3349 3567
3589 3368 3902
3590 3370 4095
3592 3373 4095
3604 3312 296
3605 3388 331
3600 3454 1296
3594 3516 2394
3591 3573 3058
3590 3625 3553
3589 3676 3901
3590 3677 4095
3591 3679 4095
3832 3911 315
3808 3928 1136
3761 3922 2117
3714 3919 2769
3667 3917 3235
3620 3916 3614
3589 3915 3902
3590 3915 4095
3592 3917 4095
3837 4095 335
3793 4095 1095
3745 4095 2085
3698 4095 2749
3651 4095 3219
3603 4095 3601
3590 4095 3903
3590 4095 4095
3592 4095 4095
3797 178 321
3811 175 560
3820 167 1642
3829 159 2574
3833 154 3149
3832 150 3595
3831 147 3915
3831 144 4095
3833 144 4095
3790 400 318
3805 411 559
3813 416 1637
3822 423 2567
3833 432 3150
3831 435 3596
3830 439 3915
3830 445 4095
3832 450 4095
3780 1371 311
3793 1431 554
3800 1452 1625
3809 1474 2553
3820 1500 3137
3825 1516 3591
3824 1521 3909
3824 1528 4095
3826 1535 4095
3789 2089 305
3789 2245 519
3788 2328 1614
3797 2349 2543
3809 2371 3126
3821 2394 3588
3820 2396 3905
3820 2398 4095
3821 2403 4095
3799 2602 301
3799 2707 446
3792 2803 1542
3788 2891 2536
3799 2909 3117
3811 2928 3578
3817 2939 3903
3817 2942 4095
3819 2946 4095
3809 2991 297
3810 3083 387
3804 3164 1433
3798 3243 2475
3794 3318 3101
3802 3351 3568
3816 3369 3902
3816 3371 4095
3817 3374 4095
3820 3325 294
3821 3400 341
3816 3464 1322
3809 3524 2405
3806 3580 3060
3804 3632 3551
3809 3670 3895
3815 3677 4095
3817 3679 4095
3832 3592 291
3832 3646 307
3827 3694 1209
3821 3739 2334
3818 3785 3018
3816 3829 3522
3815 3873 3879
3815 3915 4094
3816 3917 4095
4005 4068 295
4000 4095 1166
3980 4095 2222
3947 4095 2837
3913 4095 3291
3877 4095 3656
3839 4095 3922
3815 4095 4093
3817 4095 4095
4024 175 318
4024 172 585
4017 164 1683
4012 157 2588
4009 152 3151
4007 148 3596
4005 145 3915
4005 143 4095
4006 142 4095
4024 436 315
4023 439 588
4016 436 1688
4011 435 2591
4008 436 3153
4006 439 3597
4004 444 3915
4004 449 4095
4005 455 4095
4017 1509 307
4016 1514 586
4009 1513 1688
4004 1514 2588
4001 1517 3148
3999 1521 3592
3998 1527 3909
3997 1534 4095
3998 1543 4095
4013 2224 301
4011 2373 573
4004 2393 1688
3999 2391 2586
3996 2393 3146
3994 2396 3590
3993 2399 3906
3992 2401 4095
3993 2404 4095
4010 2690 297
4010 2795 486
4002 2889 1640
3996 2940 2590
3993 2940 3148
3991 2941 3590
3990 2942 3904
3990 2944 4095
3991 2947 4095
4009 3060 294
4008 3149 412
4001 3228 1512
3995 3305 2538
3991 3372 3150
3989 3371 3589
3988 3371 3903
3988 3372 4095
3989 3375 4095
4007 3370 291
4007 3442 356
4001 3503 1382
3994 3560 2453
3991 3614 3097
3988 3665 3581
3987 3678 3903
3986 3678 4095
3987 3680 4095
4006 3613 289
4006 3666 316
4001 3712 1252
3994 3757 2364
3990 3803 3038
3988 3846 3537
3986 3889 3889
3986 3916 4093
3987 3917 4095
4006 3804 287
4006 3850 289
4001 3891 1123
3994 3927 2273
3990 3965 2978
3988 4000 3491
3986 4034 3858
3985 4065 4092
3986 4095 4095
