Grading Edition presets/Toning - Style 7 - Purple.3dl
#25pt 3DLUT created by 3D LUT Creator Pro (c) Oleg Sharonov
#Copyright Oleg Sharonov
#IMAGEPROFILE sRGB IEC61966-2.1 v.2.10
#INPUTGAMMA sRGB IEC61966-2.1 v.2.10
#OUTPUTGAMMA sRGB IEC61966-2.1 v.2.10
0 128 256 384 512 640 768 896 1023
475 337 403
475 356 613
473 422 885
471 512 1250
468 629 1708
465 793 2152
471 1024 2596
593 1338 3091
773 1739 3584
475 479 460
474 498 654
473 535 920
471 615 1283
468 736 1732
465 912 2168
461 1151 2609
516 1464 3101
726 1855 3591
473 697 596
473 743 697
471 760 984
469 823 1363
466 949 1796
463 1132 2216
460 1373 2648
455 1677 3134
703 2048 3613
471 1051 753
470 1107 828
469 1206 1004
467 1216 1459
464 1313 1884
461 1485 2290
457 1710 2711
453 1988 3193
717 2320 3649
467 1567 946
467 1619 1010
465 1727 1175
463 1788 1528
460 1840 1974
458 1952 2375
454 2139 2793
541 2373 3269
794 2648 3695
463 2172 1190
462 2213 1248
461 2303 1397
459 2422 1631
484 2441 2049
459 2503 2461
592 2611 2883
708 2786 3351
961 2992 3745
458 2767 1487
457 2795 1537
456 2859 1657
455 2947 1851
636 3040 2076
667 3026 2543
747 3088 2981
959 3183 3431
1264 3335 3794
453 3279 1798
453 3298 1836
452 3341 1930
451 3403 2085
620 3472 2293
986 3515 2548
1020 3506 3079
1265 3560 3518
1684 3638 3843
450 3661 2122
449 3675 2150
450 3710 2218
568 3754 2346
774 3794 2532
1116 3830 2753
1526 3819 3157
1727 3838 3607
2205 3872 3889
595 341 403
632 346 614
610 412 919
601 482 1307
622 565 1760
644 705 2193
683 916 2632
766 1221 3124
937 1631 3606
622 501 449
639 530 673
594 543 968
558 600 1342
541 708 1780
541 872 2204
576 1104 2639
667 1417 3129
842 1812 3608
522 747 608
558 781 728
584 799 1014
509 847 1404
466 961 1832
463 1136 2244
459 1372 2671
580 1677 3158
778 2046 3627
471 1111 765
470 1158 846
570 1246 1040
536 1252 1484
464 1338 1908
461 1501 2311
457 1720 2731
566 1997 3212
785 2326 3661
467 1622 959
466 1670 1025
465 1766 1197
622 1832 1528
512 1869 1989
491 1974 2390
495 2155 2808
631 2386 3284
859 2657 3704
462 2215 1202
462 2254 1262
461 2337 1413
482 2445 1654
620 2466 2055
594 2524 2472
676 2627 2895
777 2798 3361
1027 3002 3751
457 2797 1499
457 2823 1549
456 2883 1670
455 2964 1865
700 3054 2091
752 3040 2548
823 3099 2989
1034 3192 3438
1334 3344 3798
453 3299 1808
453 3317 1846
452 3358 1940
451 3416 2096
685 3481 2307
1052 3525 2554
1102 3514 3084
1341 3566 3522
1749 3644 3846
509 3677 2130
511 3691 2157
519 3725 2226
639 3762 2357
832 3799 2544
1177 3833 2767
1611 3823 3156
1794 3842 3611
2248 3876 3894
755 382 419
801 388 564
862 378 899
848 477 1326
817 609 1803
823 743 2238
890 899 2676
999 1171 3166
1198 1571 3634
786 466 443
824 492 603
882 531 949
848 603 1377
816 701 1835
838 802 2261
892 975 2693
990 1262 3181
1184 1662 3643
839 774 559
865 816 729
898 880 1053
830 896 1480
777 962 1895
754 1104 2303
771 1322 2725
849 1623 3206
1032 1996 3657
716 1208 781
723 1250 880
783 1326 1118
817 1342 1535
743 1402 1954
688 1541 2358
692 1746 2777
772 2015 3253
969 2340 3686
607 1741 982
624 1777 1056
677 1849 1247
825 1941 1541
780 1934 2017
743 2026 2421
732 2195 2844
816 2415 3315
1035 2680 3723
509 2313 1229
528 2345 1292
582 2413 1452
700 2498 1706
866 2522 2063
819 2566 2491
868 2663 2918
957 2827 3383
1210 3026 3765
457 2865 1525
457 2887 1576
504 2938 1700
633 3008 1900
852 3078 2139
970 3071 2557
1026 3125 3004
1237 3214 3451
1511 3365 3808
453 3345 1832
452 3361 1870
529 3397 1966
650 3448 2126
843 3502 2339
1228 3545 2575
1319 3530 3094
1534 3581 3533
1910 3658 3853
633 3717 2146
636 3729 2173
686 3751 2250
793 3780 2382
986 3812 2571
1338 3840 2801
1839 3841 3128
1959 3851 3619
2356 3887 3904
984 447 463
1037 455 573
1165 459 850
1266 452 1298
1271 553 1799
1226 765 2256
1223 1011 2703
1308 1310 3198
1526 1669 3656
1021 505 485
1071 517 595
1189 549 869
1286 573 1337
1273 670 1830
1224 870 2278
1225 1102 2721
1321 1380 3213
1551 1718 3665
1105 690 541
1137 713 671
1227 794 943
1330 881 1439
1276 980 1905
1223 1134 2328
1247 1307 2760
1376 1528 3247
1583 1878 3685
1205 1237 705
1231 1273 831
1272 1337 1113
1348 1457 1571
1248 1486 2003
1174 1569 2400
1164 1737 2820
1236 1988 3297
1432 2313 3713
1028 1828 999
1038 1860 1089
1063 1938 1306
1176 2026 1651
1240 2040 2057
1148 2109 2456
1110 2254 2882
1180 2460 3353
1396 2716 3748
848 2439 1262
858 2464 1332
909 2509 1506
1027 2568 1773
1289 2636 2059
1242 2631 2515
1256 2720 2944
1322 2873 3410
1547 3065 3784
773 2963 1566
789 2980 1619
835 3017 1747
940 3066 1952
1161 3115 2207
1409 3118 2567
1432 3164 3023
1592 3253 3470
1817 3399 3822
769 3415 1874
786 3427 1913
835 3454 2010
939 3492 2170
1145 3531 2389
1532 3567 2630
1702 3555 3107
1865 3606 3548
2183 3681 3865
873 3761 2182
894 3768 2213
951 3783 2291
1069 3805 2425
1285 3830 2616
1623 3852 2857
2098 3867 3141
2237 3866 3633
2552 3904 3920
1357 528 537
1416 536 620
1552 551 819
1734 504 1340
1852 565 1775
1885 673 2240
1848 1018 2700
1863 1411 3202
1979 1850 3660
1400 575 554
1454 586 637
1582 609 838
1759 626 1342
1866 668 1799
1887 788 2259
1848 1126 2715
1866 1502 3215
1987 1919 3668
1486 711 600
1533 730 686
1645 781 898
1795 896 1328
1898 948 1860
1891 1088 2307
1849 1391 2754
1877 1719 3246
2014 2081 3687
1631 1094 675
1657 1120 779
1715 1189 1025
1831 1340 1442
1926 1465 1951
1895 1611 2386
1857 1814 2819
1915 2043 3297
2097 2306 3716
1746 1851 895
1766 1878 999
1812 1941 1257
1851 2006 1637
1959 2154 2079
1859 2186 2469
1832 2308 2904
1877 2486 3366
2025 2729 3758
1547 2475 1285
1559 2495 1366
1589 2545 1559
1642 2627 1839
1786 2685 2152
1889 2712 2538
1848 2801 2972
1881 2938 3428
2038 3121 3799
1324 3033 1609
1335 3048 1667
1363 3083 1804
1467 3123 2015
1670 3164 2281
2002 3207 2561
1999 3220 3046
2091 3309 3487
2245 3448 3836
1213 3487 1926
1237 3494 1966
1301 3512 2065
1426 3536 2229
1638 3561 2455
1948 3589 2722
2216 3591 3125
2316 3639 3565
2542 3716 3879
1306 3802 2239
1332 3807 2271
1400 3817 2350
1528 3832 2486
1733 3849 2679
2030 3865 2934
2428 3885 3209
2605 3885 3652
2839 3926 3937
1853 632 623
1906 642 691
2030 662 855
2214 693 1188
2380 652 1826
2490 782 2220
2546 939 2679
2530 1450 3184
2573 1972 3647
1892 677 639
1943 688 706
2060 713 870
2235 756 1208
2392 739 1849
2499 883 2236
2547 1053 2693
2531 1548 3196
2576 2046 3655
1977 802 677
2021 817 743
2123 857 915
2279 933 1262
2415 1015 1892
2518 1147 2277
2550 1335 2728
2534 1782 3226
2587 2224 3672
2092 1087 753
2124 1108 830
2207 1173 1018
2326 1298 1372
2458 1510 1879
2544 1613 2347
2554 1799 2789
2543 2151 3276
2611 2499 3701
2256 1679 864
2274 1702 955
2313 1763 1181
2375 1871 1555
2475 2057 1987
2551 2198 2429
2558 2373 2873
2569 2591 3345
2665 2819 3741
2350 2491 1183
2363 2508 1274
2394 2550 1495
2438 2610 1814
2484 2679 2159
2603 2823 2572
2547 2870 2971
2585 3003 3434
2681 3170 3796
2180 3034 1657
2191 3046 1719
2219 3075 1862
2269 3125 2081
2343 3195 2357
2487 3241 2657
2612 3283 3067
2645 3384 3509
2737 3512 3847
2004 3503 1987
2016 3511 2030
2049 3529 2135
2109 3560 2305
2235 3594 2535
2460 3620 2818
2761 3652 3131
2807 3683 3590
2947 3762 3896
1941 3831 2312
1955 3836 2345
1996 3847 2426
2109 3857 2565
2280 3869 2763
2510 3882 3031
2790 3900 3327
3025 3910 3677
3185 3954 3960
2408 779 731
2449 791 788
2548 821 935
2695 871 1218
2860 957 1699
2980 1006 2260
3068 1230 2666
3135 1494 3166
3150 2076 3632
2438 825 745
2478 838 803
2573 871 951
2712 929 1236
2871 1028 1712
2986 1096 2277
3073 1325 2678
3138 1582 3178
3152 2149 3639
2509 950 784
2546 967 842
2628 1007 992
2750 1084 1286
2895 1210 1750
3000 1315 2322
3084 1556 2710
3146 1796 3207
3157 2324 3657
2606 1200 855
2635 1221 917
2701 1276 1078
2805 1381 1386
2925 1542 1826
3011 1732 2395
3102 1936 2768
3150 2169 3256
3169 2600 3687
2726 1670 971
2742 1689 1047
2780 1740 1240
2850 1851 1558
2945 2037 1946
3044 2293 2402
3122 2434 2854
3159 2627 3327
3191 2932 3730
2850 2340 1180
2860 2357 1264
2884 2402 1466
2923 2483 1766
2974 2601 2120
3045 2768 2505
3133 2917 2956
3175 3079 3413
3235 3278 3783
2911 3051 1615
2920 3062 1682
2941 3088 1837
2977 3132 2074
3017 3185 2362
3080 3261 2697
3203 3390 3134
3202 3454 3519
3285 3577 3853
2797 3490 2069
2806 3497 2112
2828 3514 2218
2868 3544 2391
2930 3587 2627
3013 3641 2921
3159 3688 3254
3298 3736 3623
3376 3817 3918
2707 3824 2406
2718 3828 2439
2745 3838 2523
2795 3854 2665
2870 3878 2873
2994 3903 3146
3199 3923 3443
3454 3952 3698
3548 3990 3990
2939 1001 883
2970 1016 935
3043 1057 1072
3161 1130 1331
3296 1252 1721
3419 1450 2219
3496 1622 2714
3567 1933 3167
3635 2275 3628
2962 1048 898
2991 1065 951
3063 1107 1090
3177 1184 1350
3306 1314 1737
3425 1520 2224
3499 1701 2728
3570 2005 3179
3638 2333 3636
3015 1172 940
3043 1190 994
3110 1238 1135
3212 1325 1399
3328 1470 1778
3437 1691 2244
3506 1891 2763
3576 2179 3208
3645 2475 3655
3100 1409 1020
3124 1431 1076
3178 1484 1222
3261 1584 1491
3358 1743 1854
3454 1977 2292
3517 2193 2829
3588 2454 3259
3657 2704 3688
3185 1778 1159
3203 1802 1219
3244 1862 1374
3310 1970 1636
3390 2136 1976
3471 2358 2379
3526 2585 2936
3606 2799 3334
3672 3001 3734
3294 2347 1348
3303 2363 1417
3325 2406 1582
3358 2482 1838
3408 2611 2149
3482 2799 2509
3555 3031 2976
3631 3172 3432
3689 3345 3792
3382 2950 1658
3388 2962 1718
3402 2993 1858
3427 3047 2075
3462 3127 2355
3505 3237 2695
3570 3383 3105
3659 3521 3543
3721 3655 3861
3420 3516 2096
3426 3522 2140
3441 3538 2247
3468 3567 2425
3507 3608 2669
3555 3658 2978
3623 3722 3337
3727 3812 3692
3770 3875 3946
3361 3817 2527
3368 3821 2560
3387 3830 2643
3419 3847 2788
3468 3872 3005
3536 3905 3276
3623 3946 3561
3747 3990 3806
3853 4036 4033
3417 1372 1184
3441 1383 1220
3499 1411 1317
3585 1489 1528
3680 1641 1846
3763 1874 2235
3802 2107 2831
3865 2403 3244
3906 2776 3646
3436 1408 1187
3459 1420 1224
3517 1448 1321
3596 1539 1546
3687 1694 1862
3767 1927 2247
3806 2179 2833
3866 2457 3257
3910 2810 3655
3482 1501 1195
3505 1513 1233
3551 1566 1363
3623 1666 1594
3705 1826 1903
3777 2059 2280
3822 2371 2800
3869 2587 3288
3919 2894 3677
3545 1706 1270
3562 1728 1322
3602 1786 1456
3662 1890 1680
3731 2053 1978
3791 2280 2340
3836 2577 2811
3875 2796 3342
3931 3046 3713
3616 2030 1419
3629 2053 1472
3660 2112 1601
3706 2215 1811
3757 2369 2089
3808 2578 2433
3849 2840 2875
3883 3055 3425
3944 3271 3761
3684 2465 1624
3690 2480 1675
3706 2519 1797
3739 2611 1986
3780 2745 2243
3822 2919 2568
3863 3136 2989
3894 3345 3538
3963 3518 3823
3753 2988 1863
3758 3000 1908
3768 3030 2017
3784 3082 2196
3803 3160 2442
3834 3280 2756
3880 3445 3155
3930 3627 3600
3993 3749 3899
3802 3471 2175
3805 3479 2214
3812 3499 2310
3826 3534 2472
3845 3585 2699
3872 3652 3006
3908 3734 3368
3963 3836 3715
4035 3934 3989
3820 3848 2617
3824 3852 2650
3833 3861 2734
3850 3877 2884
3875 3902 3104
3909 3934 3371
3956 3976 3648
4017 4029 3885
4095 4095 4095
