Zoran/Fashion Summer.cube
TITLE "Generated by 3D LUT Creator Pro (c) Oleg Sharonov"
LUT_3D_SIZE 25
#IMAGEPROFILE ProPhoto RGB v.2.10
#INPUTGAMMA ProPhoto RGB v.2.10
#OUTPUTGAMMA ProPhoto RGB v.2.10
0.002366 0.018926 0.025234
0.044005 0.021292 0.036274
0.085170 0.022080 0.044005
0.119422 0.023657 0.053651
0.153615 0.026023 0.063953
0.187552 0.027600 0.074664
0.217669 0.026812 0.084717
0.247616 0.026812 0.094262
0.278787 0.026023 0.103784
0.310394 0.025234 0.113620
0.342282 0.025234 0.123360
0.374830 0.024446 0.133308
0.409957 0.026812 0.141164
0.445772 0.032332 0.148063
0.481996 0.039429 0.154133
0.518942 0.048985 0.159218
0.556066 0.057439 0.165586
0.591287 0.062227 0.175360
0.627228 0.067305 0.185012
0.663736 0.072104 0.194755
0.700692 0.077646 0.203994
0.736562 0.081481 0.213340
0.771876 0.082416 0.224677
0.808436 0.079102 0.236868
0.845197 0.067852 0.249305
0.022080 0.051020 0.049669
0.055568 0.054934 0.041759
0.099522 0.051686 0.056820
0.132105 0.049669 0.064521
0.162434 0.049669 0.073137
0.193135 0.048985 0.082881
0.222252 0.047596 0.091319
0.252040 0.046892 0.099126
0.282520 0.045463 0.107892
0.313454 0.044738 0.116726
0.345111 0.043264 0.125919
0.376710 0.042516 0.135389
0.411810 0.044738 0.142850
0.447444 0.049669 0.149671
0.483375 0.055568 0.155677
0.520136 0.063382 0.160463
0.556872 0.069470 0.167256
0.592032 0.073649 0.176933
0.627870 0.078134 0.186498
0.664287 0.082416 0.196162
0.701163 0.087409 0.205331
0.736923 0.090032 0.214613
0.772366 0.092168 0.225878
0.808827 0.089600 0.237839
0.845498 0.079102 0.250373
0.052347 0.083343 0.062806
0.072104 0.086072 0.063382
0.108623 0.088729 0.059868
0.139742 0.082881 0.073137
0.168910 0.075669 0.082416
0.197358 0.072104 0.089600
0.226391 0.069470 0.097529
0.256081 0.067852 0.105295
0.286327 0.066202 0.113270
0.316941 0.064521 0.121406
0.347913 0.063382 0.129666
0.379509 0.062806 0.138017
0.414321 0.065085 0.145068
0.449635 0.068934 0.151788
0.485434 0.073649 0.157458
0.522014 0.080536 0.162189
0.558251 0.085170 0.169379
0.593254 0.088729 0.178934
0.629003 0.092590 0.188599
0.665386 0.096721 0.197953
0.702145 0.101090 0.207036
0.737684 0.103784 0.216237
0.773383 0.107524 0.227412
0.809713 0.106415 0.239446
0.846402 0.097930 0.251889
0.072104 0.113620 0.077646
0.082416 0.115010 0.078134
0.106415 0.120748 0.079102
0.143129 0.121734 0.074158
0.176036 0.111504 0.084717
0.205140 0.101090 0.095088
0.232774 0.095088 0.103403
0.261647 0.091745 0.111148
0.290971 0.089165 0.119755
0.321066 0.087409 0.126866
0.351606 0.086072 0.134798
0.383478 0.086072 0.142290
0.418053 0.088291 0.148869
0.452935 0.091319 0.154907
0.488502 0.096315 0.159966
0.524690 0.101867 0.164623
0.560196 0.104919 0.172397
0.595055 0.108258 0.181566
0.630772 0.111859 0.191088
0.666986 0.115699 0.200315
0.703638 0.119422 0.209471
0.738963 0.122387 0.218559
0.774962 0.127180 0.229607
0.811094 0.128118 0.241518
0.847605 0.121078 0.253846
0.083803 0.142850 0.091319
0.091745 0.143686 0.092590
0.110072 0.146437 0.094262
0.137728 0.153615 0.092168
0.176036 0.152835 0.085622
0.210585 0.141728 0.094262
0.241835 0.128118 0.106415
0.269468 0.120087 0.115699
0.297654 0.115355 0.124326
0.326916 0.112919 0.133009
0.356659 0.111148 0.141164
0.388934 0.111504 0.147794
0.422966 0.113620 0.153875
0.457313 0.116726 0.159218
0.492420 0.121078 0.163654
0.527966 0.124965 0.168439
0.562814 0.128118 0.175811
0.597480 0.130891 0.185012
0.633022 0.134501 0.194352
0.669126 0.137728 0.203418
0.705720 0.141728 0.212426
0.741236 0.145891 0.221554
0.776986 0.150468 0.232443
0.812931 0.153095 0.244354
0.849238 0.147253 0.256526
0.094676 0.169613 0.104919
0.101867 0.171011 0.106043
0.117405 0.173999 0.108623
0.141164 0.181348 0.110072
0.180036 0.194554 0.108623
0.207976 0.184157 0.095908
0.242626 0.172167 0.102637
0.277709 0.157963 0.116042
0.306337 0.148333 0.127493
0.334164 0.142009 0.137147
0.363492 0.138882 0.146437
0.395712 0.139170 0.154392
0.429009 0.141164 0.159966
0.462731 0.143964 0.164381
0.497031 0.146981 0.168439
0.532131 0.149937 0.173771
0.566206 0.152835 0.181130
0.600676 0.156188 0.189016
0.635991 0.158968 0.197953
0.671890 0.162434 0.206847
0.708427 0.166065 0.215877
0.744093 0.172397 0.225021
0.779673 0.176709 0.235730
0.815289 0.179596 0.247616
0.851399 0.176260 0.259758
0.109350 0.202647 0.122387
0.115699 0.204568 0.124326
0.131803 0.210770 0.128739
0.154392 0.219444 0.134204
0.185650 0.233929 0.137147
0.232277 0.248999 0.133009
0.239606 0.215697 0.107156
0.273488 0.204185 0.112567
0.310985 0.189640 0.125602
0.341650 0.179155 0.138306
0.371987 0.172627 0.148601
0.403559 0.170314 0.157458
0.435732 0.170547 0.165105
0.468715 0.171936 0.171011
0.502573 0.174226 0.175134
0.537039 0.176933 0.180255
0.570522 0.179376 0.187762
0.604679 0.182434 0.195158
0.639665 0.185863 0.202647
0.675359 0.189433 0.211139
0.711457 0.193338 0.219974
0.747409 0.200511 0.229271
0.782905 0.205521 0.239766
0.818232 0.208351 0.251284
0.853982 0.207412 0.263520
0.128429 0.242468 0.145343
0.133608 0.244197 0.146981
0.147523 0.250068 0.150998
0.167967 0.258735 0.158466
0.194957 0.270305 0.161944
0.230445 0.287237 0.163897
0.285152 0.305011 0.156443
0.283708 0.263807 0.128118
0.303678 0.238000 0.124005
0.343962 0.223814 0.135683
0.378951 0.214250 0.148063
0.411390 0.207600 0.158717
0.443327 0.203994 0.167494
0.475800 0.203610 0.175360
0.509201 0.204185 0.183298
0.542426 0.206090 0.188599
0.575458 0.208351 0.195158
0.609316 0.211139 0.201873
0.644076 0.214432 0.209098
0.679607 0.218381 0.216057
0.715138 0.223468 0.224504
0.750862 0.230278 0.233764
0.786708 0.237030 0.244197
0.821754 0.240246 0.255785
0.857016 0.241360 0.267784
0.147253 0.283971 0.169613
0.151525 0.285413 0.171011
0.164139 0.290715 0.174681
0.182866 0.299018 0.181566
0.206090 0.308969 0.187342
0.237515 0.322880 0.189848
0.276627 0.341439 0.190469
0.338893 0.362315 0.179376
0.331331 0.317287 0.151788
0.343229 0.281592 0.140312
0.380437 0.262081 0.146165
0.416979 0.252040 0.157458
0.450688 0.244823 0.167731
0.483650 0.239606 0.177825
0.516924 0.238322 0.186709
0.548685 0.238000 0.196960
0.581323 0.239766 0.203610
0.614922 0.242310 0.209843
0.649347 0.245447 0.216416
0.684439 0.249305 0.222774
0.719373 0.255933 0.229439
0.754683 0.262945 0.238322
0.790195 0.269747 0.248539
0.825601 0.274858 0.260341
0.860526 0.276898 0.272386
0.164139 0.322880 0.191909
0.167967 0.324456 0.193135
0.178934 0.329684 0.196960
0.196561 0.337932 0.203418
0.218559 0.348325 0.212059
0.245913 0.360639 0.216057
0.278921 0.373980 0.215877
0.321634 0.387579 0.210400
0.374074 0.396593 0.181783
0.374924 0.363296 0.168910
0.387307 0.330893 0.157963
0.423859 0.311221 0.160958
0.459959 0.297654 0.170081
0.494365 0.288660 0.180036
0.525186 0.279324 0.190262
0.555778 0.274448 0.200706
0.588133 0.274174 0.211508
0.621315 0.275812 0.218913
0.655310 0.278921 0.224677
0.689795 0.283181 0.230613
0.724110 0.290331 0.236706
0.758903 0.298275 0.243098
0.794098 0.304890 0.253095
0.829459 0.310867 0.264950
0.864311 0.313454 0.277034
0.180474 0.362708 0.215517
0.183513 0.363884 0.216775
0.193338 0.367866 0.219091
0.207788 0.372558 0.223121
0.226902 0.379138 0.229607
0.251284 0.389204 0.234585
0.280794 0.400095 0.234913
0.314155 0.411978 0.231613
0.360541 0.424102 0.221729
0.405363 0.428369 0.190055
0.418712 0.410210 0.185863
0.432268 0.381177 0.177156
0.468071 0.361823 0.178048
0.504338 0.347189 0.185225
0.534804 0.332315 0.194149
0.564457 0.320269 0.204185
0.594949 0.312986 0.214794
0.628117 0.312751 0.225878
0.661712 0.314505 0.233929
0.695358 0.319813 0.239126
0.729213 0.326804 0.244510
0.763668 0.335137 0.249916
0.798446 0.342808 0.258001
0.833771 0.349560 0.270027
0.868139 0.352725 0.281858
0.191293 0.391179 0.231613
0.194149 0.391894 0.232277
0.202261 0.394563 0.234093
0.215697 0.398873 0.237354
0.232774 0.404333 0.242783
0.254892 0.413319 0.249763
0.283444 0.425718 0.252644
0.315900 0.438463 0.251889
0.349970 0.450613 0.247307
0.399746 0.461420 0.232774
0.437997 0.461931 0.200120
0.453233 0.445696 0.197159
0.474605 0.428369 0.194957
0.507069 0.407497 0.194755
0.540638 0.389744 0.200511
0.572636 0.374830 0.208912
0.603643 0.362806 0.218736
0.634582 0.353536 0.229271
0.668262 0.353739 0.240883
0.701205 0.358357 0.248999
0.734633 0.365639 0.253396
0.769077 0.375677 0.258148
0.803873 0.386490 0.263663
0.839002 0.394651 0.275540
0.871944 0.393764 0.286847
0.202067 0.418630 0.247307
0.204568 0.419206 0.247924
0.212059 0.421499 0.249305
0.224160 0.425396 0.252342
0.240086 0.430443 0.256822
0.259320 0.437841 0.264665
0.284103 0.448654 0.269468
0.314738 0.461566 0.271001
0.349663 0.475870 0.269048
0.386944 0.489925 0.262801
0.439395 0.500010 0.243570
0.472203 0.497695 0.212609
0.489316 0.485160 0.212792
0.511642 0.471281 0.213340
0.543495 0.452038 0.212609
0.577385 0.434869 0.217133
0.610903 0.420109 0.225021
0.643120 0.408093 0.234421
0.674505 0.401224 0.244979
0.707836 0.404333 0.256969
0.741355 0.411726 0.263950
0.775262 0.421744 0.267784
0.809465 0.433137 0.271833
0.843083 0.438696 0.281060
0.875345 0.436202 0.292246
0.213705 0.447747 0.264522
0.216057 0.448352 0.265235
0.222600 0.450388 0.266655
0.233270 0.453904 0.269468
0.247924 0.458638 0.273625
0.265093 0.464616 0.280394
0.286977 0.473689 0.287107
0.314505 0.485091 0.289690
0.346775 0.498093 0.289304
0.381915 0.511514 0.285544
0.424426 0.525186 0.276491
0.473547 0.532496 0.252794
0.508685 0.537520 0.230780
0.526547 0.526609 0.231447
0.549036 0.514387 0.232609
0.580669 0.497762 0.232111
0.614922 0.482134 0.235730
0.648685 0.469929 0.242783
0.681341 0.462003 0.252191
0.713342 0.456501 0.262513
0.746897 0.460105 0.274721
0.780381 0.469501 0.279056
0.814093 0.480820 0.281990
0.845565 0.482617 0.287755
0.876655 0.481513 0.298895
0.225535 0.478528 0.283971
0.227582 0.478946 0.284496
0.233435 0.480820 0.285805
0.243570 0.484062 0.288272
0.256969 0.488366 0.291991
0.272799 0.493561 0.297902
0.292373 0.500603 0.305494
0.316710 0.510295 0.308969
0.346048 0.521451 0.309683
0.379138 0.533834 0.307417
0.414488 0.546746 0.301971
0.458859 0.556872 0.288660
0.506485 0.564740 0.262513
0.538602 0.568509 0.244510
0.561905 0.564909 0.249305
0.586897 0.557677 0.252945
0.617953 0.544266 0.253245
0.651280 0.533044 0.257265
0.684616 0.524131 0.264093
0.717757 0.517303 0.272662
0.750431 0.512474 0.282388
0.784052 0.517493 0.293007
0.816166 0.525000 0.293767
0.846736 0.526177 0.296906
0.877006 0.529134 0.307657
0.237354 0.509007 0.303678
0.239126 0.509265 0.304163
0.244510 0.510809 0.305132
0.253546 0.513432 0.307178
0.265946 0.517051 0.310394
0.281060 0.521326 0.315087
0.298523 0.527103 0.322201
0.320155 0.535409 0.327804
0.346982 0.545508 0.329573
0.377926 0.556815 0.328801
0.411642 0.569125 0.325241
0.447292 0.582030 0.318897
0.493427 0.589739 0.302093
0.539321 0.597480 0.272524
0.568789 0.599473 0.258881
0.594843 0.599839 0.266796
0.624703 0.601875 0.276763
0.655263 0.593732 0.279056
0.687607 0.584740 0.282652
0.720406 0.577495 0.288531
0.753204 0.571747 0.295655
0.785308 0.566488 0.303921
0.816622 0.567836 0.307537
0.847605 0.569852 0.308373
0.876687 0.575624 0.319126
0.249152 0.538001 0.322880
0.250829 0.538302 0.323218
0.255636 0.539621 0.324119
0.263950 0.542009 0.326024
0.275404 0.545330 0.328801
0.289433 0.549271 0.333078
0.305494 0.554102 0.339425
0.325353 0.561279 0.346464
0.349560 0.570299 0.349355
0.378206 0.580614 0.349765
0.410041 0.592139 0.348016
0.444322 0.604472 0.343648
0.480543 0.617348 0.336431
0.527534 0.622663 0.315900
0.571691 0.629839 0.281858
0.607055 0.641875 0.283313
0.634776 0.645172 0.294145
0.664379 0.648259 0.305132
0.693929 0.641779 0.307896
0.725625 0.634241 0.310985
0.757203 0.627771 0.315668
0.786229 0.618657 0.319126
0.815394 0.610852 0.323894
0.847070 0.613654 0.322428
0.875377 0.620514 0.334164
0.261502 0.568061 0.343229
0.262945 0.568285 0.343543
0.267361 0.569461 0.344381
0.274858 0.571580 0.346048
0.285544 0.574520 0.348635
0.298647 0.578153 0.352420
0.313922 0.582410 0.357759
0.331987 0.588347 0.365249
0.353840 0.596427 0.369981
0.380344 0.605868 0.371606
0.410126 0.616440 0.370938
0.442329 0.627426 0.367673
0.475238 0.637734 0.361331
0.512857 0.646742 0.350073
0.558365 0.651280 0.327472
0.602656 0.661942 0.290459
0.644791 0.683644 0.310157
0.674146 0.690145 0.324007
0.702956 0.693235 0.335785
0.730999 0.686465 0.337932
0.759713 0.677554 0.338359
0.787701 0.668034 0.338786
0.816026 0.658753 0.340381
0.846168 0.655310 0.339638
0.873807 0.662495 0.352217
0.274311 0.599002 0.364957
0.275540 0.599264 0.365249
0.279324 0.600205 0.366027
0.286457 0.602135 0.367576
0.296406 0.604834 0.369886
0.308850 0.608238 0.373412
0.323331 0.612178 0.378206
0.339850 0.617298 0.385125
0.359550 0.623510 0.390911
0.382744 0.630919 0.392786
0.409872 0.639327 0.392252
0.439317 0.648496 0.389744
0.470997 0.658521 0.385216
0.504077 0.668808 0.378393
0.544266 0.675224 0.363688
0.588079 0.679028 0.338893
0.638749 0.698118 0.302826
0.673109 0.713049 0.328469
0.705338 0.723659 0.347086
0.736722 0.732253 0.364665
0.762289 0.723371 0.364372
0.789902 0.713593 0.362708
0.817813 0.704616 0.362217
0.846134 0.695876 0.361823
0.872266 0.700949 0.373127
0.287107 0.630330 0.387669
0.288272 0.630526 0.388031
0.291864 0.631360 0.388663
0.298275 0.632925 0.389834
0.307417 0.635214 0.391716
0.319126 0.638073 0.394651
0.332860 0.641443 0.398699
0.348016 0.645220 0.404419
0.365833 0.649913 0.410969
0.385945 0.655544 0.413068
0.410126 0.662080 0.412817
0.437607 0.670079 0.411137
0.467712 0.679384 0.408093
0.499746 0.689490 0.403214
0.533226 0.699792 0.395712
0.575513 0.703978 0.377926
0.618657 0.708427 0.351708
0.667533 0.728278 0.322993
0.701804 0.743974 0.349046
0.734391 0.756932 0.371129
0.764050 0.763055 0.387760
0.789865 0.755032 0.388121
0.818652 0.746463 0.386490
0.847571 0.737684 0.386309
0.871301 0.737123 0.398349
0.299760 0.660096 0.409619
0.300991 0.660327 0.409788
0.304042 0.661020 0.410294
0.309920 0.662357 0.411306
0.318553 0.664424 0.413068
0.329573 0.666986 0.415736
0.342703 0.670125 0.419288
0.357259 0.673650 0.424426
0.373601 0.677778 0.431000
0.392430 0.682760 0.435340
0.414571 0.688790 0.436202
0.439782 0.695574 0.435026
0.467641 0.703169 0.432268
0.497496 0.711499 0.427808
0.529134 0.720530 0.421581
0.562190 0.729701 0.412733
0.607827 0.734673 0.394208
0.652454 0.742507 0.369310
0.698247 0.762595 0.346878
0.731363 0.777584 0.373790
0.763668 0.790634 0.398261
0.791401 0.792970 0.411810
0.817358 0.784828 0.411894
0.846335 0.775375 0.409788
0.871043 0.774474 0.429487
0.312986 0.690668 0.432821
0.313922 0.690843 0.432979
0.316826 0.691496 0.433374
0.322314 0.692758 0.434398
0.330234 0.694536 0.436045
0.340593 0.696912 0.438386
0.353030 0.699792 0.441790
0.366996 0.703041 0.446381
0.382192 0.706779 0.452636
0.400007 0.711247 0.458565
0.420191 0.716761 0.460544
0.443940 0.723084 0.460398
0.470499 0.730066 0.458565
0.499284 0.737924 0.455093
0.529869 0.746779 0.450688
0.561905 0.756429 0.444857
0.598110 0.764700 0.434948
0.643407 0.770100 0.416068
0.687387 0.778704 0.390103
0.732010 0.799095 0.375865
0.762058 0.811872 0.402004
0.793225 0.824182 0.428609
0.818722 0.821614 0.436593
0.845867 0.813565 0.442329
0.869980 0.811306 0.460836
0.326470 0.721973 0.457387
0.327360 0.722097 0.457534
0.329904 0.722631 0.457976
0.334813 0.723741 0.458785
0.342388 0.725421 0.460251
0.352013 0.727504 0.462367
0.363786 0.730107 0.465410
0.377178 0.733142 0.469572
0.391537 0.736481 0.475308
0.408263 0.740519 0.481789
0.427006 0.745595 0.485571
0.449107 0.751683 0.486800
0.474323 0.758595 0.486322
0.501918 0.766302 0.484543
0.531582 0.774549 0.481097
0.562701 0.783571 0.476571
0.594949 0.793115 0.470499
0.634095 0.799816 0.458418
0.678939 0.805588 0.439317
0.722097 0.814515 0.412062
0.765426 0.835134 0.408008
0.794498 0.846870 0.437919
0.821336 0.856094 0.466707
0.847004 0.850336 0.475730
0.868365 0.847070 0.495900
0.339850 0.753321 0.482824
0.340593 0.753360 0.482962
0.343124 0.753866 0.483237
0.347603 0.754799 0.483994
0.354446 0.756274 0.485297
0.363590 0.758247 0.487277
0.374735 0.761021 0.490398
0.387850 0.764203 0.494632
0.402264 0.767900 0.500208
0.417806 0.771951 0.507198
0.435575 0.776537 0.512857
0.455761 0.781793 0.514769
0.479154 0.787811 0.514896
0.505446 0.794825 0.514005
0.533955 0.802655 0.511706
0.564061 0.811024 0.508233
0.595530 0.819908 0.503555
0.627376 0.828875 0.497297
0.669626 0.834521 0.483444
0.713886 0.840624 0.464109
0.756235 0.849970 0.437841
0.793771 0.867330 0.447519
0.820710 0.877931 0.481097
0.846770 0.882695 0.505120
0.867297 0.879396 0.525062
0.353941 0.786708 0.511065
0.354749 0.786782 0.511194
0.357059 0.787260 0.511450
0.361429 0.788215 0.512154
0.367866 0.789682 0.513495
0.376522 0.791657 0.515594
0.387216 0.794098 0.518439
0.399659 0.797072 0.522326
0.413654 0.800428 0.527350
0.428609 0.804123 0.533955
0.445924 0.808365 0.540697
0.464688 0.813142 0.543792
0.486596 0.818652 0.544858
0.511194 0.824771 0.544502
0.538001 0.831516 0.542901
0.566600 0.838833 0.540100
0.596585 0.846636 0.536255
0.628117 0.855435 0.531643
0.659263 0.863855 0.526238
0.703297 0.868398 0.513432
0.746187 0.874512 0.497297
0.787628 0.884022 0.473123
0.819699 0.897808 0.491006
0.846235 0.908797 0.527411
0.866617 0.909679 0.553349
0.005520 0.025234 0.051686
0.042516 0.029966 0.053002
0.091319 0.024446 0.045463
0.123683 0.026023 0.054934
0.155933 0.028389 0.065085
0.188390 0.029966 0.076167
0.217490 0.029966 0.085170
0.247153 0.030754 0.095088
0.277844 0.030754 0.104542
0.309207 0.030754 0.114317
0.340910 0.031543 0.124005
0.373127 0.031543 0.133906
0.408093 0.034697 0.142009
0.443863 0.041759 0.148869
0.479988 0.048985 0.155164
0.516861 0.058053 0.160215
0.553871 0.066202 0.166781
0.589151 0.070533 0.176485
0.625248 0.075168 0.186287
0.661850 0.080060 0.195761
0.698934 0.085170 0.205140
0.734874 0.088291 0.214250
0.770289 0.090032 0.225707
0.806907 0.086965 0.237839
0.843755 0.076662 0.250220
0.019714 0.044005 0.059868
0.058053 0.058662 0.060464
0.099916 0.054934 0.060464
0.131499 0.052347 0.065085
0.162189 0.051686 0.074158
0.192114 0.051020 0.083803
0.220853 0.050348 0.092168
0.250525 0.049669 0.099916
0.280927 0.048985 0.108623
0.311693 0.048985 0.117744
0.343229 0.048985 0.126551
0.374641 0.048294 0.136270
0.409703 0.051686 0.143964
0.445162 0.056196 0.150468
0.481097 0.062806 0.156443
0.517871 0.070003 0.161698
0.554565 0.076662 0.168439
0.589793 0.080536 0.178048
0.625794 0.084717 0.187762
0.662357 0.089165 0.197159
0.699321 0.093429 0.206280
0.735196 0.096315 0.215517
0.770667 0.098330 0.226732
0.807298 0.095908 0.238805
0.844023 0.086072 0.251132
0.047596 0.082416 0.081010
0.076662 0.086520 0.070533
0.106786 0.091319 0.072622
0.136563 0.085622 0.076662
0.166304 0.078619 0.083803
0.195359 0.074158 0.090463
0.224504 0.072104 0.098330
0.254145 0.071060 0.106415
0.284234 0.069470 0.113969
0.314971 0.068934 0.121734
0.345736 0.067305 0.130280
0.377365 0.067305 0.139170
0.412146 0.070003 0.146165
0.447292 0.074158 0.152574
0.483168 0.079582 0.158466
0.519697 0.086520 0.163411
0.555893 0.090892 0.170547
0.591074 0.094676 0.180036
0.627031 0.098330 0.189640
0.663415 0.102637 0.198941
0.700392 0.106415 0.208164
0.735960 0.108987 0.217312
0.771763 0.112567 0.228428
0.808187 0.111504 0.240405
0.844862 0.103784 0.252794
0.070003 0.113620 0.087851
0.086965 0.115010 0.083803
0.108987 0.120418 0.086520
0.142009 0.123360 0.084261
0.172627 0.113969 0.088291
0.201873 0.104163 0.097126
0.229943 0.097930 0.104542
0.258881 0.094676 0.112567
0.288402 0.092590 0.120748
0.318553 0.091319 0.128118
0.349046 0.090032 0.135683
0.380992 0.090032 0.143129
0.415570 0.092590 0.149937
0.450463 0.096315 0.155933
0.486049 0.101090 0.160958
0.522263 0.106786 0.165825
0.557906 0.110072 0.173543
0.592883 0.113270 0.182866
0.628757 0.116385 0.192319
0.665066 0.120418 0.201291
0.701889 0.124326 0.210400
0.737283 0.127180 0.219621
0.773346 0.131803 0.230613
0.809572 0.132407 0.242468
0.846134 0.125602 0.254743
0.087409 0.142290 0.097126
0.096315 0.143408 0.097529
0.113969 0.146165 0.099522
0.138882 0.153356 0.099522
0.176036 0.154392 0.094676
0.207412 0.143686 0.098729
0.238322 0.130891 0.108987
0.266230 0.123360 0.117744
0.294524 0.118753 0.125919
0.323894 0.116385 0.134501
0.353638 0.114664 0.142571
0.386127 0.115355 0.149137
0.420109 0.117405 0.154907
0.454648 0.120748 0.160463
0.489993 0.125284 0.165105
0.525496 0.129049 0.169613
0.560538 0.132407 0.176933
0.595372 0.135093 0.186075
0.631017 0.138306 0.195359
0.667305 0.141728 0.204377
0.703936 0.145343 0.213340
0.739562 0.149937 0.222600
0.775412 0.154392 0.233435
0.811377 0.156697 0.245135
0.847838 0.151525 0.257412
0.098330 0.168203 0.108623
0.105295 0.169847 0.110072
0.122061 0.173771 0.112567
0.144793 0.181783 0.116726
0.181130 0.195359 0.117066
0.208164 0.185012 0.104542
0.239606 0.174226 0.107892
0.274174 0.160463 0.119755
0.302704 0.151261 0.129973
0.330673 0.145068 0.139170
0.360145 0.142290 0.148333
0.392608 0.142850 0.156188
0.426121 0.144793 0.161452
0.459885 0.147253 0.166065
0.494499 0.150468 0.169847
0.529747 0.153356 0.175134
0.564004 0.156188 0.182650
0.598635 0.159218 0.190469
0.634046 0.162434 0.199138
0.670034 0.165825 0.208164
0.706609 0.169145 0.216954
0.742428 0.175585 0.226220
0.778107 0.180036 0.236868
0.813811 0.182866 0.248385
0.849937 0.179596 0.260487
0.113969 0.201679 0.126235
0.120748 0.203802 0.128118
0.136855 0.210770 0.132708
0.158717 0.219621 0.140028
0.188808 0.234257 0.144241
0.233270 0.249763 0.142009
0.239446 0.216775 0.115355
0.271001 0.205711 0.118418
0.307537 0.191909 0.129666
0.337932 0.181783 0.141446
0.368541 0.175585 0.151261
0.400356 0.173314 0.159717
0.432821 0.173314 0.167256
0.465915 0.174907 0.172627
0.500076 0.177156 0.176709
0.534743 0.179816 0.182000
0.568229 0.182217 0.189016
0.602656 0.185225 0.196362
0.637783 0.188599 0.203994
0.673470 0.192114 0.212243
0.709818 0.196162 0.221204
0.745832 0.203418 0.230445
0.781384 0.208164 0.240883
0.816832 0.211139 0.252342
0.852592 0.210400 0.264379
0.133308 0.241835 0.149137
0.138306 0.243570 0.150733
0.152312 0.249763 0.154907
0.173085 0.258735 0.162679
0.198547 0.270305 0.167731
0.233105 0.287237 0.171011
0.286457 0.305976 0.165586
0.285021 0.266088 0.137147
0.301971 0.239286 0.129973
0.341227 0.225707 0.140028
0.375959 0.216237 0.151525
0.408432 0.210029 0.161452
0.440556 0.206280 0.169847
0.473265 0.206090 0.177156
0.506809 0.206658 0.185012
0.540159 0.208538 0.190262
0.573357 0.210770 0.196761
0.607364 0.213523 0.203418
0.642211 0.216954 0.210400
0.677823 0.220678 0.217490
0.713509 0.225707 0.225707
0.749216 0.232774 0.234913
0.785234 0.239446 0.245447
0.820361 0.242468 0.256822
0.855600 0.243570 0.268768
0.152050 0.283444 0.173085
0.156443 0.285021 0.174454
0.168675 0.290459 0.178270
0.187552 0.298895 0.184799
0.210214 0.308969 0.192319
0.240564 0.323106 0.195761
0.277979 0.341861 0.197159
0.339850 0.363002 0.187762
0.332424 0.318897 0.159468
0.343019 0.283839 0.146710
0.378486 0.263233 0.150203
0.414571 0.253696 0.160711
0.448201 0.246844 0.170314
0.481236 0.241518 0.180036
0.514578 0.240405 0.188808
0.546510 0.240086 0.198744
0.579194 0.241835 0.205331
0.612993 0.244354 0.211508
0.647548 0.247461 0.217847
0.682715 0.251435 0.224160
0.717757 0.258148 0.230780
0.753087 0.264950 0.239446
0.788766 0.271833 0.249763
0.824286 0.276898 0.261502
0.859183 0.278921 0.273488
0.168439 0.322767 0.195359
0.172397 0.324119 0.196561
0.183513 0.329463 0.200120
0.200901 0.337825 0.206658
0.222948 0.348635 0.216237
0.249152 0.360837 0.221204
0.281327 0.373696 0.221029
0.322428 0.387397 0.216237
0.375207 0.397384 0.189016
0.376053 0.365444 0.176260
0.387669 0.333295 0.164381
0.422559 0.312399 0.164864
0.458123 0.299142 0.173314
0.492555 0.290203 0.183298
0.523198 0.281060 0.192727
0.553697 0.276220 0.202647
0.586143 0.275948 0.213158
0.619411 0.277574 0.220678
0.653533 0.280794 0.226220
0.688133 0.285021 0.231945
0.722549 0.292118 0.238000
0.757435 0.300007 0.244510
0.792642 0.306698 0.254294
0.828118 0.312634 0.266230
0.863041 0.315203 0.278114
0.184585 0.362806 0.218736
0.187972 0.363981 0.219797
0.197557 0.367480 0.222078
0.212059 0.372368 0.225707
0.230445 0.378765 0.232277
0.254743 0.389204 0.238483
0.283444 0.400007 0.239286
