Zoran/Fashion Summer.cube
TITLE "Generated by 3D LUT Creator Pro (c) Oleg Sharonov"
LUT_3D_SIZE 9
#IMAGEPROFILE ProPhoto RGB v.2.10
#INPUTGAMMA ProPhoto RGB v.2.10
#OUTPUTGAMMA ProPhoto RGB v.2.10
0.002366 0.018926 0.025234
0.119422 0.023657 0.053651
0.217669 0.026812 0.084717
0.310394 0.025234 0.113620
0.409957 0.026812 0.141164
0.518942 0.048985 0.159218
0.627228 0.067305 0.185012
0.736562 0.081481 0.213340
0.845197 0.067852 0.249305
0.072104 0.113620 0.077646
0.143129 0.121734 0.074158
0.232774 0.095088 0.103403
0.321066 0.087409 0.126866
0.418053 0.088291 0.148869
0.524690 0.101867 0.164623
0.630772 0.111859 0.191088
0.738963 0.122387 0.218559
0.847605 0.121078 0.253846
0.109350 0.202647 0.122387
0.154392 0.219444 0.134204
0.239606 0.215697 0.107156
0.341650 0.179155 0.138306
0.435732 0.170547 0.165105
0.537039 0.176933 0.180255
0.639665 0.185863 0.202647
0.747409 0.200511 0.229271
0.853982 0.207412 0.263520
0.164139 0.322880 0.191909
0.196561 0.337932 0.203418
0.278921 0.373980 0.215877
0.374924 0.363296 0.168910
0.459959 0.297654 0.170081
0.555778 0.274448 0.200706
0.655310 0.278921 0.224677
0.758903 0.298275 0.243098
0.864311 0.313454 0.277034
0.202067 0.418630 0.247307
0.224160 0.425396 0.252342
0.284103 0.448654 0.269468
0.386944 0.489925 0.262801
0.489316 0.485160 0.212792
0.577385 0.434869 0.217133
0.674505 0.401224 0.244979
0.775262 0.421744 0.267784
0.875345 0.436202 0.292246
0.237354 0.509007 0.303678
0.253546 0.513432 0.307178
0.298523 0.527103 0.322201
0.377926 0.556815 0.328801
0.493427 0.589739 0.302093
0.594843 0.599839 0.266796
0.687607 0.584740 0.282652
0.785308 0.566488 0.303921
0.876687 0.575624 0.319126
0.274311 0.599002 0.364957
0.286457 0.602135 0.367576
0.323331 0.612178 0.378206
0.382744 0.630919 0.392786
0.470997 0.658521 0.385216
0.588079 0.679028 0.338893
0.705338 0.723659 0.347086
0.789902 0.713593 0.362708
0.872266 0.700949 0.373127
0.312986 0.690668 0.432821
0.322314 0.692758 0.434398
0.353030 0.699792 0.441790
0.400007 0.711247 0.458565
0.470499 0.730066 0.458565
0.561905 0.756429 0.444857
0.687387 0.778704 0.390103
0.793225 0.824182 0.428609
0.869980 0.811306 0.460836
0.353941 0.786708 0.511065
0.361429 0.788215 0.512154
0.387216 0.794098 0.518439
0.428609 0.804123 0.533955
0.486596 0.818652 0.544858
0.566600 0.838833 0.540100
0.659263 0.863855 0.526238
0.787628 0.884022 0.473123
0.866617 0.909679 0.553349
0.014983 0.043264 0.096721
0.134798 0.053002 0.094262
0.222600 0.044738 0.091745
0.308493 0.048985 0.117405
0.404934 0.057439 0.144517
0.512730 0.078134 0.163167
0.621014 0.093429 0.189433
0.730756 0.105669 0.217312
0.839949 0.097529 0.252794
0.048985 0.100700 0.120087
0.135093 0.128739 0.121734
0.226049 0.109712 0.117066
0.313337 0.100700 0.131196
0.410379 0.104163 0.152835
0.517493 0.118753 0.168910
0.624156 0.128739 0.195158
0.733101 0.139456 0.222252
0.842343 0.139742 0.257265
0.105669 0.200120 0.155677
0.172856 0.221379 0.156443
0.246998 0.230613 0.151525
0.329904 0.190882 0.151261
0.426121 0.181783 0.171936
0.529256 0.187972 0.186075
0.633120 0.196960 0.207600
0.741633 0.211692 0.233599
0.848805 0.219268 0.267079
0.174454 0.319470 0.213340
0.215156 0.339319 0.219974
0.288402 0.372558 0.241042
0.382099 0.374735 0.205331
0.453681 0.305615 0.183942
0.548216 0.282388 0.208725
0.648779 0.286977 0.230947
0.753243 0.306217 0.248231
0.859315 0.321407 0.281459
0.216954 0.417062 0.260632
0.239606 0.424911 0.264665
0.294775 0.446153 0.284628
0.389474 0.488026 0.286327
0.491613 0.492151 0.242468
0.573856 0.439705 0.230111
0.669262 0.407497 0.253696
0.770289 0.427407 0.275131
0.870625 0.441867 0.297902
0.250525 0.508298 0.314971
0.266796 0.513113 0.317864
0.310985 0.526794 0.330454
0.382744 0.554681 0.344799
0.494030 0.590861 0.325129
0.595372 0.604265 0.290587
0.686289 0.588025 0.294398
0.781978 0.570243 0.312986
0.872941 0.579467 0.326916
0.285675 0.598740 0.374641
0.297902 0.602135 0.376804
0.334705 0.612637 0.386218
0.389114 0.628806 0.403559
0.473265 0.656429 0.399659
0.587650 0.679162 0.358457
0.703765 0.723453 0.363394
0.789096 0.715679 0.372937
0.870173 0.702913 0.381546
0.322880 0.690494 0.441019
0.332206 0.692584 0.442406
0.362708 0.700092 0.449107
0.408432 0.711499 0.465915
0.475098 0.729863 0.470499
0.564514 0.756429 0.458785
0.687431 0.779264 0.407753
0.792423 0.824494 0.441636
0.869464 0.812648 0.469501
0.362512 0.787187 0.518816
0.369981 0.788729 0.519822
0.395888 0.794897 0.525434
0.437529 0.805160 0.539681
0.492622 0.819385 0.554739
0.570131 0.839408 0.551548
0.661020 0.864311 0.539022
0.788032 0.884748 0.488026
0.867135 0.910712 0.563098
0.007097 0.077155 0.165345
0.122061 0.078619 0.164139
0.231779 0.095088 0.151788
0.320839 0.077155 0.153875
0.407072 0.076167 0.151525
0.510102 0.098330 0.166543
0.616036 0.116385 0.193947
0.724520 0.130891 0.222252
0.833362 0.130891 0.257707
0.041759 0.109350 0.160958
0.109712 0.121406 0.173543
0.230278 0.144793 0.159218
0.321407 0.122387 0.166781
0.410969 0.121406 0.166304
0.513368 0.134501 0.173314
0.618456 0.147794 0.199924
0.726810 0.161698 0.227412
0.835508 0.165586 0.262225
0.103784 0.201873 0.211323
0.157458 0.221029 0.217133
0.275267 0.276763 0.249305
0.326916 0.219974 0.198547
0.422315 0.202840 0.196162
0.521951 0.202454 0.193541
0.625893 0.212609 0.214432
0.734311 0.228597 0.239606
0.841501 0.238483 0.272799
0.165345 0.326916 0.281060
0.210029 0.339212 0.279458
0.303313 0.365152 0.274311
0.391358 0.393320 0.276084
0.454945 0.339319 0.240086
0.539202 0.299389 0.231113
0.639376 0.300622 0.241360
0.744766 0.320269 0.257117
0.851366 0.336216 0.288918
0.198547 0.413821 0.319355
0.232774 0.420682 0.315784
0.316595 0.445010 0.309207
0.390731 0.477551 0.329353
0.497031 0.504143 0.304285
0.572136 0.463312 0.280527
0.661343 0.423291 0.274721
0.761483 0.439395 0.289046
0.861867 0.453681 0.308850
0.242468 0.502704 0.361922
0.271833 0.506874 0.355051
0.333295 0.526671 0.353334
0.393764 0.548509 0.375112
0.489180 0.588025 0.372082
0.597742 0.613552 0.344485
0.686069 0.604524 0.339850
0.775638 0.579413 0.333621
0.865481 0.587864 0.343124
0.301114 0.594949 0.401398
0.316363 0.600101 0.401398
0.355756 0.612840 0.407072
0.408517 0.628511 0.423859
0.477481 0.650573 0.430602
0.585766 0.679563 0.403386
0.698934 0.723987 0.403300
0.787554 0.724069 0.409365
0.865838 0.707625 0.400530
0.340062 0.689009 0.462876
0.350175 0.691627 0.463384
0.381915 0.700221 0.467784
0.428529 0.712882 0.480820
0.486391 0.730066 0.497828
0.570075 0.756661 0.491680
0.687344 0.781161 0.449710
0.790853 0.826119 0.474887
0.869335 0.816972 0.495567
0.378951 0.787848 0.539022
0.386854 0.789646 0.539441
0.413486 0.796348 0.543554
0.456205 0.807548 0.554912
0.508427 0.821649 0.576780
0.578920 0.841096 0.578756
0.666118 0.865741 0.568845
0.787995 0.886355 0.525124
0.868495 0.913470 0.587112
0.000000 0.122061 0.249763
0.133608 0.116042 0.250525
0.234749 0.147794 0.241201
0.326693 0.141728 0.212975
0.427407 0.117744 0.218913
0.521764 0.121078 0.212426
0.618255 0.130891 0.203033
0.722714 0.148333 0.225707
0.829905 0.155933 0.261792
0.033120 0.154392 0.250829
0.105669 0.160711 0.259613
0.258588 0.203033 0.275812
0.327583 0.177603 0.219268
0.428769 0.152574 0.228090
0.523323 0.155421 0.223468
0.620314 0.162923 0.214069
0.724930 0.178713 0.231280
0.831619 0.187342 0.266655
0.104542 0.228934 0.277574
0.143129 0.240564 0.285152
0.234421 0.282255 0.329132
0.345632 0.273625 0.246379
0.435575 0.231280 0.250981
0.528827 0.226049 0.248231
0.626190 0.229439 0.242783
0.730674 0.244197 0.244667
0.836664 0.257412 0.278249
0.158968 0.318897 0.328690
0.197159 0.329243 0.329904
0.270584 0.357459 0.340381
0.382099 0.394385 0.355555
0.458491 0.364957 0.305615
0.544206 0.336968 0.289175
0.636863 0.322654 0.284234
0.738884 0.336216 0.271417
0.844627 0.353131 0.296531
0.194755 0.413236 0.379881
0.230947 0.422233 0.378765
0.307657 0.444628 0.377365
0.396505 0.465555 0.370173
0.493226 0.508685 0.379881
0.571358 0.495767 0.353941
0.659170 0.461639 0.333947
0.754644 0.460251 0.328911
0.852824 0.468429 0.321407
0.236381 0.508427 0.429088
0.260632 0.512730 0.426363
0.322767 0.525434 0.419370
0.413236 0.544621 0.403645
0.486596 0.577165 0.424507
0.600884 0.624256 0.419452
0.685453 0.627771 0.409026
0.769948 0.601875 0.387579
0.857805 0.600519 0.371511
0.271140 0.598582 0.480127
0.290843 0.600937 0.476711
0.349046 0.608752 0.464327
0.431476 0.628511 0.451738
0.490601 0.647074 0.471920
0.578427 0.675628 0.460763
0.693583 0.724725 0.461858
0.783645 0.735357 0.465987
0.862813 0.716137 0.444322
0.313220 0.687695 0.532861
0.330673 0.689009 0.527719
0.389204 0.694276 0.507781
0.450763 0.713509 0.507716
0.508298 0.732415 0.529624
0.578647 0.756313 0.536858
0.686992 0.784606 0.509652
0.788803 0.829253 0.527288
0.869819 0.823975 0.538362
0.368155 0.784163 0.591713
0.387669 0.784939 0.582682
0.430841 0.796203 0.574906
0.478109 0.809891 0.581268
0.532861 0.825670 0.599106
0.593838 0.843855 0.616945
0.674460 0.868009 0.612586
0.787517 0.888774 0.579631
0.870721 0.917782 0.624603
0.000000 0.183728 0.345840
0.084717 0.180036 0.356057
0.266513 0.223987 0.385216
0.358357 0.223295 0.324344
0.431555 0.192319 0.284234
0.535711 0.158466 0.286977
0.632338 0.164623 0.282917
0.732698 0.173771 0.274858
0.832439 0.177380 0.269887
0.000000 0.211508 0.354244
0.077155 0.212975 0.360541
0.264236 0.242626 0.384120
0.367963 0.260632 0.346671
0.438074 0.225707 0.293261
0.536436 0.187762 0.294524
0.633803 0.192727 0.291226
0.733787 0.203033 0.283576
0.834248 0.210029 0.277709
0.073137 0.263233 0.360936
0.114664 0.269048 0.366803
0.212609 0.288789 0.381546
0.365541 0.329022 0.393942
0.454425 0.303070 0.315203
0.543732 0.259320 0.316132
0.638990 0.256081 0.311575
0.737123 0.269188 0.306578
0.839307 0.282255 0.297280
0.154650 0.328359 0.380344
0.180693 0.335029 0.382744
0.239766 0.355555 0.388573
0.332533 0.392519 0.424588
0.450312 0.411978 0.354042
0.558079 0.370173 0.354749
0.646552 0.352928 0.345007
0.743182 0.367480 0.344381
0.845130 0.380900 0.327360
0.203610 0.414488 0.430920
0.229439 0.420682 0.431238
0.290331 0.436280 0.429168
0.369310 0.467210 0.443020
0.475730 0.499680 0.454202
0.571191 0.509845 0.425960
0.661896 0.501983 0.402869
0.753477 0.493963 0.391358
0.850735 0.497496 0.370077
0.236218 0.509072 0.488094
0.261502 0.514642 0.487482
0.320041 0.527781 0.483168
0.403645 0.551373 0.481651
0.492151 0.568229 0.471068
0.594314 0.622064 0.493561
0.687168 0.649913 0.492555
0.765158 0.628954 0.457313
0.854081 0.617701 0.431000
0.277304 0.607055 0.547981
0.296531 0.609982 0.545567
0.346671 0.618104 0.538542
0.420191 0.631262 0.527842
0.509909 0.645220 0.505706
0.579139 0.673785 0.523385
0.689839 0.726198 0.532009
0.779562 0.749177 0.536918
0.861017 0.726157 0.505511
0.304163 0.697214 0.607415
0.319813 0.698762 0.604317
0.366512 0.705083 0.596479
0.438152 0.715346 0.581921
0.531032 0.734915 0.562530
0.595213 0.758942 0.588079
0.684880 0.787995 0.578592
0.783978 0.832234 0.592086
0.870754 0.832439 0.594896
0.340910 0.795079 0.676256
0.354446 0.795877 0.672613
0.397823 0.800464 0.662771
0.470356 0.809075 0.643789
0.555374 0.829012 0.631556
0.617399 0.848472 0.655357
0.685849 0.870818 0.664424
0.788105 0.893399 0.643789
0.872459 0.924214 0.675718
0.000000 0.235240 0.424668
0.000000 0.231945 0.447519
0.246998 0.244354 0.453009
0.336860 0.290331 0.461201
0.460544 0.283444 0.398086
0.541592 0.252342 0.369022
0.642737 0.205521 0.365833
0.744449 0.218559 0.360046
0.844828 0.221379 0.349149
0.000000 0.252644 0.429408
0.000000 0.252040 0.444322
0.241201 0.261357 0.451888
0.340169 0.307657 0.466419
0.464905 0.308612 0.409872
0.546039 0.279993 0.376897
0.643933 0.231280 0.372653
0.744884 0.245913 0.367576
0.845699 0.249763 0.356759
0.010251 0.293007 0.439627
0.063953 0.294650 0.443863
0.188599 0.311221 0.455464
0.346982 0.342282 0.476641
0.474253 0.366900 0.442329
0.559510 0.346671 0.395094
0.648543 0.294901 0.390552
0.749216 0.309683 0.385216
0.847938 0.316132 0.374641
0.128429 0.352420 0.451813
0.147523 0.355555 0.454648
0.213887 0.372843 0.462440
0.290843 0.395447 0.486868
0.370460 0.466347 0.474746
0.570466 0.443710 0.411810
0.663139 0.402955 0.423696
0.757551 0.406816 0.414571
0.851034 0.410463 0.403386
0.205711 0.426765 0.484406
0.220502 0.429727 0.485228
0.272524 0.443787 0.485913
0.332097 0.469073 0.497828
0.429487 0.504860 0.517493
0.551081 0.550673 0.478249
0.674370 0.532435 0.472699
0.762595 0.521889 0.456870
0.853023 0.521889 0.445620
0.251284 0.515975 0.541950
0.265662 0.518691 0.542069
0.317633 0.530726 0.540399
0.386309 0.548509 0.538962
0.468500 0.577605 0.551606
0.574464 0.608598 0.560994
0.690799 0.663001 0.569293
0.766607 0.653908 0.530543
0.852890 0.639568 0.503293
0.278383 0.609213 0.606436
0.293514 0.612025 0.606023
0.343543 0.621964 0.603383
0.413737 0.636088 0.596585
0.499218 0.657825 0.593413
0.593095 0.677286 0.582465
0.687168 0.724889 0.602500
0.777322 0.762557 0.613857
0.857509 0.742865 0.579413
0.303556 0.707202 0.679340
0.323557 0.710281 0.677644
0.371511 0.718794 0.673650
0.440401 0.731444 0.665386
0.521701 0.746227 0.652032
0.613654 0.760829 0.630723
0.689140 0.793734 0.649394
0.784939 0.836460 0.662725
0.868947 0.844124 0.664379
0.339531 0.807903 0.753204
0.352725 0.808791 0.750157
0.393231 0.813318 0.742547
0.457681 0.822379 0.731687
0.539741 0.834794 0.715929
0.639520 0.852957 0.691453
0.705338 0.875824 0.716595
0.791219 0.901018 0.712212
0.875601 0.933945 0.736562
0.000000 0.276220 0.496766
0.000000 0.272799 0.506161
0.223641 0.275404 0.530053
0.332206 0.311693 0.541652
0.421173 0.361429 0.549446
0.566825 0.354547 0.485981
0.652548 0.322767 0.461858
0.750940 0.273625 0.454871
0.854643 0.276084 0.439317
0.000000 0.291354 0.502835
0.000000 0.288918 0.511898
0.209098 0.292627 0.530176
0.333838 0.324119 0.542307
0.417227 0.378393 0.555663
0.571023 0.375959 0.495567
0.658057 0.349457 0.469430
0.753905 0.301114 0.462222
0.855863 0.302826 0.446153
0.000000 0.329463 0.520888
0.000000 0.327915 0.525620
0.155933 0.338999 0.534561
0.330344 0.355555 0.546923
0.409195 0.415819 0.569461
0.576890 0.420273 0.515594
0.672387 0.411810 0.486322
0.762710 0.365541 0.480682
0.859151 0.363884 0.462949
0.084261 0.382927 0.531582
0.090892 0.382376 0.533287
0.182866 0.395977 0.542307
0.279056 0.413486 0.553523
0.418383 0.453606 0.579085
0.555951 0.501392 0.552130
0.693409 0.500537 0.505901
0.773346 0.454871 0.506485
0.863367 0.450012 0.488773
0.186287 0.450613 0.554102
0.190262 0.450688 0.554854
0.242468 0.463239 0.559568
0.307537 0.483100 0.565699
0.390283 0.507328 0.600153
0.485707 0.587327 0.557677
0.677554 0.616743 0.533287
0.782794 0.562814 0.540996
0.866811 0.550848 0.522451
0.258148 0.531215 0.599211
0.263663 0.531582 0.598897
0.306217 0.541533 0.600101
0.367480 0.557045 0.597952
0.431396 0.583983 0.612586
0.529440 0.614568 0.617953
0.654609 0.678849 0.604057
0.777547 0.674820 0.595055
0.865319 0.656662 0.572636
0.298275 0.620964 0.664103
0.304527 0.621565 0.663415
0.344381 0.629692 0.663644
0.410210 0.644171 0.661204
0.486118 0.662126 0.657407
0.572969 0.694536 0.674370
0.683821 0.726973 0.681785
0.780455 0.770327 0.682006
0.861148 0.758170 0.649110
0.321521 0.719249 0.743023
0.327694 0.719993 0.742269
0.368059 0.727341 0.741156
0.434791 0.739842 0.736762
0.515404 0.756778 0.729904
0.606488 0.780120 0.725093
0.706398 0.801147 0.712505
0.792605 0.841501 0.732576
0.870560 0.855896 0.732213
0.336753 0.817638 0.823316
0.343019 0.818372 0.822136
0.391358 0.824805 0.817288
0.456648 0.834283 0.809040
0.539501 0.848805 0.798482
0.629200 0.865481 0.783682
0.722960 0.881681 0.764509
0.798951 0.909831 0.778294
0.881903 0.943514 0.796674
0.000000 0.321066 0.576670
0.000000 0.318438 0.583604
0.181566 0.309564 0.610749
0.319241 0.332860 0.616491
0.392608 0.389474 0.634630
0.515404 0.427889 0.637734
0.679162 0.436749 0.591234
0.769494 0.405363 0.566431
0.859675 0.336216 0.551431
0.000000 0.334813 0.582356
0.000000 0.332533 0.585712
0.116385 0.331550 0.613857
0.318897 0.345424 0.617802
0.395977 0.400182 0.636863
0.509909 0.447898 0.649441
0.684086 0.457829 0.601771
0.776087 0.430920 0.574298
0.862845 0.356258 0.556987
0.000000 0.368637 0.596901
0.000000 0.367287 0.600205
0.089165 0.371415 0.619812
0.308969 0.378393 0.624951
0.407242 0.423372 0.642354
0.492487 0.495967 0.677197
0.694536 0.506809 0.628708
0.786782 0.481996 0.588454
0.868462 0.412230 0.571858
0.000000 0.419781 0.617500
0.000000 0.418959 0.618959
0.126551 0.423453 0.627969
0.252342 0.439240 0.637396
0.411810 0.460982 0.651044
0.470712 0.541711 0.688483
0.693366 0.569852 0.671484
0.801255 0.553407 0.605041
0.875728 0.489993 0.593573
0.151261 0.483237 0.636330
0.154650 0.482962 0.637251
0.193541 0.487141 0.645125
0.277304 0.505185 0.652736
0.370077 0.521639 0.661896
0.480959 0.571858 0.685189
0.528150 0.665524 0.666027
0.807583 0.636912 0.610698
0.884117 0.582953 0.621114
0.244197 0.556297 0.670306
0.247616 0.556297 0.670397
0.264236 0.559224 0.675987
0.333947 0.576285 0.678582
0.404247 0.596795 0.682450
0.499548 0.625397 0.711415
0.586520 0.703084 0.678849
0.755847 0.735678 0.644267
0.886922 0.678180 0.657778
0.310038 0.643933 0.728807
0.314854 0.644314 0.728278
0.327027 0.647122 0.731404
0.394474 0.662126 0.732051
0.467856 0.680364 0.730147
0.542247 0.702999 0.732980
0.646789 0.741236 0.743657
0.756700 0.800392 0.729091
0.879014 0.774361 0.710070
0.348325 0.738044 0.805088
0.353638 0.738404 0.804338
0.367383 0.741474 0.806087
0.429567 0.752814 0.805053
0.508749 0.767900 0.799023
0.595741 0.786855 0.792387
0.684174 0.814832 0.801363
0.798301 0.847070 0.801650
0.877038 0.865059 0.791146
0.370938 0.829046 0.866066
0.375489 0.829836 0.867135
0.387126 0.833839 0.872812
0.450914 0.845465 0.876400
0.528335 0.858593 0.872041
0.618104 0.875057 0.860330
0.716303 0.895824 0.847538
0.817428 0.919373 0.838054
0.897436 0.951697 0.853850
0.000000 0.369022 0.657778
0.000000 0.366609 0.660604
0.000000 0.351300 0.700820
0.301236 0.356759 0.700820
0.391358 0.398086 0.710281
0.465483 0.479641 0.747763
0.618909 0.528765 0.763591
0.787554 0.517556 0.694839
0.869528 0.476361 0.659541
0.000000 0.381546 0.660142
0.000000 0.379973 0.668944
0.000000 0.369214 0.701419
0.296531 0.371034 0.704021
0.393853 0.409957 0.713886
0.462949 0.489112 0.750000
0.615581 0.535772 0.767482
0.786266 0.527596 0.703212
0.870657 0.485434 0.665020
0.000000 0.413570 0.676570
0.000000 0.412314 0.680497
0.000000 0.405962 0.705295
0.271278 0.404161 0.712044
0.397998 0.434869 0.720736
0.462440 0.509265 0.752853
0.594896 0.568509 0.782386
0.788913 0.564118 0.724520
0.874672 0.509330 0.679340
0.000000 0.460982 0.704106
0.000000 0.460325 0.707582
0.000000 0.456427 0.718255
0.202840 0.465555 0.729295
0.395535 0.474394 0.732334
0.471352 0.533591 0.753905
0.561905 0.613146 0.797036
0.786450 0.619009 0.756623
0.885883 0.574851 0.698719
0.074664 0.515784 0.714929
0.082881 0.516038 0.717591
0.109350 0.516545 0.729295
0.222774 0.526856 0.745477
0.342914 0.543673 0.754022
0.492890 0.575293 0.768735
0.543198 0.662771 0.804195
0.736201 0.695358 0.822691
0.897777 0.648543 0.722138
0.201679 0.582899 0.730512
0.205331 0.583658 0.732819
0.216057 0.586574 0.743895
0.278383 0.600571 0.763055
0.368155 0.623758 0.781273
0.470143 0.643598 0.792095
0.574298 0.704531 0.811413
0.625843 0.786119 0.796022
0.909192 0.727218 0.741753
0.293767 0.664103 0.764662
0.297529 0.665066 0.766455
0.307297 0.669081 0.775075
0.354547 0.681874 0.789169
0.430364 0.701718 0.801111
0.509973 0.725298 0.816587
0.618758 0.747212 0.830385
0.695315 0.823039 0.807868
0.877485 0.821962 0.748195
0.361528 0.748313 0.812895
0.365930 0.749216 0.814234
0.377459 0.753477 0.821058
0.425880 0.765235 0.830008
0.498689 0.781458 0.835644
0.577989 0.801614 0.842814
0.660188 0.824736 0.851996
0.762787 0.858724 0.853784
0.862748 0.903478 0.838359
0.404848 0.835100 0.866422
0.408941 0.835950 0.867524
0.419452 0.840016 0.873005
0.480959 0.851532 0.876144
0.550907 0.865286 0.878887
0.630477 0.882441 0.881935
0.717882 0.903079 0.886135
0.808969 0.925137 0.892714
0.912199 0.961485 0.912925
