Zoran/Fashion Summer.cube
TITLE "Generated by 3D LUT Creator Pro (c) Oleg Sharonov"
LUT_3D_SIZE 5
#IMAGEPROFILE ProPhoto RGB v.2.10
#INPUTGAMMA ProPhoto RGB v.2.10
#OUTPUTGAMMA ProPhoto RGB v.2.10
0.002366 0.018926 0.025234
0.217669 0.026812 0.084717
0.409957 0.026812 0.141164
0.627228 0.067305 0.185012
0.845197 0.067852 0.249305
0.109350 0.202647 0.122387
0.239606 0.215697 0.107156
0.435732 0.170547 0.165105
0.639665 0.185863 0.202647
0.853982 0.207412 0.263520
0.202067 0.418630 0.247307
0.284103 0.448654 0.269468
0.489316 0.485160 0.212792
0.674505 0.401224 0.244979
0.875345 0.436202 0.292246
0.274311 0.599002 0.364957
0.323331 0.612178 0.378206
0.470997 0.658521 0.385216
0.705338 0.723659 0.347086
0.872266 0.700949 0.373127
0.353941 0.786708 0.511065
0.387216 0.794098 0.518439
0.486596 0.818652 0.544858
0.659263 0.863855 0.526238
0.866617 0.909679 0.553349
0.007097 0.077155 0.165345
0.231779 0.095088 0.151788
0.407072 0.076167 0.151525
0.616036 0.116385 0.193947
0.833362 0.130891 0.257707
0.103784 0.201873 0.211323
0.275267 0.276763 0.249305
0.422315 0.202840 0.196162
0.625893 0.212609 0.214432
0.841501 0.238483 0.272799
0.198547 0.413821 0.319355
0.316595 0.445010 0.309207
0.497031 0.504143 0.304285
0.661343 0.423291 0.274721
0.861867 0.453681 0.308850
0.301114 0.594949 0.401398
0.355756 0.612840 0.407072
0.477481 0.650573 0.430602
0.698934 0.723987 0.403300
0.865838 0.707625 0.400530
0.378951 0.787848 0.539022
0.413486 0.796348 0.543554
0.508427 0.821649 0.576780
0.666118 0.865741 0.568845
0.868495 0.913470 0.587112
0.000000 0.183728 0.345840
0.266513 0.223987 0.385216
0.431555 0.192319 0.284234
0.632338 0.164623 0.282917
0.832439 0.177380 0.269887
0.073137 0.263233 0.360936
0.212609 0.288789 0.381546
0.454425 0.303070 0.315203
0.638990 0.256081 0.311575
0.839307 0.282255 0.297280
0.203610 0.414488 0.430920
0.290331 0.436280 0.429168
0.475730 0.499680 0.454202
0.661896 0.501983 0.402869
0.850735 0.497496 0.370077
0.277304 0.607055 0.547981
0.346671 0.618104 0.538542
0.509909 0.645220 0.505706
0.689839 0.726198 0.532009
0.861017 0.726157 0.505511
0.340910 0.795079 0.676256
0.397823 0.800464 0.662771
0.555374 0.829012 0.631556
0.685849 0.870818 0.664424
0.872459 0.924214 0.675718
0.000000 0.276220 0.496766
0.223641 0.275404 0.530053
0.421173 0.361429 0.549446
0.652548 0.322767 0.461858
0.854643 0.276084 0.439317
0.000000 0.329463 0.520888
0.155933 0.338999 0.534561
0.409195 0.415819 0.569461
0.672387 0.411810 0.486322
0.859151 0.363884 0.462949
0.186287 0.450613 0.554102
0.242468 0.463239 0.559568
0.390283 0.507328 0.600153
0.677554 0.616743 0.533287
0.866811 0.550848 0.522451
0.298275 0.620964 0.664103
0.344381 0.629692 0.663644
0.486118 0.662126 0.657407
0.683821 0.726973 0.681785
0.861148 0.758170 0.649110
0.336753 0.817638 0.823316
0.391358 0.824805 0.817288
0.539501 0.848805 0.798482
0.722960 0.881681 0.764509
0.881903 0.943514 0.796674
0.000000 0.369022 0.657778
0.000000 0.351300 0.700820
0.391358 0.398086 0.710281
0.618909 0.528765 0.763591
0.869528 0.476361 0.659541
0.000000 0.413570 0.676570
0.000000 0.405962 0.705295
0.397998 0.434869 0.720736
0.594896 0.568509 0.782386
0.874672 0.509330 0.679340
0.074664 0.515784 0.714929
0.109350 0.516545 0.729295
0.342914 0.543673 0.754022
0.543198 0.662771 0.804195
0.897777 0.648543 0.722138
0.293767 0.664103 0.764662
0.307297 0.669081 0.775075
0.430364 0.701718 0.801111
0.618758 0.747212 0.830385
0.877485 0.821962 0.748195
0.404848 0.835100 0.866422
0.419452 0.840016 0.873005
0.550907 0.865286 0.878887
0.717882 0.903079 0.886135
0.912199 0.961485 0.912925
