Zoran/FilmFeel 01.cube
TITLE "Generated by 3D LUT Creator Pro (c) Oleg Sharonov"
LUT_3D_SIZE 5
#IMAGEPROFILE ProPhoto RGB v.2.10
#INPUTGAMMA ProPhoto RGB v.2.10
#OUTPUTGAMMA ProPhoto RGB v.2.10
0.044965 0.045768 0.046028
0.154242 0.058522 0.053300
0.322655 0.097091 0.088982
0.558059 0.156599 0.136164
0.775909 0.213693 0.200349
0.129150 0.250255 0.125680
0.209055 0.230113 0.106718
0.401135 0.223022 0.121556
0.605855 0.241781 0.163294
0.804133 0.273210 0.218607
0.197395 0.609242 0.193674
0.296317 0.587542 0.198647
0.510736 0.541274 0.210780
0.703628 0.529934 0.240993
0.859072 0.507724 0.311085
0.360290 0.874714 0.357173
0.434431 0.868697 0.369680
0.613837 0.841132 0.395273
0.792887 0.815114 0.449086
0.886345 0.788710 0.532012
0.759387 0.908029 0.749739
0.771131 0.908226 0.748841
0.810485 0.909141 0.743866
0.858424 0.906656 0.760120
0.895930 0.900429 0.809777
0.065153 0.073124 0.228213
0.195207 0.080759 0.176931
0.377836 0.112678 0.188970
0.588259 0.166746 0.200837
0.792044 0.224388 0.232970
0.123198 0.243732 0.263757
0.218168 0.233942 0.236701
0.452358 0.228766 0.217152
0.634018 0.233133 0.201499
0.828101 0.233722 0.222499
0.214568 0.587052 0.325875
0.308850 0.572163 0.321739
0.517960 0.541528 0.290075
0.718690 0.530650 0.281966
0.871916 0.490688 0.319220
0.381416 0.874674 0.434436
0.449210 0.868356 0.434886
0.621706 0.842770 0.441287
0.796321 0.816521 0.481511
0.890685 0.789738 0.543883
0.764718 0.907437 0.766818
0.775941 0.907646 0.765913
0.813085 0.908611 0.760941
0.859338 0.906796 0.771035
0.896507 0.900827 0.814551
0.113540 0.117633 0.401722
0.223544 0.132340 0.410808
0.459890 0.167279 0.382566
0.656596 0.193707 0.389793
0.833052 0.265897 0.401685
0.156481 0.240298 0.452425
0.229891 0.247601 0.462415
0.513004 0.255808 0.441469
0.696242 0.235582 0.409984
0.858217 0.283245 0.398341
0.218180 0.541418 0.539550
0.300323 0.540205 0.536778
0.524350 0.544573 0.530529
0.752738 0.526657 0.495655
0.895863 0.488564 0.440819
0.439029 0.842431 0.649471
0.485433 0.841198 0.652120
0.634042 0.824956 0.637211
0.803799 0.816813 0.609461
0.900694 0.798463 0.622779
0.783727 0.905210 0.817078
0.792647 0.905398 0.816576
0.822761 0.906644 0.813320
0.863111 0.907745 0.806587
0.899006 0.902586 0.832114
0.171799 0.177315 0.614408
0.249587 0.192826 0.634481
0.530487 0.241353 0.665218
0.720414 0.285852 0.604740
0.866489 0.354729 0.628026
0.204782 0.258072 0.654631
0.250046 0.263902 0.665095
0.560783 0.310521 0.715746
0.746809 0.307290 0.626665
0.879169 0.385663 0.639875
0.283698 0.535248 0.727199
0.337711 0.542090 0.735262
0.545217 0.561708 0.753020
0.786663 0.545636 0.709423
0.906924 0.533855 0.680833
0.511775 0.816390 0.811236
0.533040 0.817689 0.812500
0.644496 0.817595 0.811745
0.811107 0.821073 0.806350
0.910365 0.792696 0.771550
0.804778 0.903723 0.861146
0.811954 0.904592 0.860832
0.835145 0.905125 0.863243
0.868163 0.906473 0.859211
0.903727 0.906093 0.858410
0.230832 0.245742 0.825048
0.304708 0.275191 0.837363
0.583895 0.382866 0.875106
0.760322 0.447711 0.831317
0.878188 0.561822 0.802216
0.283522 0.311530 0.847307
0.277553 0.292576 0.852560
0.568612 0.398286 0.892271
0.765806 0.473510 0.845195
0.882498 0.586251 0.813349
0.405836 0.558524 0.878550
0.436849 0.555353 0.885109
0.548429 0.560622 0.893052
0.793578 0.605871 0.880746
0.894855 0.677135 0.845004
0.641227 0.822188 0.887280
0.649621 0.822525 0.888506
0.699166 0.825049 0.893030
0.813206 0.821335 0.894913
0.906580 0.821484 0.874462
0.851172 0.901405 0.892071
0.853450 0.901748 0.892417
0.862505 0.903187 0.893889
0.878562 0.906101 0.896706
0.907483 0.908079 0.897859
