Zoran/FilmFeel 00.cube
TITLE "Generated by 3D LUT Creator Pro (c) Oleg Sharonov"
LUT_3D_SIZE 9
#IMAGEPROFILE sRGB IEC61966-2.1 v.2.10
#INPUTGAMMA sRGB IEC61966-2.1 v.2.10
#OUTPUTGAMMA sRGB IEC61966-2.1 v.2.10
0.007528 0.007243 0.006159
0.112345 0.017262 0.016645
0.232301 0.046997 0.044143
0.341071 0.084363 0.077798
0.436841 0.125963 0.114782
0.523973 0.172191 0.155960
0.603358 0.222444 0.199858
0.679227 0.273186 0.245593
0.757368 0.320655 0.293516
0.039599 0.090550 0.016738
0.148338 0.097132 0.017434
0.245496 0.110067 0.049245
0.345239 0.133254 0.078851
0.438190 0.168161 0.114944
0.524539 0.207851 0.155737
0.603676 0.251856 0.199678
0.679636 0.297059 0.245583
0.758110 0.340992 0.294103
0.109318 0.201680 0.044986
0.193950 0.209231 0.050287
0.291399 0.218151 0.044063
0.370678 0.231483 0.090391
0.451576 0.247787 0.122516
0.530674 0.275687 0.158895
0.605994 0.311115 0.200070
0.680656 0.348304 0.244925
0.759990 0.385735 0.295172
0.184056 0.321788 0.079012
0.234933 0.327148 0.081949
0.336770 0.340609 0.086578
0.413164 0.342477 0.076345
0.476889 0.355905 0.137401
0.547505 0.365609 0.171009
0.616693 0.383963 0.207719
0.687393 0.411021 0.249585
0.764493 0.443331 0.296622
0.250089 0.428810 0.115786
0.287970 0.432267 0.118965
0.363373 0.438408 0.128094
0.453418 0.456630 0.129313
0.517043 0.450969 0.111006
0.571116 0.460627 0.186377
0.632787 0.471687 0.221852
0.699127 0.485656 0.259215
0.774727 0.507843 0.303019
0.313887 0.524907 0.156154
0.340631 0.526835 0.158841
0.395649 0.531618 0.163617
0.475261 0.537016 0.179363
0.549245 0.560417 0.175881
0.607986 0.548163 0.147927
0.655315 0.555459 0.237384
0.714370 0.568828 0.278192
0.789319 0.580830 0.313338
0.372035 0.611163 0.198759
0.391616 0.612191 0.200980
0.434550 0.615273 0.206082
0.499331 0.618392 0.217948
0.572076 0.623952 0.235916
0.634649 0.648098 0.225911
0.693210 0.635072 0.182043
0.738141 0.640518 0.292498
0.807737 0.657454 0.337058
0.425015 0.689546 0.242597
0.439954 0.689797 0.244430
0.474408 0.691128 0.249252
0.526655 0.694172 0.258159
0.591672 0.695581 0.280224
0.656163 0.701266 0.311452
0.713716 0.723146 0.314190
0.780084 0.713373 0.252914
0.840829 0.721234 0.353287
0.474642 0.762995 0.288931
0.486710 0.763027 0.290722
0.514622 0.763256 0.294992
0.556871 0.764025 0.301670
0.613316 0.764996 0.318609
0.676091 0.766752 0.347515
0.737463 0.774688 0.389415
0.800159 0.793387 0.428509
0.871893 0.790301 0.341428
0.016353 0.019249 0.075016
0.129046 0.018451 0.083211
0.239364 0.047012 0.091869
0.343581 0.083664 0.108639
0.437576 0.125704 0.133727
0.524053 0.172669 0.164826
0.603387 0.223594 0.200152
0.679251 0.274256 0.245593
0.757415 0.321518 0.293516
0.025835 0.099346 0.080075
0.127342 0.105637 0.088982
0.249187 0.117308 0.098709
0.347698 0.136805 0.113051
0.439251 0.167966 0.136260
0.524984 0.208073 0.166863
0.603703 0.252873 0.201442
0.679633 0.298007 0.245582
0.758157 0.341783 0.294103
0.077354 0.207794 0.096953
0.171602 0.212592 0.102242
0.282152 0.223365 0.106461
0.371071 0.236151 0.128741
0.451433 0.251426 0.148619
0.530071 0.277060 0.173238
0.605883 0.312143 0.205451
0.680681 0.348960 0.244925
0.760013 0.386375 0.295173
0.167084 0.325172 0.119673
0.221448 0.329388 0.122760
0.325533 0.340575 0.130844
0.407856 0.345256 0.126938
0.475956 0.358247 0.168362
0.547343 0.367533 0.193766
0.616667 0.385345 0.219725
0.687410 0.411684 0.252652
0.764541 0.443772 0.296623
0.239187 0.431776 0.149809
0.278290 0.434125 0.152356
0.353741 0.440731 0.157044
0.449062 0.455865 0.166245
0.513862 0.452695 0.153327
0.570056 0.463022 0.211682
0.632709 0.472995 0.242733
0.699073 0.486334 0.270679
0.774821 0.508301 0.305278
0.306646 0.527222 0.184421
0.334295 0.529024 0.187098
0.390204 0.533080 0.190839
0.470479 0.538651 0.201562
0.547014 0.559492 0.206316
0.606162 0.549526 0.182519
0.655096 0.557354 0.258260
0.714350 0.569667 0.296300
0.789472 0.581462 0.325799
0.366845 0.613073 0.222068
0.387063 0.614052 0.224270
0.430727 0.616919 0.229206
0.494974 0.620018 0.238634
0.569720 0.625140 0.253280
0.632767 0.648155 0.251626
0.692019 0.636169 0.210887
0.738001 0.641906 0.310485
0.808003 0.658145 0.351964
0.420814 0.690965 0.263080
0.436149 0.691302 0.264976
0.471343 0.692710 0.269753
0.523207 0.696052 0.277344
0.589214 0.696871 0.298107
0.654975 0.702253 0.324830
0.713241 0.724271 0.325570
0.780583 0.714801 0.267355
0.840819 0.722303 0.368148
0.471179 0.764351 0.307061
0.483474 0.764407 0.308763
0.511861 0.764611 0.312816
0.554763 0.765378 0.319361
0.611198 0.766562 0.334629
0.674706 0.767986 0.362395
0.736841 0.775260 0.403041
0.799350 0.794249 0.440811
0.871886 0.791382 0.358121
0.045805 0.053392 0.154193
0.143115 0.053679 0.165913
0.255958 0.052506 0.178380
0.352877 0.083659 0.186212
0.444315 0.125183 0.203189
0.527133 0.169696 0.223769
0.604518 0.219611 0.251394
0.680078 0.271054 0.285006
0.758804 0.320162 0.321615
0.051651 0.112801 0.162753
0.128397 0.111820 0.171573
0.256724 0.118237 0.182762
0.357790 0.137144 0.191646
0.446834 0.169480 0.206761
0.528408 0.205922 0.225915
0.605454 0.249540 0.253153
0.680534 0.294892 0.286191
0.759594 0.340424 0.323323
0.079119 0.212155 0.168004
0.151430 0.222863 0.177745
0.255355 0.230642 0.191591
0.365912 0.244092 0.203033
0.456216 0.261149 0.216309
0.533215 0.282754 0.233249
0.607644 0.310902 0.256926
0.681853 0.346217 0.289033
0.761276 0.384433 0.326510
0.102935 0.340777 0.199015
0.183466 0.339135 0.198024
0.292134 0.340973 0.207259
0.395966 0.352635 0.213417
0.473660 0.363141 0.232304
0.549135 0.374632 0.250407
0.616796 0.390689 0.270530
0.686859 0.414294 0.296428
0.764421 0.445787 0.330525
0.203867 0.435621 0.215238
0.249501 0.437629 0.218378
0.332484 0.443392 0.224506
0.433946 0.454156 0.238480
0.506152 0.457460 0.232510
0.567059 0.468858 0.268077
0.633571 0.477193 0.292803
0.699102 0.489455 0.315284
0.774994 0.510146 0.343484
0.284514 0.531732 0.242996
0.315122 0.532916 0.245316
0.376026 0.536431 0.249571
0.456468 0.542630 0.255782
0.542087 0.557179 0.270458
0.601202 0.552934 0.254009
0.653382 0.561685 0.309057
0.714342 0.571822 0.338393
0.790007 0.583348 0.362859
0.352077 0.617623 0.275580
0.373896 0.618429 0.277662
0.419728 0.620232 0.281824
0.483038 0.624661 0.285776
0.562991 0.628531 0.296190
0.628489 0.648208 0.309176
0.688959 0.638808 0.274730
0.737635 0.645369 0.352327
0.808711 0.659801 0.387424
0.409848 0.695009 0.311550
0.426111 0.695426 0.313449
0.462943 0.696659 0.317877
0.516372 0.699116 0.323894
0.582548 0.700528 0.338932
0.651696 0.704958 0.357103
0.712032 0.727015 0.353574
0.781841 0.718390 0.302450
0.840847 0.725145 0.403666
0.461952 0.767937 0.348855
0.474767 0.767968 0.350450
0.504447 0.768122 0.354022
0.549218 0.769070 0.360394
0.605471 0.770769 0.372031
0.670943 0.771278 0.397225
0.735023 0.777023 0.433880
0.797377 0.796488 0.469941
0.871871 0.794165 0.397650
0.086530 0.091001 0.242243
0.161168 0.095282 0.252584
0.269542 0.095840 0.271237
0.371233 0.094102 0.288947
0.451491 0.124045 0.291794
0.536728 0.169753 0.314980
0.609914 0.215952 0.333069
0.682899 0.264322 0.357153
0.762409 0.313139 0.387515
0.093707 0.139880 0.253297
0.144886 0.130989 0.259606
0.269565 0.141619 0.280652
0.372770 0.140604 0.293171
0.454917 0.166698 0.298722
0.537937 0.207641 0.317686
0.611113 0.247366 0.335608
0.683706 0.289226 0.358874
0.763030 0.333630 0.388665
0.105772 0.226014 0.262955
0.145314 0.218151 0.266982
0.254190 0.235315 0.284428
0.372087 0.244533 0.299693
0.460058 0.258938 0.309495
0.542106 0.284837 0.324715
0.614197 0.312336 0.341537
0.685645 0.342427 0.362401
0.764640 0.378629 0.391230
0.146441 0.333988 0.270970
0.172331 0.328309 0.269493
0.275417 0.354066 0.295035
0.370844 0.359269 0.311211
0.466243 0.371418 0.324529
0.551751 0.383098 0.337729
0.620500 0.397733 0.351630
0.689367 0.415394 0.368366
0.767595 0.441999 0.394596
0.182038 0.444816 0.299079
0.205175 0.447276 0.303168
0.290880 0.457436 0.317420
0.400807 0.455468 0.328649
0.493476 0.465994 0.335922
0.562744 0.475095 0.354008
0.634917 0.484575 0.369147
0.699562 0.495423 0.383798
0.775769 0.513701 0.403423
0.247504 0.541310 0.329773
0.278571 0.541118 0.331430
0.344925 0.541311 0.336667
0.432459 0.546319 0.345876
0.527510 0.555736 0.361946
0.592894 0.559307 0.353478
0.650113 0.568973 0.383810
0.715459 0.576501 0.404525
0.791107 0.586377 0.420942
0.317696 0.624210 0.354264
0.343622 0.624690 0.356212
0.396990 0.626137 0.360485
0.466845 0.629769 0.365442
0.547325 0.633340 0.375376
0.623017 0.646710 0.390785
0.683157 0.643617 0.368100
0.736920 0.651466 0.417582
0.810026 0.662860 0.443688
0.386803 0.702189 0.383322
0.404981 0.702475 0.385045
0.445267 0.703103 0.388660
0.502927 0.704760 0.393691
0.569021 0.708202 0.399071
0.644589 0.710359 0.411035
0.706990 0.729146 0.422630
0.780048 0.723440 0.377084
0.840868 0.730228 0.460009
0.443189 0.774719 0.413272
0.457319 0.774747 0.414610
0.489910 0.774965 0.418015
0.538209 0.775759 0.423757
0.595723 0.777911 0.431573
0.663218 0.777624 0.450207
0.731296 0.780920 0.481900
0.794315 0.800425 0.515337
0.871855 0.799195 0.458770
0.133402 0.132596 0.342046
0.184028 0.136324 0.347545
0.281671 0.141322 0.373391
0.383466 0.142411 0.390898
0.471113 0.140697 0.410163
0.545273 0.157949 0.417961
0.618688 0.213849 0.432360
0.690283 0.257399 0.448542
0.767735 0.299415 0.467413
0.139908 0.172793 0.351842
0.179923 0.169282 0.354720
0.277149 0.173280 0.381713
0.385634 0.178671 0.397985
0.472432 0.177028 0.413458
0.546229 0.195613 0.419169
0.620099 0.245186 0.434743
0.691116 0.283995 0.450299
0.768405 0.321047 0.468516
0.154294 0.253445 0.366427
0.182050 0.246639 0.370319
0.252617 0.240735 0.384096
0.383706 0.264448 0.406905
0.473000 0.263698 0.419112
0.549496 0.278585 0.421719
0.622683 0.310830 0.439920
0.693201 0.340185 0.454735
0.770433 0.369236 0.471540
0.171237 0.346995 0.377254
0.190651 0.340970 0.379066
0.261372 0.347323 0.395975
0.368046 0.361302 0.410784
0.472234 0.370596 0.427301
0.551456 0.380345 0.435960
0.627955 0.397344 0.449562
0.696967 0.416168 0.461907
0.774208 0.436283 0.476250
0.208150 0.445964 0.387950
0.225344 0.442512 0.387159
0.285558 0.448798 0.397170
0.385880 0.468177 0.421756
0.471067 0.473510 0.439246
0.557267 0.483825 0.451652
0.635981 0.491917 0.461884
0.703467 0.502186 0.471501
0.779770 0.513392 0.480989
0.247848 0.544935 0.411145
0.264627 0.545013 0.412217
0.302698 0.547955 0.417449
0.393486 0.564559 0.444932
0.496920 0.559774 0.454923
0.581090 0.568621 0.460812
0.645050 0.576600 0.475997
0.717090 0.583582 0.486551
0.793072 0.591482 0.494848
0.279013 0.639397 0.453002
0.306808 0.639351 0.453084
0.362577 0.638818 0.454788
0.436073 0.636567 0.460600
0.523453 0.640067 0.469226
0.610549 0.646793 0.483387
0.674767 0.651084 0.472619
0.733842 0.659963 0.498921
0.812165 0.667493 0.514247
0.348588 0.712125 0.469885
0.366843 0.712339 0.471133
0.410167 0.712657 0.474111
0.477985 0.713474 0.479056
0.551497 0.716256 0.483393
0.629306 0.718083 0.492531
0.701608 0.730653 0.505319
0.774218 0.729997 0.477532
0.840751 0.737858 0.530140
0.407249 0.786138 0.492291
0.424223 0.786093 0.493454
0.462453 0.786049 0.496217
0.517817 0.786274 0.500914
0.581200 0.787280 0.506735
0.649331 0.789132 0.514887
0.724489 0.788738 0.540611
0.791051 0.806389 0.571047
0.871868 0.806945 0.533367
0.177631 0.178753 0.445841
0.206676 0.177175 0.445850
0.297512 0.192740 0.469171
0.392226 0.193738 0.491015
0.481724 0.194175 0.508261
0.561411 0.192510 0.526586
0.629918 0.201737 0.536941
0.696994 0.249260 0.541994
0.778709 0.281316 0.556501
0.182036 0.212518 0.453750
0.212782 0.211545 0.455059
0.290441 0.216551 0.473535
0.391281 0.220411 0.496946
0.483038 0.223728 0.512297
0.562266 0.222677 0.528774
0.631134 0.231103 0.538576
0.698239 0.276271 0.544090
0.779480 0.305347 0.557749
0.191328 0.284197 0.470084
0.217690 0.280417 0.472345
0.271670 0.268610 0.482267
0.388946 0.287365 0.508427
0.486279 0.287579 0.523218
0.564303 0.285688 0.534237
0.632576 0.297467 0.540998
0.701175 0.333341 0.548874
0.781445 0.357472 0.560668
0.208524 0.369941 0.482515
0.227839 0.365540 0.484481
0.271964 0.355507 0.492281
0.367954 0.367372 0.510711
0.482953 0.385272 0.529032
0.564083 0.382956 0.540228
0.634128 0.386092 0.543090
0.705693 0.410917 0.555622
0.784976 0.428713 0.565286
0.232325 0.459267 0.493843
0.247035 0.455496 0.494596
0.280242 0.447211 0.498968
0.385095 0.475741 0.528934
0.467158 0.473640 0.533360
0.563171 0.482004 0.548540
0.635873 0.487982 0.555081
0.711250 0.499546 0.564821
0.790485 0.510965 0.571773
0.271330 0.551569 0.506225
0.284611 0.549690 0.506039
0.313139 0.544897 0.505612
0.395246 0.561282 0.525153
0.482996 0.572934 0.543591
0.561651 0.577151 0.559106
0.640776 0.584845 0.568200
0.719238 0.590107 0.574899
0.798232 0.596209 0.578998
0.311418 0.640197 0.526549
0.324125 0.640213 0.527005
0.352610 0.639791 0.527184
0.398062 0.643411 0.533759
0.483203 0.661617 0.564788
0.583510 0.654203 0.570949
0.663538 0.661233 0.574146
0.730513 0.668718 0.585770
0.815330 0.673846 0.592324
0.316000 0.723294 0.569787
0.328330 0.724707 0.571708
0.367201 0.730796 0.571526
0.443261 0.729648 0.570267
0.520646 0.726789 0.574777
0.606089 0.728699 0.581108
0.691929 0.733273 0.591962
0.765538 0.739121 0.579142
0.840124 0.748244 0.607276
0.370930 0.798736 0.577074
0.387768 0.799234 0.577922
0.424936 0.800345 0.579993
0.478840 0.801856 0.583495
0.554630 0.801867 0.588318
0.630962 0.803079 0.593557
0.711487 0.803511 0.603916
0.790855 0.814828 0.625565
0.871940 0.817881 0.612790
0.215279 0.227128 0.546412
0.240359 0.225636 0.546992
0.314282 0.238058 0.560680
0.405082 0.248083 0.582446
0.491092 0.248332 0.597708
0.570535 0.248467 0.613118
0.642344 0.248641 0.628706
0.707881 0.258214 0.638328
0.786780 0.255515 0.638653
0.218946 0.255097 0.552282
0.244883 0.254111 0.553367
0.309816 0.260593 0.561806
0.403355 0.268418 0.587232
0.490779 0.270981 0.601032
0.571295 0.272195 0.615580
0.643647 0.271448 0.631017
0.709337 0.279004 0.639961
0.787998 0.281616 0.640583
0.226509 0.314863 0.565171
0.252965 0.314363 0.566524
0.301834 0.307728 0.571204
0.392784 0.312987 0.595022
0.489936 0.321929 0.609651
0.573211 0.323285 0.621920
0.645885 0.322231 0.635553
0.712834 0.325666 0.643855
0.791118 0.337995 0.645022
0.245081 0.395123 0.578682
0.265665 0.393790 0.581230
0.302474 0.384682 0.587724
0.370602 0.376967 0.599652
0.486816 0.398689 0.621955
0.575727 0.398359 0.632492
0.648442 0.394013 0.642136
0.717249 0.396778 0.648787
0.796729 0.415346 0.651950
0.264763 0.479442 0.591726
0.279412 0.476597 0.592963
0.312246 0.469630 0.596875
0.363851 0.458784 0.607945
0.467198 0.479399 0.625296
0.572655 0.492707 0.638758
0.648512 0.487589 0.648571
0.720920 0.484074 0.652293
0.805136 0.503843 0.660957
0.298623 0.566551 0.603063
0.309466 0.564504 0.603743
0.334130 0.559230 0.605911
0.372037 0.550537 0.612733
0.484279 0.583470 0.641980
0.556889 0.575953 0.644030
0.647504 0.581970 0.656451
0.722711 0.584264 0.661662
0.811991 0.592905 0.668658
0.338528 0.651299 0.616343
0.348247 0.650378 0.616627
0.370574 0.648189 0.617359
0.403705 0.644303 0.618834
0.482112 0.656281 0.634642
0.569696 0.667769 0.652019
0.645606 0.671139 0.666137
0.727543 0.676559 0.672747
0.821169 0.680580 0.676574
0.374148 0.731154 0.633816
0.386740 0.731824 0.635263
0.408292 0.732227 0.636473
0.443106 0.733583 0.638847
0.487789 0.737045 0.643592
0.564922 0.750826 0.670396
0.666402 0.745100 0.675719
0.753811 0.751085 0.676481
0.841191 0.758862 0.688969
0.362379 0.808543 0.659495
0.375103 0.809471 0.661603
0.403849 0.811777 0.667330
0.447608 0.816413 0.677878
0.522799 0.822513 0.675898
0.598687 0.823088 0.678806
0.688112 0.823894 0.683049
0.786552 0.824866 0.694004
0.872065 0.832716 0.695684
0.249233 0.272205 0.638483
0.271152 0.270987 0.639891
0.330375 0.277279 0.647396
0.415689 0.291534 0.664119
0.500158 0.300049 0.679555
0.580687 0.298581 0.693976
0.651660 0.298076 0.708208
0.721281 0.290145 0.721890
0.801027 0.254949 0.733984
0.252371 0.295320 0.643109
0.274570 0.294372 0.644574
0.324866 0.294409 0.648093
0.413534 0.310967 0.665641
0.499715 0.318743 0.682324
0.580568 0.317520 0.696090
0.652262 0.317320 0.709967
0.722064 0.313337 0.723293
0.802006 0.281120 0.735004
0.258509 0.346461 0.653558
0.280776 0.345692 0.654609
0.326917 0.343158 0.657008
0.405305 0.350620 0.669952
0.497347 0.357194 0.690493
0.580001 0.359820 0.701621
0.653766 0.360602 0.714407
0.724196 0.362301 0.727060
0.804552 0.336466 0.737614
0.268670 0.417940 0.667194
0.289083 0.417853 0.669599
0.335561 0.416639 0.672643
0.389267 0.404300 0.680727
0.487084 0.412714 0.702912
0.578576 0.421085 0.712203
0.656075 0.422816 0.722129
0.728589 0.423507 0.734106
0.809000 0.411024 0.742009
0.291810 0.498714 0.678340
0.310597 0.499179 0.680539
0.347632 0.497677 0.685622
0.390780 0.486582 0.694991
0.460777 0.478606 0.708817
0.574690 0.499603 0.726092
0.659027 0.498478 0.734043
0.734187 0.497872 0.743699
0.815536 0.494166 0.747873
0.317511 0.583138 0.692066
0.334441 0.583896 0.694207
0.362116 0.580495 0.697601
0.400575 0.572736 0.704005
0.453798 0.562060 0.717380
0.552712 0.576652 0.732360
0.656912 0.588840 0.743291
0.738067 0.580049 0.753342
0.825919 0.575888 0.754308
0.351187 0.663340 0.702301
0.366850 0.664252 0.704273
0.398921 0.665625 0.708686
0.428492 0.661124 0.713316
0.467555 0.653911 0.722443
0.554703 0.666372 0.743068
0.640285 0.669481 0.751658
0.737362 0.672604 0.761646
0.835502 0.671535 0.764373
0.374915 0.740746 0.713868
0.389577 0.741668 0.715584
0.423301 0.743974 0.719838
0.470759 0.747089 0.726479
0.507309 0.746221 0.731217
0.550422 0.744718 0.737570
0.651342 0.761294 0.758274
0.734606 0.763288 0.770926
0.844585 0.766358 0.774530
0.383390 0.820717 0.727427
0.396944 0.821611 0.728865
0.428482 0.823864 0.732393
0.476564 0.827723 0.738556
0.535222 0.833153 0.747433
0.594263 0.840214 0.758717
0.649141 0.852711 0.775678
0.757518 0.848708 0.777455
0.872260 0.855331 0.784744
0.272843 0.308113 0.727312
0.292268 0.306303 0.728532
0.340029 0.306219 0.732881
0.422071 0.318344 0.746164
0.507757 0.327228 0.760726
0.585210 0.325450 0.773071
0.661657 0.316794 0.786676
0.734865 0.286459 0.801721
0.824852 0.121089 0.817568
0.274855 0.328143 0.730820
0.294478 0.326716 0.732112
0.334452 0.321286 0.734608
0.419410 0.335021 0.747705
0.507381 0.345748 0.762636
0.585095 0.344560 0.774741
0.662102 0.337421 0.788068
0.735427 0.309999 0.802992
0.825738 0.172120 0.818718
0.278822 0.373276 0.739041
0.298816 0.372209 0.740414
0.341181 0.369088 0.743606
0.410815 0.371326 0.750936
0.503113 0.384625 0.766245
0.584651 0.387026 0.778870
0.663207 0.382790 0.791652
0.736770 0.361273 0.806232
0.827932 0.268379 0.821622
0.283909 0.438742 0.752035
0.304230 0.438140 0.753330
0.347601 0.436192 0.756406
0.405344 0.430518 0.760334
0.493191 0.439399 0.772082
0.583438 0.449075 0.786383
0.663702 0.447208 0.798011
0.739083 0.432273 0.811912
0.831761 0.377419 0.826817
0.298911 0.514937 0.762894
0.316710 0.514984 0.764908
0.355927 0.514803 0.769783
0.412223 0.512619 0.776436
0.475156 0.501422 0.784307
0.574223 0.511038 0.801337
0.662004 0.517824 0.808987
0.742222 0.514257 0.820196
0.837059 0.482777 0.834403
0.317525 0.594859 0.774366
0.334231 0.595006 0.775992
0.371627 0.595506 0.780237
0.424881 0.596014 0.787773
0.481643 0.590638 0.799676
0.545878 0.575307 0.816429
0.656279 0.591120 0.826928
0.745484 0.596850 0.831700
0.843799 0.578017 0.844669
0.335917 0.674401 0.786477
0.351616 0.674812 0.788040
0.386736 0.675698 0.792017
0.438506 0.677715 0.799622
0.501527 0.679392 0.809563
0.553710 0.670334 0.824715
0.627250 0.660950 0.844875
0.746106 0.677157 0.848254
0.851136 0.670226 0.857356
0.342569 0.751232 0.793697
0.358925 0.751906 0.795341
0.395389 0.753566 0.799470
0.448714 0.756267 0.806668
0.512713 0.759865 0.817139
0.581318 0.764109 0.831158
0.634218 0.759032 0.850223
0.722009 0.755838 0.869941
0.859701 0.768681 0.874141
0.315433 0.836882 0.800318
0.335088 0.837769 0.801810
0.377627 0.839952 0.805495
0.436238 0.843561 0.811822
0.505381 0.848755 0.821048
0.578494 0.855336 0.833224
0.654871 0.863050 0.848750
0.746910 0.872460 0.869601
0.872513 0.886401 0.897011
