Zoran/FilmFeel 01.cube
TITLE "Generated by 3D LUT Creator Pro (c) Oleg Sharonov"
LUT_3D_SIZE 25
#IMAGEPROFILE ProPhoto RGB v.2.10
#INPUTGAMMA ProPhoto RGB v.2.10
#OUTPUTGAMMA ProPhoto RGB v.2.10
0.044965 0.045768 0.046028
0.059314 0.046095 0.046336
0.075049 0.046679 0.047079
0.092670 0.048282 0.047883
0.111966 0.050800 0.049120
0.132952 0.054187 0.050780
0.154242 0.058522 0.053300
0.174878 0.063635 0.058119
0.195156 0.069602 0.063447
0.218974 0.075782 0.069651
0.250299 0.082211 0.075949
0.285539 0.089397 0.082474
0.322655 0.097091 0.088982
0.362350 0.106219 0.095909
0.404123 0.115389 0.103040
0.445484 0.125643 0.110601
0.486845 0.135814 0.118349
0.523286 0.146028 0.126880
0.558059 0.156599 0.136164
0.590263 0.165074 0.145811
0.627306 0.173705 0.155996
0.665612 0.183466 0.166707
0.702802 0.193357 0.177646
0.737915 0.203232 0.188707
0.775909 0.213693 0.200349
0.058586 0.069611 0.061766
0.066108 0.070003 0.055960
0.079314 0.067166 0.049340
0.095924 0.067411 0.049713
0.114605 0.068638 0.050937
0.135041 0.070247 0.052591
0.156335 0.073792 0.056012
0.176473 0.078440 0.060420
0.196670 0.083152 0.066232
0.220498 0.088466 0.072252
0.251912 0.094026 0.078274
0.286927 0.099998 0.084522
0.323785 0.106747 0.090556
0.363481 0.114846 0.097418
0.404974 0.123112 0.104198
0.446662 0.133011 0.111745
0.488019 0.142945 0.119464
0.524479 0.153073 0.127968
0.559140 0.163235 0.137219
0.591163 0.171501 0.147005
0.628149 0.179700 0.156882
0.666245 0.188728 0.167662
0.703382 0.198100 0.178645
0.738468 0.207592 0.189587
0.776394 0.217919 0.201149
0.072773 0.096778 0.077587
0.077627 0.096006 0.075495
0.090769 0.095334 0.066739
0.104989 0.091690 0.053299
0.123652 0.089999 0.054102
0.143352 0.090019 0.056636
0.163377 0.091433 0.060119
0.181904 0.093517 0.064572
0.201593 0.097144 0.070336
0.225918 0.101434 0.075873
0.257588 0.106695 0.081505
0.292098 0.111880 0.087117
0.328957 0.118391 0.093284
0.368745 0.126345 0.100009
0.409979 0.134396 0.106667
0.451032 0.143263 0.113862
0.492025 0.152287 0.121533
0.527824 0.161157 0.129741
0.562203 0.171220 0.138943
0.593937 0.178642 0.148564
0.630764 0.186329 0.158496
0.668534 0.194742 0.169114
0.705570 0.203724 0.180081
0.740422 0.212841 0.190856
0.778202 0.222946 0.202435
0.087423 0.127282 0.091464
0.091258 0.126507 0.090210
0.103113 0.125489 0.086697
0.119686 0.124543 0.077188
0.135578 0.120531 0.061725
0.155315 0.117908 0.063885
0.173858 0.117154 0.067493
0.191546 0.117419 0.071407
0.211465 0.118358 0.076112
0.236634 0.120238 0.081022
0.268124 0.124070 0.086475
0.302051 0.128754 0.091681
0.338829 0.135184 0.097650
0.378744 0.143057 0.103917
0.419154 0.150571 0.110428
0.459946 0.159153 0.117734
0.500253 0.167502 0.125328
0.535235 0.175402 0.133467
0.568475 0.183418 0.142457
0.599124 0.188670 0.151340
0.635753 0.195567 0.161218
0.673180 0.203189 0.171730
0.709717 0.211739 0.182394
0.744308 0.220605 0.193180
0.781974 0.230479 0.204705
0.102764 0.165938 0.104456
0.105982 0.165500 0.103856
0.116818 0.163928 0.101440
0.133168 0.161882 0.096282
0.151800 0.159552 0.086968
0.167356 0.155852 0.075177
0.184865 0.152378 0.077094
0.203602 0.150200 0.080361
0.225414 0.149202 0.084360
0.253266 0.149487 0.088303
0.284721 0.150903 0.092583
0.317026 0.152883 0.097680
0.353229 0.157601 0.103486
0.393042 0.164627 0.109729
0.433353 0.171983 0.116214
0.474383 0.179765 0.123464
0.513281 0.187293 0.130920
0.547260 0.194220 0.139180
0.578224 0.200061 0.147679
0.607879 0.203985 0.156279
0.643994 0.208825 0.165549
0.680267 0.214353 0.175427
0.716036 0.222399 0.185782
0.750404 0.231162 0.196513
0.787641 0.240938 0.208048
0.116611 0.206194 0.114953
0.119516 0.205816 0.114765
0.130321 0.203923 0.113522
0.146763 0.200545 0.110632
0.164128 0.198035 0.104341
0.180604 0.194668 0.095655
0.194988 0.191442 0.088444
0.214840 0.187470 0.090583
0.241495 0.185059 0.093479
0.271622 0.183717 0.097120
0.302850 0.183290 0.100961
0.339063 0.185823 0.105862
0.375717 0.188816 0.111395
0.415060 0.192991 0.117482
0.454234 0.197978 0.124496
0.494722 0.204524 0.131340
0.530115 0.209985 0.138631
0.562521 0.215781 0.146595
0.590670 0.219111 0.154570
0.619652 0.221912 0.162903
0.655314 0.226312 0.171812
0.690721 0.231543 0.181205
0.724923 0.237563 0.190721
0.759220 0.244882 0.201048
0.794995 0.254697 0.212523
0.129150 0.250255 0.125680
0.132174 0.249628 0.125277
0.143121 0.247333 0.124088
0.158982 0.243511 0.122059
0.176139 0.238734 0.118305
0.191719 0.234740 0.112270
0.209055 0.230113 0.106718
0.228042 0.226762 0.102418
0.256829 0.222278 0.104036
0.289399 0.219309 0.107117
0.323741 0.218109 0.111061
0.362010 0.220461 0.116477
0.401135 0.223022 0.121556
0.441895 0.227000 0.127616
0.482432 0.231318 0.134428
0.518124 0.233805 0.141130
0.549807 0.236127 0.148461
0.580421 0.240352 0.156013
0.605855 0.241781 0.163294
0.634292 0.243849 0.170947
0.669446 0.248154 0.179504
0.703704 0.253212 0.188224
0.736309 0.258865 0.197583
0.770901 0.265642 0.207562
0.804133 0.273210 0.218607
0.141893 0.306474 0.135598
0.144105 0.306116 0.135619
0.153704 0.303721 0.135073
0.169600 0.299099 0.132846
0.186440 0.292714 0.129948
0.203684 0.285650 0.126124
0.222201 0.280122 0.122080
0.248650 0.274062 0.120707
0.274120 0.270270 0.117268
0.306411 0.264123 0.118808
0.347753 0.263914 0.123785
0.388798 0.264267 0.129024
0.431991 0.267145 0.135211
0.472189 0.269421 0.141186
0.512996 0.272416 0.147481
0.545611 0.272614 0.153306
0.575340 0.273576 0.160028
0.599225 0.272527 0.166573
0.622940 0.271007 0.173330
0.651799 0.271754 0.180546
0.685394 0.275758 0.188276
0.718414 0.280857 0.196774
0.750034 0.286315 0.205804
0.785031 0.293253 0.215999
0.815212 0.300656 0.227190
0.154953 0.367851 0.145192
0.157229 0.367386 0.145213
0.164948 0.365865 0.145274
0.178631 0.361696 0.144372
0.195628 0.354845 0.141425
0.215004 0.346523 0.138420
0.238970 0.337934 0.137299
0.266541 0.332427 0.137150
0.298129 0.325426 0.136764
0.325295 0.321693 0.137292
0.371263 0.321800 0.138865
0.417184 0.322239 0.144692
0.464741 0.324739 0.151020
0.510226 0.327539 0.157970
0.544689 0.325791 0.163223
0.574755 0.323606 0.168271
0.601070 0.321584 0.173585
0.620886 0.317138 0.178559
0.643354 0.313673 0.184465
0.673340 0.312690 0.191160
0.704037 0.312641 0.198579
0.734944 0.315285 0.206934
0.766780 0.320280 0.215998
0.800184 0.325949 0.226179
0.826597 0.332465 0.237796
0.166003 0.433564 0.155539
0.167946 0.433127 0.155551
0.175301 0.431297 0.155409
0.186919 0.427756 0.155304
0.203981 0.420874 0.153564
0.226286 0.411656 0.151652
0.255321 0.402084 0.152086
0.287635 0.392600 0.153471
0.316772 0.386705 0.153927
0.350790 0.379438 0.154674
0.379150 0.375932 0.157072
0.426657 0.375821 0.158232
0.474045 0.376821 0.164376
0.523934 0.380331 0.171388
0.567796 0.383151 0.178121
0.596870 0.379630 0.183496
0.619067 0.374039 0.187721
0.639520 0.367961 0.191863
0.663801 0.363073 0.196643
0.694491 0.360657 0.202873
0.723667 0.359280 0.210201
0.752310 0.358962 0.218545
0.784016 0.359695 0.227770
0.812984 0.362168 0.238405
0.836657 0.367839 0.251053
0.175867 0.496253 0.166057
0.177635 0.495911 0.166070
0.184139 0.494339 0.166122
0.195441 0.491099 0.166369
0.211889 0.485297 0.167313
0.237326 0.476395 0.167263
0.270378 0.465939 0.167147
0.304284 0.457267 0.168553
0.337651 0.448714 0.170621
0.368663 0.442885 0.171456
0.405402 0.435687 0.173253
0.433413 0.432605 0.176807
0.479196 0.431791 0.177547
0.524778 0.432571 0.183246
0.569725 0.435488 0.190242
0.609373 0.438053 0.196820
0.631119 0.429840 0.200968
0.653977 0.422959 0.205411
0.682420 0.417343 0.210546
0.712810 0.413324 0.216618
0.741925 0.410336 0.223826
0.770932 0.408502 0.232135
0.801314 0.407537 0.241955
0.825901 0.407815 0.253669
0.846402 0.409608 0.267693
0.186019 0.555900 0.178965
0.187605 0.555560 0.179123
0.193819 0.554017 0.179751
0.205160 0.550980 0.180699
0.222049 0.546178 0.181950
0.248995 0.539512 0.182786
0.283226 0.529488 0.182914
0.319924 0.519689 0.183396
0.355530 0.510319 0.185337
0.389880 0.502315 0.188019
0.421921 0.496248 0.189120
0.458144 0.489013 0.191546
0.486901 0.486672 0.195866
0.526654 0.485609 0.196305
0.566622 0.486099 0.201452
0.601566 0.486939 0.207558
0.637993 0.488920 0.214132
0.665706 0.481858 0.219024
0.692059 0.473740 0.224772
0.720841 0.468305 0.231350
0.751046 0.463962 0.238978
0.782929 0.460570 0.247994
0.811097 0.458667 0.259048
0.833869 0.458085 0.272340
0.852549 0.458813 0.287522
0.197395 0.609242 0.193674
0.198798 0.608846 0.193680
0.204898 0.607573 0.194336
0.216397 0.604866 0.195256
0.235136 0.600708 0.196579
0.261764 0.595301 0.198159
0.296317 0.587542 0.198647
0.334300 0.577960 0.199204
0.372163 0.569980 0.200571
0.409227 0.561036 0.202832
0.441685 0.553989 0.206039
0.474019 0.548321 0.207501
0.510736 0.541274 0.210780
0.536106 0.538880 0.216104
0.568342 0.536108 0.215867
0.602413 0.534556 0.220510
0.638069 0.535250 0.227331
0.674258 0.536356 0.234650
0.703628 0.529934 0.240993
0.732450 0.522902 0.248785
0.763262 0.517387 0.258317
0.794735 0.512784 0.268924
0.820608 0.509608 0.281164
0.841738 0.508060 0.295349
0.859072 0.507724 0.311085
0.211595 0.663522 0.209696
0.213134 0.663185 0.209817
0.219422 0.661830 0.210419
0.232093 0.659177 0.211376
0.252387 0.654893 0.212646
0.279030 0.649237 0.214403
0.310964 0.642435 0.215877
0.348932 0.633526 0.216726
0.388438 0.622932 0.217756
0.426095 0.616128 0.219831
0.461922 0.607519 0.222767
0.494536 0.601313 0.226619
0.525673 0.595729 0.228755
0.558856 0.589967 0.233244
0.583028 0.589726 0.240460
0.612924 0.586492 0.240007
0.646673 0.583450 0.245152
0.678995 0.582304 0.253200
0.713427 0.582433 0.262042
0.745400 0.576498 0.271049
0.778005 0.570213 0.281595
0.806509 0.565696 0.294013
0.829764 0.562014 0.307631
0.849376 0.559239 0.322115
0.865827 0.557776 0.338294
0.229366 0.715405 0.228140
0.231280 0.715215 0.228257
0.238990 0.714365 0.228923
0.252873 0.712028 0.229916
0.273399 0.708186 0.231344
0.298997 0.703094 0.233295
0.328702 0.696881 0.235617
0.364770 0.690071 0.237106
0.404286 0.680134 0.238476
0.442343 0.669203 0.239908
0.479211 0.663382 0.243275
0.514590 0.654493 0.247229
0.542760 0.648390 0.252694
0.570673 0.642707 0.255908
0.604176 0.638119 0.262963
0.630010 0.637603 0.272187
0.659141 0.633238 0.271964
0.691976 0.630121 0.278773
0.724079 0.625505 0.287515
0.756486 0.620162 0.297542
0.790141 0.614696 0.308590
0.816586 0.610479 0.321505
0.838101 0.606913 0.335938
0.855786 0.603856 0.351504
0.871086 0.602038 0.368310
0.253023 0.765178 0.251666
0.254886 0.764967 0.251785
0.262574 0.764046 0.252502
0.277377 0.762261 0.253817
0.296799 0.758724 0.255616
0.321212 0.753870 0.257669
0.349516 0.748326 0.260381
0.382313 0.741838 0.263463
0.420846 0.734018 0.265460
0.458417 0.723677 0.267420
0.496181 0.714688 0.269871
0.530102 0.708643 0.274726
0.561012 0.700167 0.279823
0.586674 0.694876 0.286813
0.615805 0.689657 0.291565
0.649827 0.683101 0.299875
0.673767 0.681471 0.310330
0.703772 0.677824 0.312180
0.735580 0.672250 0.317731
0.769409 0.666093 0.327550
0.799705 0.661337 0.339589
0.824749 0.656676 0.352758
0.844941 0.652395 0.367438
0.861799 0.649422 0.383917
0.875926 0.647581 0.402252
0.281873 0.815317 0.281938
0.283206 0.815257 0.282177
0.290244 0.814523 0.283015
0.303579 0.813020 0.284553
0.323244 0.810336 0.286431
0.346113 0.806077 0.288608
0.373445 0.801097 0.291553
0.404689 0.795321 0.295218
0.439358 0.788028 0.298611
0.476835 0.778207 0.300970
0.513836 0.767253 0.303527
0.546525 0.759152 0.307762
0.577034 0.752269 0.313550
0.607753 0.743965 0.319619
0.634796 0.739264 0.327685
0.663514 0.734114 0.333688
0.696580 0.727343 0.343294
0.720705 0.725923 0.354385
0.750395 0.720702 0.357346
0.782596 0.714160 0.362658
0.809764 0.708565 0.374556
0.832136 0.703593 0.388411
0.850695 0.699231 0.403900
0.866059 0.695497 0.420536
0.879031 0.692820 0.438469
0.318164 0.850098 0.317294
0.319095 0.850097 0.317610
0.323204 0.850015 0.318977
0.334537 0.848917 0.320564
0.352449 0.846909 0.322592
0.375614 0.844019 0.325075
0.401895 0.840561 0.328133
0.430630 0.836622 0.331934
0.461649 0.831863 0.336405
0.497144 0.825777 0.339564
0.531290 0.818288 0.342670
0.563618 0.809892 0.346159
0.594327 0.803892 0.351795
0.626117 0.797593 0.358326
0.656599 0.789659 0.365217
0.682302 0.784994 0.374446
0.711445 0.780136 0.381448
0.744809 0.772513 0.393010
0.770686 0.771084 0.405659
0.797549 0.765559 0.410137
0.820864 0.758603 0.416141
0.841372 0.752938 0.429594
0.858052 0.748162 0.444847
0.872146 0.744124 0.462435
0.883494 0.740514 0.483106
0.360290 0.874714 0.357173
0.361153 0.874708 0.357459
0.364795 0.874601 0.358794
0.372040 0.874355 0.361355
0.388066 0.872977 0.363675
0.409527 0.870988 0.366396
0.434431 0.868697 0.369680
0.460980 0.865922 0.373604
0.490109 0.862496 0.378057
0.520094 0.858543 0.382969
0.551112 0.853651 0.386885
0.581756 0.847756 0.390943
0.613837 0.841132 0.395273
0.645457 0.836665 0.402252
0.675666 0.831957 0.409988
0.705361 0.826994 0.418023
0.731046 0.824306 0.427734
0.760822 0.820965 0.436292
0.792887 0.815114 0.449086
0.811993 0.814077 0.462292
0.831582 0.810034 0.468028
0.848681 0.803750 0.475773
0.863272 0.798231 0.493458
0.875686 0.793063 0.512476
0.886345 0.788710 0.532012
0.409028 0.892883 0.402961
0.409808 0.892872 0.403226
0.412918 0.892778 0.404468
0.419153 0.892625 0.406938
0.428710 0.892338 0.410693
0.447624 0.891044 0.413650
0.470731 0.889418 0.417293
0.496586 0.887282 0.421346
0.521978 0.884763 0.425789
0.547120 0.881752 0.430639
0.574191 0.878274 0.435510
0.603564 0.874163 0.440026
0.635299 0.869577 0.444750
0.666744 0.864598 0.449995
0.696320 0.861592 0.457985
0.725917 0.858985 0.466631
0.754965 0.855171 0.475099
0.780882 0.852419 0.484993
0.803797 0.849173 0.494685
0.826299 0.844307 0.509307
0.839994 0.843146 0.522645
0.854344 0.839812 0.533966
0.867437 0.834935 0.544633
0.878712 0.831490 0.563185
0.889021 0.827877 0.582205
0.462527 0.907492 0.453439
0.463161 0.907473 0.453746
0.465840 0.907392 0.454736
0.471333 0.907266 0.456943
0.479782 0.907039 0.460269
0.491719 0.906649 0.464728
0.511709 0.905158 0.468108
0.533063 0.903267 0.472163
0.555586 0.900955 0.476594
0.577988 0.898315 0.481290
0.601754 0.895393 0.486451
0.629180 0.892138 0.491653
0.658129 0.888620 0.496835
0.687297 0.884865 0.502647
0.716917 0.881331 0.508734
0.744851 0.879026 0.517282
0.774961 0.876605 0.526101
0.799448 0.873468 0.534571
0.817599 0.871187 0.544354
0.834010 0.868892 0.555125
0.850786 0.864886 0.574192
0.861180 0.863896 0.590783
0.872198 0.861639 0.604133
0.882491 0.857883 0.615253
0.891080 0.854739 0.634135
0.545423 0.912896 0.535253
0.545825 0.912888 0.535248
0.547374 0.912827 0.535229
0.550518 0.912704 0.535188
0.555411 0.912506 0.535068
0.562283 0.912220 0.534863
0.571158 0.911856 0.534517
0.581970 0.911395 0.534088
0.595037 0.910831 0.533512
0.612456 0.909674 0.534233
0.635391 0.907072 0.539025
0.658480 0.904342 0.544345
0.683684 0.901386 0.549835
0.710866 0.898769 0.555546
0.738017 0.896192 0.561917
0.767931 0.893271 0.568412
0.793327 0.891288 0.577261
0.814336 0.889227 0.586540
0.831572 0.886946 0.596062
0.844530 0.884749 0.609876
0.856256 0.882360 0.625898
0.868335 0.878963 0.645214
0.876027 0.878180 0.659554
0.884594 0.876203 0.672038
0.892909 0.873168 0.681759
0.628066 0.911721 0.610848
0.628324 0.911726 0.610790
0.629406 0.911764 0.610505
0.631562 0.911820 0.609987
0.635022 0.911910 0.609128
0.639887 0.911993 0.608192
0.646658 0.911712 0.608767
0.655022 0.911361 0.609476
0.664916 0.910933 0.610266
0.676432 0.910415 0.611243
0.689716 0.909873 0.612297
0.704591 0.909390 0.613397
0.721431 0.908793 0.614206
0.740377 0.908072 0.614720
0.763817 0.906702 0.616979
0.788640 0.904342 0.623761
0.809433 0.901953 0.630810
0.826480 0.900042 0.639329
0.840919 0.897775 0.651988
0.853440 0.895478 0.665345
0.862972 0.893538 0.677970
0.871740 0.891369 0.691483
0.880700 0.888614 0.707622
0.886745 0.888071 0.718523
0.893314 0.886063 0.730970
0.700659 0.909084 0.687726
0.700837 0.909094 0.687679
0.701595 0.909121 0.687624
0.703104 0.909184 0.687380
0.705579 0.909294 0.687125
0.709002 0.909439 0.686677
0.713483 0.909630 0.686080
0.719085 0.909867 0.685334
0.725828 0.910159 0.684346
0.734288 0.910427 0.682835
0.745161 0.910301 0.682696
0.758050 0.909839 0.684206
0.772281 0.909420 0.685923
0.786478 0.909026 0.687815
0.800198 0.908571 0.689753
0.813542 0.908046 0.691688
0.826386 0.907445 0.693530
0.838433 0.906668 0.695233
0.849061 0.905506 0.703113
0.859082 0.903639 0.713870
0.868325 0.901420 0.725492
0.875715 0.899560 0.736448
0.882534 0.897661 0.748416
0.889485 0.895426 0.764342
0.893881 0.894629 0.775934
0.759387 0.908029 0.749739
0.759569 0.908028 0.749737
0.760249 0.908045 0.749684
0.761652 0.908069 0.749578
0.763902 0.908109 0.749373
0.767064 0.908154 0.749157
0.771131 0.908226 0.748841
0.776128 0.908313 0.748382
0.781874 0.908428 0.747828
0.788230 0.908570 0.747138
0.795156 0.908729 0.746267
0.802667 0.908916 0.745219
0.810485 0.909141 0.743866
0.818585 0.909000 0.744765
0.826855 0.908631 0.747446
0.835088 0.908150 0.750220
0.843199 0.907588 0.753097
0.850971 0.907055 0.756395
0.858424 0.906656 0.760120
0.865667 0.906231 0.763838
0.872492 0.905263 0.772078
0.878939 0.904001 0.782006
0.884556 0.902916 0.790778
0.890166 0.901749 0.799455
0.895930 0.900429 0.809777
0.046964 0.050898 0.072917
0.065425 0.047829 0.062468
0.080052 0.047486 0.063262
0.097655 0.048985 0.063657
0.117264 0.049743 0.065369
0.137650 0.053080 0.066628
0.158692 0.057839 0.069217
0.178568 0.063777 0.072163
0.198495 0.070529 0.075314
0.222445 0.077327 0.078587
0.253869 0.084275 0.083252
0.288659 0.090659 0.088701
0.325727 0.098153 0.094709
0.364906 0.106597 0.101203
0.406806 0.116067 0.108046
0.447916 0.126000 0.115372
0.489038 0.136366 0.122998
0.525395 0.146564 0.131420
0.560016 0.157068 0.140556
0.591822 0.165399 0.149891
0.628484 0.174182 0.159746
0.666671 0.183765 0.170100
0.703783 0.193777 0.180802
0.738744 0.203604 0.191502
0.776918 0.214174 0.202941
0.058188 0.072449 0.076675
0.067680 0.071534 0.072415
0.086200 0.061917 0.062474
0.100288 0.049114 0.048292
0.117958 0.051650 0.049533
0.137329 0.055039 0.051194
0.157744 0.059002 0.054166
0.177523 0.064119 0.058560
0.197589 0.070057 0.064339
0.221621 0.076191 0.070491
0.253139 0.082591 0.076681
0.288179 0.089738 0.083115
0.325334 0.097828 0.089595
0.364676 0.106570 0.096451
0.406217 0.116005 0.103306
0.447312 0.125955 0.110837
0.488482 0.136097 0.118800
0.524655 0.146515 0.127102
0.559301 0.156822 0.136375
0.591445 0.165419 0.146210
0.628439 0.174010 0.156170
0.666641 0.183604 0.167041
0.703795 0.193628 0.177944
0.738787 0.203468 0.189100
0.776838 0.214049 0.200591
0.072855 0.098256 0.086480
0.078396 0.096458 0.083136
0.092027 0.095840 0.077520
0.109272 0.091307 0.060817
0.126156 0.088311 0.054076
0.145378 0.088072 0.056609
0.164940 0.089255 0.060100
0.183020 0.091373 0.064548
0.202743 0.095337 0.069887
0.227363 0.099704 0.075469
0.259047 0.104816 0.081482
0.293430 0.110262 0.087090
0.330265 0.116673 0.093274
0.369748 0.124548 0.099707
0.410936 0.132661 0.106385
0.452028 0.141808 0.113831
0.492676 0.150589 0.121474
0.528453 0.159943 0.129697
0.562636 0.169976 0.138895
0.594476 0.177513 0.148522
0.631299 0.185278 0.158646
0.669125 0.193812 0.169087
0.706058 0.202870 0.180057
0.740891 0.212158 0.190967
0.778729 0.222296 0.202419
0.087503 0.128433 0.098139
0.091557 0.127073 0.095422
0.103840 0.125369 0.092102
0.120867 0.125131 0.085490
0.138331 0.120700 0.067591
0.156997 0.117239 0.063876
0.175050 0.116102 0.067484
0.192607 0.116142 0.071396
0.212639 0.117080 0.076093
0.237779 0.118975 0.081007
0.269588 0.123041 0.086459
0.303294 0.127708 0.091660
0.340161 0.134236 0.097647
0.379861 0.142049 0.103892
0.420145 0.149605 0.110408
0.460800 0.158017 0.117709
0.500884 0.166343 0.125282
0.535708 0.174458 0.133423
0.568657 0.182257 0.142182
0.599708 0.187797 0.151503
0.636396 0.194768 0.161370
0.673756 0.202609 0.171709
0.710190 0.211192 0.182376
0.744747 0.220069 0.193161
0.782509 0.230087 0.204692
0.102825 0.166526 0.110582
0.106337 0.165220 0.108568
0.117446 0.163685 0.105987
0.133820 0.161807 0.101352
0.152709 0.159845 0.093517
0.169128 0.156453 0.080716
0.185930 0.152213 0.077468
0.204645 0.149847 0.080711
0.226666 0.148679 0.084350
0.254563 0.148788 0.088291
0.285972 0.150027 0.092855
0.318110 0.151846 0.097678
0.354504 0.156964 0.103741
0.394251 0.164004 0.109724
0.434254 0.171288 0.116186
0.475265 0.179099 0.123436
0.513865 0.186438 0.130873
0.547785 0.193575 0.139143
0.578510 0.199215 0.147627
0.608468 0.203229 0.156436
0.644519 0.208114 0.165520
0.680743 0.213814 0.175408
0.716490 0.221865 0.185902
0.750863 0.230636 0.196494
0.788132 0.240533 0.208032
0.117127 0.206098 0.119792
0.120125 0.205483 0.119133
0.130939 0.203593 0.118149
0.147177 0.200458 0.115107
0.164683 0.197897 0.109028
0.181481 0.194987 0.101500
0.196404 0.191845 0.094253
0.215709 0.187470 0.090582
0.242719 0.184943 0.093483
0.272807 0.183353 0.097116
0.303968 0.182787 0.100957
0.340329 0.185436 0.106146
0.376736 0.188178 0.111384
0.416098 0.192546 0.117489
0.455091 0.197576 0.124476
0.495562 0.203993 0.131543
0.530661 0.209430 0.138594
0.563056 0.215244 0.146560
0.591005 0.218508 0.154524
0.620157 0.221366 0.162873
0.655845 0.225778 0.171787
0.691245 0.231011 0.181182
0.725339 0.237044 0.190836
0.759725 0.244608 0.201033
0.795360 0.254293 0.212627
0.129928 0.249701 0.129915
0.132942 0.249192 0.129517
0.143681 0.246912 0.128349
0.159533 0.243109 0.126579
0.176551 0.238429 0.122876
0.192354 0.234811 0.116939
0.209546 0.230074 0.110112
0.229486 0.227043 0.108128
0.257728 0.222286 0.104038
0.290448 0.219210 0.107119
0.324915 0.218029 0.111102
0.363192 0.220374 0.116506
0.402196 0.222759 0.121789
0.443009 0.226663 0.127861
0.483126 0.230855 0.134402
0.518773 0.233319 0.141320
0.550269 0.235500 0.148421
0.580744 0.239780 0.155964
0.606225 0.241336 0.163251
0.634845 0.243320 0.170915
0.669917 0.247633 0.179479
0.704152 0.252696 0.188343
0.736768 0.258348 0.197564
0.771397 0.265238 0.207545
0.804468 0.272799 0.218593
0.142462 0.306063 0.139896
0.144689 0.305719 0.140130
0.154391 0.303196 0.139184
0.170221 0.298562 0.136998
0.186858 0.292318 0.134580
0.204231 0.285419 0.130818
0.222576 0.279976 0.125259
0.248813 0.273957 0.122994
0.275701 0.270671 0.123478
0.307167 0.264263 0.119040
0.348793 0.264031 0.124054
0.389871 0.264144 0.129054
0.433121 0.267105 0.135482
0.472902 0.269120 0.141180
0.513777 0.272053 0.147663
0.546178 0.272249 0.153272
0.575747 0.273076 0.159993
0.599529 0.271843 0.166528
0.623320 0.270316 0.173456
0.652342 0.271330 0.180515
0.685888 0.275359 0.188396
0.718824 0.280320 0.196752
0.750408 0.285906 0.205910
0.785451 0.292723 0.215981
0.815513 0.300124 0.227288
0.155767 0.367194 0.149023
0.158030 0.366829 0.149044
0.165464 0.365443 0.149498
0.179214 0.361257 0.148431
0.196191 0.354405 0.145576
0.215525 0.346381 0.142869
0.239341 0.337673 0.139457
0.266803 0.332358 0.139315
0.298450 0.325364 0.138937
0.326367 0.321954 0.141021
0.372065 0.322005 0.138897
0.418136 0.322346 0.144718
0.465787 0.324787 0.151064
0.511037 0.327403 0.158187
0.545277 0.325546 0.163187
0.575242 0.323357 0.168241
0.601354 0.321135 0.173710
0.621125 0.316558 0.178670
0.643700 0.313242 0.184428
0.673699 0.312155 0.191131
0.704432 0.312121 0.198556
0.735408 0.315012 0.206914
0.767187 0.319893 0.216098
0.800543 0.325576 0.226166
0.826851 0.332107 0.237902
0.166596 0.432892 0.159240
0.168644 0.432442 0.159070
0.175840 0.430712 0.159116
0.187225 0.427273 0.159198
0.204431 0.420517 0.157336
0.226821 0.411514 0.154543
0.255581 0.401883 0.154214
0.287761 0.392452 0.155395
0.317161 0.386668 0.155848
0.350971 0.379375 0.156589
0.379636 0.375911 0.159887
0.427385 0.376016 0.158260
0.474866 0.376950 0.164413
0.524703 0.380385 0.171426
0.568346 0.383057 0.178296
0.597420 0.379438 0.183648
0.619451 0.373675 0.187840
0.639820 0.367574 0.191822
0.664279 0.362709 0.196616
0.694940 0.360302 0.202980
0.724116 0.358921 0.210303
0.752739 0.358503 0.218527
0.784438 0.359346 0.227870
0.813330 0.361815 0.238506
0.836886 0.367507 0.251045
0.176494 0.495639 0.169408
0.178249 0.495371 0.169421
0.184722 0.493799 0.169473
0.195888 0.490610 0.169382
0.212170 0.485130 0.168984
0.237645 0.476309 0.168937
0.270744 0.465954 0.168828
