Zoran/FilmFeel 02.cube
TITLE "Generated by 3D LUT Creator Pro (c) Oleg Sharonov"
LUT_3D_SIZE 9
#IMAGEPROFILE ProPhoto RGB v.2.10
#INPUTGAMMA ProPhoto RGB v.2.10
#OUTPUTGAMMA ProPhoto RGB v.2.10
0.044213 0.045995 0.050660
0.098690 0.052743 0.056293
0.172441 0.067799 0.069784
0.264491 0.090256 0.090073
0.362123 0.114411 0.111986
0.453928 0.140397 0.133974
0.542551 0.172765 0.158024
0.627476 0.209543 0.186505
0.706925 0.248955 0.217465
0.084058 0.139083 0.095677
0.124186 0.128961 0.102758
0.197570 0.130863 0.105120
0.285841 0.139510 0.116033
0.378822 0.156106 0.131297
0.466988 0.179559 0.149753
0.553470 0.208263 0.173148
0.636295 0.240879 0.199816
0.714042 0.276542 0.229380
0.142967 0.281800 0.151887
0.181205 0.279845 0.148483
0.243545 0.256239 0.161606
0.324152 0.253454 0.160721
0.406933 0.256315 0.169214
0.491242 0.271000 0.185980
0.574826 0.291619 0.206709
0.655154 0.316804 0.231275
0.730136 0.345693 0.259294
0.219753 0.434244 0.220958
0.253623 0.433265 0.218882
0.313540 0.431171 0.210886
0.383767 0.406770 0.238815
0.453314 0.402333 0.235666
0.526130 0.397592 0.241635
0.603711 0.406896 0.258665
0.679995 0.422735 0.280089
0.751791 0.443027 0.304686
0.304543 0.571347 0.299367
0.333317 0.570978 0.298093
0.380927 0.570538 0.294087
0.449967 0.564253 0.300032
0.512907 0.548468 0.326601
0.576858 0.546367 0.322788
0.642691 0.537560 0.326314
0.711419 0.542215 0.341213
0.777756 0.554103 0.360869
0.386528 0.686182 0.376318
0.409802 0.686198 0.376090
0.447893 0.686556 0.374027
0.500009 0.687483 0.368427
0.573951 0.676149 0.404839
0.633557 0.672242 0.410604
0.690712 0.673557 0.407016
0.749597 0.665022 0.410454
0.808291 0.667170 0.422595
0.461910 0.778719 0.446774
0.482260 0.778882 0.446858
0.514809 0.779549 0.445992
0.558730 0.781070 0.442428
0.613492 0.783031 0.436252
0.686901 0.770577 0.502082
0.741197 0.773387 0.489423
0.789833 0.777378 0.485998
0.838653 0.771510 0.491328
0.533832 0.851481 0.513647
0.551892 0.851761 0.513991
0.579993 0.852401 0.513857
0.617496 0.853572 0.512210
0.663028 0.855540 0.507281
0.721153 0.856528 0.507343
0.786235 0.850458 0.576945
0.830461 0.852969 0.565349
0.862960 0.857474 0.568950
0.721627 0.887390 0.705266
0.731407 0.887691 0.708758
0.746518 0.888249 0.714573
0.766516 0.889202 0.722761
0.790651 0.890735 0.733682
0.817062 0.893006 0.747563
0.845597 0.895316 0.768139
0.868633 0.898143 0.793561
0.886362 0.901671 0.812676
0.054977 0.055518 0.096109
0.116333 0.061115 0.117353
0.186756 0.072251 0.112742
0.280225 0.090632 0.120710
0.378840 0.110463 0.131898
0.471259 0.132877 0.145609
0.559042 0.161655 0.165200
0.639897 0.200280 0.192705
0.716208 0.240874 0.222876
0.083595 0.139944 0.149250
0.135262 0.138905 0.147232
0.203267 0.127751 0.135087
0.297129 0.130118 0.132367
0.387769 0.145795 0.143140
0.473924 0.169543 0.160149
0.558590 0.198964 0.182537
0.640471 0.232782 0.208304
0.717348 0.269196 0.237417
0.143470 0.287131 0.200355
0.166649 0.257001 0.178732
0.241871 0.250249 0.185978
0.332480 0.250064 0.185878
0.411562 0.248470 0.184185
0.495773 0.262754 0.196669
0.578613 0.283949 0.216473
0.658301 0.309849 0.240257
0.732861 0.339470 0.267484
0.215646 0.439895 0.258330
0.236446 0.419969 0.251420
0.306335 0.419972 0.242356
0.381315 0.399696 0.260718
0.458732 0.399639 0.257806
0.528948 0.391920 0.256370
0.606618 0.401070 0.269001
0.682625 0.417494 0.289318
0.753997 0.438098 0.312949
0.295023 0.576230 0.324117
0.315671 0.568567 0.325114
0.374898 0.569536 0.320927
0.445714 0.554329 0.331630
0.511961 0.543237 0.345337
0.580646 0.544365 0.341415
0.644859 0.533744 0.339883
0.713725 0.538384 0.350657
0.779697 0.550430 0.368943
0.372936 0.690427 0.389602
0.395693 0.686458 0.397249
0.440388 0.686451 0.394967
0.497750 0.686973 0.388198
0.572336 0.671360 0.423679
0.633401 0.669342 0.424920
0.693584 0.672419 0.422268
0.751609 0.662924 0.421882
0.810169 0.664904 0.430745
0.445013 0.782416 0.452011
0.469836 0.779607 0.463805
0.506854 0.779970 0.462820
0.555034 0.780985 0.459534
0.612648 0.782685 0.452019
0.687624 0.769367 0.513814
0.741746 0.772042 0.502079
0.791913 0.776646 0.499743
0.840136 0.770405 0.501701
0.516982 0.853956 0.516071
0.540768 0.852554 0.527874
0.571984 0.853035 0.527676
0.612665 0.853979 0.525901
0.661421 0.855444 0.522531
0.720994 0.856494 0.522789
0.787179 0.849998 0.587213
0.831212 0.852466 0.576463
0.863645 0.857663 0.577164
0.721059 0.887981 0.711507
0.730963 0.888242 0.715057
0.746392 0.888760 0.720701
0.766698 0.889649 0.728667
0.791107 0.891116 0.739373
0.817569 0.893334 0.752855
0.846020 0.895723 0.773457
0.869086 0.898368 0.796079
0.886795 0.901900 0.814868
0.074801 0.076237 0.153030
0.122243 0.085161 0.175593
0.221144 0.094802 0.202529
0.301230 0.104064 0.182204
0.391246 0.122051 0.187494
0.480073 0.143463 0.198962
0.567370 0.170401 0.213815
0.651000 0.201286 0.232140
0.729018 0.234959 0.253561
0.093809 0.149585 0.221614
0.126798 0.140512 0.211136
0.231818 0.137095 0.218460
0.321262 0.133096 0.197046
0.411987 0.145775 0.198102
0.497279 0.166051 0.206365
0.581466 0.191381 0.219449
0.662599 0.220457 0.236942
0.738275 0.252740 0.257880
0.137785 0.282492 0.283177
0.165125 0.260631 0.261502
0.268022 0.276744 0.274702
0.335546 0.242911 0.242839
0.424241 0.245657 0.240301
0.505894 0.245730 0.233005
0.589582 0.264678 0.244895
0.668813 0.290788 0.264489
0.742451 0.321348 0.288346
0.219528 0.441199 0.337278
0.239724 0.424180 0.332324
0.298614 0.404348 0.305312
0.385845 0.399223 0.313392
0.459567 0.388129 0.308892
0.539434 0.385097 0.302615
0.614855 0.387830 0.300657
0.689399 0.403825 0.314891
0.761186 0.424889 0.333736
0.300406 0.579373 0.392128
0.321668 0.569827 0.393801
0.359510 0.547746 0.368066
0.442933 0.542280 0.378513
0.513169 0.539102 0.386730
0.583458 0.534238 0.385343
0.653900 0.527453 0.375330
0.719763 0.529365 0.378052
0.785093 0.541005 0.390379
0.377445 0.692630 0.442372
0.396027 0.689239 0.447662
0.426515 0.675737 0.439783
0.488330 0.677443 0.430059
0.573218 0.665837 0.459512
0.634797 0.665671 0.460030
0.697036 0.666208 0.459257
0.758800 0.658777 0.450362
0.814684 0.659418 0.455077
0.448049 0.783792 0.494616
0.464795 0.781990 0.499707
0.493005 0.776843 0.499540
0.546735 0.778338 0.493841
0.611422 0.779896 0.489475
0.690234 0.767262 0.541509
0.744188 0.769652 0.533740
0.795529 0.773293 0.532550
0.844744 0.768116 0.527230
0.515865 0.855076 0.547579
0.531364 0.854436 0.552705
0.555895 0.853507 0.556307
0.603582 0.854351 0.554142
0.658683 0.855771 0.550338
0.722961 0.854873 0.560933
0.789890 0.849079 0.611814
0.833526 0.851474 0.603930
0.865603 0.857393 0.600272
0.723462 0.888486 0.724229
0.730971 0.889092 0.725496
0.745944 0.889655 0.730496
0.766941 0.890428 0.738196
0.791830 0.891768 0.748445
0.818512 0.893872 0.761355
0.846797 0.896399 0.781630
0.870163 0.898917 0.802208
0.887868 0.902477 0.819578
0.098868 0.103619 0.222754
0.134892 0.112139 0.242505
0.241439 0.120957 0.299660
0.349312 0.133661 0.312655
0.419526 0.138644 0.276242
0.496340 0.160526 0.276316
0.578194 0.186590 0.286248
0.658646 0.216132 0.300479
0.734459 0.248463 0.317739
0.119170 0.164448 0.296582
0.151137 0.157904 0.312952
0.247944 0.160625 0.324911
0.360585 0.158313 0.325897
0.435682 0.160526 0.290746
0.516704 0.180651 0.289663
0.597334 0.204334 0.296248
0.674915 0.231806 0.307824
0.747888 0.262754 0.323175
0.151159 0.296072 0.381537
0.178091 0.287652 0.364387
0.233406 0.268663 0.341691
0.357488 0.254608 0.340195
0.445588 0.248379 0.321030
0.532488 0.245581 0.309772
0.614305 0.261825 0.313485
0.693627 0.282978 0.322601
0.764333 0.310236 0.336553
0.209159 0.435850 0.423402
0.234131 0.427702 0.415406
0.291981 0.406813 0.395586
0.411971 0.429073 0.413257
0.476682 0.391668 0.381736
0.548015 0.385545 0.373227
0.624245 0.385541 0.366804
0.698164 0.388315 0.361826
0.772300 0.405075 0.370266
0.302187 0.578084 0.466303
0.321306 0.571681 0.467095
0.362132 0.551038 0.448423
0.442671 0.549981 0.440642
0.523345 0.545970 0.446830
0.590279 0.531060 0.439503
0.661362 0.525199 0.435267
0.728815 0.523429 0.428349
0.795215 0.528058 0.425624
0.382096 0.693514 0.509277
0.399497 0.690795 0.517147
0.431797 0.677717 0.508817
0.485838 0.668333 0.487280
0.580558 0.664400 0.508066
0.639274 0.665594 0.507025
0.701952 0.660876 0.505936
0.767157 0.656317 0.502827
0.823109 0.653766 0.495009
0.452296 0.785068 0.555579
0.468908 0.783306 0.562979
0.497744 0.777553 0.561127
0.541317 0.770881 0.544187
0.608706 0.772917 0.540420
0.695715 0.765682 0.580421
0.747510 0.769008 0.574336
0.800591 0.768997 0.575099
0.854934 0.763974 0.541000
0.519514 0.855712 0.598724
0.535109 0.855007 0.604583
0.560597 0.853593 0.609066
0.598573 0.850584 0.605548
0.652667 0.852539 0.596525
0.724200 0.852120 0.605979
0.794828 0.847815 0.654332
0.835164 0.850393 0.662365
0.868757 0.856529 0.634706
0.727885 0.889162 0.742762
0.735709 0.889715 0.744278
0.747708 0.890640 0.746428
0.766681 0.891704 0.751719
0.792580 0.892798 0.761361
0.819773 0.894724 0.773486
0.848122 0.897349 0.793100
0.871765 0.899768 0.811270
0.889578 0.903470 0.825580
0.126342 0.134043 0.303511
0.158606 0.141179 0.322390
0.238643 0.155898 0.357639
0.373663 0.165169 0.416316
0.467621 0.183465 0.419064
0.530387 0.182706 0.377044
0.597975 0.208140 0.371756
0.671579 0.236148 0.378282
0.743155 0.266866 0.389741
0.146853 0.187771 0.366582
0.175803 0.183230 0.390091
0.261346 0.192058 0.401877
0.380204 0.192542 0.432394
0.481588 0.202598 0.432725
0.543806 0.201652 0.389042
0.619116 0.224239 0.385594
0.691540 0.249821 0.389345
0.758992 0.279022 0.397738
0.169876 0.315285 0.450063
0.202002 0.299833 0.438189
0.259571 0.289749 0.436375
0.374114 0.284971 0.445908
0.483271 0.277386 0.442741
0.552965 0.261594 0.405149
0.633328 0.275517 0.402156
0.707907 0.296601 0.405228
0.775550 0.322888 0.412627
0.226289 0.448349 0.515978
0.251366 0.438227 0.502914
0.292389 0.431216 0.482951
0.375204 0.417372 0.478260
0.495615 0.402054 0.471468
0.565985 0.390069 0.446353
0.645262 0.385798 0.437249
0.723799 0.384422 0.429096
0.792792 0.399848 0.433146
0.289611 0.574401 0.547630
0.313654 0.572149 0.544934
0.357527 0.554691 0.527915
0.428284 0.550105 0.522414
0.544024 0.570023 0.538606
0.610809 0.536648 0.510963
0.673642 0.528214 0.501090
0.739583 0.527287 0.496012
0.800708 0.527553 0.490078
0.381498 0.692170 0.583605
0.398832 0.690886 0.586043
0.426985 0.681569 0.581417
0.486661 0.671432 0.568239
0.574712 0.678295 0.566295
0.652218 0.675450 0.572594
0.712935 0.660764 0.563468
0.773294 0.655758 0.560605
0.838712 0.646885 0.539214
0.456248 0.784872 0.618731
0.472006 0.783918 0.624259
0.498857 0.779241 0.626984
0.546506 0.772043 0.612836
0.609714 0.770614 0.603740
0.707561 0.767956 0.626933
0.752701 0.770369 0.622873
0.807430 0.768109 0.623760
0.862473 0.759005 0.585872
0.523770 0.855971 0.656498
0.538570 0.855508 0.663912
0.564526 0.853908 0.670960
0.602964 0.851207 0.665294
0.666138 0.848248 0.660193
0.736501 0.848338 0.674621
0.800271 0.848095 0.697198
0.838273 0.851333 0.698872
0.872916 0.855194 0.676270
0.734976 0.889473 0.769005
0.742423 0.890200 0.769836
0.753918 0.891343 0.770693
0.770017 0.892904 0.772672
0.792643 0.894460 0.778229
0.821169 0.895991 0.789512
0.849994 0.898525 0.807258
0.873885 0.900936 0.822915
0.891875 0.904819 0.833309
0.158806 0.170936 0.383508
0.188800 0.177812 0.401406
0.256859 0.193558 0.425395
0.368648 0.209692 0.471028
0.486564 0.220623 0.514616
0.578318 0.241033 0.517045
0.635460 0.232936 0.470655
0.693018 0.260165 0.460939
0.756818 0.289092 0.464358
0.179559 0.218387 0.431230
0.205295 0.216156 0.461425
0.280458 0.226961 0.473080
0.385459 0.237631 0.497760
0.500256 0.241168 0.531754
0.594757 0.256885 0.531907
0.645800 0.249006 0.480299
0.712483 0.273554 0.474558
0.772000 0.301081 0.474701
0.208438 0.330112 0.513870
0.235628 0.319382 0.509470
0.292317 0.312364 0.527549
0.395921 0.314265 0.535212
0.502806 0.309079 0.548084
0.594356 0.304974 0.536940
0.655416 0.295893 0.494280
0.726733 0.315625 0.490539
0.790049 0.340572 0.491811
0.244724 0.467003 0.587858
0.267513 0.454972 0.571830
0.315417 0.450192 0.559303
0.380483 0.433299 0.549029
0.488878 0.426422 0.563783
0.596748 0.414797 0.552366
0.663542 0.399315 0.521056
0.740102 0.395897 0.512035
0.804992 0.411210 0.512630
0.309028 0.583900 0.632964
0.330045 0.577766 0.625732
0.368809 0.576568 0.617709
0.417825 0.564350 0.596743
0.510262 0.560683 0.606523
0.627970 0.546487 0.596894
0.687833 0.531387 0.569534
0.755559 0.529675 0.563284
0.817541 0.525806 0.554085
0.369360 0.690779 0.659375
0.389452 0.689309 0.657558
0.423656 0.683636 0.650995
0.480907 0.674105 0.640531
0.560297 0.678931 0.643785
0.664987 0.690328 0.653656
0.732662 0.666892 0.633523
0.787467 0.659415 0.624234
0.858697 0.630154 0.590135
0.454019 0.784135 0.688969
0.469558 0.783928 0.690736
0.495249 0.781032 0.691039
0.541439 0.775027 0.683607
0.607752 0.773332 0.680493
0.694054 0.780784 0.680457
0.763741 0.779011 0.686715
0.820800 0.765454 0.671030
0.868851 0.752806 0.646488
0.527934 0.855639 0.718362
0.541168 0.855772 0.721506
0.564063 0.854916 0.727088
0.602069 0.852603 0.726667
0.674712 0.848611 0.724823
0.732311 0.850682 0.721722
0.805589 0.850030 0.737414
0.842210 0.852764 0.735998
0.878189 0.852980 0.722152
0.743824 0.889378 0.797015
0.750919 0.890257 0.797791
0.761998 0.891683 0.798995
0.777850 0.893424 0.801774
0.797674 0.895724 0.803900
0.821533 0.897975 0.808553
0.852047 0.900100 0.823711
0.876340 0.902414 0.836493
0.894468 0.906190 0.846213
0.196173 0.213390 0.457027
0.223158 0.219135 0.474955
0.282650 0.233745 0.493227
0.373381 0.252809 0.525620
0.497251 0.265303 0.582877
0.593513 0.279124 0.607315
0.679203 0.301376 0.608227
0.736019 0.288475 0.565581
0.777933 0.313936 0.546754
0.215183 0.254326 0.495480
0.239167 0.253786 0.529273
0.304137 0.264496 0.540237
0.395762 0.278781 0.561311
0.505376 0.287523 0.596871
0.612879 0.294667 0.626958
0.697146 0.314489 0.624241
0.743301 0.302355 0.573153
0.792558 0.325639 0.558662
0.247369 0.350595 0.568275
0.270679 0.345091 0.574493
0.320760 0.334740 0.596294
0.411463 0.341612 0.602429
0.512112 0.344219 0.620302
0.616775 0.339578 0.639965
0.700253 0.347961 0.630900
0.754606 0.338458 0.586859
0.806924 0.362136 0.575023
0.271487 0.483521 0.643992
0.298823 0.470534 0.633785
0.347115 0.459766 0.628146
0.408824 0.453468 0.635228
0.511312 0.449420 0.647465
0.618334 0.443133 0.653260
0.702759 0.434864 0.641133
0.760454 0.415033 0.602729
0.818747 0.426774 0.594324
0.326314 0.599688 0.701967
0.345984 0.591828 0.692194
0.380201 0.585928 0.679045
0.426736 0.584562 0.663708
0.500235 0.573647 0.662164
0.601905 0.567397 0.682457
0.709719 0.552167 0.664567
0.773779 0.540495 0.640334
0.829634 0.534067 0.627889
0.388125 0.697178 0.735151
0.405234 0.694212 0.731590
0.437345 0.692057 0.725863
0.480408 0.688866 0.715496
0.540921 0.685538 0.706140
0.639279 0.687340 0.722597
0.745975 0.675033 0.711593
0.800666 0.661922 0.688141
0.865137 0.634109 0.669111
0.442803 0.784452 0.756966
0.460678 0.783730 0.755959
0.489103 0.783611 0.755195
0.538722 0.777558 0.747774
0.601994 0.775648 0.744979
0.682106 0.782637 0.751002
0.770420 0.787835 0.755296
0.831357 0.765893 0.735685
0.876186 0.746061 0.710923
0.523317 0.855903 0.780483
0.537474 0.856121 0.781972
0.560693 0.856037 0.784462
0.596292 0.854651 0.784236
0.670905 0.850808 0.781071
0.729523 0.852791 0.782205
0.793742 0.856080 0.777815
0.846102 0.854640 0.778215
0.884993 0.849317 0.770602
0.752139 0.889541 0.825658
0.759769 0.890334 0.826666
0.771270 0.891573 0.828144
0.786997 0.893418 0.830208
0.806076 0.895990 0.832516
0.827294 0.899145 0.835804
0.850720 0.902328 0.839647
0.878578 0.904362 0.851641
0.896469 0.907470 0.859482
0.236065 0.258177 0.527223
0.260603 0.262938 0.545826
0.313241 0.276324 0.560457
0.389518 0.294800 0.584893
0.487800 0.313074 0.623523
0.619365 0.319417 0.685645
0.691638 0.338390 0.692754
0.767887 0.362701 0.691645
0.822748 0.346301 0.656333
0.253705 0.293641 0.558960
0.275536 0.293881 0.587604
0.330566 0.303602 0.600262
0.407801 0.318898 0.617127
0.505889 0.333664 0.647909
0.621540 0.338209 0.692343
0.708926 0.351066 0.709559
0.782693 0.373571 0.705404
0.826606 0.358601 0.661545
0.285952 0.376938 0.621386
0.306566 0.374671 0.634771
0.349400 0.367013 0.658005
0.428997 0.376338 0.664514
0.521231 0.384760 0.678730
0.624725 0.384236 0.707183
0.717954 0.387142 0.723336
0.789258 0.402240 0.714301
0.834922 0.389570 0.673544
0.314378 0.495369 0.696400
0.337440 0.486621 0.691511
0.378542 0.475341 0.691383
0.436893 0.472907 0.711088
0.532095 0.474268 0.719288
0.628432 0.474124 0.727684
0.722444 0.461911 0.736646
0.792104 0.462397 0.722297
0.840673 0.450160 0.687305
0.345280 0.615939 0.755647
0.364220 0.608075 0.745463
0.399410 0.598693 0.733985
0.458034 0.596319 0.731772
0.518577 0.586943 0.729952
0.620898 0.580870 0.747644
0.723368 0.572275 0.748444
0.800366 0.569010 0.740568
0.858288 0.536119 0.716662
0.404327 0.707522 0.794001
0.419212 0.704606 0.791134
0.449863 0.699333 0.782446
0.490363 0.701690 0.774879
0.540584 0.698951 0.760861
0.619876 0.694210 0.778192
0.726102 0.684994 0.794044
0.823239 0.669246 0.777152
0.874362 0.655028 0.751374
0.460749 0.788602 0.820467
0.476206 0.787424 0.819086
0.505163 0.786013 0.815968
0.542884 0.787528 0.813002
0.594037 0.784646 0.805442
0.642529 0.789007 0.814941
0.745952 0.784448 0.820204
0.838356 0.773543 0.806816
0.884135 0.763778 0.787081
0.513082 0.856878 0.836566
0.529607 0.856821 0.836352
0.555225 0.857414 0.836621
0.595427 0.856300 0.834747
0.676737 0.852452 0.829193
0.727706 0.854984 0.831589
0.785027 0.858107 0.834324
0.851763 0.861886 0.837990
0.894704 0.850744 0.826179
0.755940 0.890906 0.851328
0.763874 0.891629 0.852228
0.775867 0.892771 0.853627
0.792293 0.894424 0.855660
0.812182 0.896632 0.858283
0.833871 0.899526 0.861552
0.855540 0.903250 0.864929
0.877386 0.907154 0.868431
0.898800 0.909266 0.873871
0.278261 0.304421 0.594346
0.299750 0.307858 0.612835
0.345983 0.320007 0.624775
0.411123 0.337421 0.644131
0.494894 0.356945 0.672876
0.600746 0.372109 0.715597
0.712236 0.379620 0.760581
0.778187 0.397219 0.769356
0.839912 0.421857 0.765987
0.293746 0.335098 0.620092
0.313379 0.335640 0.644592
0.360244 0.344598 0.658505
0.426386 0.359459 0.672431
0.510432 0.376126 0.695353
0.615017 0.388220 0.732556
0.719791 0.393240 0.769846
0.790748 0.407217 0.781637
0.849056 0.430625 0.776391
0.324199 0.407040 0.673428
0.342535 0.406373 0.691202
0.379079 0.400868 0.715097
0.449067 0.410583 0.721638
0.532777 0.421454 0.733243
0.626581 0.429081 0.753716
0.725434 0.428867 0.783315
0.804552 0.435285 0.797673
0.857094 0.454794 0.787713
0.355304 0.510183 0.738958
0.373637 0.506371 0.743560
0.408216 0.497693 0.745717
0.463012 0.488613 0.776439
0.551512 0.493109 0.779060
0.643309 0.496171 0.788436
0.734902 0.494811 0.805387
0.815927 0.485008 0.815131
0.869744 0.493955 0.806301
0.374670 0.627876 0.798597
0.396687 0.619641 0.792602
0.433304 0.609064 0.787730
0.478965 0.604487 0.817548
0.565960 0.591956 0.855618
0.680097 0.584665 0.854703
0.779039 0.574759 0.857524
0.855909 0.554489 0.861084
0.877293 0.606695 0.823538
0.417733 0.721272 0.841279
0.435207 0.716415 0.835491
0.458241 0.713400 0.833575
0.476772 0.718304 0.850239
0.568300 0.712149 0.861718
0.679433 0.703346 0.863928
0.779792 0.696685 0.864194
0.855890 0.685601 0.867847
0.882595 0.713487 0.839972
0.476828 0.795196 0.863176
0.491701 0.794543 0.862875
0.524484 0.796321 0.864147
0.568940 0.799114 0.866312
0.622553 0.802419 0.869119
0.685466 0.804263 0.872083
0.778597 0.795152 0.873657
0.855640 0.789844 0.876037
0.889097 0.803371 0.858281
0.624840 0.852532 0.865596
0.637694 0.853560 0.866526
0.657419 0.855145 0.868049
0.684529 0.857471 0.870304
0.718446 0.860514 0.873449
0.758018 0.864174 0.877419
0.801518 0.867945 0.882023
0.854706 0.865092 0.884653
0.896611 0.871509 0.877715
0.768280 0.892229 0.874454
0.775754 0.892999 0.875268
0.787011 0.894160 0.876516
0.802235 0.895836 0.878301
0.820382 0.898052 0.880694
0.840420 0.900871 0.883741
0.861163 0.904303 0.887477
0.881886 0.908337 0.891890
0.902247 0.912008 0.896227
