Zoran/FilmFeel 00.cube
TITLE "Generated by 3D LUT Creator Pro (c) Oleg Sharonov"
LUT_3D_SIZE 5
#IMAGEPROFILE sRGB IEC61966-2.1 v.2.10
#INPUTGAMMA sRGB IEC61966-2.1 v.2.10
#OUTPUTGAMMA sRGB IEC61966-2.1 v.2.10
0.007528 0.007243 0.006159
0.232301 0.046997 0.044143
0.436841 0.125963 0.114782
0.603358 0.222444 0.199858
0.757368 0.320655 0.293516
0.109318 0.201680 0.044986
0.291399 0.218151 0.044063
0.451576 0.247787 0.122516
0.605994 0.311115 0.200070
0.759990 0.385735 0.295172
0.250089 0.428810 0.115786
0.363373 0.438408 0.128094
0.517043 0.450969 0.111006
0.632787 0.471687 0.221852
0.774727 0.507843 0.303019
0.372035 0.611163 0.198759
0.434550 0.615273 0.206082
0.572076 0.623952 0.235916
0.693210 0.635072 0.182043
0.807737 0.657454 0.337058
0.474642 0.762995 0.288931
0.514622 0.763256 0.294992
0.613316 0.764996 0.318609
0.737463 0.774688 0.389415
0.871893 0.790301 0.341428
0.045805 0.053392 0.154193
0.255958 0.052506 0.178380
0.444315 0.125183 0.203189
0.604518 0.219611 0.251394
0.758804 0.320162 0.321615
0.079119 0.212155 0.168004
0.255355 0.230642 0.191591
0.456216 0.261149 0.216309
0.607644 0.310902 0.256926
0.761276 0.384433 0.326510
0.203867 0.435621 0.215238
0.332484 0.443392 0.224506
0.506152 0.457460 0.232510
0.633571 0.477193 0.292803
0.774994 0.510146 0.343484
0.352077 0.617623 0.275580
0.419728 0.620232 0.281824
0.562991 0.628531 0.296190
0.688959 0.638808 0.274730
0.808711 0.659801 0.387424
0.461952 0.767937 0.348855
0.504447 0.768122 0.354022
0.605471 0.770769 0.372031
0.735023 0.777023 0.433880
0.871871 0.794165 0.397650
0.133402 0.132596 0.342046
0.281671 0.141322 0.373391
0.471113 0.140697 0.410163
0.618688 0.213849 0.432360
0.767735 0.299415 0.467413
0.154294 0.253445 0.366427
0.252617 0.240735 0.384096
0.473000 0.263698 0.419112
0.622683 0.310830 0.439920
0.770433 0.369236 0.471540
0.208150 0.445964 0.387950
0.285558 0.448798 0.397170
0.471067 0.473510 0.439246
0.635981 0.491917 0.461884
0.779770 0.513392 0.480989
0.279013 0.639397 0.453002
0.362577 0.638818 0.454788
0.523453 0.640067 0.469226
0.674767 0.651084 0.472619
0.812165 0.667493 0.514247
0.407249 0.786138 0.492291
0.462453 0.786049 0.496217
0.581200 0.787280 0.506735
0.724489 0.788738 0.540611
0.871868 0.806945 0.533367
0.215279 0.227128 0.546412
0.314282 0.238058 0.560680
0.491092 0.248332 0.597708
0.642344 0.248641 0.628706
0.786780 0.255515 0.638653
0.226509 0.314863 0.565171
0.301834 0.307728 0.571204
0.489936 0.321929 0.609651
0.645885 0.322231 0.635553
0.791118 0.337995 0.645022
0.264763 0.479442 0.591726
0.312246 0.469630 0.596875
0.467198 0.479399 0.625296
0.648512 0.487589 0.648571
0.805136 0.503843 0.660957
0.338528 0.651299 0.616343
0.370574 0.648189 0.617359
0.482112 0.656281 0.634642
0.645606 0.671139 0.666137
0.821169 0.680580 0.676574
0.362379 0.808543 0.659495
0.403849 0.811777 0.667330
0.522799 0.822513 0.675898
0.688112 0.823894 0.683049
0.872065 0.832716 0.695684
0.272843 0.308113 0.727312
0.340029 0.306219 0.732881
0.507757 0.327228 0.760726
0.661657 0.316794 0.786676
0.824852 0.121089 0.817568
0.278822 0.373276 0.739041
0.341181 0.369088 0.743606
0.503113 0.384625 0.766245
0.663207 0.382790 0.791652
0.827932 0.268379 0.821622
0.298911 0.514937 0.762894
0.355927 0.514803 0.769783
0.475156 0.501422 0.784307
0.662004 0.517824 0.808987
0.837059 0.482777 0.834403
0.335917 0.674401 0.786477
0.386736 0.675698 0.792017
0.501527 0.679392 0.809563
0.627250 0.660950 0.844875
0.851136 0.670226 0.857356
0.315433 0.836882 0.800318
0.377627 0.839952 0.805495
0.505381 0.848755 0.821048
0.654871 0.863050 0.848750
0.872513 0.886401 0.897011
