Zoran/FilmFeel 01.cube
TITLE "Generated by 3D LUT Creator Pro (c) Oleg Sharonov"
LUT_3D_SIZE 9
#IMAGEPROFILE ProPhoto RGB v.2.10
#INPUTGAMMA ProPhoto RGB v.2.10
#OUTPUTGAMMA ProPhoto RGB v.2.10
0.044965 0.045768 0.046028
0.092670 0.048282 0.047883
0.154242 0.058522 0.053300
0.218974 0.075782 0.069651
0.322655 0.097091 0.088982
0.445484 0.125643 0.110601
0.558059 0.156599 0.136164
0.665612 0.183466 0.166707
0.775909 0.213693 0.200349
0.087423 0.127282 0.091464
0.119686 0.124543 0.077188
0.173858 0.117154 0.067493
0.236634 0.120238 0.081022
0.338829 0.135184 0.097650
0.459946 0.159153 0.117734
0.568475 0.183418 0.142457
0.673180 0.203189 0.171730
0.781974 0.230479 0.204705
0.129150 0.250255 0.125680
0.158982 0.243511 0.122059
0.209055 0.230113 0.106718
0.289399 0.219309 0.107117
0.401135 0.223022 0.121556
0.518124 0.233805 0.141130
0.605855 0.241781 0.163294
0.703704 0.253212 0.188224
0.804133 0.273210 0.218607
0.166003 0.433564 0.155539
0.186919 0.427756 0.155304
0.255321 0.402084 0.152086
0.350790 0.379438 0.154674
0.474045 0.376821 0.164376
0.596870 0.379630 0.183496
0.663801 0.363073 0.196643
0.752310 0.358962 0.218545
0.836657 0.367839 0.251053
0.197395 0.609242 0.193674
0.216397 0.604866 0.195256
0.296317 0.587542 0.198647
0.409227 0.561036 0.202832
0.510736 0.541274 0.210780
0.602413 0.534556 0.220510
0.703628 0.529934 0.240993
0.794735 0.512784 0.268924
0.859072 0.507724 0.311085
0.253023 0.765178 0.251666
0.277377 0.762261 0.253817
0.349516 0.748326 0.260381
0.458417 0.723677 0.267420
0.561012 0.700167 0.279823
0.649827 0.683101 0.299875
0.735580 0.672250 0.317731
0.824749 0.656676 0.352758
0.875926 0.647581 0.402252
0.360290 0.874714 0.357173
0.372040 0.874355 0.361355
0.434431 0.868697 0.369680
0.520094 0.858543 0.382969
0.613837 0.841132 0.395273
0.705361 0.826994 0.418023
0.792887 0.815114 0.449086
0.848681 0.803750 0.475773
0.886345 0.788710 0.532012
0.545423 0.912896 0.535253
0.550518 0.912704 0.535188
0.571158 0.911856 0.534517
0.612456 0.909674 0.534233
0.683684 0.901386 0.549835
0.767931 0.893271 0.568412
0.831572 0.886946 0.596062
0.868335 0.878963 0.645214
0.892909 0.873168 0.681759
0.759387 0.908029 0.749739
0.761652 0.908069 0.749578
0.771131 0.908226 0.748841
0.788230 0.908570 0.747138
0.810485 0.909141 0.743866
0.835088 0.908150 0.750220
0.858424 0.906656 0.760120
0.878939 0.904001 0.782006
0.895930 0.900429 0.809777
0.051968 0.058036 0.128721
0.111991 0.054314 0.099700
0.172608 0.060139 0.103592
0.236135 0.079919 0.109736
0.338887 0.100663 0.117791
0.457566 0.129098 0.129078
0.566276 0.158266 0.152534
0.671261 0.185286 0.179606
0.780606 0.215592 0.210425
0.085555 0.133892 0.144529
0.124949 0.127226 0.127943
0.190496 0.113168 0.111420
0.258944 0.108444 0.099651
0.357851 0.112441 0.100042
0.471714 0.131957 0.115341
0.573888 0.160670 0.140758
0.680725 0.187313 0.170975
0.788218 0.217377 0.204408
0.131375 0.250711 0.183430
0.162904 0.240353 0.168689
0.215683 0.232366 0.152005
0.302533 0.220488 0.136729
0.416183 0.221768 0.135493
0.526060 0.225539 0.141460
0.610717 0.234118 0.163217
0.710027 0.246068 0.188488
0.808823 0.267841 0.219575
0.170980 0.427327 0.199159
0.191365 0.420438 0.194870
0.258214 0.398354 0.189595
0.353727 0.379210 0.178265
0.482854 0.379235 0.183051
0.603711 0.378474 0.193080
0.670664 0.357611 0.197072
0.757827 0.352952 0.219270
0.840252 0.363577 0.252106
0.201899 0.607070 0.222301
0.221522 0.601944 0.219645
0.300793 0.586124 0.218271
0.411641 0.560083 0.217620
0.512669 0.541404 0.222932
0.607140 0.536354 0.232814
0.708063 0.528489 0.242134
0.799478 0.510316 0.270235
0.861571 0.504879 0.312659
0.258429 0.766238 0.268437
0.280506 0.762541 0.270253
0.351745 0.748863 0.276053
0.460781 0.723916 0.281747
0.562102 0.699928 0.293199
0.650960 0.683453 0.310903
0.738809 0.673226 0.328249
0.827403 0.656530 0.354651
0.877458 0.646801 0.404273
0.363215 0.875624 0.370938
0.376781 0.874828 0.374313
0.436846 0.868923 0.381362
0.522023 0.858845 0.393731
0.615527 0.841492 0.405080
0.706336 0.827286 0.426472
0.793791 0.815574 0.456036
0.849975 0.804782 0.480992
0.887154 0.788944 0.534299
0.546458 0.913079 0.540288
0.551489 0.912879 0.540223
0.572074 0.912033 0.539609
0.614424 0.909485 0.540444
0.684940 0.901304 0.555493
0.768870 0.893207 0.573598
0.831912 0.886929 0.600664
0.868616 0.879187 0.647945
0.893393 0.873504 0.685742
0.760386 0.907919 0.753090
0.762689 0.907948 0.752885
0.772079 0.908116 0.752148
0.788925 0.908461 0.750445
0.811002 0.909033 0.747159
0.835413 0.908173 0.752494
0.858597 0.906690 0.762259
0.879074 0.904086 0.783267
0.896034 0.900501 0.810697
0.065153 0.073124 0.228213
0.129032 0.076527 0.205705
0.195207 0.080759 0.176931
0.273917 0.087043 0.184561
0.377836 0.112678 0.188970
0.492294 0.140740 0.194950
0.588259 0.166746 0.200837
0.686604 0.192495 0.210283
0.792044 0.224388 0.232970
0.082715 0.139768 0.239830
0.130547 0.138615 0.231601
0.206150 0.121730 0.195657
0.293419 0.115930 0.192188
0.400895 0.127411 0.189690
0.507772 0.144075 0.189826
0.598029 0.168850 0.195089
0.697124 0.195643 0.205180
0.800158 0.225777 0.232605
0.123198 0.243732 0.263757
0.158473 0.237729 0.250485
0.218168 0.233942 0.236701
0.324754 0.220605 0.221112
0.452358 0.228766 0.217152
0.555987 0.232064 0.209702
0.634018 0.233133 0.201499
0.734575 0.224760 0.203991
0.828101 0.233722 0.222499
0.172664 0.408489 0.296685
0.194116 0.404687 0.294319
0.260774 0.388176 0.278228
0.363323 0.381691 0.260758
0.510775 0.385720 0.256209
0.616363 0.380164 0.244873
0.686918 0.356633 0.230009
0.781579 0.339830 0.236037
0.854821 0.341171 0.256400
0.214568 0.587052 0.325875
0.231993 0.584463 0.325102
0.308850 0.572163 0.321739
0.415307 0.553541 0.308454
0.517960 0.541528 0.290075
0.615447 0.538728 0.280396
0.718690 0.530650 0.281966
0.815726 0.504174 0.292129
0.871916 0.490688 0.319220
0.282423 0.750760 0.364275
0.301812 0.748517 0.364285
0.361470 0.740279 0.365464
0.467784 0.718850 0.358572
0.565599 0.698253 0.350456
0.654444 0.684269 0.346870
0.744950 0.675052 0.362549
0.836263 0.657732 0.380225
0.883982 0.642785 0.412949
0.381416 0.874674 0.434436
0.396380 0.873301 0.434448
0.449210 0.868356 0.434886
0.530278 0.859306 0.435870
0.621706 0.842770 0.441287
0.710269 0.828390 0.458721
0.796321 0.816521 0.481511
0.851934 0.806345 0.506757
0.890685 0.789738 0.543883
0.549812 0.913225 0.563625
0.554294 0.913354 0.562017
0.574445 0.912796 0.560255
0.621179 0.908756 0.565133
0.690429 0.901028 0.578158
0.772612 0.893000 0.594596
0.833196 0.886783 0.619938
0.869682 0.880059 0.658709
0.894338 0.874215 0.696736
0.764718 0.907437 0.766818
0.766945 0.907477 0.766705
0.775941 0.907646 0.765913
0.791888 0.908005 0.764231
0.813085 0.908611 0.760941
0.836652 0.908291 0.762063
0.859338 0.906796 0.771035
0.879639 0.904448 0.788479
0.896507 0.900827 0.814551
0.087771 0.095040 0.306343
0.139868 0.100513 0.297704
0.211271 0.106077 0.281714
0.304763 0.116088 0.261159
0.420340 0.118330 0.284593
0.531467 0.149379 0.276513
0.619431 0.183442 0.280715
0.713320 0.207875 0.286464
0.810766 0.237675 0.299217
0.109507 0.144385 0.317170
0.138608 0.143406 0.316352
0.216684 0.140449 0.300193
0.318144 0.135593 0.273715
0.438528 0.132475 0.293309
0.544533 0.154807 0.278023
0.629861 0.186695 0.279868
0.722445 0.209980 0.283861
0.817285 0.240781 0.296869
0.135490 0.235333 0.343751
0.161308 0.235612 0.341730
0.222930 0.240266 0.346274
0.342456 0.229289 0.323447
0.481137 0.236115 0.324139
0.583635 0.235948 0.307756
0.664983 0.230156 0.293066
0.760021 0.231626 0.276554
0.841992 0.256179 0.282764
0.167919 0.381986 0.391057
0.188086 0.380900 0.388323
0.255948 0.377144 0.380827
0.361282 0.381687 0.378262
0.530970 0.383288 0.379852
0.630585 0.377271 0.354258
0.708963 0.357979 0.329718
0.804009 0.346546 0.308294
0.873748 0.324904 0.299360
0.213531 0.563516 0.444946
0.234003 0.565397 0.443324
0.312158 0.562674 0.444632
0.417686 0.548028 0.431974
0.523944 0.543492 0.410396
0.636276 0.543035 0.394947
0.734507 0.531147 0.375404
0.828913 0.506648 0.352578
0.885853 0.477569 0.360465
0.299349 0.727456 0.494245
0.313279 0.727423 0.495945
0.376601 0.720725 0.494866
0.474550 0.705084 0.484824
0.570707 0.692507 0.468638
0.662486 0.685790 0.448946
0.756760 0.676369 0.433289
0.844198 0.661214 0.432798
0.893755 0.639397 0.451802
0.416218 0.859739 0.541876
0.427674 0.859051 0.541872
0.470421 0.856059 0.541753
0.544268 0.848089 0.538106
0.626831 0.835777 0.533438
0.714339 0.825921 0.524786
0.800032 0.817670 0.524258
0.855446 0.808765 0.545542
0.895968 0.794342 0.573125
0.560006 0.910086 0.621941
0.564365 0.910230 0.620556
0.588761 0.908768 0.619667
0.637104 0.904896 0.621205
0.701168 0.899639 0.623523
0.779418 0.892796 0.634658
0.835753 0.886730 0.654637
0.871488 0.881325 0.680386
0.895786 0.875220 0.714425
0.773071 0.906419 0.789917
0.775062 0.906474 0.789849
0.783113 0.906727 0.789274
0.797518 0.907143 0.787844
0.817026 0.907806 0.785044
0.839202 0.908683 0.779857
0.860775 0.907055 0.786408
0.880666 0.905208 0.798172
0.897450 0.901471 0.821786
0.113540 0.117633 0.401722
0.154989 0.123605 0.406983
0.223544 0.132340 0.410808
0.334021 0.145338 0.395631
0.459890 0.167279 0.382566
0.564666 0.169689 0.402407
0.656596 0.193707 0.389793
0.745709 0.223262 0.391985
0.833052 0.265897 0.401685
0.133445 0.154957 0.416615
0.150829 0.154587 0.422035
0.225758 0.160942 0.427448
0.343388 0.169033 0.412517
0.473285 0.177934 0.393442
0.573665 0.171343 0.408391
0.665753 0.196834 0.392639
0.753682 0.226722 0.393019
0.838280 0.269040 0.401412
0.156481 0.240298 0.452425
0.179169 0.242973 0.457553
0.229891 0.247601 0.462415
0.365831 0.250468 0.453493
0.513004 0.255808 0.441469
0.601932 0.233119 0.441838
0.696242 0.235582 0.409984
0.790235 0.242294 0.394927
0.858217 0.283245 0.398341
0.182082 0.374532 0.493719
0.194756 0.376332 0.494276
0.253997 0.378086 0.491858
0.369592 0.389892 0.501838
0.546225 0.394759 0.506194
0.642025 0.378604 0.483277
0.732910 0.361434 0.452115
0.827359 0.343078 0.428994
0.886073 0.339537 0.397474
0.218180 0.541418 0.539550
0.227341 0.541534 0.538929
0.300323 0.540205 0.536778
0.415169 0.538029 0.534334
0.524350 0.544573 0.530529
0.650843 0.538966 0.519817
0.752738 0.526657 0.495655
0.843878 0.506554 0.469960
0.895863 0.488564 0.440819
0.305078 0.697317 0.588342
0.322290 0.697687 0.589126
0.384237 0.699354 0.591479
0.479947 0.697504 0.588651
0.573918 0.685560 0.578544
0.665240 0.684860 0.560193
0.773287 0.674621 0.542253
0.852042 0.661699 0.523755
0.900051 0.641476 0.515889
0.439029 0.842431 0.649471
0.448157 0.842487 0.650451
0.485433 0.841198 0.652120
0.554675 0.834094 0.647391
0.634042 0.824956 0.637211
0.718315 0.818003 0.624775
0.803799 0.816813 0.609461
0.861397 0.812595 0.598461
0.900694 0.798463 0.622779
0.590727 0.900325 0.708331
0.596185 0.900095 0.708714
0.618864 0.899136 0.710292
0.658523 0.896899 0.711387
0.716639 0.892932 0.709150
0.786050 0.889032 0.705954
0.839390 0.886543 0.699948
0.873268 0.881823 0.716561
0.897931 0.876427 0.739067
0.783727 0.905210 0.817078
0.785460 0.905245 0.816999
0.792647 0.905398 0.816576
0.805457 0.905857 0.815550
0.822761 0.906644 0.813320
0.842725 0.907571 0.809019
0.863111 0.907745 0.806587
0.882216 0.906403 0.812138
0.899006 0.902586 0.832114
0.142616 0.146013 0.511956
0.174432 0.152328 0.522821
0.233393 0.163385 0.527153
0.361126 0.177477 0.540968
0.498329 0.200674 0.527100
0.599584 0.221416 0.502627
0.687075 0.219780 0.511780
0.783321 0.250134 0.507590
0.854390 0.302435 0.508648
0.158616 0.175128 0.527210
0.166010 0.170787 0.534135
0.231118 0.182439 0.538327
0.364748 0.193638 0.553851
0.504399 0.203833 0.536712
0.605446 0.223886 0.508383
0.694079 0.221957 0.516661
0.790278 0.253907 0.509458
0.858127 0.306939 0.510348
0.184158 0.247884 0.555039
0.196342 0.247045 0.559480
0.239154 0.254777 0.562734
0.382784 0.265418 0.578998
0.541052 0.282087 0.577670
0.630230 0.265569 0.534201
0.720691 0.254217 0.539087
0.816196 0.271679 0.517786
0.871916 0.325908 0.516877
0.199649 0.378729 0.592039
0.215645 0.380704 0.592624
0.277134 0.384891 0.595742
0.383702 0.401996 0.614199
0.560483 0.416385 0.622202
0.659993 0.396783 0.585832
0.750356 0.352551 0.578933
0.845259 0.351582 0.544530
0.893173 0.365799 0.525522
0.232378 0.532880 0.629512
0.245811 0.534430 0.631109
0.307603 0.536359 0.632299
0.414292 0.540322 0.636406
0.532581 0.550006 0.639798
0.659443 0.547231 0.627222
0.763471 0.527659 0.610933
0.854044 0.509412 0.584525
0.902192 0.497927 0.562179
0.329542 0.682986 0.679540
0.337235 0.683671 0.680307
0.372230 0.684943 0.682081
0.471104 0.681992 0.677819
0.575075 0.679778 0.673587
0.666915 0.686440 0.669949
0.782455 0.668226 0.650750
0.860351 0.659250 0.632726
0.907097 0.642309 0.609724
0.456583 0.824315 0.731687
0.465597 0.824012 0.731633
0.501675 0.822926 0.731668
0.563892 0.822904 0.734180
0.645847 0.822986 0.732667
0.725728 0.815581 0.725517
0.807570 0.817434 0.711931
0.867467 0.812065 0.698350
0.906012 0.799585 0.683104
0.623210 0.891968 0.792730
0.627774 0.891914 0.793248
0.645920 0.891598 0.795422
0.678463 0.890788 0.799150
0.730919 0.887472 0.795630
0.793592 0.884358 0.789608
0.840611 0.882368 0.779091
0.875029 0.881953 0.763202
0.901165 0.876816 0.773052
0.795318 0.904301 0.842735
0.796626 0.904374 0.842770
0.802040 0.904669 0.842794
0.813282 0.904975 0.842180
0.828951 0.905490 0.840865
0.846763 0.906280 0.837938
0.865551 0.907627 0.832376
0.884005 0.907388 0.832211
0.901119 0.904113 0.844560
0.171799 0.177315 0.614408
0.195732 0.183155 0.622189
0.249587 0.192826 0.634481
0.380262 0.216023 0.656844
0.530487 0.241353 0.665218
0.625799 0.249308 0.629144
0.720414 0.285852 0.604740
0.808986 0.308821 0.608066
0.866489 0.354729 0.628026
0.184799 0.197625 0.625862
0.184508 0.191819 0.628911
0.242959 0.201024 0.643197
0.375982 0.218109 0.664918
0.533269 0.244841 0.674916
0.629818 0.252059 0.634704
0.725576 0.289871 0.608832
0.813581 0.312592 0.611822
0.869000 0.360311 0.630642
0.204782 0.258072 0.654631
0.213277 0.254800 0.658745
0.250046 0.263902 0.665095
0.397586 0.285866 0.698787
0.560783 0.310521 0.715746
0.649694 0.303604 0.663689
0.746809 0.307290 0.626665
0.830872 0.328132 0.628251
0.879169 0.385663 0.639875
0.236767 0.388167 0.688344
0.255178 0.390445 0.693286
0.308123 0.398130 0.702465
0.392286 0.406614 0.714191
0.572187 0.431151 0.744841
0.676495 0.422840 0.705889
0.776706 0.396105 0.661715
0.855084 0.386695 0.662198
0.895052 0.436668 0.648863
0.283698 0.535248 0.727199
0.295214 0.537064 0.729172
0.337711 0.542090 0.735262
0.434282 0.547667 0.741014
0.545217 0.561708 0.753020
0.671141 0.565536 0.735088
0.786663 0.545636 0.709423
0.863391 0.511071 0.707290
0.906924 0.533855 0.680833
0.346767 0.679874 0.774307
0.357192 0.680682 0.775158
0.402589 0.682406 0.776561
0.479833 0.683155 0.776237
0.576781 0.685943 0.776725
0.677555 0.694189 0.776646
0.792415 0.677328 0.753127
0.866507 0.662703 0.743184
0.911713 0.652553 0.724201
0.511775 0.816390 0.811236
0.516099 0.816626 0.811487
0.533040 0.817689 0.812500
0.564359 0.819210 0.814161
0.644496 0.817595 0.811745
0.732496 0.816706 0.808870
0.811107 0.821073 0.806350
0.870818 0.806539 0.792090
0.910365 0.792696 0.771550
0.659742 0.884100 0.840589
0.661835 0.884168 0.840748
0.670639 0.884489 0.841384
0.694126 0.884351 0.841691
0.740303 0.883271 0.841543
0.801667 0.883267 0.840572
0.842665 0.880563 0.836113
0.875086 0.880159 0.825838
0.905301 0.875298 0.811362
0.804778 0.903723 0.861146
0.805665 0.903936 0.861021
0.811954 0.904592 0.860832
0.821085 0.904878 0.862341
0.835145 0.905125 0.863243
0.850960 0.905510 0.862333
0.868163 0.906473 0.859211
0.886014 0.908599 0.852280
0.903727 0.906093 0.858410
0.198235 0.208598 0.721366
0.220440 0.214494 0.727601
0.274761 0.226628 0.741571
0.403408 0.261088 0.773147
0.560634 0.302017 0.788721
0.651895 0.322740 0.752805
0.746984 0.345943 0.723489
0.831291 0.398818 0.706420
0.874067 0.455608 0.713451
0.210460 0.224329 0.732243
0.200325 0.210994 0.728993
0.267148 0.226688 0.746124
0.397127 0.262375 0.779062
0.560905 0.305880 0.795348
0.654591 0.327476 0.758526
0.750130 0.351031 0.727761
0.833804 0.403919 0.709732
0.875235 0.460964 0.716538
0.235426 0.279100 0.754857
0.233417 0.269359 0.757100
0.262160 0.274893 0.772360
0.401612 0.308432 0.810744
0.571948 0.342914 0.825582
0.663748 0.347309 0.783972
0.762779 0.372772 0.746008
0.842579 0.426317 0.723473
0.880257 0.483073 0.729400
0.282649 0.400774 0.793515
0.284713 0.393801 0.797677
0.329212 0.397517 0.806516
0.398286 0.410081 0.815637
0.577204 0.444663 0.859041
0.681816 0.449949 0.822734
0.785237 0.434617 0.783395
0.856514 0.471139 0.750289
0.889694 0.528417 0.755767
0.331793 0.544577 0.821992
0.343818 0.547450 0.825594
0.390104 0.552708 0.831547
0.463182 0.560275 0.837158
0.552303 0.566286 0.841452
0.683711 0.578655 0.844968
0.799010 0.569206 0.817170
0.869131 0.568160 0.791870
0.900835 0.593331 0.794499
0.430783 0.681585 0.843282
0.438086 0.682461 0.843792
0.465721 0.685614 0.845781
0.513184 0.690744 0.849356
0.594893 0.695407 0.850784
0.693913 0.709114 0.854352
0.804994 0.695957 0.837690
0.874917 0.678811 0.823201
0.906910 0.687714 0.824167
0.564474 0.817456 0.860246
0.566631 0.817902 0.860566
0.575558 0.819519 0.861881
0.598011 0.821442 0.863662
0.659838 0.821930 0.863167
0.735318 0.822353 0.861912
0.816739 0.825478 0.860337
0.874250 0.808744 0.848970
0.911357 0.786891 0.838870
0.707539 0.879929 0.870521
0.709198 0.880045 0.870603
0.715943 0.880487 0.870871
0.730956 0.880805 0.871114
0.754927 0.881120 0.871435
0.792177 0.880864 0.870798
0.840073 0.879349 0.868103
0.874051 0.879043 0.865365
0.910451 0.868186 0.852730
0.827009 0.902101 0.877867
0.827619 0.902166 0.877908
0.830170 0.902464 0.878146
0.835126 0.903061 0.878585
0.842525 0.904065 0.879197
0.853117 0.905457 0.879883
0.870002 0.906981 0.879908
0.887178 0.907770 0.877958
0.906845 0.908506 0.873354
0.230832 0.245742 0.825048
0.257704 0.254481 0.829612
0.304708 0.275191 0.837363
0.430387 0.326886 0.877674
0.583895 0.382866 0.875106
0.670485 0.415321 0.853065
0.760322 0.447711 0.831317
0.836073 0.499858 0.811469
0.878188 0.561822 0.802216
0.246465 0.263202 0.831797
0.233321 0.248369 0.829834
0.297794 0.274674 0.840168
0.420022 0.326547 0.877748
0.581950 0.386293 0.878591
0.670498 0.419948 0.856107
0.761513 0.452643 0.834160
0.837531 0.505075 0.814059
0.879088 0.566515 0.804466
0.283522 0.311530 0.847307
0.279992 0.302828 0.848546
0.277553 0.292576 0.852560
0.380951 0.329890 0.877761
0.568612 0.398286 0.892271
0.668668 0.439179 0.868304
0.765806 0.473510 0.845195
0.843197 0.527568 0.824350
0.882498 0.586251 0.813349
0.342153 0.415210 0.865712
0.340032 0.407850 0.867056
0.354041 0.397954 0.873593
0.396613 0.408778 0.880818
0.554046 0.453910 0.908493
0.673243 0.500058 0.890469
0.774368 0.516618 0.863831
0.852468 0.569458 0.841511
0.887922 0.622652 0.828117
0.405836 0.558524 0.878550
0.407063 0.554171 0.879865
0.436849 0.555353 0.885109
0.486812 0.556368 0.889537
0.548429 0.560622 0.893052
0.679592 0.588695 0.901909
0.793578 0.605871 0.880746
0.862424 0.630669 0.861758
0.894855 0.677135 0.845004
0.517716 0.696955 0.884174
0.521474 0.697412 0.884728
0.536404 0.699196 0.886994
0.564272 0.702404 0.891138
0.629261 0.708358 0.892822
0.694592 0.707472 0.894726
0.806961 0.705049 0.888116
0.868860 0.714327 0.875893
0.901946 0.745129 0.860903
0.641227 0.822188 0.887280
0.642622 0.822273 0.887530
0.649621 0.822525 0.888506
0.669160 0.823939 0.890350
0.699166 0.825049 0.893030
0.746323 0.824414 0.895708
0.813206 0.821335 0.894913
0.873351 0.807374 0.888163
0.906580 0.821484 0.874462
0.767720 0.877757 0.888584
0.768775 0.877830 0.888695
0.773190 0.878107 0.889159
0.781657 0.878660 0.890113
0.793328 0.879210 0.891706
0.807371 0.879288 0.894105
0.835857 0.878001 0.895065
0.870966 0.875868 0.897331
0.910114 0.867908 0.886292
0.851172 0.901405 0.892071
0.851605 0.901471 0.892136
0.853450 0.901748 0.892417
0.857075 0.902301 0.892990
0.862505 0.903187 0.893889
0.869758 0.904454 0.895123
0.878562 0.906101 0.896706
0.889122 0.907958 0.898526
0.907483 0.908079 0.897859
