Zoran/FilmFeel 02.cube
TITLE "Generated by 3D LUT Creator Pro (c) Oleg Sharonov"
LUT_3D_SIZE 25
#IMAGEPROFILE ProPhoto RGB v.2.10
#INPUTGAMMA ProPhoto RGB v.2.10
#OUTPUTGAMMA ProPhoto RGB v.2.10
0.044213 0.045995 0.050660
0.059868 0.047687 0.051920
0.078290 0.049376 0.053800
0.098690 0.052743 0.056293
0.120594 0.056659 0.060006
0.143999 0.061680 0.064307
0.172441 0.067799 0.069784
0.202518 0.075047 0.075834
0.232909 0.082668 0.083036
0.264491 0.090256 0.090073
0.297042 0.098224 0.097672
0.329874 0.106152 0.104820
0.362123 0.114411 0.111986
0.393468 0.122678 0.119469
0.423846 0.131275 0.126568
0.453928 0.140397 0.133974
0.483762 0.150489 0.141400
0.513281 0.161358 0.149457
0.542551 0.172765 0.158024
0.571357 0.184520 0.167196
0.599635 0.196804 0.176565
0.627476 0.209543 0.186505
0.654562 0.222439 0.196516
0.681201 0.235667 0.206835
0.706925 0.248955 0.217465
0.053381 0.075183 0.061202
0.067413 0.070123 0.063058
0.088654 0.072942 0.064306
0.107922 0.074068 0.066157
0.128967 0.077338 0.069223
0.153101 0.081385 0.073482
0.180291 0.086058 0.078312
0.208317 0.090818 0.084247
0.238579 0.096438 0.090644
0.269980 0.102752 0.096830
0.302099 0.108962 0.103258
0.334218 0.115746 0.109845
0.366055 0.123028 0.116532
0.396766 0.130759 0.123585
0.426726 0.138750 0.130364
0.456539 0.147692 0.137502
0.486213 0.157479 0.144781
0.515583 0.167920 0.152588
0.544585 0.178824 0.161110
0.573212 0.190338 0.170193
0.601494 0.202144 0.179446
0.628973 0.214428 0.189040
0.655930 0.226896 0.198737
0.682449 0.239720 0.208982
0.707948 0.252830 0.219338
0.066847 0.104791 0.077132
0.081919 0.105153 0.075318
0.095113 0.098187 0.083779
0.117212 0.101564 0.086602
0.138079 0.101188 0.086048
0.162043 0.102621 0.087657
0.188605 0.105078 0.091254
0.216900 0.108822 0.095564
0.246432 0.112741 0.100438
0.277248 0.117757 0.105746
0.309208 0.123445 0.111382
0.340660 0.129171 0.117266
0.371943 0.135776 0.123327
0.401986 0.143244 0.129544
0.431547 0.151348 0.135925
0.461173 0.160249 0.142467
0.490352 0.169799 0.149736
0.519569 0.180106 0.157775
0.548287 0.190563 0.165938
0.576653 0.201630 0.174862
0.604473 0.213001 0.183932
0.631944 0.224852 0.193357
0.658825 0.237112 0.203126
0.685008 0.249509 0.213019
0.710434 0.262198 0.223468
0.084058 0.139083 0.095677
0.096170 0.139099 0.094741
0.111599 0.138844 0.092815
0.124186 0.128961 0.102758
0.147800 0.132320 0.104798
0.171943 0.130620 0.103537
0.197570 0.130863 0.105120
0.225278 0.132763 0.107820
0.254864 0.135447 0.111508
0.285841 0.139510 0.116033
0.317327 0.144180 0.120925
0.348254 0.149723 0.125813
0.378822 0.156106 0.131297
0.408523 0.163543 0.137032
0.437758 0.171122 0.143011
0.466988 0.179559 0.149753
0.496035 0.188767 0.157009
0.524892 0.198186 0.164930
0.553470 0.208263 0.173148
0.581449 0.218697 0.181569
0.609179 0.229662 0.190392
0.636295 0.240879 0.199816
0.662890 0.252506 0.209377
0.688883 0.264283 0.219300
0.714042 0.276542 0.229380
0.102646 0.182455 0.114526
0.112727 0.181977 0.114176
0.125739 0.181498 0.112026
0.142832 0.173501 0.115927
0.158648 0.164716 0.121562
0.185602 0.170101 0.123399
0.210886 0.166609 0.121780
0.236932 0.165249 0.122359
0.265883 0.166588 0.124771
0.295919 0.169532 0.127994
0.326471 0.173513 0.131954
0.357114 0.178228 0.136573
0.387017 0.183899 0.141522
0.416288 0.190471 0.146931
0.445357 0.197392 0.152890
0.474239 0.205111 0.159591
0.503099 0.213332 0.166694
0.531484 0.222237 0.174364
0.559747 0.231326 0.182266
0.587536 0.241206 0.190604
0.614851 0.251182 0.199131
0.641772 0.261820 0.208279
0.668030 0.272659 0.217600
0.693697 0.283839 0.227309
0.718655 0.295301 0.237405
0.122095 0.230660 0.133069
0.130656 0.230254 0.132506
0.143300 0.229631 0.131079
0.160886 0.228780 0.128448
0.179849 0.212477 0.139038
0.199221 0.208551 0.140590
0.227427 0.215267 0.142333
0.253569 0.210193 0.140209
0.279860 0.207387 0.140415
0.308222 0.207387 0.141907
0.337609 0.209733 0.145212
0.367083 0.212990 0.149061
0.396349 0.217589 0.153962
0.424893 0.223019 0.159357
0.453630 0.229014 0.165195
0.482346 0.235752 0.171669
0.510725 0.243183 0.178461
0.539062 0.251048 0.185759
0.566865 0.259507 0.193530
0.594446 0.268309 0.201526
0.621433 0.277602 0.209960
0.648077 0.287327 0.218815
0.674099 0.297259 0.227878
0.699399 0.307770 0.237556
0.724108 0.318487 0.247604
0.142967 0.281800 0.151887
0.151888 0.281271 0.151365
0.164869 0.280926 0.150317
0.181205 0.279845 0.148483
0.201782 0.278936 0.144819
0.220639 0.255637 0.165185
0.243545 0.256239 0.161606
0.272621 0.264302 0.163838
0.298874 0.257839 0.161008
0.324152 0.253454 0.160721
0.351350 0.252256 0.161961
0.379234 0.253484 0.164974
0.406933 0.256315 0.169214
0.434818 0.260307 0.174368
0.463110 0.265217 0.179888
0.491242 0.271000 0.185980
0.519363 0.277231 0.192382
0.547230 0.284061 0.199300
0.574826 0.291619 0.206709
0.602120 0.299511 0.214585
0.628914 0.307919 0.222706
0.655154 0.316804 0.231275
0.680783 0.326119 0.240284
0.705816 0.335660 0.249663
0.730136 0.345693 0.259294
0.167044 0.333424 0.173546
0.175996 0.332970 0.173298
0.188062 0.332516 0.172066
0.203924 0.331749 0.170575
0.223019 0.330820 0.168072
0.248045 0.327992 0.166794
0.266567 0.304946 0.189559
0.290471 0.305793 0.185620
0.319425 0.313823 0.187656
0.344737 0.307665 0.184627
0.368414 0.301748 0.183678
0.393694 0.299542 0.184829
0.419768 0.299915 0.187363
0.446647 0.302005 0.191693
0.473770 0.305275 0.196624
0.501381 0.309694 0.202127
0.528860 0.314892 0.208177
0.556314 0.320833 0.214752
0.583559 0.327318 0.221829
0.610440 0.334468 0.229394
0.636879 0.341930 0.237432
0.662852 0.349971 0.245915
0.688238 0.358392 0.254726
0.712855 0.367148 0.263633
0.736868 0.376193 0.272969
0.192964 0.385134 0.196709
0.201309 0.384617 0.196485
0.213183 0.384363 0.195588
0.228007 0.383713 0.194238
0.246362 0.383060 0.192197
0.267587 0.382003 0.188993
0.296689 0.375305 0.197529
0.313857 0.355770 0.215585
0.337934 0.356648 0.211364
0.365761 0.364260 0.212816
0.389271 0.359141 0.210061
0.411185 0.352027 0.208786
0.435029 0.348798 0.209425
0.460500 0.348236 0.211547
0.486421 0.349614 0.215546
0.512923 0.352319 0.220537
0.539660 0.356025 0.226283
0.566472 0.360837 0.232557
0.593049 0.366139 0.239148
0.619555 0.372176 0.246612
0.645569 0.378762 0.254265
0.671120 0.385720 0.262264
0.696126 0.393137 0.270573
0.720433 0.400839 0.279157
0.744114 0.408900 0.288146
0.219753 0.434244 0.220958
0.228199 0.433919 0.220750
0.239331 0.433702 0.220128
0.253623 0.433265 0.218882
0.270739 0.432717 0.217213
0.290791 0.432056 0.214905
0.313540 0.431171 0.210886
0.343009 0.419742 0.230456
0.360635 0.405917 0.243328
0.383767 0.406770 0.238815
0.409735 0.413663 0.239803
0.432010 0.409912 0.237244
0.453314 0.402333 0.235666
0.476346 0.398404 0.235876
0.500975 0.397060 0.237872
0.526130 0.397592 0.241635
0.551820 0.399619 0.246526
0.577716 0.402734 0.252282
0.603711 0.406896 0.258665
0.629447 0.411576 0.265269
0.654971 0.416973 0.272602
0.679995 0.422735 0.280089
0.704599 0.429074 0.288042
0.728568 0.435847 0.296252
0.751791 0.443027 0.304686
0.247692 0.481859 0.246629
0.255828 0.481480 0.246628
0.266567 0.481290 0.245853
0.279954 0.481004 0.244882
0.296240 0.480717 0.243516
0.314743 0.480049 0.241555
0.335615 0.479380 0.238598
0.360249 0.478043 0.235623
0.385830 0.461257 0.264524
0.405165 0.454034 0.272538
0.427566 0.455178 0.267952
0.452736 0.461398 0.268321
0.474340 0.459190 0.266009
0.495105 0.451096 0.264221
0.517523 0.446512 0.264238
0.541253 0.444635 0.265881
0.565731 0.444663 0.269122
0.590436 0.445965 0.274079
0.615372 0.448526 0.279464
0.640415 0.452111 0.285753
0.665137 0.456379 0.292229
0.689690 0.461204 0.299349
0.713739 0.466759 0.306749
0.737195 0.472617 0.314546
0.759939 0.478952 0.322407
0.276086 0.527541 0.272884
0.283800 0.527210 0.272883
0.294033 0.527207 0.272356
0.306810 0.527121 0.271475
0.321902 0.526953 0.270415
0.339010 0.526538 0.268819
0.358269 0.526043 0.266498
0.379471 0.525714 0.263255
0.406150 0.522244 0.265972
0.427714 0.503905 0.300478
0.448492 0.501434 0.301905
0.470617 0.502512 0.297329
0.495043 0.508150 0.297187
0.516031 0.507554 0.295600
0.536336 0.499262 0.293357
0.558063 0.494318 0.293378
0.580911 0.491877 0.294697
0.604755 0.491448 0.297455
0.628496 0.492306 0.302077
0.652420 0.494351 0.307393
0.676442 0.497470 0.313358
0.700148 0.501277 0.319777
0.723503 0.505660 0.326611
0.746385 0.510678 0.333820
0.768589 0.516134 0.341227
0.304543 0.571347 0.299367
0.311961 0.571060 0.299366
0.321494 0.571055 0.298889
0.333317 0.570978 0.298093
0.347356 0.570971 0.297136
0.363311 0.570754 0.295856
0.380927 0.570538 0.294087
0.400001 0.570254 0.291659
0.421131 0.570185 0.287890
0.449967 0.564253 0.300032
0.469672 0.546538 0.336468
0.491252 0.547466 0.331375
0.512907 0.548468 0.326601
0.536543 0.553464 0.326052
0.556802 0.554447 0.325071
0.576858 0.546367 0.322788
0.597814 0.541123 0.322522
0.619920 0.538400 0.323848
0.642691 0.537560 0.326314
0.665716 0.538065 0.330447
0.688615 0.539674 0.335614
0.711419 0.542215 0.341213
0.734048 0.545586 0.347471
0.756155 0.549607 0.353950
0.777756 0.554103 0.360869
0.332664 0.612542 0.325426
0.339733 0.612294 0.325568
0.348681 0.612348 0.325138
0.359662 0.612279 0.324709
0.372485 0.612210 0.323992
0.387003 0.612202 0.322843
0.403079 0.612257 0.321256
0.421028 0.612130 0.319367
0.440706 0.612125 0.316727
0.463021 0.611879 0.313612
0.493007 0.604250 0.336372
0.511793 0.590439 0.365111
0.533082 0.591424 0.360253
0.554371 0.592343 0.355666
0.576980 0.596801 0.354553
0.596477 0.598974 0.354067
0.616134 0.591393 0.351796
0.636559 0.586335 0.351563
0.657827 0.583345 0.352740
0.679732 0.582224 0.355054
0.701720 0.582455 0.358592
0.723598 0.583700 0.363539
0.745327 0.585877 0.368974
0.766660 0.588769 0.374854
0.787472 0.592351 0.381023
0.360075 0.650758 0.351197
0.366623 0.650648 0.351196
0.375065 0.650639 0.351068
0.385062 0.650578 0.350812
0.396904 0.650568 0.350301
0.410363 0.650661 0.349402
0.425440 0.650804 0.347981
0.442249 0.651051 0.346291
0.460833 0.651141 0.344326
0.480935 0.651285 0.341280
0.506215 0.649564 0.342493
0.534765 0.642060 0.371910
0.553022 0.631748 0.392838
0.573941 0.632802 0.388168
0.594563 0.633632 0.383610
0.616298 0.637518 0.382193
0.635092 0.639574 0.381657
0.654170 0.633866 0.379888
0.674071 0.629092 0.379910
0.694530 0.626167 0.381055
0.715376 0.624876 0.383195
0.736536 0.624900 0.386188
0.757250 0.625841 0.390845
0.777693 0.627633 0.396016
0.797666 0.630145 0.401489
0.386528 0.686182 0.376318
0.392638 0.686130 0.376318
0.400365 0.686120 0.376319
0.409802 0.686198 0.376090
0.420886 0.686230 0.375748
0.433623 0.686349 0.375061
0.447893 0.686556 0.374027
0.463728 0.686941 0.372291
0.481118 0.687279 0.370543
0.500009 0.687483 0.368427
0.520663 0.687909 0.365333
0.548269 0.684898 0.371971
0.573951 0.676149 0.404839
0.593218 0.670358 0.419447
0.613525 0.671348 0.414866
0.633557 0.672242 0.410604
0.654276 0.675604 0.408759
0.672314 0.677498 0.408187
0.690712 0.673557 0.407016
0.710024 0.669127 0.407237
0.729706 0.666407 0.408353
0.749597 0.665022 0.410454
0.769626 0.664897 0.413228
0.789196 0.665648 0.417516
0.808291 0.667170 0.422595
0.411952 0.719245 0.400359
0.417846 0.719235 0.400459
0.425248 0.719263 0.400356
0.434141 0.719327 0.400253
0.444663 0.719388 0.400049
0.456821 0.719602 0.399539
0.470339 0.719815 0.398722
0.485346 0.720219 0.397493
0.501619 0.720737 0.395640
0.519434 0.721137 0.393875
0.538770 0.721536 0.391674
0.559682 0.722049 0.388595
0.588882 0.717998 0.401889
0.612595 0.708998 0.437344
0.632031 0.706423 0.445874
0.651785 0.707432 0.441352
0.671089 0.708318 0.437118
0.690725 0.711201 0.434994
0.708024 0.712985 0.434208
0.725679 0.710640 0.433599
0.744312 0.706615 0.434077
0.763134 0.704091 0.435460
0.782077 0.702868 0.437560
0.800891 0.702638 0.440360
0.818850 0.703283 0.444193
0.437061 0.750024 0.423705
0.442767 0.750047 0.423797
0.449865 0.750101 0.423796
0.458346 0.750187 0.423702
0.468345 0.750304 0.423513
0.479797 0.750485 0.423232
0.492693 0.750799 0.422575
0.506923 0.751178 0.421635
0.522295 0.751689 0.420126
0.538954 0.752332 0.418038
0.557172 0.752804 0.416512
0.576585 0.753375 0.414112
0.599823 0.752977 0.414217
0.628222 0.748657 0.434287
0.650363 0.740532 0.470191
0.669526 0.740197 0.472033
0.688486 0.741168 0.467583
0.707016 0.741998 0.463475
0.725650 0.744583 0.461050
0.742121 0.746220 0.460256
0.758738 0.745262 0.459955
0.776746 0.741677 0.460811
0.794690 0.739446 0.462329
0.812343 0.738332 0.464501
0.828937 0.738144 0.467398
0.461910 0.778719 0.446774
0.467350 0.778737 0.446860
0.474082 0.778782 0.446858
0.482260 0.778882 0.446858
0.491773 0.779067 0.446770
0.502646 0.779280 0.446511
0.514809 0.779549 0.445992
0.528310 0.779961 0.445300
0.542969 0.780459 0.444172
0.558730 0.781070 0.442428
0.575639 0.781737 0.440411
0.594030 0.782342 0.438737
0.613492 0.783031 0.436252
0.639226 0.781598 0.440970
0.666221 0.777721 0.466840
0.686901 0.770577 0.502082
0.705447 0.771626 0.497845
0.723497 0.772522 0.493478
0.741197 0.773387 0.489423
0.758737 0.775705 0.486757
0.774332 0.777264 0.485961
0.789833 0.777378 0.485998
0.806979 0.774361 0.487168
0.823314 0.772455 0.488948
0.838653 0.771510 0.491328
0.486285 0.805286 0.469370
0.491556 0.805350 0.469529
0.498024 0.805411 0.469528
0.505837 0.805572 0.469607
0.514894 0.805730 0.469527
0.525227 0.805962 0.469367
0.536839 0.806242 0.469048
0.549585 0.806622 0.468488
0.563498 0.807076 0.467527
0.578467 0.807704 0.466241
0.594426 0.808431 0.464383
0.611557 0.809103 0.462515
0.629922 0.809845 0.460804
0.649244 0.810636 0.458007
0.676697 0.808464 0.468070
0.702618 0.805034 0.499240
0.721849 0.799796 0.527466
0.739578 0.800856 0.523314
0.756717 0.801732 0.519039
0.773514 0.802606 0.515119
0.789876 0.804656 0.512195
0.804503 0.806151 0.511474
0.818242 0.807136 0.511660
0.833521 0.804657 0.513238
0.847837 0.803135 0.515302
0.510244 0.829881 0.491719
0.515350 0.829933 0.491793
0.521568 0.830048 0.491941
0.529035 0.830160 0.491940
0.537665 0.830334 0.491940
0.547490 0.830593 0.491866
0.558518 0.830870 0.491645
0.570616 0.831231 0.491201
0.583823 0.831653 0.490535
0.598037 0.832202 0.489496
0.613200 0.832875 0.488004
0.629194 0.833670 0.485903
0.646456 0.834329 0.484323
0.664633 0.835066 0.482431
0.685784 0.835289 0.482298
0.712377 0.833392 0.495279
0.736483 0.829799 0.530598
0.754983 0.826804 0.552416
0.771798 0.827835 0.548359
0.788022 0.828706 0.544250
0.803785 0.829573 0.540404
0.818473 0.831339 0.537349
0.831146 0.832740 0.536574
0.842753 0.834188 0.536890
0.856280 0.832475 0.538551
0.533832 0.851481 0.513647
0.538776 0.851554 0.513785
0.544817 0.851641 0.513922
0.551892 0.851761 0.513991
0.560117 0.851913 0.513992
0.569461 0.852114 0.513992
0.579993 0.852401 0.513857
0.591475 0.852701 0.513583
0.604006 0.853086 0.513035
0.617496 0.853572 0.512210
0.631798 0.854107 0.511038
0.647004 0.854792 0.509374
0.663028 0.855540 0.507281
0.680188 0.856141 0.505815
0.698146 0.856890 0.503776
0.721153 0.856528 0.507343
0.746375 0.854772 0.525743
0.768825 0.851761 0.561623
0.786235 0.850458 0.576945
0.802050 0.851414 0.572990
0.816745 0.852174 0.568989
0.830461 0.852969 0.565349
0.843039 0.854464 0.562144
0.853975 0.855660 0.563264
0.862960 0.857474 0.568950
0.557008 0.870082 0.535269
0.561791 0.870152 0.535398
0.567535 0.870233 0.535526
0.574362 0.870340 0.535655
0.582202 0.870487 0.535719
0.591145 0.870689 0.535721
0.601037 0.870902 0.535659
0.611989 0.871184 0.535406
0.623931 0.871562 0.535090
0.636685 0.871952 0.534453
0.650265 0.872425 0.533495
0.664666 0.872992 0.532212
0.679773 0.873655 0.530340
0.695746 0.874309 0.528525
0.712678 0.874941 0.527032
0.730285 0.875680 0.524741
0.754887 0.874841 0.533033
0.779496 0.873011 0.563187
0.803074 0.869130 0.626593
0.817819 0.868708 0.643041
0.830086 0.869723 0.641559
0.841476 0.870676 0.639849
0.852257 0.871648 0.639180
0.861429 0.873018 0.651480
0.870256 0.875472 0.635980
0.634906 0.880512 0.615816
0.638918 0.880546 0.616699
0.643871 0.880627 0.617920
0.649485 0.880706 0.619136
0.655949 0.880807 0.620590
0.663161 0.880930 0.622133
0.671276 0.881088 0.623955
0.680172 0.881294 0.625956
0.689768 0.881548 0.628134
0.700176 0.881874 0.630670
0.711101 0.882260 0.633187
0.722497 0.882707 0.635775
0.734411 0.883249 0.638480
0.746773 0.883886 0.641342
0.759721 0.884477 0.644935
0.773228 0.885134 0.649188
0.787922 0.885619 0.654546
0.807017 0.884928 0.670655
0.824846 0.883357 0.703947
0.836426 0.883772 0.720552
0.845572 0.884679 0.724044
0.854136 0.885682 0.725909
0.862225 0.886652 0.727961
0.869999 0.887716 0.731300
0.878009 0.890355 0.712358
0.721627 0.887390 0.705266
0.724337 0.887461 0.706197
0.727651 0.887565 0.707445
0.731407 0.887691 0.708758
0.735822 0.887837 0.710382
0.740961 0.888038 0.712416
0.746518 0.888249 0.714573
0.752652 0.888515 0.716987
0.759315 0.888825 0.719686
0.766516 0.889202 0.722761
0.774226 0.889655 0.726166
0.782299 0.890151 0.729821
0.790651 0.890735 0.733682
0.799383 0.891392 0.737993
0.808250 0.892157 0.742668
0.817062 0.893006 0.747563
0.825974 0.893867 0.753346
0.835597 0.894662 0.760037
0.845597 0.895316 0.768139
0.854314 0.896170 0.777810
0.861949 0.897147 0.788292
0.868633 0.898143 0.793561
0.874921 0.899215 0.799078
0.880813 0.900400 0.805329
0.886362 0.901671 0.812676
0.046369 0.047677 0.060561
0.064710 0.049364 0.069172
0.083253 0.050491 0.067965
0.104075 0.053295 0.069815
0.125780 0.056649 0.072265
0.150745 0.061103 0.075301
0.179537 0.066094 0.079518
0.210550 0.071647 0.083659
0.242498 0.078670 0.088559
0.275214 0.085370 0.093527
0.306785 0.093878 0.100292
0.337975 0.102220 0.107171
0.369004 0.110815 0.114461
0.399230 0.119652 0.121391
0.428965 0.128446 0.128628
0.458412 0.137880 0.135617
0.487691 0.147961 0.142960
0.516796 0.158871 0.151027
0.545632 0.170362 0.159574
0.574053 0.182474 0.168703
0.601992 0.194844 0.178015
0.629532 0.207666 0.187665
0.656397 0.220643 0.197633
0.682627 0.233950 0.207914
0.708189 0.247520 0.218510
0.053902 0.075719 0.084314
0.073316 0.075726 0.083174
0.086210 0.068995 0.075915
0.110395 0.072369 0.078363
0.133105 0.073487 0.077757
0.157947 0.077296 0.080772
0.185125 0.081809 0.084856
0.213113 0.087334 0.089671
0.242197 0.093230 0.094564
0.272909 0.099798 0.100375
0.304566 0.106214 0.106471
0.336272 0.113505 0.112767
0.367859 0.120928 0.119198
0.398227 0.128496 0.125721
0.428051 0.136804 0.132353
0.457659 0.145728 0.139099
0.487233 0.155532 0.146353
0.516443 0.166295 0.154156
0.545370 0.177259 0.162649
0.573930 0.188835 0.171436
0.601987 0.200701 0.180639
0.629574 0.213044 0.190187
0.656480 0.225570 0.200064
0.682951 0.238662 0.210265
0.708407 0.251615 0.220584
0.067374 0.105141 0.096138
0.078251 0.099320 0.089260
0.096195 0.098948 0.091825
0.115474 0.098949 0.092328
0.140437 0.100815 0.093305
0.164539 0.101151 0.092786
0.190630 0.103291 0.095146
0.219143 0.106763 0.098747
0.248864 0.111095 0.103385
0.279438 0.116188 0.108084
0.310714 0.121653 0.113540
0.341997 0.127744 0.118928
0.372999 0.134401 0.124863
0.402910 0.141568 0.130982
0.432574 0.149951 0.137276
0.461939 0.158870 0.144033
0.491205 0.168455 0.151308
0.520135 0.178550 0.159069
0.548870 0.189314 0.167452
0.577304 0.200427 0.176080
0.605123 0.211843 0.185102
0.632490 0.223740 0.194486
0.659369 0.236045 0.204216
0.685464 0.248486 0.214287
0.710888 0.261219 0.224496
0.084899 0.139369 0.111352
0.091346 0.131190 0.103991
0.107272 0.131481 0.102755
0.124187 0.128110 0.107977
0.145978 0.129243 0.109491
0.174109 0.130057 0.108690
0.199318 0.129737 0.109024
0.227072 0.131373 0.110839
0.256869 0.134354 0.114019
0.287643 0.138130 0.118060
0.318500 0.142790 0.122824
0.349683 0.148329 0.127604
0.380075 0.154721 0.132990
0.409630 0.161904 0.138637
0.438674 0.169787 0.144578
0.467906 0.178262 0.151323
0.496797 0.187511 0.158562
0.525588 0.196970 0.166196
0.553916 0.207087 0.174374
0.582090 0.217563 0.182987
0.609713 0.228570 0.191760
0.636832 0.239827 0.200918
0.663382 0.251291 0.210446
0.689332 0.263311 0.220338
0.714453 0.275611 0.230595
0.102971 0.183765 0.126807
0.107204 0.173170 0.122214
0.120831 0.173201 0.119636
0.139691 0.167397 0.122218
0.157640 0.163371 0.125612
0.183779 0.166626 0.127066
0.212564 0.165809 0.125808
0.238289 0.164172 0.125754
0.266768 0.165241 0.127184
0.296874 0.167926 0.130036
0.327466 0.171928 0.133916
0.358243 0.176929 0.138184
0.388004 0.182625 0.143081
0.416977 0.188975 0.148502
0.445984 0.196175 0.154455
0.474973 0.203925 0.161134
0.503547 0.212179 0.168203
0.532030 0.220892 0.175584
0.560122 0.230240 0.183444
0.587937 0.239944 0.191743
0.615427 0.250167 0.200456
0.642156 0.260644 0.209351
0.668512 0.271716 0.218851
0.694139 0.282932 0.228529
0.719058 0.294429 0.238598
0.120980 0.232631 0.141930
0.125383 0.224348 0.139602
0.138830 0.224604 0.138003
0.158627 0.224855 0.136362
0.178221 0.209247 0.143470
0.198141 0.206687 0.143956
0.225646 0.211830 0.145445
0.255226 0.209505 0.143576
0.280706 0.206220 0.143267
0.308987 0.206219 0.144500
0.338426 0.208337 0.147037
0.368045 0.211840 0.150888
0.396980 0.216227 0.155522
0.425657 0.221681 0.160900
0.454326 0.227921 0.166710
0.482982 0.234684 0.173148
0.511380 0.242141 0.179896
0.539396 0.249830 0.187151
0.567415 0.258323 0.194881
0.594949 0.267353 0.202840
0.621895 0.276490 0.211238
0.648547 0.286252 0.219854
0.674400 0.296392 0.229096
0.699793 0.306758 0.238749
0.724467 0.317670 0.248567
0.140582 0.284173 0.159607
0.145612 0.279263 0.158592
0.160364 0.279105 0.157559
0.179816 0.279865 0.155997
0.201584 0.277671 0.153132
0.220441 0.254244 0.168447
0.242793 0.254449 0.165160
0.271076 0.260997 0.166872
0.300288 0.257252 0.164568
0.325012 0.252454 0.163526
0.351995 0.251250 0.164505
0.380030 0.252481 0.166992
0.407642 0.255122 0.171201
0.435465 0.259128 0.175829
0.463533 0.264058 0.181314
0.491783 0.269863 0.187370
0.519930 0.276119 0.193738
0.547749 0.283157 0.200623
0.575243 0.290561 0.207999
0.602447 0.298478 0.215845
0.629264 0.306909 0.223939
0.655567 0.315819 0.232483
0.681203 0.325160 0.241470
0.706199 0.334884 0.250809
0.730487 0.344941 0.260400
0.163065 0.335915 0.179333
0.170230 0.332976 0.180760
0.184184 0.332214 0.180045
0.201348 0.331605 0.178128
0.222019 0.330676 0.174976
0.247873 0.326106 0.177133
0.266044 0.303425 0.192512
0.289829 0.303937 0.188850
0.317972 0.311341 0.190635
0.345792 0.307167 0.188098
0.369249 0.301070 0.186702
0.394225 0.298687 0.187379
0.420254 0.298888 0.189432
0.447004 0.300811 0.193277
0.474260 0.304260 0.198179
0.501830 0.308691 0.203653
0.529341 0.313903 0.209674
0.556755 0.319861 0.216220
0.583964 0.326364 0.223270
0.610864 0.333534 0.230808
0.637268 0.341017 0.238821
0.663164 0.349081 0.247076
0.688565 0.357526 0.255851
0.713192 0.366308 0.264902
0.737175 0.375515 0.274020
0.187105 0.387746 0.200456
0.195850 0.384358 0.203725
0.209000 0.383975 0.203071
0.225222 0.383458 0.201539
0.244670 0.382672 0.199114
0.266894 0.381747 0.195325
0.294319 0.370926 0.205187
0.313266 0.354315 0.218497
0.337260 0.355052 0.214314
0.364678 0.362277 0.215964
0.390135 0.358714 0.213445
0.411684 0.351294 0.211550
0.435491 0.347907 0.211973
0.460755 0.347342 0.213659
0.486892 0.348576 0.217426
0.513212 0.351289 0.222186
0.540058 0.355153 0.227706
0.566838 0.359835 0.233960
0.593497 0.365296 0.240728
0.619915 0.371351 0.247962
0.645947 0.377957 0.255578
0.671467 0.384935 0.263539
0.696443 0.392375 0.271810
0.720759 0.400100 0.280355
0.744412 0.408187 0.289304
0.212538 0.436965 0.223008
0.222595 0.433593 0.227883
0.234886 0.433158 0.227476
0.250488 0.432831 0.226255
0.268658 0.432282 0.224213
0.289664 0.431620 0.221335
0.313098 0.430955 0.216769
0.339946 0.415027 0.235651
0.360143 0.404585 0.246240
0.383213 0.405444 0.241764
0.408934 0.412023 0.242943
0.432752 0.409677 0.240796
0.453921 0.401845 0.238442
0.476830 0.397658 0.238453
0.501274 0.396309 0.240046
0.526544 0.396843 0.243400
0.552138 0.398876 0.248259
0.578068 0.402001 0.253792
0.603982 0.405934 0.259956
0.629794 0.410870 0.266709
0.655245 0.416167 0.273828
0.680372 0.422056 0.281451
0.704868 0.428408 0.289199
0.728849 0.435195 0.297374
0.752048 0.442388 0.305773
0.240484 0.484124 0.248550
0.250492 0.481197 0.253669
0.262320 0.480817 0.253291
0.276752 0.480531 0.252157
0.293859 0.480148 0.250638
0.313263 0.479765 0.248344
0.334797 0.479095 0.244868
