Zoran/FilmFeel 03.cube
TITLE "Generated by 3D LUT Creator Pro (c) Oleg Sharonov"
LUT_3D_SIZE 9
#IMAGEPROFILE ProPhoto RGB v.2.10
#INPUTGAMMA ProPhoto RGB v.2.10
#OUTPUTGAMMA ProPhoto RGB v.2.10
0.037400 0.038000 0.042852
0.080603 0.056985 0.066750
0.133402 0.083223 0.099772
0.201112 0.111470 0.128870
0.278149 0.140637 0.156334
0.359750 0.176382 0.187327
0.435962 0.216275 0.220657
0.504712 0.259223 0.257551
0.567824 0.301897 0.294764
0.073527 0.136082 0.095007
0.132426 0.133012 0.109496
0.186469 0.127573 0.120931
0.245404 0.140142 0.141154
0.313612 0.165887 0.166701
0.384745 0.199112 0.197011
0.453019 0.237001 0.230404
0.518318 0.277001 0.266309
0.578599 0.317128 0.302404
0.135522 0.301228 0.164024
0.188749 0.297515 0.159312
0.270763 0.278628 0.168297
0.327842 0.253555 0.184279
0.380166 0.245383 0.198526
0.437713 0.264031 0.225946
0.496203 0.290821 0.256793
0.553294 0.322357 0.289361
0.606370 0.355666 0.322317
0.215955 0.473386 0.234887
0.256369 0.468844 0.222897
0.351010 0.460459 0.255713
0.424748 0.440781 0.248108
0.472168 0.408793 0.264897
0.513238 0.385416 0.279234
0.560395 0.384739 0.299049
0.606803 0.400280 0.327325
0.650377 0.420427 0.355352
0.291142 0.620787 0.304148
0.330506 0.618380 0.296473
0.409858 0.613029 0.320418
0.495810 0.602987 0.347092
0.559878 0.583772 0.334516
0.600715 0.554406 0.348329
0.634163 0.524089 0.366728
0.669264 0.509901 0.379321
0.704406 0.510312 0.397657
0.358429 0.739141 0.368798
0.397614 0.737818 0.363954
0.458567 0.733111 0.369685
0.546047 0.728415 0.409062
0.618448 0.716923 0.428948
0.672002 0.699923 0.414848
0.706267 0.677286 0.422538
0.733882 0.646882 0.446099
0.759936 0.626780 0.455696
0.441875 0.827058 0.451364
0.479275 0.826598 0.447522
0.514792 0.824414 0.432396
0.582068 0.824354 0.455998
0.657820 0.817831 0.488789
0.717872 0.806312 0.504407
0.761929 0.791836 0.488776
0.790712 0.775678 0.487254
0.812133 0.746904 0.513939
0.535586 0.880503 0.540710
0.574848 0.880518 0.540802
0.616766 0.880516 0.541644
0.677760 0.880509 0.572344
0.733934 0.877890 0.614550
0.773287 0.871721 0.642590
0.802613 0.865767 0.638833
0.829893 0.860098 0.567282
0.846997 0.849254 0.587542
0.561774 0.923901 0.568382
0.600633 0.923917 0.568452
0.640493 0.923977 0.568774
0.687340 0.922692 0.579503
0.747667 0.916574 0.627678
0.796584 0.910793 0.676671
0.833412 0.905949 0.725522
0.858973 0.903744 0.766365
0.876718 0.904434 0.803941
0.032443 0.034862 0.083845
0.091486 0.050958 0.102142
0.139944 0.082756 0.116003
0.206064 0.110512 0.139147
0.282177 0.139813 0.165754
0.363140 0.175880 0.195932
0.439323 0.215621 0.228200
0.510986 0.256574 0.262336
0.574360 0.298784 0.297984
0.062615 0.137378 0.149392
0.133477 0.129071 0.153153
0.185120 0.119376 0.138123
0.249295 0.133658 0.150708
0.315701 0.157678 0.171678
0.383610 0.188459 0.197465
0.445115 0.221710 0.225362
0.512000 0.263920 0.261788
0.573593 0.305981 0.298459
0.126093 0.303121 0.218028
0.184241 0.284503 0.211347
0.261799 0.268440 0.193245
0.330831 0.244382 0.194573
0.388664 0.241808 0.206367
0.444270 0.258981 0.229189
0.495670 0.285366 0.255868
0.552671 0.317551 0.288541
0.605967 0.351646 0.321597
0.210361 0.471626 0.280921
0.254921 0.459921 0.281184
0.340493 0.454487 0.283604
0.417799 0.432732 0.265956
0.473895 0.405022 0.273915
0.518049 0.380964 0.282134
0.562470 0.381399 0.300164
0.607318 0.397272 0.327330
0.650685 0.417839 0.355231
0.287017 0.619121 0.346882
0.330773 0.612128 0.348069
0.400388 0.609412 0.352763
0.490203 0.598670 0.368155
0.557373 0.580222 0.349498
0.600455 0.551800 0.355056
0.636227 0.521373 0.368284
0.670232 0.507543 0.378989
0.705245 0.508773 0.398073
0.355414 0.737812 0.409884
0.398145 0.734460 0.411547
0.452004 0.731132 0.407030
0.541428 0.726158 0.436403
0.615955 0.714854 0.446670
0.670817 0.698173 0.427292
0.705926 0.675877 0.428729
0.734831 0.646046 0.446537
0.760859 0.625722 0.455869
0.436801 0.826723 0.488113
0.476051 0.825564 0.487743
0.510280 0.823660 0.471111
0.578550 0.823506 0.487414
0.655634 0.816844 0.511948
0.716691 0.805371 0.519805
0.761522 0.791103 0.499816
0.790119 0.774858 0.492354
0.812906 0.746741 0.515517
0.535275 0.880563 0.579595
0.574538 0.880578 0.579687
0.616262 0.880628 0.580254
0.677291 0.880600 0.606647
0.732627 0.877610 0.640125
0.772482 0.871449 0.660970
0.802246 0.865455 0.652065
0.829774 0.859802 0.579407
0.847330 0.849514 0.596174
0.561736 0.923949 0.607160
0.600608 0.923964 0.607230
0.640468 0.924024 0.607538
0.687220 0.922757 0.616778
0.747583 0.916644 0.658117
0.796525 0.910839 0.700277
0.833412 0.905998 0.742447
0.859005 0.903794 0.778177
0.876835 0.904543 0.812136
0.036907 0.042803 0.143584
0.092665 0.050390 0.170409
0.160068 0.076817 0.171100
0.226054 0.107748 0.173919
0.292820 0.137332 0.188098
0.370983 0.174360 0.215722
0.445842 0.214967 0.246573
0.516829 0.256584 0.279283
0.581744 0.298140 0.311807
0.054052 0.126789 0.202499
0.106514 0.122338 0.199902
0.189854 0.116425 0.199999
0.259778 0.128330 0.188904
0.321035 0.152010 0.197753
0.387900 0.184332 0.219859
0.453555 0.219994 0.247538
0.522844 0.260947 0.279800
0.586391 0.301776 0.312114
0.105016 0.281698 0.290205
0.154544 0.267691 0.276122
0.267750 0.263882 0.289822
0.322496 0.229004 0.241584
0.397371 0.231007 0.240917
0.461143 0.249981 0.254368
0.514875 0.274149 0.272874
0.564223 0.300750 0.294283
0.597287 0.323216 0.313327
0.192259 0.458469 0.348155
0.234628 0.450566 0.347640
0.321052 0.431598 0.342581
0.402977 0.414958 0.318110
0.468257 0.381867 0.304210
0.528794 0.372728 0.307763
0.574862 0.374981 0.318183
0.619003 0.387295 0.335037
0.651443 0.404924 0.354228
0.271531 0.612464 0.400289
0.315829 0.605609 0.402498
0.388862 0.592234 0.407924
0.472458 0.584824 0.405475
0.544479 0.566134 0.386049
0.597593 0.538183 0.381850
0.641420 0.513234 0.382075
0.678513 0.498864 0.385338
0.708298 0.500870 0.399415
0.343621 0.732453 0.457847
0.386656 0.729178 0.460064
0.447768 0.720435 0.465732
0.524268 0.718975 0.471577
0.606097 0.707437 0.474928
0.663787 0.690466 0.454355
0.706136 0.669761 0.451619
0.738608 0.640719 0.453465
0.764808 0.620684 0.456469
0.414561 0.825399 0.520120
0.454586 0.824210 0.520612
0.501103 0.819529 0.518648
0.565224 0.820527 0.522943
0.646782 0.813583 0.541638
0.712015 0.801935 0.542327
0.758180 0.787429 0.521519
0.791756 0.772732 0.512132
0.816235 0.745792 0.518983
0.533951 0.880818 0.619571
0.573240 0.880824 0.619680
0.614960 0.880882 0.620189
0.674956 0.880991 0.640875
0.726907 0.876594 0.663186
0.768859 0.870490 0.678280
0.800777 0.864140 0.669344
0.828866 0.858487 0.605286
0.848726 0.850593 0.617920
0.561583 0.924145 0.646646
0.600443 0.924153 0.646715
0.640343 0.924213 0.647060
0.686724 0.923054 0.654441
0.747183 0.916930 0.689005
0.796324 0.911079 0.724525
0.833422 0.906221 0.760137
0.859140 0.904002 0.790759
0.877088 0.904781 0.820875
0.044723 0.056608 0.205846
0.095785 0.062820 0.228891
0.162006 0.080232 0.245924
0.249224 0.105873 0.253741
0.328730 0.137756 0.253056
0.394456 0.172875 0.261137
0.460290 0.213427 0.279425
0.529133 0.256794 0.308417
0.592836 0.299658 0.338178
0.061488 0.128467 0.254513
0.098687 0.114596 0.239578
0.175683 0.124591 0.275907
0.272318 0.134957 0.274828
0.347109 0.155615 0.262431
0.403260 0.180587 0.263641
0.467223 0.218047 0.281471
0.534693 0.260780 0.309795
0.597234 0.303280 0.339132
0.097867 0.258470 0.353708
0.145567 0.256540 0.351597
0.209712 0.243321 0.325816
0.317937 0.226977 0.326266
0.412071 0.225273 0.307045
0.470421 0.239592 0.300441
0.524281 0.265432 0.309175
0.575268 0.291452 0.322887
0.615133 0.318162 0.341440
0.162457 0.429639 0.428310
0.210936 0.426397 0.425226
0.280747 0.405215 0.405544
0.407926 0.410232 0.421992
0.468585 0.371916 0.373275
0.531275 0.358940 0.358030
0.593789 0.362455 0.358172
0.635178 0.375378 0.364243
0.668865 0.384615 0.367903
0.254431 0.590583 0.475437
0.297361 0.587516 0.474635
0.362744 0.576582 0.469586
0.452471 0.565013 0.463638
0.533931 0.552848 0.444838
0.593620 0.518620 0.425135
0.648864 0.497803 0.414502
0.691105 0.492541 0.415248
0.722977 0.488052 0.413578
0.326838 0.721515 0.518111
0.368910 0.719192 0.519243
0.429631 0.711396 0.520505
0.513782 0.702415 0.526560
0.590600 0.694770 0.521121
0.654561 0.680135 0.501393
0.703482 0.655660 0.488818
0.745855 0.632862 0.481487
0.775614 0.609505 0.466041
0.392941 0.820529 0.566171
0.434648 0.819233 0.567961
0.486293 0.814099 0.568915
0.565614 0.809975 0.580738
0.634846 0.805976 0.583566
0.703623 0.794987 0.580997
0.753424 0.782118 0.559969
0.790570 0.764963 0.545292
0.821831 0.741165 0.531312
0.530963 0.881335 0.660792
0.570391 0.881366 0.661025
0.612317 0.881431 0.661738
0.661639 0.879583 0.667685
0.714997 0.875122 0.684366
0.761861 0.868629 0.696770
0.798366 0.861357 0.696501
0.826850 0.856096 0.648296
0.849519 0.849506 0.639365
0.561340 0.924560 0.687127
0.600202 0.924575 0.687208
0.640131 0.924635 0.687612
0.686298 0.923564 0.693340
0.746378 0.917576 0.720546
0.795920 0.911612 0.749811
0.833419 0.906686 0.778854
0.859452 0.904468 0.804488
0.877553 0.905246 0.830500
0.056610 0.072425 0.272101
0.104765 0.077763 0.292151
0.172046 0.086436 0.332470
0.250905 0.113534 0.336230
0.352976 0.142239 0.348509
0.438281 0.178563 0.346934
0.497346 0.216795 0.348482
0.557612 0.257081 0.359227
0.612725 0.302680 0.377419
0.071850 0.137921 0.316663
0.099519 0.116332 0.282509
0.171850 0.128205 0.341460
0.256258 0.146824 0.345106
0.361081 0.165217 0.355665
0.445296 0.193519 0.351083
0.503357 0.226204 0.350772
0.562714 0.262390 0.360702
0.616492 0.305786 0.378558
0.099883 0.253648 0.410220
0.145379 0.248977 0.409079
0.215973 0.245593 0.406432
0.310970 0.240800 0.419172
0.415682 0.236764 0.405234
0.497072 0.245382 0.386213
0.549886 0.264150 0.374944
0.591244 0.281353 0.368641
0.632165 0.319479 0.382608
0.158974 0.404824 0.495179
0.204354 0.404452 0.495942
0.268474 0.397902 0.483402
0.346270 0.383946 0.460910
0.461717 0.367022 0.458324
0.542531 0.351735 0.428248
0.606563 0.346196 0.411983
0.652890 0.360656 0.408419
0.684383 0.368295 0.401790
0.226423 0.565306 0.555341
0.270896 0.564379 0.554448
0.331197 0.551102 0.541225
0.417548 0.541265 0.530223
0.537257 0.547767 0.542784
0.603055 0.513094 0.498876
0.655370 0.491322 0.475742
0.707775 0.481059 0.463862
0.741992 0.473264 0.450529
0.312355 0.702410 0.594798
0.354018 0.701179 0.594222
0.405802 0.693991 0.589710
0.486722 0.687299 0.583924
0.576968 0.683349 0.582079
0.651397 0.674336 0.565579
0.703857 0.642623 0.540184
0.753722 0.619188 0.521932
0.791867 0.598248 0.497403
0.381155 0.810594 0.631037
0.421870 0.809754 0.631558
0.471588 0.805723 0.629981
0.549215 0.802540 0.631174
0.626681 0.795384 0.637091
0.693759 0.788069 0.630415
0.748573 0.776035 0.609884
0.792992 0.757761 0.591990
0.832439 0.730215 0.541634
0.516800 0.879788 0.698711
0.555295 0.879625 0.698243
0.593885 0.878731 0.696704
0.646164 0.876527 0.702790
0.701135 0.872567 0.711899
0.751860 0.866266 0.719998
0.793959 0.859588 0.718720
0.825096 0.853698 0.701663
0.851556 0.847456 0.666144
0.560763 0.925207 0.728511
0.599704 0.925237 0.728655
0.639806 0.925334 0.729228
0.686249 0.924327 0.733953
0.745627 0.918632 0.753630
0.795120 0.912726 0.775892
0.833449 0.907551 0.799019
0.860022 0.905266 0.819679
0.878363 0.906032 0.841422
0.072097 0.091371 0.349699
0.118494 0.095988 0.367525
0.179315 0.103835 0.414540
0.265587 0.125801 0.426178
0.358963 0.156862 0.434770
0.461561 0.188454 0.445616
0.549007 0.227007 0.443858
0.602046 0.267658 0.439484
0.653253 0.308725 0.444101
0.085517 0.154902 0.389765
0.113934 0.134178 0.358614
0.178584 0.145571 0.414442
0.267891 0.163594 0.432610
0.363402 0.187281 0.440278
0.466895 0.210626 0.450099
0.553683 0.242457 0.446705
0.605900 0.278324 0.441298
0.656573 0.315632 0.445219
0.115262 0.256704 0.467658
0.152617 0.249941 0.462544
0.222184 0.251590 0.476237
0.316842 0.253659 0.504567
0.419268 0.262835 0.499819
0.513418 0.263593 0.490213
0.584272 0.275974 0.466107
0.621741 0.296331 0.447847
0.670123 0.329229 0.449225
0.162370 0.396702 0.556082
0.204379 0.396395 0.558643
0.267214 0.392214 0.549934
0.343425 0.382655 0.534954
0.446757 0.373712 0.545531
0.545036 0.362280 0.524224
0.630719 0.352721 0.503420
0.678767 0.357222 0.482736
0.701922 0.355420 0.457324
0.227349 0.544936 0.626100
0.269792 0.545213 0.627372
0.330075 0.541538 0.621443
0.395729 0.532510 0.603485
0.489627 0.524284 0.594077
0.598394 0.508242 0.584860
0.668352 0.483384 0.549636
0.727599 0.467156 0.527009
0.765983 0.452870 0.502847
0.289401 0.684863 0.672947
0.331898 0.684405 0.672448
0.387186 0.679330 0.666991
0.458704 0.670049 0.656000
0.548717 0.665990 0.649473
0.652745 0.669606 0.655041
0.719107 0.642659 0.619771
0.765588 0.615824 0.590546
0.836168 0.560562 0.527911
0.368896 0.798922 0.703826
0.409662 0.798316 0.703428
0.458381 0.795058 0.701161
0.525467 0.790390 0.697728
0.603702 0.785420 0.691541
0.686422 0.783538 0.691539
0.751104 0.776168 0.676141
0.801740 0.748498 0.641716
0.849712 0.712488 0.578551
0.498716 0.874545 0.746905
0.537559 0.874405 0.746511
0.577325 0.873804 0.744765
0.629893 0.872428 0.746251
0.687811 0.869760 0.747737
0.739586 0.864713 0.749467
0.788034 0.858637 0.748196
0.825018 0.852918 0.734122
0.855483 0.844385 0.701153
0.561850 0.925519 0.773597
0.600671 0.925588 0.773585
0.640405 0.925889 0.773562
0.686152 0.925338 0.775820
0.746033 0.919927 0.789468
0.794446 0.914548 0.803781
0.833477 0.909072 0.821037
0.860887 0.906534 0.836595
0.879710 0.907328 0.854258
0.091019 0.117067 0.438359
0.137266 0.121480 0.453609
0.196995 0.129684 0.490842
0.285501 0.143912 0.519712
0.377217 0.176273 0.522926
0.475248 0.207341 0.535278
0.572203 0.242433 0.544060
0.657771 0.281659 0.542733
0.702910 0.324512 0.533773
0.104704 0.178654 0.471939
0.132491 0.159509 0.445567
0.196156 0.170733 0.490280
0.285245 0.184795 0.523527
0.379376 0.210818 0.526971
0.478352 0.235723 0.538998
0.575795 0.264033 0.547271
0.660817 0.297530 0.544853
0.705366 0.335961 0.535100
0.135204 0.271559 0.535636
0.171601 0.265039 0.530299
0.232544 0.264192 0.543512
0.319586 0.268353 0.581683
0.419113 0.280049 0.576749
0.512308 0.288454 0.575351
0.590406 0.292697 0.560345
0.673124 0.319951 0.553228
0.715782 0.353208 0.540475
0.175131 0.399507 0.618499
0.214063 0.396110 0.617018
0.279747 0.393445 0.619742
0.356869 0.389032 0.620674
0.457420 0.385897 0.634521
0.555975 0.381778 0.625723
0.643747 0.371623 0.611464
0.711029 0.366310 0.580869
0.735484 0.377499 0.549192
0.233673 0.537190 0.690900
0.274868 0.537191 0.692764
0.329793 0.535867 0.689912
0.397193 0.533937 0.680729
0.476087 0.523275 0.663090
0.578410 0.511064 0.672964
0.671872 0.493221 0.647586
0.750563 0.461515 0.619816
0.790131 0.443685 0.585474
0.293135 0.672073 0.746079
0.334635 0.671726 0.745901
0.388059 0.669575 0.743017
0.453361 0.664341 0.734433
0.525619 0.660752 0.721651
0.621521 0.657210 0.718030
0.719227 0.640670 0.706254
0.781452 0.608397 0.668156
0.858447 0.534346 0.625240
0.353312 0.789178 0.778657
0.394758 0.788980 0.778421
0.445997 0.786429 0.775443
0.506362 0.780958 0.769038
0.585246 0.777404 0.763406
0.668692 0.776058 0.759672
0.753543 0.774560 0.756865
0.816270 0.743422 0.719876
0.864715 0.701669 0.669872
0.480131 0.870502 0.800411
0.519851 0.870261 0.800269
0.561660 0.869724 0.799603
0.605790 0.869057 0.798090
0.667826 0.867008 0.797611
0.725011 0.864268 0.794059
0.780342 0.860348 0.788511
0.828882 0.854864 0.776857
0.866480 0.839583 0.744586
0.565039 0.925705 0.822044
0.603897 0.925767 0.822076
0.643732 0.926043 0.822225
0.684825 0.926615 0.822514
0.744032 0.922168 0.828248
0.792134 0.918369 0.833703
0.831404 0.913951 0.842321
0.862340 0.910255 0.853541
0.883597 0.910687 0.867071
0.118527 0.150321 0.534507
0.164822 0.154068 0.546500
0.223360 0.161802 0.575744
0.305877 0.174550 0.606175
0.403069 0.199494 0.618003
0.495135 0.234356 0.624246
0.593609 0.264093 0.640451
0.679723 0.303053 0.644588
0.758767 0.340568 0.642486
0.131967 0.209253 0.560181
0.160085 0.192171 0.539892
0.222198 0.202200 0.574645
0.305054 0.214841 0.609143
0.404126 0.237174 0.621224
0.496871 0.266713 0.627070
0.595695 0.290932 0.642907
0.681992 0.323951 0.646797
0.760599 0.356443 0.643894
0.161438 0.295400 0.613318
0.197423 0.289226 0.607936
0.244249 0.278390 0.609910
0.322372 0.282399 0.650100
0.420530 0.292544 0.650346
0.503169 0.305442 0.638738
0.603987 0.324109 0.653201
0.691410 0.350260 0.655861
0.768508 0.377306 0.649920
0.201796 0.410020 0.685154
0.239900 0.406480 0.683138
0.293879 0.400998 0.687927
0.369788 0.399256 0.698883
0.465912 0.399145 0.717970
0.563696 0.402374 0.711314
0.652987 0.397803 0.707295
0.709061 0.382947 0.672987
0.783368 0.404101 0.660835
0.246103 0.541910 0.758322
0.284216 0.540585 0.758474
0.337551 0.538955 0.758597
0.410584 0.534388 0.756321
0.488223 0.528114 0.748109
0.590428 0.521142 0.760562
0.682209 0.505879 0.747353
0.760807 0.478758 0.727822
0.811996 0.445783 0.682099
0.304184 0.667817 0.813170
0.344906 0.668136 0.814215
0.394667 0.667390 0.813013
0.457059 0.666003 0.807732
0.521896 0.663891 0.794475
0.605223 0.657560 0.791964
0.698772 0.643106 0.793909
0.784849 0.616269 0.764395
0.867998 0.551873 0.742950
0.361729 0.782626 0.847798
0.402485 0.782421 0.847626
0.453830 0.781810 0.846436
0.512877 0.779427 0.842663
0.575067 0.777441 0.837589
0.639013 0.778163 0.836867
0.729169 0.769033 0.829983
0.819148 0.746846 0.812345
0.874948 0.711443 0.776166
0.477210 0.867618 0.858347
0.517177 0.867428 0.858089
0.560752 0.866864 0.857352
0.606556 0.866563 0.856818
0.661145 0.865746 0.855314
0.718958 0.864496 0.852860
0.776256 0.862305 0.849108
0.836304 0.859839 0.844475
0.881257 0.831663 0.809817
0.569323 0.926784 0.871449
0.608185 0.926837 0.871496
0.648088 0.927102 0.871739
0.689283 0.927620 0.872222
0.739189 0.926177 0.872876
0.789873 0.922904 0.873749
0.831257 0.920291 0.874730
0.864007 0.917942 0.876578
0.890796 0.916674 0.884801
0.154471 0.189963 0.633312
0.200399 0.193047 0.643155
0.257711 0.199906 0.667924
0.335373 0.211098 0.697740
0.430968 0.228740 0.716133
0.522481 0.263118 0.719869
0.613281 0.297562 0.727831
0.705823 0.324023 0.744726
0.777567 0.364039 0.741532
0.167011 0.246294 0.654200
0.195650 0.231227 0.637315
0.256351 0.239748 0.666558
0.334043 0.250775 0.699725
0.430677 0.268745 0.718096
0.523238 0.298237 0.722011
0.614354 0.327974 0.729667
0.707164 0.349505 0.746385
0.778938 0.384472 0.742953
0.194937 0.327030 0.698973
0.230581 0.321247 0.694032
0.251208 0.287240 0.662495
0.325969 0.293656 0.707215
0.428111 0.312901 0.726054
0.525778 0.337884 0.730753
0.618811 0.363196 0.737522
0.712378 0.379605 0.753112
0.784911 0.408837 0.749104
0.233622 0.431072 0.760629
0.271220 0.427444 0.758404
0.310615 0.413402 0.752232
0.382582 0.413438 0.769693
0.470608 0.413659 0.794381
0.564243 0.416847 0.784658
0.638241 0.414845 0.765761
0.721656 0.415397 0.765950
0.796226 0.437848 0.760842
0.270942 0.553358 0.826840
0.309794 0.551257 0.826105
0.359083 0.546204 0.827921
0.425158 0.544882 0.838536
0.505546 0.538728 0.873879
0.615983 0.531125 0.871635
0.706293 0.522721 0.851106
0.772938 0.497488 0.825495
0.812581 0.471743 0.778101
0.319071 0.674818 0.881959
0.358586 0.675326 0.883505
0.400938 0.677123 0.889481
0.447280 0.679880 0.900805
0.534680 0.676070 0.904812
0.639789 0.669552 0.899405
0.740042 0.656659 0.891228
0.821763 0.624433 0.882735
0.867361 0.551778 0.843569
0.417298 0.785207 0.905426
0.457551 0.785311 0.905581
0.503286 0.785781 0.906244
0.555439 0.786612 0.907596
0.613672 0.787610 0.909773
0.680486 0.790424 0.908173
0.755517 0.781894 0.902990
0.829764 0.765208 0.893829
0.877511 0.723743 0.867898
0.513963 0.867272 0.911656
0.553282 0.867353 0.911755
0.594910 0.867655 0.912143
0.639535 0.868275 0.912939
0.687001 0.869094 0.914196
0.743344 0.869740 0.911346
0.793407 0.870160 0.909615
0.841198 0.865707 0.907412
0.887534 0.845498 0.890866
0.579846 0.928796 0.920363
0.618683 0.928862 0.920438
0.658344 0.929135 0.920712
0.699104 0.929694 0.921283
0.740955 0.930553 0.922153
0.792659 0.927914 0.919085
0.836160 0.925758 0.916500
0.871412 0.924119 0.914456
0.898373 0.923023 0.912979
