Zoran/FilmFeel 03.cube
TITLE "Generated by 3D LUT Creator Pro (c) Oleg Sharonov"
LUT_3D_SIZE 25
#IMAGEPROFILE ProPhoto RGB v.2.10
#INPUTGAMMA ProPhoto RGB v.2.10
#OUTPUTGAMMA ProPhoto RGB v.2.10
0.037400 0.038000 0.042852
0.052863 0.047675 0.054399
0.064726 0.051512 0.059973
0.080603 0.056985 0.066750
0.097288 0.064098 0.076537
0.115192 0.073426 0.088223
0.133402 0.083223 0.099772
0.154805 0.092809 0.110246
0.177342 0.101953 0.119649
0.201112 0.111470 0.128870
0.225577 0.120748 0.137772
0.251291 0.130171 0.146562
0.278149 0.140637 0.156334
0.305394 0.151755 0.166469
0.332604 0.163772 0.176767
0.359750 0.176382 0.187327
0.386212 0.189178 0.198122
0.411639 0.202353 0.208948
0.435962 0.216275 0.220657
0.459347 0.230400 0.232610
0.482334 0.244672 0.245028
0.504712 0.259223 0.257551
0.526462 0.273436 0.270059
0.547565 0.287656 0.282527
0.567824 0.301897 0.294764
0.044374 0.062880 0.057522
0.073752 0.070969 0.074091
0.083262 0.068498 0.067987
0.099387 0.071243 0.074716
0.115193 0.076562 0.084364
0.132361 0.083677 0.094282
0.150140 0.092035 0.104404
0.169390 0.099859 0.113510
0.190504 0.107977 0.122204
0.213186 0.116657 0.130874
0.236693 0.125548 0.139344
0.261728 0.134707 0.148093
0.287931 0.144980 0.157603
0.314352 0.156334 0.167707
0.340883 0.167953 0.177957
0.367081 0.180381 0.188238
0.391978 0.193478 0.199439
0.415880 0.207142 0.210855
0.439507 0.221058 0.222707
0.462714 0.234959 0.234802
0.485452 0.249210 0.246962
0.507677 0.263354 0.259398
0.529211 0.277544 0.271825
0.549988 0.291395 0.284213
0.570073 0.305324 0.296374
0.058450 0.097685 0.076513
0.079328 0.100582 0.082689
0.101254 0.100554 0.092378
0.116362 0.098126 0.091343
0.130302 0.098120 0.095709
0.148072 0.100609 0.103176
0.166199 0.105052 0.110604
0.185508 0.110873 0.118312
0.206258 0.117269 0.126186
0.228144 0.124728 0.134223
0.251102 0.132849 0.142439
0.274926 0.141732 0.150914
0.299628 0.152033 0.160399
0.324493 0.163252 0.170426
0.349442 0.175125 0.181039
0.374314 0.187732 0.191646
0.398121 0.200506 0.202713
0.421640 0.213850 0.214012
0.444748 0.227245 0.225763
0.467654 0.241063 0.237575
0.490031 0.254832 0.249837
0.511850 0.268709 0.262147
0.533016 0.282640 0.274452
0.553646 0.296262 0.286722
0.573470 0.310000 0.298771
0.073527 0.136082 0.095007
0.087910 0.135710 0.093123
0.112920 0.136309 0.103448
0.132426 0.133012 0.109496
0.150601 0.129224 0.113367
0.166998 0.127602 0.115275
0.186469 0.127573 0.120931
0.205014 0.129450 0.126787
0.224606 0.133966 0.133950
0.245404 0.140142 0.141154
0.267367 0.147455 0.148852
0.290222 0.156089 0.157593
0.313612 0.165887 0.166701
0.337333 0.176142 0.176514
0.361263 0.187493 0.186628
0.384745 0.199112 0.197011
0.407747 0.211404 0.207877
0.430559 0.224055 0.219003
0.453019 0.237001 0.230404
0.475243 0.250179 0.242294
0.497074 0.263531 0.254376
0.518318 0.277001 0.266309
0.539157 0.290367 0.278431
0.559165 0.303682 0.290524
0.578599 0.317128 0.302404
0.090238 0.185026 0.115903
0.103998 0.184535 0.113825
0.124053 0.184793 0.114054
0.151380 0.180273 0.125055
0.172539 0.174856 0.126764
0.192491 0.169990 0.131487
0.211822 0.164343 0.135318
0.229791 0.162240 0.139586
0.247845 0.160914 0.143702
0.267739 0.164339 0.150389
0.288614 0.170309 0.158097
0.310156 0.177160 0.166447
0.332337 0.185557 0.175303
0.354787 0.194662 0.184774
0.377263 0.204862 0.194560
0.399179 0.215601 0.204654
0.421044 0.226809 0.215052
0.442820 0.238621 0.225960
0.464502 0.250754 0.237175
0.485838 0.263147 0.248686
0.506850 0.275743 0.260497
0.527480 0.288485 0.272347
0.547610 0.301375 0.284039
0.567029 0.314120 0.295886
0.585802 0.327002 0.307530
0.111187 0.241428 0.139516
0.124566 0.240767 0.137550
0.141300 0.239599 0.133260
0.170471 0.236867 0.141014
0.197258 0.230870 0.147482
0.219547 0.224799 0.145474
0.240666 0.220447 0.150527
0.260038 0.210703 0.156807
0.277370 0.205762 0.160125
0.294769 0.201883 0.164428
0.313639 0.201191 0.169169
0.334304 0.205766 0.177457
0.354793 0.211831 0.186153
0.375737 0.219296 0.194997
0.396408 0.227846 0.204430
0.416870 0.236974 0.214209
0.437631 0.247012 0.224328
0.458283 0.257667 0.234990
0.478913 0.268676 0.245987
0.499345 0.279980 0.257170
0.519508 0.291693 0.268629
0.539140 0.303488 0.279967
0.558346 0.315523 0.291338
0.577032 0.327590 0.302868
0.595122 0.339795 0.314059
0.135522 0.301228 0.164024
0.148681 0.300593 0.162109
0.162753 0.298458 0.154886
0.188749 0.297515 0.159312
0.220325 0.292225 0.169056
0.247065 0.284732 0.172384
0.270763 0.278628 0.168297
0.292061 0.275296 0.172652
0.311131 0.262355 0.179368
0.327842 0.253555 0.184279
0.343621 0.247534 0.187744
0.361398 0.244778 0.192514
0.380166 0.245383 0.198526
0.399165 0.250307 0.207209
0.418355 0.256679 0.216493
0.437713 0.264031 0.225946
0.457223 0.272285 0.235777
0.476777 0.281356 0.246175
0.496203 0.290821 0.256793
0.515501 0.301002 0.267553
0.534529 0.311531 0.278420
0.553294 0.322357 0.289361
0.571442 0.333278 0.300344
0.589253 0.344399 0.311340
0.606370 0.355666 0.322317
0.162170 0.360375 0.186090
0.175155 0.359959 0.184735
0.188675 0.358199 0.178833
0.209375 0.357053 0.178882
0.242907 0.353247 0.191169
0.273180 0.347899 0.198484
0.299660 0.340133 0.199258
0.324015 0.334184 0.193188
0.344945 0.332134 0.196226
0.362565 0.316350 0.203693
0.377947 0.304440 0.210370
0.391945 0.296574 0.213329
0.407914 0.291742 0.217924
0.424731 0.289901 0.222870
0.442691 0.291607 0.230172
0.460943 0.296478 0.239522
0.479451 0.302756 0.249242
0.497715 0.309885 0.259193
0.515984 0.317805 0.269328
0.534038 0.326301 0.279612
0.551888 0.335463 0.290177
0.569418 0.344788 0.300495
0.586587 0.354520 0.311029
0.603205 0.364459 0.321438
0.619472 0.374429 0.331990
0.189174 0.417554 0.210011
0.202143 0.417220 0.208821
0.215231 0.415609 0.203983
0.232347 0.413332 0.199722
0.265120 0.411367 0.213459
0.297249 0.407470 0.223253
0.326783 0.402353 0.229070
0.352311 0.394429 0.227848
0.375821 0.388807 0.219859
0.395617 0.386177 0.221628
0.411437 0.370982 0.229203
0.425551 0.357115 0.237236
0.438766 0.347451 0.240866
0.453644 0.340879 0.245365
0.469339 0.337255 0.250366
0.486083 0.335953 0.256025
0.503280 0.338468 0.264295
0.520506 0.343416 0.273897
0.537486 0.349271 0.283507
0.554373 0.355837 0.293435
0.571041 0.363192 0.303316
0.587390 0.371004 0.313287
0.603438 0.379219 0.323173
0.619008 0.387536 0.333097
0.634210 0.396159 0.343031
0.215955 0.473386 0.234887
0.228910 0.473057 0.233951
0.242072 0.471736 0.229866
0.256369 0.468844 0.222897
0.287383 0.467368 0.234812
0.319971 0.464069 0.247494
0.351010 0.460459 0.255713
0.378446 0.454372 0.259825
0.402520 0.446585 0.257367
0.424748 0.440781 0.248108
0.443565 0.437388 0.248921
0.458068 0.422940 0.256015
0.472168 0.408793 0.264897
0.485225 0.398170 0.270697
0.498693 0.390621 0.274563
0.513238 0.385416 0.279234
0.528598 0.382595 0.284330
0.544469 0.381746 0.290154
0.560395 0.384739 0.299049
0.576128 0.389272 0.308417
0.591627 0.394429 0.317900
0.606803 0.400280 0.327325
0.621596 0.406544 0.336675
0.636151 0.413338 0.346070
0.650377 0.420427 0.355352
0.242289 0.526201 0.259068
0.255230 0.525931 0.258268
0.268350 0.524850 0.254939
0.281647 0.522578 0.248224
0.308916 0.520196 0.255149
0.340905 0.518273 0.269187
0.372262 0.515217 0.280027
0.401361 0.511065 0.287489
0.427299 0.504622 0.290348
0.450657 0.497017 0.286895
0.471904 0.490884 0.276942
0.489922 0.487025 0.276969
0.503366 0.473563 0.283304
0.517271 0.458858 0.293097
0.529829 0.447341 0.300757
0.542318 0.438635 0.304213
0.555706 0.432291 0.308545
0.569712 0.428244 0.313409
0.584083 0.425948 0.318625
0.598654 0.425336 0.324456
0.613071 0.428413 0.333499
0.627143 0.432398 0.342482
0.640911 0.436949 0.351264
0.654459 0.442145 0.360093
0.667655 0.447656 0.368820
0.267382 0.575349 0.281945
0.280311 0.575129 0.281259
0.293467 0.574210 0.278490
0.306775 0.572394 0.273039
0.328710 0.568958 0.273870
0.360282 0.568611 0.288495
0.391690 0.565887 0.301990
0.421914 0.563138 0.311251
0.449662 0.558745 0.318069
0.474309 0.552187 0.320013
0.496922 0.544938 0.315917
0.517089 0.538763 0.305857
0.534201 0.534510 0.305232
0.546688 0.522588 0.310523
0.560301 0.507594 0.321101
0.572428 0.495578 0.329022
0.583941 0.486263 0.333871
0.596126 0.478661 0.337994
0.608770 0.473345 0.342317
0.621727 0.469791 0.347087
0.634908 0.467781 0.352019
0.648159 0.467715 0.358220
0.660927 0.470331 0.366659
0.673523 0.473748 0.374897
0.685745 0.477761 0.382932
0.291142 0.620787 0.304148
0.304130 0.620664 0.303596
0.317251 0.619896 0.301188
0.330506 0.618380 0.296473
0.349300 0.614948 0.294358
0.378746 0.614486 0.306113
0.409858 0.613029 0.320418
0.440640 0.610628 0.332179
0.469460 0.607585 0.340853
0.495810 0.602987 0.347092
0.519311 0.596579 0.348566
0.540810 0.589846 0.344277
0.559878 0.583772 0.334516
0.575949 0.579322 0.333274
0.587387 0.569042 0.337115
0.600715 0.554406 0.348329
0.612511 0.542250 0.356755
0.622923 0.532464 0.362852
0.634163 0.524089 0.366728
0.645650 0.517777 0.370773
0.657328 0.513102 0.374860
0.669264 0.509901 0.379321
0.681239 0.507976 0.383908
0.693027 0.508087 0.390107
0.704406 0.510312 0.397657
0.314307 0.663144 0.326022
0.327219 0.663015 0.325527
0.340312 0.662417 0.323478
0.353646 0.661163 0.319430
0.370637 0.658590 0.316511
0.396269 0.656764 0.322952
0.427148 0.656406 0.337622
0.457784 0.654105 0.351693
0.487230 0.651946 0.361490
0.514569 0.648560 0.369634
0.539429 0.643821 0.374942
0.561802 0.637694 0.375884
0.582044 0.631309 0.371356
0.599941 0.625545 0.362200
0.614885 0.620888 0.360649
0.625535 0.612616 0.363175
0.638417 0.598443 0.374410
0.649858 0.586545 0.383129
0.659637 0.576506 0.389905
0.669797 0.567615 0.394274
0.680287 0.560491 0.397806
0.690907 0.555001 0.401493
0.701617 0.550749 0.405334
0.712376 0.547723 0.409421
0.723181 0.545819 0.413646
0.336742 0.702559 0.347588
0.349648 0.702449 0.347142
0.362771 0.701963 0.345397
0.376000 0.700942 0.341914
0.391119 0.699054 0.338058
0.412803 0.695983 0.339171
0.443387 0.696294 0.353979
0.473637 0.695028 0.368393
0.503312 0.692802 0.380805
0.531169 0.690212 0.390074
0.557084 0.686691 0.397858
0.580314 0.681786 0.402257
0.601550 0.675887 0.402857
0.620486 0.669846 0.397696
0.637211 0.664060 0.388766
0.651242 0.659422 0.386795
0.661296 0.652952 0.388431
0.673605 0.639361 0.398946
0.684787 0.627799 0.407911
0.694056 0.617777 0.414934
0.703083 0.608730 0.420596
0.712631 0.601114 0.423998
0.722163 0.594837 0.427270
0.731813 0.589882 0.430782
0.741512 0.586082 0.434435
0.358429 0.739141 0.368798
0.371280 0.739047 0.368440
0.384375 0.738651 0.366955
0.397614 0.737818 0.363954
0.410997 0.736502 0.359182
0.430732 0.733570 0.358658
0.458567 0.733111 0.369685
0.488399 0.732509 0.384232
0.517833 0.730529 0.398408
0.546047 0.728415 0.409062
0.572354 0.725586 0.417998
0.596620 0.721830 0.425203
0.618448 0.716923 0.428948
0.638518 0.711246 0.429159
0.656287 0.705519 0.423673
0.672002 0.699923 0.414848
0.685166 0.695280 0.412344
0.694667 0.689984 0.412847
0.706267 0.677286 0.422538
0.717289 0.666213 0.431851
0.725963 0.656097 0.439102
0.733882 0.646882 0.446099
0.742574 0.638963 0.449387
0.751247 0.632265 0.452557
0.759936 0.626780 0.455696
0.379205 0.772982 0.389636
0.392056 0.772903 0.389353
0.405126 0.772570 0.388051
0.418282 0.771900 0.385424
0.431655 0.770820 0.381294
0.448610 0.768746 0.379001
0.472700 0.767154 0.384725
0.502135 0.766999 0.399342
0.531067 0.765657 0.413689
0.559352 0.763487 0.426712
0.585909 0.761166 0.436487
0.610701 0.758064 0.445138
0.633475 0.754148 0.451708
0.654052 0.749353 0.454880
0.673050 0.743949 0.454861
0.689605 0.738452 0.449084
0.704315 0.733084 0.440329
0.716612 0.728486 0.437175
0.725773 0.723550 0.437236
0.736544 0.712572 0.445166
0.747333 0.702220 0.454196
0.755325 0.691814 0.462430
0.762623 0.682553 0.469609
0.770148 0.674410 0.474111
0.778101 0.667512 0.477186
0.399004 0.803235 0.410102
0.411895 0.803147 0.409808
0.424903 0.802909 0.408703
0.438067 0.802416 0.406474
0.451347 0.801600 0.402896
0.465563 0.800328 0.398634
0.485846 0.798094 0.399176
0.514754 0.798272 0.413733
0.543262 0.797593 0.428178
0.571249 0.795841 0.442242
0.598042 0.793679 0.453572
0.623103 0.791052 0.463084
0.646473 0.787802 0.471479
0.667787 0.783778 0.477398
0.687168 0.779099 0.480124
0.705115 0.773993 0.479767
0.720470 0.768769 0.473719
0.734301 0.763681 0.465067
0.745788 0.759220 0.461253
0.754526 0.754554 0.460434
0.764626 0.745279 0.466792
0.774733 0.735209 0.476234
0.782211 0.725029 0.484843
0.788965 0.715865 0.492166
0.795309 0.707767 0.498125
0.441875 0.827058 0.451364
0.454634 0.827027 0.451095
0.467111 0.826881 0.449921
0.479275 0.826598 0.447522
0.490995 0.826145 0.443666
0.502199 0.825497 0.438078
0.514792 0.824414 0.432396
0.534620 0.824658 0.436839
0.556255 0.825208 0.444090
0.582068 0.824354 0.455998
0.608970 0.822450 0.469344
0.634208 0.820432 0.479557
0.657820 0.817831 0.488789
0.679762 0.814654 0.496850
0.699640 0.810784 0.502098
0.717872 0.806312 0.504407
0.734653 0.801517 0.503505
0.749040 0.796638 0.497547
0.761929 0.791836 0.488776
0.772700 0.787600 0.484088
0.780977 0.783221 0.482041
0.790712 0.775678 0.487254
0.799516 0.765584 0.497378
0.806284 0.755804 0.506296
0.812133 0.746904 0.513939
0.494089 0.846669 0.501561
0.506963 0.846640 0.501492
0.519608 0.846448 0.500985
0.531907 0.846132 0.499710
0.543765 0.845771 0.497204
0.555103 0.845254 0.493537
0.566214 0.844557 0.488760
0.582004 0.843998 0.490096
0.603095 0.844244 0.500871
0.622861 0.844099 0.510299
0.641693 0.843487 0.518098
0.659313 0.842714 0.522360
0.675810 0.841836 0.522491
0.691833 0.840622 0.518711
0.710542 0.837995 0.521148
0.729158 0.834422 0.525837
0.746202 0.830448 0.527704
0.761865 0.826221 0.526244
0.775309 0.821950 0.520271
0.787395 0.817668 0.511250
0.797427 0.813839 0.505400
0.805027 0.809812 0.501845
0.813762 0.803681 0.506123
0.820961 0.793686 0.517657
0.826932 0.784378 0.527016
0.525296 0.865996 0.530137
0.538204 0.865996 0.530118
0.551353 0.866004 0.530157
0.564780 0.866011 0.530215
0.578573 0.866026 0.530332
0.592194 0.865946 0.529944
0.604089 0.865197 0.527373
0.615959 0.864272 0.524197
0.637394 0.863902 0.537573
0.657454 0.863059 0.550829
0.676148 0.861841 0.563283
0.693562 0.860630 0.573951
0.708817 0.859563 0.580593
0.723071 0.858277 0.585252
0.736508 0.856741 0.587420
0.749162 0.854954 0.585485
0.761410 0.852906 0.577786
0.773756 0.850637 0.562927
0.786885 0.847695 0.548026
0.799267 0.844051 0.541808
0.810182 0.840479 0.532368
0.819190 0.837312 0.524945
0.826800 0.834009 0.522510
0.832958 0.828444 0.525129
0.839460 0.819485 0.537084
0.535586 0.880503 0.540710
0.548490 0.880512 0.540710
0.561549 0.880511 0.540747
0.574848 0.880518 0.540802
0.588403 0.880533 0.540894
0.602244 0.880556 0.541041
0.616766 0.880516 0.541644
0.631894 0.880430 0.542590
0.653600 0.880440 0.554433
0.677760 0.880509 0.572344
0.700711 0.880573 0.590476
0.718413 0.879588 0.603278
0.733934 0.877890 0.614550
0.748085 0.876009 0.624705
0.761127 0.873918 0.634081
0.773287 0.871721 0.642590
0.783648 0.869802 0.645515
0.793274 0.867809 0.644493
0.802613 0.865767 0.638833
0.811627 0.863735 0.626547
0.820538 0.861838 0.604064
0.829893 0.860098 0.567282
0.838246 0.857833 0.549725
0.844216 0.854271 0.574746
0.846997 0.849254 0.587542
0.545137 0.894982 0.550687
0.558036 0.894982 0.550687
0.571046 0.894989 0.550704
0.584245 0.894997 0.550772
0.597645 0.895012 0.550874
0.611275 0.895034 0.551026
0.625264 0.895039 0.551381
0.639821 0.894975 0.552135
0.657467 0.894721 0.557837
0.680947 0.894022 0.574946
0.703212 0.893327 0.592276
0.724235 0.892638 0.609800
0.744070 0.891974 0.627539
0.762501 0.891435 0.645071
0.779553 0.890979 0.662673
0.791084 0.889075 0.673089
0.801230 0.886851 0.682196
0.810315 0.884467 0.689723
0.818556 0.882130 0.695125
0.826163 0.879907 0.698062
0.832940 0.878214 0.694665
0.839524 0.876751 0.685738
0.846236 0.875538 0.668999
0.852676 0.873987 0.669094
0.855656 0.870442 0.677513
0.553872 0.909453 0.559895
0.566752 0.909453 0.559910
0.579717 0.909452 0.559926
0.592837 0.909460 0.559987
0.606110 0.909483 0.560080
0.619506 0.909498 0.560188
0.633132 0.909520 0.560372
0.647279 0.909483 0.560998
0.661642 0.909438 0.561695
0.684188 0.908104 0.577339
0.705910 0.906699 0.593894
0.726418 0.905309 0.610680
0.745678 0.903935 0.627593
0.763680 0.902616 0.644602
0.780259 0.901394 0.661462
0.795545 0.900265 0.678531
0.809462 0.899245 0.695813
0.821904 0.898413 0.712557
0.832799 0.897848 0.727759
0.839551 0.895937 0.734717
0.845777 0.894079 0.740784
0.851443 0.892351 0.745529
0.856637 0.890905 0.749156
0.861625 0.890222 0.745864
0.865628 0.888425 0.750428
0.561774 0.923901 0.568382
0.574651 0.923909 0.568396
0.587604 0.923909 0.568410
0.600633 0.923917 0.568452
0.613801 0.923932 0.568522
0.627067 0.923947 0.568620
0.640493 0.923977 0.568774
0.654258 0.923967 0.569191
0.668253 0.923932 0.569745
0.687340 0.922692 0.579503
0.708692 0.920643 0.595412
0.728813 0.918609 0.611483
0.747667 0.916574 0.627678
0.765298 0.914574 0.644043
0.781606 0.912639 0.660346
0.796584 0.910793 0.676671
0.810216 0.909010 0.693155
0.822547 0.907349 0.709811
0.833412 0.905949 0.725522
0.842973 0.904887 0.740006
0.851440 0.904143 0.753524
0.858973 0.903744 0.766365
0.865663 0.903610 0.778793
0.871619 0.903862 0.791353
0.876718 0.904434 0.803941
0.031327 0.032210 0.051323
0.053409 0.041245 0.060783
0.068506 0.052054 0.067350
0.083692 0.056433 0.072867
0.100413 0.064092 0.083195
0.116932 0.072878 0.093312
0.135748 0.083219 0.104007
0.156863 0.092804 0.113885
0.179235 0.101949 0.122857
0.202412 0.111152 0.131469
0.227167 0.120745 0.140156
0.252754 0.130168 0.149146
0.279497 0.140635 0.158901
0.306321 0.151754 0.168719
0.333726 0.163772 0.179164
0.360885 0.176382 0.189620
0.387111 0.189179 0.200324
0.412452 0.202354 0.211072
0.437460 0.215838 0.222301
0.461771 0.229357 0.233610
0.484499 0.243878 0.245999
0.506794 0.258280 0.258479
0.528393 0.272539 0.270946
0.549293 0.286975 0.283373
0.569488 0.301080 0.295573
0.038776 0.063259 0.072338
0.067555 0.065279 0.081024
0.081494 0.064100 0.077745
0.085393 0.058626 0.069817
0.101094 0.065742 0.078974
0.117793 0.075015 0.090316
0.136008 0.084560 0.101073
0.157116 0.093968 0.111356
0.178996 0.102643 0.120300
0.202624 0.112094 0.129453
0.227163 0.121323 0.138305
0.252569 0.130707 0.147077
0.279326 0.140909 0.156848
0.306472 0.152296 0.166720
0.333723 0.164299 0.177248
0.360758 0.176886 0.187788
0.386997 0.189660 0.198344
0.412350 0.202814 0.209374
0.436618 0.216495 0.220864
0.460041 0.230819 0.233011
0.482896 0.245070 0.245417
0.505233 0.259414 0.257923
0.526945 0.273797 0.270415
0.548013 0.288000 0.282866
0.568181 0.302063 0.295088
0.054763 0.097683 0.090380
0.078151 0.099057 0.097992
0.106997 0.103127 0.107085
0.118369 0.094777 0.097097
0.131077 0.095904 0.095709
0.148069 0.099184 0.103177
0.165451 0.103359 0.110234
0.185044 0.109282 0.117979
0.205616 0.116073 0.125887
0.227352 0.123322 0.133949
0.250365 0.131516 0.141927
0.274413 0.140645 0.150658
0.298840 0.150950 0.160147
0.324058 0.162195 0.170181
0.349047 0.174112 0.180567
0.373719 0.186520 0.191422
0.397802 0.199579 0.202497
0.421148 0.212743 0.213804
0.444474 0.226400 0.225358
0.467147 0.240055 0.237379
0.489639 0.254063 0.249647
0.511413 0.267977 0.261966
0.532746 0.281943 0.274279
0.553333 0.295595 0.286390
0.573238 0.309360 0.298613
0.071733 0.136453 0.109333
0.087694 0.134783 0.108417
0.112210 0.136534 0.113247
0.132673 0.132765 0.115506
0.150603 0.127603 0.116102
0.169942 0.125388 0.117331
0.186465 0.126196 0.120610
0.204798 0.128364 0.126789
0.224404 0.133164 0.133674
0.245216 0.139058 0.141156
0.267018 0.146640 0.148855
0.289896 0.155282 0.157338
0.313161 0.164839 0.166453
0.337057 0.175385 0.176274
0.361011 0.186766 0.186398
0.384632 0.198414 0.197012
0.407438 0.210735 0.207665
0.430272 0.223415 0.218798
0.452753 0.236388 0.230204
0.474996 0.249593 0.242100
0.496845 0.262971 0.254189
0.518248 0.276468 0.266310
0.538959 0.289858 0.278260
0.559042 0.303355 0.290361
0.578485 0.316658 0.302249
0.089150 0.185352 0.130298
0.103817 0.183387 0.128757
0.124055 0.183531 0.127668
0.150712 0.179851 0.132410
0.171863 0.173914 0.131381
0.191836 0.168224 0.133888
0.212658 0.162770 0.137224
0.230181 0.161447 0.139588
0.248028 0.160118 0.143446
0.267563 0.163550 0.150133
0.288450 0.169537 0.158100
0.310004 0.176406 0.166449
0.332196 0.184826 0.175305
0.354658 0.194190 0.184543
0.376912 0.204178 0.194338
0.399073 0.214942 0.204440
0.420847 0.226386 0.215054
0.442636 0.238012 0.225759
0.464332 0.250365 0.237177
0.485679 0.262774 0.248687
0.506776 0.275386 0.260315
0.527342 0.288144 0.272173
0.547482 0.300883 0.284040
0.566910 0.313804 0.295726
0.585692 0.326546 0.307378
0.110306 0.241560 0.153868
0.124217 0.239576 0.152671
0.141302 0.238358 0.147970
0.169534 0.236070 0.150437
0.196300 0.229961 0.153852
0.218408 0.223609 0.149501
0.239562 0.218558 0.153114
0.259863 0.209365 0.158097
0.279557 0.204172 0.161147
0.294768 0.200962 0.164178
0.313789 0.200499 0.169171
0.334304 0.205312 0.177458
0.354921 0.211386 0.186154
0.375619 0.218646 0.194999
0.396301 0.227214 0.204432
0.416770 0.236566 0.214210
0.437537 0.246618 0.224329
0.458196 0.257097 0.234793
0.478913 0.268310 0.245989
0.499194 0.279628 0.257171
0.519367 0.291187 0.268452
0.539140 0.303162 0.279968
0.558347 0.315209 0.291339
0.577033 0.327287 0.302713
0.595015 0.339358 0.314060
0.134756 0.301228 0.177964
0.148529 0.299425 0.177013
0.162754 0.297388 0.169982
0.186825 0.296674 0.169893
0.219351 0.291681 0.176994
0.246411 0.284124 0.177763
0.269636 0.277477 0.171986
0.291594 0.274089 0.175099
0.310832 0.261058 0.180865
0.329123 0.252593 0.185212
0.343755 0.246944 0.187746
0.361523 0.244381 0.192516
0.380166 0.244987 0.198527
0.399165 0.249917 0.207211
0.418355 0.256298 0.216287
0.437806 0.263660 0.225947
0.457223 0.271924 0.235779
0.476778 0.281007 0.246177
0.496203 0.290483 0.256795
0.515502 0.300673 0.267554
0.534529 0.311213 0.278421
0.553168 0.321895 0.289362
0.571383 0.332981 0.300345
0.589198 0.344113 0.311341
0.606371 0.355391 0.322174
0.161768 0.360375 0.199921
0.174888 0.359208 0.200287
0.188408 0.357441 0.194345
0.207169 0.356871 0.190572
0.241791 0.352938 0.200726
0.272194 0.347200 0.205334
0.298824 0.339361 0.204071
0.323343 0.333220 0.196769
0.344560 0.331132 0.198930
0.362320 0.315270 0.205114
0.378413 0.303791 0.210796
0.393360 0.295579 0.214171
0.408017 0.291405 0.217718
0.424926 0.289393 0.222872
0.442875 0.291270 0.230174
0.461029 0.296146 0.239524
0.479288 0.302266 0.249244
0.497715 0.309565 0.259194
0.515984 0.317493 0.269329
0.534039 0.325997 0.279614
0.551889 0.335168 0.290014
0.569359 0.344502 0.300497
0.586532 0.354243 0.311031
0.603310 0.364193 0.321440
0.619424 0.374172 0.331852
0.188700 0.417420 0.223508
0.202025 0.416415 0.223830
0.215231 0.414866 0.218939
0.230680 0.412985 0.212350
0.263672 0.410979 0.223942
0.296167 0.406866 0.231621
0.325833 0.401495 0.235265
0.351737 0.393906 0.232564
0.375276 0.388135 0.223364
0.395103 0.385475 0.224360
0.411337 0.370472 0.230563
0.425745 0.356569 0.237748
0.439880 0.346601 0.241849
0.453733 0.340590 0.245367
0.469507 0.336815 0.250177
0.486084 0.335511 0.255840
0.503280 0.338176 0.264296
0.520507 0.343129 0.273898
0.537487 0.348990 0.283509
0.554435 0.355700 0.293436
0.571042 0.362925 0.303318
0.587445 0.370744 0.313289
0.603438 0.378967 0.323174
0.619009 0.387293 0.333099
0.634164 0.395925 0.342900
0.215538 0.473276 0.248391
0.228806 0.472121 0.248297
0.241968 0.470794 0.244249
0.255335 0.468228 0.236249
0.286142 0.466878 0.246144
0.318847 0.463389 0.256920
0.350114 0.459860 0.263260
0.377772 0.453880 0.265668
0.402053 0.446054 0.261831
0.424296 0.440126 0.251526
0.443215 0.436902 0.251651
0.457812 0.422421 0.257307
0.472168 0.408352 0.265575
0.485623 0.397589 0.271228
0.498769 0.390260 0.274391
0.513310 0.385048 0.279064
0.528667 0.382347 0.284331
0.544469 0.381372 0.289992
0.560456 0.384493 0.299050
0.576243 0.389030 0.308572
0.591735 0.394311 0.317902
0.606854 0.400050 0.327326
0.621644 0.406432 0.336677
0.636198 0.413118 0.346071
0.650377 0.420212 0.355354
0.241928 0.526111 0.272398
0.255230 0.525210 0.272477
0.268350 0.524124 0.269098
0.281647 0.521843 0.262442
0.307777 0.519759 0.267261
0.339872 0.517844 0.279476
0.371421 0.514627 0.288600
