Zoran/FilmFeel 00.cube
TITLE "Generated by 3D LUT Creator Pro (c) Oleg Sharonov"
LUT_3D_SIZE 25
#IMAGEPROFILE sRGB IEC61966-2.1 v.2.10
#INPUTGAMMA sRGB IEC61966-2.1 v.2.10
#OUTPUTGAMMA sRGB IEC61966-2.1 v.2.10
0.007528 0.007243 0.006159
0.036169 0.009034 0.008168
0.070737 0.011981 0.011668
0.112345 0.017262 0.016645
0.156552 0.024922 0.024181
0.195158 0.035099 0.033853
0.232301 0.046997 0.044143
0.269859 0.058637 0.055223
0.306446 0.071429 0.066220
0.341071 0.084363 0.077798
0.374559 0.097788 0.089856
0.406196 0.111665 0.102108
0.436841 0.125963 0.114782
0.466698 0.140928 0.128071
0.495798 0.156257 0.141762
0.523973 0.172191 0.155960
0.551202 0.188791 0.170347
0.577639 0.205436 0.184975
0.603358 0.222444 0.199858
0.628735 0.239452 0.214590
0.653978 0.256311 0.229855
0.679227 0.273186 0.245593
0.704354 0.289727 0.261675
0.730123 0.305280 0.277647
0.757368 0.320655 0.293516
0.014405 0.030570 0.008177
0.046860 0.032963 0.008636
0.078988 0.036551 0.012641
0.118935 0.041195 0.018132
0.160151 0.047615 0.025174
0.196537 0.055940 0.033826
0.233287 0.064853 0.044536
0.270834 0.075016 0.055202
0.307104 0.085802 0.066518
0.341615 0.097116 0.078065
0.375010 0.109504 0.089843
0.406494 0.122519 0.102095
0.436964 0.136096 0.114771
0.466803 0.150438 0.128060
0.495887 0.165249 0.141752
0.524047 0.180679 0.155770
0.551306 0.196550 0.170339
0.577693 0.212921 0.184967
0.603438 0.229449 0.199850
0.628839 0.245981 0.214583
0.654074 0.262531 0.229850
0.679317 0.278772 0.245590
0.704441 0.294850 0.261674
0.730283 0.310355 0.277768
0.757554 0.325303 0.293633
0.023856 0.058946 0.011198
0.061688 0.061172 0.012655
0.094374 0.063308 0.012048
0.128513 0.067919 0.020622
0.168383 0.071530 0.027696
0.202504 0.076993 0.036673
0.237256 0.084037 0.045732
0.272740 0.092428 0.055531
0.308013 0.102929 0.066493
0.342368 0.113406 0.078042
0.375637 0.124460 0.090079
0.407016 0.136571 0.102312
0.437483 0.149355 0.114972
0.467137 0.162761 0.128045
0.496021 0.176942 0.141738
0.524161 0.191724 0.155757
0.551404 0.206950 0.170327
0.577778 0.222697 0.184956
0.603546 0.238601 0.199692
0.628938 0.254514 0.214574
0.654166 0.270443 0.229844
0.679428 0.286214 0.245587
0.704571 0.301874 0.261798
0.730512 0.317089 0.278011
0.757786 0.331636 0.293868
0.039599 0.090550 0.016738
0.073716 0.092240 0.017165
0.113058 0.096537 0.019083
0.148338 0.097132 0.017434
0.179330 0.101660 0.030726
0.212516 0.106073 0.039798
0.245496 0.110067 0.049245
0.279818 0.116337 0.058631
0.312808 0.124117 0.068634
0.345239 0.133254 0.078851
0.377241 0.144375 0.090303
0.407833 0.156268 0.102282
0.438190 0.168161 0.114944
0.467755 0.180706 0.128224
0.496613 0.193985 0.141716
0.524539 0.207851 0.155737
0.551572 0.221995 0.170139
0.577925 0.236848 0.184781
0.603676 0.251856 0.199678
0.629086 0.267031 0.214562
0.654361 0.282194 0.229837
0.679636 0.297059 0.245583
0.704769 0.312055 0.261797
0.730856 0.326911 0.278254
0.758110 0.340992 0.294103
0.060010 0.124435 0.024307
0.089092 0.126371 0.024736
0.127883 0.128816 0.026156
0.168194 0.138711 0.028594
0.197900 0.134449 0.024392
0.224477 0.138229 0.043591
0.257339 0.143978 0.053298
0.289360 0.147326 0.062256
0.320920 0.152890 0.072205
0.351879 0.159816 0.082115
0.381983 0.168245 0.092542
0.411275 0.178495 0.103883
0.440409 0.190341 0.115996
0.469063 0.202925 0.128394
0.497346 0.215735 0.141685
0.525225 0.228512 0.155892
0.552176 0.241733 0.170116
0.578243 0.255090 0.184602
0.603896 0.268945 0.199364
0.629318 0.283096 0.214408
0.654606 0.297085 0.229694
0.679887 0.311180 0.245449
0.705058 0.325490 0.261672
0.731219 0.339781 0.278378
0.758600 0.353319 0.294456
0.083515 0.161822 0.034433
0.109693 0.163721 0.035323
0.142518 0.166076 0.037575
0.183088 0.170749 0.037909
0.217462 0.185031 0.040923
0.244918 0.175133 0.033947
0.270095 0.178189 0.056076
0.301347 0.185613 0.066972
0.331095 0.188300 0.075632
0.360253 0.192910 0.086065
0.389355 0.199337 0.096449
0.417291 0.207051 0.107288
0.444873 0.216130 0.118326
0.472730 0.226801 0.130391
0.500280 0.238839 0.143382
0.527086 0.251324 0.156767
0.553218 0.264440 0.170429
0.578989 0.277096 0.184579
0.604372 0.289416 0.199197
0.629605 0.302078 0.213976
0.654928 0.315145 0.229416
0.680235 0.328513 0.245315
0.705415 0.341844 0.261547
0.731627 0.355273 0.278261
0.759210 0.368292 0.294812
0.109318 0.201680 0.044986
0.132033 0.203526 0.046139
0.158905 0.205971 0.047260
0.193950 0.209231 0.050287
0.232228 0.216974 0.050560
0.267352 0.232511 0.053422
0.291399 0.218151 0.044063
0.313861 0.220402 0.069039
0.342395 0.228068 0.080882
0.370678 0.231483 0.090391
0.397597 0.235043 0.100240
0.424694 0.240879 0.111283
0.451576 0.247787 0.122516
0.478193 0.255832 0.133965
0.504425 0.264877 0.145823
0.530674 0.275687 0.158895
0.556342 0.287087 0.172436
0.581395 0.298925 0.186147
0.605994 0.311115 0.200070
0.630400 0.323720 0.213962
0.655329 0.335818 0.229003
0.680656 0.348304 0.244925
0.705866 0.360742 0.261299
0.732130 0.373249 0.278149
0.759990 0.385735 0.295172
0.135199 0.242692 0.056227
0.154758 0.244441 0.057223
0.176592 0.246704 0.058205
0.205813 0.249485 0.060858
0.242646 0.254245 0.063083
0.281431 0.264394 0.063301
0.315389 0.278618 0.066406
0.334672 0.261199 0.054662
0.354805 0.263101 0.082430
0.381582 0.269818 0.094831
0.407721 0.274966 0.105784
0.433220 0.277603 0.114968
0.458942 0.282124 0.126620
0.484901 0.288251 0.138269
0.510394 0.295276 0.150104
0.535296 0.303018 0.162065
0.560168 0.312207 0.175092
0.584768 0.322552 0.188643
0.609035 0.333534 0.202260
0.633149 0.344919 0.216045
0.657302 0.356598 0.230216
0.681753 0.368768 0.245056
0.706441 0.381460 0.260805
0.732755 0.392997 0.277799
0.760721 0.404795 0.295073
0.160887 0.283113 0.067338
0.176611 0.284713 0.068540
0.194178 0.286596 0.069424
0.219332 0.289311 0.070886
0.253608 0.292549 0.074950
0.291437 0.298290 0.075155
0.326176 0.310022 0.075939
0.359901 0.321499 0.079827
0.375303 0.302737 0.065308
0.393231 0.304040 0.096481
0.418142 0.309840 0.109143
0.442945 0.316265 0.121353
0.467616 0.318580 0.131264
0.492054 0.322107 0.142308
0.516915 0.327396 0.154494
0.541270 0.333629 0.166752
0.565120 0.340615 0.178864
0.588752 0.348605 0.191266
0.612585 0.358007 0.204862
0.636407 0.368014 0.218541
0.660293 0.378309 0.232639
0.684265 0.388919 0.246999
0.708702 0.400313 0.262452
0.734458 0.412296 0.278544
0.761943 0.424532 0.295094
0.184056 0.321788 0.079012
0.196655 0.323141 0.079824
0.212593 0.324973 0.081173
0.234933 0.327148 0.081949
0.265637 0.329906 0.085652
0.300764 0.333573 0.088988
0.336770 0.340609 0.086578
0.367086 0.354383 0.088867
0.401279 0.362078 0.093656
0.413164 0.342477 0.076345
0.429283 0.343479 0.110663
0.453226 0.348524 0.124041
0.476889 0.355905 0.137401
0.500712 0.358175 0.148353
0.523938 0.361045 0.158448
0.547505 0.365609 0.171009
0.570868 0.371064 0.183376
0.593829 0.377143 0.195527
0.616693 0.383963 0.207719
0.640134 0.392469 0.221308
0.663728 0.401479 0.235320
0.687393 0.411021 0.249585
0.711402 0.421026 0.264347
0.737067 0.431961 0.280258
0.764493 0.443331 0.296622
0.205643 0.359203 0.090902
0.217147 0.360246 0.091896
0.231743 0.361903 0.092875
0.252101 0.363852 0.094087
0.278636 0.366290 0.095770
0.310963 0.369010 0.100796
0.344957 0.373363 0.102642
0.378839 0.381122 0.100473
0.405433 0.395391 0.102336
0.439556 0.399546 0.107652
0.449218 0.380428 0.087468
0.463975 0.381069 0.125463
0.487029 0.385468 0.139536
0.509830 0.392119 0.153342
0.532079 0.395804 0.165663
0.554384 0.398135 0.176024
0.576886 0.401917 0.187649
0.599383 0.406835 0.200153
0.621799 0.412245 0.212229
0.644340 0.418436 0.224477
0.667589 0.426293 0.238380
0.690920 0.434684 0.252550
0.714713 0.443548 0.266988
0.740091 0.453250 0.282329
0.767439 0.463619 0.298379
0.227733 0.394669 0.103246
0.237984 0.395549 0.103928
0.251270 0.396776 0.105066
0.270012 0.398694 0.106417
0.292749 0.400857 0.107297
0.321987 0.403097 0.111320
0.353832 0.405919 0.115911
0.386594 0.410885 0.116105
0.417438 0.419575 0.115000
0.442153 0.433462 0.116512
0.474072 0.435097 0.118888
0.483898 0.416234 0.099198
0.497404 0.416863 0.140692
0.519444 0.420697 0.155530
0.541143 0.426834 0.169790
0.562036 0.431914 0.183184
0.583534 0.434027 0.193828
0.605124 0.437258 0.204248
0.627218 0.441713 0.216849
0.649408 0.446676 0.229123
0.671878 0.452329 0.241549
0.694813 0.459598 0.255761
0.718486 0.467476 0.270115
0.743581 0.475767 0.284755
0.770857 0.485116 0.300475
0.250089 0.428810 0.115786
0.259153 0.429504 0.116640
0.270994 0.430581 0.117486
0.287970 0.432267 0.118965
0.308599 0.434095 0.120007
0.333688 0.436219 0.122520
0.363373 0.438408 0.128094
0.394242 0.441624 0.131337
0.424997 0.447137 0.129513
0.453418 0.456630 0.129313
0.477495 0.469488 0.131349
0.507000 0.469255 0.130356
0.517043 0.450969 0.111006
0.529246 0.451440 0.156623
0.550280 0.454949 0.171836
0.571116 0.460627 0.186377
0.590694 0.466995 0.200866
0.611550 0.468851 0.211504
0.632787 0.471687 0.221852
0.654717 0.475668 0.233855
0.676784 0.480166 0.246245
0.699127 0.485656 0.259215
0.722649 0.492438 0.273474
0.747636 0.499695 0.287883
0.774727 0.507843 0.303019
0.271974 0.461868 0.128765
0.280089 0.462480 0.129570
0.290562 0.463363 0.130572
0.305681 0.464786 0.131768
0.324356 0.466608 0.133359
0.346022 0.468619 0.134344
0.373722 0.470288 0.139063
0.402452 0.472550 0.144841
0.432034 0.476038 0.146935
0.461652 0.482294 0.143150
0.487343 0.492598 0.144125
0.511306 0.503639 0.146998
0.538250 0.502026 0.142070
0.548658 0.484480 0.122945
0.559623 0.485007 0.172698
0.579866 0.488104 0.188126
0.599824 0.493308 0.203084
0.618724 0.499485 0.217956
0.638965 0.502540 0.229661
0.660171 0.505154 0.240240
0.681951 0.508722 0.251043
0.703901 0.512808 0.263408
0.727201 0.518213 0.277181
0.752137 0.524475 0.291463
0.779127 0.531477 0.305888
0.293396 0.493907 0.142383
0.300466 0.494389 0.142953
0.309776 0.495113 0.143903
0.323205 0.496316 0.145228
0.340399 0.497994 0.146733
0.360381 0.499722 0.148044
0.384528 0.501442 0.151022
0.411415 0.503100 0.156874
0.439523 0.505394 0.162057
0.468319 0.509287 0.162961
0.496511 0.516168 0.157665
0.518893 0.527525 0.159844
0.543424 0.535991 0.163245
0.568085 0.533576 0.153969
0.578858 0.516890 0.135267
0.588762 0.517339 0.188782
0.608411 0.520193 0.204563
0.627740 0.524915 0.219938
0.646404 0.530717 0.235339
0.666066 0.535097 0.248194
0.687211 0.537509 0.258980
0.709057 0.540765 0.269311
0.732147 0.544625 0.280987
0.757014 0.549845 0.295250
0.783989 0.555864 0.309408
0.313887 0.524907 0.156154
0.320277 0.525282 0.156693
0.328545 0.525926 0.157590
0.340631 0.526835 0.158841
0.356357 0.528223 0.160440
0.374896 0.529977 0.162031
0.395649 0.531618 0.163617
0.421039 0.532936 0.168643
0.447674 0.534512 0.175229
0.475261 0.537016 0.179363
0.502898 0.541240 0.179238
0.529115 0.548642 0.174508
0.549245 0.560417 0.175881
0.574076 0.566657 0.179873
0.596732 0.563865 0.165987
0.607986 0.548163 0.147927
0.617262 0.548542 0.204171
0.636395 0.551171 0.220816
0.655315 0.555459 0.237384
0.673831 0.560857 0.253254
0.692673 0.566376 0.267062
0.714370 0.568828 0.278192
0.737479 0.571793 0.288092
0.762273 0.575739 0.299236
0.789319 0.580830 0.313338
0.333867 0.554796 0.170333
0.339464 0.555082 0.170840
0.347007 0.555608 0.171684
0.357955 0.556323 0.172692
0.372185 0.557467 0.174365
0.389224 0.559036 0.176195
0.408242 0.560693 0.177523
0.431096 0.561917 0.181119
0.456476 0.563089 0.187029
0.482727 0.564631 0.194154
0.509350 0.567280 0.197352
0.535469 0.571864 0.196202
0.559604 0.579779 0.190932
0.578501 0.591293 0.192369
0.603455 0.595719 0.196676
0.624670 0.592947 0.177568
0.636595 0.578225 0.160113
0.645654 0.578453 0.218241
0.664220 0.581001 0.237184
0.682579 0.584900 0.255239
0.700836 0.589918 0.271468
0.720125 0.595984 0.285952
0.743058 0.599082 0.297507
0.767936 0.601974 0.307240
0.795025 0.606041 0.318308
0.353288 0.583572 0.184459
0.358369 0.583827 0.185094
0.365128 0.584211 0.185728
0.375004 0.584807 0.186832
0.387899 0.585703 0.188247
0.403426 0.586980 0.190120
0.421453 0.588676 0.191982
0.441716 0.589981 0.194134
0.465733 0.590858 0.199251
0.490815 0.591943 0.205828
0.516194 0.593444 0.212922
0.541567 0.596305 0.215767
0.566248 0.601205 0.214152
0.588381 0.609626 0.207314
0.606823 0.620369 0.208933
0.632117 0.623365 0.213516
0.652315 0.620847 0.188575
0.665037 0.607162 0.171514
0.673957 0.607258 0.232192
0.691467 0.609590 0.254557
0.709658 0.613093 0.273643
0.728794 0.617837 0.289705
0.749808 0.624047 0.304887
0.773890 0.628453 0.316911
0.801150 0.631563 0.327312
0.372035 0.611163 0.198759
0.376631 0.611391 0.199353
0.382750 0.611734 0.199946
0.391616 0.612191 0.200980
0.403354 0.612915 0.202304
0.417716 0.613905 0.204056
0.434550 0.615273 0.206082
0.453249 0.616862 0.207951
0.475444 0.617647 0.212056
0.499331 0.618392 0.217948
0.523618 0.619401 0.225424
0.547922 0.620971 0.233049
0.572076 0.623952 0.235916
0.595359 0.629243 0.234264
0.615577 0.638338 0.226925
0.634649 0.648098 0.225911
0.660466 0.649905 0.230617
0.679808 0.647900 0.198895
0.693210 0.635072 0.182043
0.701977 0.634991 0.245522
0.718818 0.637077 0.273372
0.738141 0.640518 0.292498
0.758965 0.645392 0.308786
0.781884 0.651624 0.323856
0.807737 0.657454 0.337058
0.390158 0.637811 0.212986
0.394301 0.637984 0.213408
0.399705 0.638225 0.214110
0.407875 0.638640 0.215093
0.418736 0.639227 0.216494
0.432048 0.640022 0.218174
0.447774 0.641092 0.220129
0.465487 0.642540 0.222357
0.485538 0.643739 0.225401
0.508214 0.644242 0.230997
0.531470 0.644919 0.237709
0.554874 0.645836 0.246104
0.578128 0.647400 0.254759
0.601102 0.650592 0.258140
0.623192 0.656248 0.257092
0.641462 0.666157 0.251573
0.662307 0.674832 0.243271
0.688438 0.675680 0.247644
0.707279 0.674392 0.207734
0.722104 0.662282 0.191005
0.730732 0.661943 0.261290
0.747886 0.664078 0.292951
0.768795 0.667556 0.311654
0.791821 0.672715 0.328146
0.817610 0.678975 0.343370
0.407736 0.663937 0.227652
0.411490 0.663998 0.228062
0.416425 0.664090 0.228609
0.423950 0.664405 0.229699
0.433951 0.664846 0.230924
0.446372 0.665477 0.232551
0.461074 0.666330 0.234577
0.477689 0.667467 0.236861
0.495918 0.668951 0.239267
0.517414 0.669569 0.244519
0.539658 0.669999 0.250750
0.562209 0.670555 0.258445
0.584748 0.671489 0.267780
0.606930 0.672951 0.278883
0.628993 0.676347 0.283187
0.649928 0.682340 0.283767
0.666949 0.692547 0.281109
0.688359 0.699774 0.273930
0.716760 0.700774 0.264499
0.736346 0.700503 0.215085
0.752077 0.688818 0.206004
0.760472 0.688249 0.284558
0.779243 0.690757 0.313188
0.802480 0.694560 0.331860
0.828942 0.699858 0.348504
0.425015 0.689546 0.242597
0.428427 0.689601 0.242991
0.433080 0.689656 0.243645
0.439954 0.689797 0.244430
0.449112 0.689966 0.245606
0.460713 0.690460 0.247171
0.474408 0.691128 0.249252
0.490035 0.692000 0.251461
0.507158 0.693163 0.254051
0.526655 0.694172 0.258159
0.548177 0.694709 0.264623
0.569844 0.695015 0.271750
0.591672 0.695581 0.280224
0.613493 0.696463 0.290420
0.635005 0.698027 0.302515
0.656163 0.701266 0.311452
0.675692 0.707429 0.314520
0.691810 0.717336 0.315716
0.713716 0.723146 0.314190
0.743733 0.723606 0.306876
0.762825 0.724020 0.261066
0.780084 0.713373 0.252914
0.792285 0.713930 0.311537
0.813952 0.717155 0.334517
0.840829 0.721234 0.353287
0.441927 0.714483 0.257915
0.445100 0.714533 0.258300
0.449371 0.714555 0.258812
0.455789 0.714655 0.259705
0.464302 0.714753 0.260853
0.474976 0.714957 0.262254
0.487733 0.715321 0.264033
0.502376 0.715979 0.266310
0.518510 0.716824 0.268956
0.535967 0.717935 0.271965
0.556515 0.718342 0.278127
0.577641 0.718802 0.285401
0.598924 0.719210 0.293483
0.620259 0.719695 0.302760
0.641577 0.720627 0.313553
0.662662 0.722343 0.326091
0.682690 0.725402 0.340924
0.700517 0.731606 0.349449
0.716710 0.740930 0.355387
0.739613 0.745595 0.360283
0.768845 0.745628 0.360181
0.788679 0.746313 0.324515
0.809501 0.737202 0.307655
0.828908 0.739637 0.334619
0.853040 0.743466 0.357732
0.458485 0.738814 0.273319
0.461444 0.738835 0.273814
0.465432 0.738855 0.274311
0.471378 0.738898 0.275177
0.479363 0.738988 0.276290
0.489389 0.739125 0.277770
0.501210 0.739287 0.279491
0.514728 0.739549 0.281454
0.529850 0.740109 0.283893
0.546325 0.740919 0.286801
0.565026 0.741499 0.291575
0.585298 0.741778 0.298373
0.606029 0.742106 0.306285
0.627189 0.742607 0.315327
0.648372 0.743303 0.325482
0.669441 0.744392 0.336707
0.689869 0.746336 0.349853
0.709444 0.749827 0.365207
0.726740 0.756500 0.377322
0.743616 0.764854 0.390013
0.767170 0.768225 0.404625
0.795497 0.767826 0.412923
0.819655 0.769870 0.370538
0.849121 0.763153 0.327609
0.869738 0.765977 0.357160
0.474642 0.762995 0.288931
0.477409 0.762991 0.289290
0.481142 0.763010 0.289887
0.486710 0.763027 0.290722
0.494181 0.763089 0.291794
0.503514 0.763173 0.293335
0.514622 0.763256 0.294992
0.527376 0.763433 0.296994
0.541536 0.763681 0.299222
0.556871 0.764025 0.301670
0.573754 0.764628 0.305126
0.593200 0.764800 0.311330
0.613316 0.764996 0.318609
0.633975 0.765308 0.326872
0.654961 0.765855 0.336528
0.676091 0.766752 0.347515
0.696904 0.768233 0.360114
0.717457 0.770618 0.374052
0.737463 0.774688 0.389415
0.754837 0.782552 0.400834
0.773909 0.790384 0.413694
0.800159 0.793387 0.428509
0.831545 0.793631 0.431903
0.860027 0.796631 0.385047
0.871893 0.790301 0.341428
0.008810 0.009068 0.027663
0.040269 0.009654 0.029171
0.075231 0.011993 0.031163
0.116373 0.017867 0.034588
0.159202 0.025530 0.039595
0.196536 0.035108 0.045476
0.233089 0.047004 0.052397
0.270351 0.059097 0.060432
0.306582 0.071834 0.069025
0.341072 0.084724 0.078080
0.374559 0.098117 0.089856
0.406195 0.111967 0.102108
0.436841 0.126524 0.114782
0.466698 0.141190 0.128071
0.495797 0.156751 0.141762
0.523972 0.172657 0.155960
0.551201 0.189010 0.170347
0.577638 0.205846 0.184975
0.603357 0.222636 0.199858
0.628735 0.239631 0.214589
0.653977 0.256643 0.229855
0.679227 0.273492 0.245593
0.704354 0.289867 0.261675
0.730147 0.305543 0.277647
0.757392 0.320779 0.293516
0.011939 0.036642 0.028666
0.039616 0.037244 0.031741
0.077495 0.040163 0.034190
0.121166 0.044000 0.037412
0.162111 0.049681 0.041764
0.198135 0.056426 0.047072
0.234262 0.064865 0.053485
0.271326 0.075024 0.061419
0.307370 0.085807 0.069926
0.341724 0.097776 0.078908
0.375010 0.110114 0.089842
0.406494 0.122804 0.102095
0.436964 0.136363 0.114770
0.466802 0.150690 0.128060
0.495886 0.165488 0.141752
0.524046 0.181130 0.155769
0.551305 0.196974 0.170338
0.577693 0.213120 0.184967
0.603438 0.229635 0.199850
0.628839 0.246155 0.214583
0.654074 0.262692 0.229850
0.679316 0.279070 0.245590
0.704440 0.295124 0.261674
0.730307 0.310613 0.277768
0.757554 0.325545 0.293634
0.013816 0.065983 0.033281
0.050174 0.064281 0.035207
0.089045 0.066777 0.036542
0.127435 0.070423 0.040971
0.169624 0.074338 0.045497
0.203205 0.079293 0.050546
0.237294 0.085494 0.055978
0.272920 0.093795 0.062714
0.308278 0.102936 0.070812
0.342586 0.113708 0.079724
0.375637 0.125024 0.090078
0.407093 0.136837 0.102312
0.437483 0.149608 0.114972
0.467137 0.163243 0.128044
0.496021 0.177170 0.141738
0.524160 0.192156 0.155756
0.551403 0.207358 0.170326
0.577778 0.222888 0.184956
0.603546 0.238781 0.199692
0.628937 0.254849 0.214574
0.654194 0.270753 0.229844
0.679454 0.286500 0.245587
0.704571 0.302007 0.261798
0.730511 0.317214 0.278011
0.757785 0.331872 0.293868
0.029669 0.093657 0.037568
0.064765 0.094998 0.039332
0.106456 0.097267 0.042293
0.144603 0.099807 0.041307
0.177345 0.104244 0.049797
0.212986 0.107965 0.055283
0.246251 0.111907 0.061086
0.279695 0.117819 0.067465
0.312821 0.124974 0.074335
0.345138 0.133800 0.081897
0.377241 0.144892 0.091068
0.407832 0.156760 0.102281
0.438190 0.168397 0.114944
0.467813 0.181156 0.128223
0.496612 0.194412 0.141715
0.524539 0.208054 0.155737
0.551571 0.222379 0.170138
0.577924 0.237029 0.184781
0.603675 0.252195 0.199677
0.629086 0.267346 0.214561
0.654361 0.282340 0.229837
0.679635 0.297330 0.245583
0.704768 0.312183 0.261797
0.730856 0.327152 0.278254
0.758134 0.341219 0.294103
0.051483 0.127559 0.043653
0.082492 0.128928 0.044829
0.119753 0.131080 0.046758
0.165352 0.137999 0.050528
0.194866 0.136395 0.047345
0.222949 0.140375 0.059053
0.257381 0.145556 0.066519
0.289959 0.148875 0.073157
0.320817 0.153904 0.079967
0.351886 0.160798 0.087193
0.381984 0.168957 0.095037
0.411275 0.178721 0.103882
0.440474 0.190558 0.115996
0.469121 0.203131 0.128394
0.497397 0.216128 0.141685
0.525225 0.228886 0.155891
0.552176 0.241910 0.170115
0.578242 0.255423 0.184601
0.603895 0.269257 0.199364
0.629318 0.283242 0.214408
0.654605 0.297356 0.229694
0.679886 0.311436 0.245449
0.705057 0.325611 0.261672
0.731219 0.339895 0.278378
0.758600 0.353426 0.294456
0.076113 0.163799 0.051102
0.103362 0.165452 0.052153
0.134756 0.168492 0.052799
0.177912 0.171745 0.055939
0.214044 0.184665 0.059994
0.242289 0.176812 0.054350
0.269024 0.180041 0.069526
0.300841 0.186530 0.078533
0.331451 0.189639 0.086109
0.360261 0.193787 0.093516
0.389274 0.200185 0.101266
0.417291 0.207666 0.109555
0.444937 0.216327 0.118326
0.472729 0.227177 0.130391
0.500280 0.239018 0.143382
0.527130 0.251663 0.156767
0.553217 0.264600 0.170429
0.578989 0.277396 0.184579
0.604404 0.289697 0.199197
0.629605 0.302211 0.213976
0.654928 0.315397 0.229416
0.680235 0.328632 0.245315
0.705414 0.342069 0.261547
0.731627 0.355485 0.278261
0.759210 0.368491 0.294812
0.102482 0.203390 0.059888
0.126121 0.204817 0.060831
0.153444 0.207449 0.061417
0.188977 0.210880 0.062978
0.228442 0.217036 0.066416
0.264006 0.232393 0.070325
0.289327 0.219387 0.062086
0.313021 0.221980 0.080938
0.341552 0.229592 0.091447
0.370964 0.232616 0.099785
0.397837 0.236152 0.107695
0.424623 0.241422 0.115905
0.451638 0.248308 0.124604
0.478249 0.256164 0.133965
0.504474 0.265196 0.145822
0.530718 0.275989 0.159073
0.556341 0.287372 0.172436
0.581395 0.299060 0.186305
0.605994 0.311371 0.200070
0.630399 0.323963 0.213962
0.655329 0.336049 0.229003
0.680656 0.348414 0.244925
0.705891 0.360845 0.261299
0.732129 0.373346 0.278149
0.759989 0.385827 0.295173
0.129798 0.244321 0.069064
0.150116 0.245536 0.069924
0.172609 0.247613 0.070774
0.200866 0.250886 0.072211
0.238839 0.255117 0.073899
0.278618 0.263963 0.077263
0.312350 0.278666 0.081636
0.332922 0.262228 0.070733
0.354013 0.264254 0.093124
0.380890 0.270928 0.104417
0.407875 0.275743 0.114099
0.433422 0.278517 0.122882
0.458878 0.282718 0.131509
0.484898 0.288679 0.140605
0.510442 0.295549 0.150104
0.535339 0.303151 0.162065
0.560207 0.312463 0.175092
0.584803 0.322796 0.188643
0.609034 0.333767 0.202406
0.633179 0.345030 0.216045
0.657330 0.356703 0.230216
0.681752 0.368868 0.245056
0.706466 0.381553 0.260805
0.732754 0.393175 0.277800
0.760720 0.404965 0.294958
0.156490 0.284460 0.078868
0.172904 0.285759 0.079944
0.190801 0.287345 0.080738
0.215288 0.290328 0.081513
0.249818 0.293406 0.084688
0.288479 0.298587 0.085408
0.324458 0.309542 0.088741
0.357359 0.321654 0.093511
0.373876 0.303441 0.079846
0.392584 0.304981 0.105968
0.417561 0.310756 0.117951
0.443007 0.316905 0.129230
0.467788 0.319212 0.138611
0.492102 0.322604 0.147816
0.516911 0.327758 0.157209
0.541270 0.333863 0.166752
0.565158 0.340841 0.178864
0.588786 0.348715 0.191420
0.612616 0.358217 0.204862
0.636437 0.368114 0.218541
0.660320 0.378498 0.232639
0.684290 0.389009 0.247000
0.708727 0.400400 0.262452
0.734482 0.412379 0.278544
0.761967 0.424690 0.295094
0.180715 0.322917 0.089471
0.193536 0.324143 0.090474
0.209475 0.325482 0.091210
0.231930 0.327774 0.092179
0.261901 0.330638 0.094623
0.297960 0.334292 0.097504
0.334355 0.340634 0.097933
0.365966 0.353552 0.100523
0.399086 0.362202 0.106106
0.411984 0.343070 0.089367
0.428798 0.344276 0.119615
0.452722 0.349409 0.132228
0.476883 0.356863 0.144747
0.500806 0.358809 0.154993
0.524021 0.361669 0.164625
0.547500 0.365914 0.174364
0.570904 0.371261 0.184014
0.593863 0.377334 0.195678
0.616724 0.384148 0.207719
0.640163 0.392647 0.221308
0.663728 0.401652 0.235320
0.687418 0.411187 0.249585
0.711402 0.421185 0.264348
0.737067 0.432038 0.280258
0.764493 0.443405 0.296622
0.202856 0.360161 0.100501
0.214295 0.361199 0.101431
0.229076 0.362643 0.102348
0.249508 0.364381 0.103485
0.275146 0.367012 0.104372
0.308202 0.369620 0.108679
