Zoran/FilmFeel 03.cube
TITLE "Generated by 3D LUT Creator Pro (c) Oleg Sharonov"
LUT_3D_SIZE 5
#IMAGEPROFILE ProPhoto RGB v.2.10
#INPUTGAMMA ProPhoto RGB v.2.10
#OUTPUTGAMMA ProPhoto RGB v.2.10
0.037400 0.038000 0.042852
0.133402 0.083223 0.099772
0.278149 0.140637 0.156334
0.435962 0.216275 0.220657
0.567824 0.301897 0.294764
0.135522 0.301228 0.164024
0.270763 0.278628 0.168297
0.380166 0.245383 0.198526
0.496203 0.290821 0.256793
0.606370 0.355666 0.322317
0.291142 0.620787 0.304148
0.409858 0.613029 0.320418
0.559878 0.583772 0.334516
0.634163 0.524089 0.366728
0.704406 0.510312 0.397657
0.441875 0.827058 0.451364
0.514792 0.824414 0.432396
0.657820 0.817831 0.488789
0.761929 0.791836 0.488776
0.812133 0.746904 0.513939
0.561774 0.923901 0.568382
0.640493 0.923977 0.568774
0.747667 0.916574 0.627678
0.833412 0.905949 0.725522
0.876718 0.904434 0.803941
0.036907 0.042803 0.143584
0.160068 0.076817 0.171100
0.292820 0.137332 0.188098
0.445842 0.214967 0.246573
0.581744 0.298140 0.311807
0.105016 0.281698 0.290205
0.267750 0.263882 0.289822
0.397371 0.231007 0.240917
0.514875 0.274149 0.272874
0.597287 0.323216 0.313327
0.271531 0.612464 0.400289
0.388862 0.592234 0.407924
0.544479 0.566134 0.386049
0.641420 0.513234 0.382075
0.708298 0.500870 0.399415
0.414561 0.825399 0.520120
0.501103 0.819529 0.518648
0.646782 0.813583 0.541638
0.758180 0.787429 0.521519
0.816235 0.745792 0.518983
0.561583 0.924145 0.646646
0.640343 0.924213 0.647060
0.747183 0.916930 0.689005
0.833422 0.906221 0.760137
0.877088 0.904781 0.820875
0.056610 0.072425 0.272101
0.172046 0.086436 0.332470
0.352976 0.142239 0.348509
0.497346 0.216795 0.348482
0.612725 0.302680 0.377419
0.099883 0.253648 0.410220
0.215973 0.245593 0.406432
0.415682 0.236764 0.405234
0.549886 0.264150 0.374944
0.632165 0.319479 0.382608
0.226423 0.565306 0.555341
0.331197 0.551102 0.541225
0.537257 0.547767 0.542784
0.655370 0.491322 0.475742
0.741992 0.473264 0.450529
0.381155 0.810594 0.631037
0.471588 0.805723 0.629981
0.626681 0.795384 0.637091
0.748573 0.776035 0.609884
0.832439 0.730215 0.541634
0.560763 0.925207 0.728511
0.639806 0.925334 0.729228
0.745627 0.918632 0.753630
0.833449 0.907551 0.799019
0.878363 0.906032 0.841422
0.091019 0.117067 0.438359
0.196995 0.129684 0.490842
0.377217 0.176273 0.522926
0.572203 0.242433 0.544060
0.702910 0.324512 0.533773
0.135204 0.271559 0.535636
0.232544 0.264192 0.543512
0.419113 0.280049 0.576749
0.590406 0.292697 0.560345
0.715782 0.353208 0.540475
0.233673 0.537190 0.690900
0.329793 0.535867 0.689912
0.476087 0.523275 0.663090
0.671872 0.493221 0.647586
0.790131 0.443685 0.585474
0.353312 0.789178 0.778657
0.445997 0.786429 0.775443
0.585246 0.777404 0.763406
0.753543 0.774560 0.756865
0.864715 0.701669 0.669872
0.565039 0.925705 0.822044
0.643732 0.926043 0.822225
0.744032 0.922168 0.828248
0.831404 0.913951 0.842321
0.883597 0.910687 0.867071
0.154471 0.189963 0.633312
0.257711 0.199906 0.667924
0.430968 0.228740 0.716133
0.613281 0.297562 0.727831
0.777567 0.364039 0.741532
0.194937 0.327030 0.698973
0.251208 0.287240 0.662495
0.428111 0.312901 0.726054
0.618811 0.363196 0.737522
0.784911 0.408837 0.749104
0.270942 0.553358 0.826840
0.359083 0.546204 0.827921
0.505546 0.538728 0.873879
0.706293 0.522721 0.851106
0.812581 0.471743 0.778101
0.417298 0.785207 0.905426
0.503286 0.785781 0.906244
0.613672 0.787610 0.909773
0.755517 0.781894 0.902990
0.877511 0.723743 0.867898
0.579846 0.928796 0.920363
0.658344 0.929135 0.920712
0.740955 0.930553 0.922153
0.836160 0.925758 0.916500
0.898373 0.923023 0.912979
