Zoran/FilmFeel 02.cube
TITLE "Generated by 3D LUT Creator Pro (c) Oleg Sharonov"
LUT_3D_SIZE 5
#IMAGEPROFILE ProPhoto RGB v.2.10
#INPUTGAMMA ProPhoto RGB v.2.10
#OUTPUTGAMMA ProPhoto RGB v.2.10
0.044213 0.045995 0.050660
0.172441 0.067799 0.069784
0.362123 0.114411 0.111986
0.542551 0.172765 0.158024
0.706925 0.248955 0.217465
0.142967 0.281800 0.151887
0.243545 0.256239 0.161606
0.406933 0.256315 0.169214
0.574826 0.291619 0.206709
0.730136 0.345693 0.259294
0.304543 0.571347 0.299367
0.380927 0.570538 0.294087
0.512907 0.548468 0.326601
0.642691 0.537560 0.326314
0.777756 0.554103 0.360869
0.461910 0.778719 0.446774
0.514809 0.779549 0.445992
0.613492 0.783031 0.436252
0.741197 0.773387 0.489423
0.838653 0.771510 0.491328
0.721627 0.887390 0.705266
0.746518 0.888249 0.714573
0.790651 0.890735 0.733682
0.845597 0.895316 0.768139
0.886362 0.901671 0.812676
0.074801 0.076237 0.153030
0.221144 0.094802 0.202529
0.391246 0.122051 0.187494
0.567370 0.170401 0.213815
0.729018 0.234959 0.253561
0.137785 0.282492 0.283177
0.268022 0.276744 0.274702
0.424241 0.245657 0.240301
0.589582 0.264678 0.244895
0.742451 0.321348 0.288346
0.300406 0.579373 0.392128
0.359510 0.547746 0.368066
0.513169 0.539102 0.386730
0.653900 0.527453 0.375330
0.785093 0.541005 0.390379
0.448049 0.783792 0.494616
0.493005 0.776843 0.499540
0.611422 0.779896 0.489475
0.744188 0.769652 0.533740
0.844744 0.768116 0.527230
0.723462 0.888486 0.724229
0.745944 0.889655 0.730496
0.791830 0.891768 0.748445
0.846797 0.896399 0.781630
0.887868 0.902477 0.819578
0.126342 0.134043 0.303511
0.238643 0.155898 0.357639
0.467621 0.183465 0.419064
0.597975 0.208140 0.371756
0.743155 0.266866 0.389741
0.169876 0.315285 0.450063
0.259571 0.289749 0.436375
0.483271 0.277386 0.442741
0.633328 0.275517 0.402156
0.775550 0.322888 0.412627
0.289611 0.574401 0.547630
0.357527 0.554691 0.527915
0.544024 0.570023 0.538606
0.673642 0.528214 0.501090
0.800708 0.527553 0.490078
0.456248 0.784872 0.618731
0.498857 0.779241 0.626984
0.609714 0.770614 0.603740
0.752701 0.770369 0.622873
0.862473 0.759005 0.585872
0.734976 0.889473 0.769005
0.753918 0.891343 0.770693
0.792643 0.894460 0.778229
0.849994 0.898525 0.807258
0.891875 0.904819 0.833309
0.196173 0.213390 0.457027
0.282650 0.233745 0.493227
0.497251 0.265303 0.582877
0.679203 0.301376 0.608227
0.777933 0.313936 0.546754
0.247369 0.350595 0.568275
0.320760 0.334740 0.596294
0.512112 0.344219 0.620302
0.700253 0.347961 0.630900
0.806924 0.362136 0.575023
0.326314 0.599688 0.701967
0.380201 0.585928 0.679045
0.500235 0.573647 0.662164
0.709719 0.552167 0.664567
0.829634 0.534067 0.627889
0.442803 0.784452 0.756966
0.489103 0.783611 0.755195
0.601994 0.775648 0.744979
0.770420 0.787835 0.755296
0.876186 0.746061 0.710923
0.752139 0.889541 0.825658
0.771270 0.891573 0.828144
0.806076 0.895990 0.832516
0.850720 0.902328 0.839647
0.896469 0.907470 0.859482
0.278261 0.304421 0.594346
0.345983 0.320007 0.624775
0.494894 0.356945 0.672876
0.712236 0.379620 0.760581
0.839912 0.421857 0.765987
0.324199 0.407040 0.673428
0.379079 0.400868 0.715097
0.532777 0.421454 0.733243
0.725434 0.428867 0.783315
0.857094 0.454794 0.787713
0.374670 0.627876 0.798597
0.433304 0.609064 0.787730
0.565960 0.591956 0.855618
0.779039 0.574759 0.857524
0.877293 0.606695 0.823538
0.476828 0.795196 0.863176
0.524484 0.796321 0.864147
0.622553 0.802419 0.869119
0.778597 0.795152 0.873657
0.889097 0.803371 0.858281
0.768280 0.892229 0.874454
0.787011 0.894160 0.876516
0.820382 0.898052 0.880694
0.861163 0.904303 0.887477
0.902247 0.912008 0.896227
