Zoran/InstaClarendon - Skin Save2.cube
TITLE "Generated by 3D LUT Creator Pro (c) Oleg Sharonov"
LUT_3D_SIZE 9
#IMAGEPROFILE ProPhoto RGB v.2.10
#INPUTGAMMA ProPhoto RGB v.2.10
#OUTPUTGAMMA ProPhoto RGB v.2.10
0.007886 0.008674 0.047596
0.103021 0.012617 0.043264
0.255933 0.008674 0.031543
0.421091 0.000000 0.015771
0.574464 0.000000 0.014983
0.715513 0.000000 0.023657
0.825151 0.002366 0.068934
0.921349 0.091745 0.139170
0.971952 0.202647 0.230947
0.014194 0.119422 0.053651
0.106786 0.124965 0.043264
0.261936 0.129049 0.020503
0.416400 0.127180 0.011040
0.568789 0.121078 0.013406
0.710701 0.118081 0.024446
0.823004 0.136270 0.071060
0.919972 0.180912 0.141446
0.970167 0.261792 0.232277
0.000000 0.293261 0.031543
0.081950 0.295780 0.029177
0.250525 0.294524 0.021292
0.418795 0.288660 0.011829
0.569740 0.283576 0.007886
0.704276 0.282652 0.021292
0.814199 0.291482 0.073649
0.914558 0.315552 0.144793
0.966667 0.365930 0.236543
0.000000 0.482203 0.014194
0.011040 0.483994 0.000000
0.225707 0.481097 0.000000
0.410885 0.470997 0.000000
0.569740 0.459152 0.000000
0.704616 0.450763 0.011040
0.808187 0.451214 0.082416
0.905041 0.460544 0.158466
0.961542 0.486664 0.249763
0.000000 0.643120 0.016560
0.007097 0.643980 0.000000
0.206280 0.642785 0.000000
0.404934 0.634046 0.000000
0.570689 0.622114 0.000000
0.706271 0.610136 0.008674
0.802942 0.603954 0.103403
0.894084 0.604161 0.186075
0.952413 0.616288 0.280127
0.000000 0.769039 0.022869
0.000000 0.769759 0.000000
0.193744 0.769797 0.000000
0.401918 0.763553 0.000000
0.575403 0.754022 0.000000
0.713091 0.743539 0.062806
0.803479 0.736401 0.148869
0.887173 0.732455 0.235240
0.946579 0.735879 0.327138
0.000000 0.863953 0.037852
0.000000 0.864636 0.014194
0.222774 0.863269 0.004731
0.420273 0.858724 0.045463
0.591979 0.851963 0.096315
0.728318 0.844761 0.153615
0.812966 0.840151 0.226902
0.888492 0.837071 0.308373
0.947415 0.837478 0.390373
0.000000 0.943572 0.133009
0.062806 0.943311 0.139456
0.278518 0.941250 0.152574
0.453755 0.937577 0.174907
0.617903 0.932327 0.210029
0.749373 0.927186 0.261357
0.828703 0.924839 0.326470
0.896786 0.923529 0.396857
0.954442 0.923887 0.462149
0.164139 0.996100 0.268066
0.238644 0.995452 0.272937
0.363590 0.993912 0.285805
0.509716 0.991338 0.308254
0.659726 0.987883 0.340910
0.780195 0.985671 0.384760
0.852294 0.987010 0.437061
0.912895 0.990170 0.489316
0.968041 0.994858 0.535651
0.009463 0.007097 0.167494
0.097126 0.012617 0.172627
0.254743 0.011040 0.174907
0.432189 0.000000 0.166304
0.589151 0.000000 0.159966
0.728644 0.000000 0.160711
0.831173 0.000000 0.179376
0.920152 0.095499 0.221729
0.968657 0.208351 0.293007
0.011829 0.120087 0.173085
0.099916 0.124326 0.177825
0.261502 0.126866 0.167019
0.429966 0.121406 0.160463
0.587972 0.112919 0.155677
0.726239 0.110791 0.158968
0.828703 0.135093 0.179596
0.918593 0.184585 0.221729
0.966639 0.268487 0.292881
0.000000 0.296281 0.161205
0.077646 0.300622 0.163411
0.251738 0.296406 0.157710
0.417558 0.286457 0.148063
0.564966 0.281459 0.145068
0.704403 0.282917 0.152050
0.816937 0.295906 0.175360
0.912441 0.322654 0.220502
0.962841 0.373696 0.292754
0.000000 0.484200 0.154133
0.000000 0.489519 0.139456
0.226049 0.485707 0.139742
0.411558 0.472770 0.138882
0.569852 0.457313 0.140028
0.702444 0.447822 0.149937
0.807085 0.448352 0.177156
0.905316 0.458123 0.224504
0.962107 0.485981 0.295404
0.000000 0.645030 0.152835
0.000000 0.648637 0.135093
0.201096 0.646694 0.121734
0.402264 0.637299 0.125284
0.571023 0.623111 0.133608
0.706016 0.609111 0.153095
0.802512 0.602031 0.191909
0.894333 0.602031 0.247770
0.953471 0.614365 0.321407
0.000000 0.771158 0.150203
0.000000 0.772630 0.143129
0.195560 0.771423 0.126235
0.403472 0.764853 0.133608
0.576780 0.754838 0.148063
0.713677 0.743657 0.177603
0.803300 0.735759 0.226391
0.887047 0.731444 0.288918
0.947300 0.734673 0.364177
0.000000 0.864669 0.171706
0.000000 0.865611 0.164864
0.225535 0.863562 0.167967
0.422070 0.858954 0.179376
0.593413 0.852095 0.201096
0.729091 0.844694 0.236381
0.812931 0.839915 0.288918
0.888178 0.836698 0.352624
0.947617 0.836901 0.422396
0.000000 0.943108 0.229271
0.071584 0.942818 0.233105
0.281592 0.940726 0.241994
0.455761 0.937080 0.258001
0.619461 0.931827 0.283444
0.750235 0.926711 0.321294
0.828840 0.924423 0.373222
0.896476 0.923171 0.432900
0.954385 0.923589 0.489857
0.169379 0.995533 0.334921
0.243098 0.994831 0.338786
0.366512 0.993317 0.348635
0.511770 0.990768 0.365541
0.661204 0.987365 0.391269
0.780864 0.985261 0.427969
0.852294 0.986682 0.472770
0.912592 0.989898 0.518628
0.967761 0.994669 0.559968
0.000000 0.005520 0.338466
0.086520 0.008674 0.345216
0.254294 0.003943 0.349663
0.436358 0.000000 0.344381
0.603746 0.000000 0.339956
0.746187 0.000000 0.340910
0.840523 0.000000 0.349046
0.916759 0.104163 0.372177
0.961061 0.223295 0.416483
0.000000 0.119755 0.347603
0.093846 0.123036 0.352725
0.259613 0.122387 0.354547
0.443250 0.112567 0.349970
0.617197 0.096315 0.344694
0.752502 0.095908 0.337718
0.838021 0.133308 0.346464
0.914800 0.194554 0.369310
0.958625 0.284365 0.413570
0.000000 0.298771 0.334705
0.071060 0.302948 0.339956
0.247924 0.305856 0.341966
0.427247 0.296906 0.324681
0.590541 0.293007 0.319927
0.728766 0.293514 0.320269
0.824321 0.308015 0.332860
0.907303 0.338039 0.359352
0.954185 0.391000 0.406730
0.000000 0.486186 0.324793
0.000000 0.491073 0.321634
0.224677 0.493628 0.323331
0.413486 0.474746 0.311928
0.565755 0.449710 0.297902
0.695617 0.439395 0.296156
0.805874 0.448428 0.312868
0.900987 0.469358 0.346152
0.953185 0.503816 0.399135
0.000000 0.645315 0.325129
0.000000 0.649016 0.317748
0.202261 0.651327 0.314388
0.404762 0.642594 0.312281
0.572969 0.624057 0.308254
0.704446 0.605662 0.309683
0.801076 0.596479 0.324456
0.894800 0.596638 0.354143
0.956067 0.609880 0.403041
0.000000 0.769569 0.333404
0.000000 0.772442 0.324119
0.199728 0.773346 0.320839
0.406560 0.767786 0.321861
0.579741 0.756584 0.324007
0.714554 0.743618 0.332642
0.802691 0.734029 0.353941
0.886922 0.728563 0.389294
0.949085 0.731525 0.440401
0.000000 0.863008 0.349560
0.000000 0.864669 0.343962
0.231280 0.863530 0.347293
0.425880 0.859413 0.351708
0.596638 0.852294 0.358855
0.730837 0.844594 0.374074
0.812825 0.839408 0.402523
0.887519 0.835712 0.443250
0.948222 0.835440 0.492017
0.000000 0.941453 0.386127
0.093429 0.941192 0.388753
0.288789 0.939358 0.393942
0.460471 0.935793 0.401831
0.623111 0.930588 0.414488
0.752229 0.925642 0.435889
0.829184 0.923529 0.469929
0.895731 0.922336 0.511258
0.954242 0.922753 0.552769
0.184371 0.994182 0.458859
0.254294 0.993533 0.461566
0.373885 0.991989 0.468357
0.516734 0.989490 0.478946
0.664974 0.986163 0.495233
0.782497 0.984247 0.519759
0.852526 0.985862 0.551839
0.911805 0.989299 0.585604
0.967172 0.994182 0.613806
0.000000 0.003943 0.507069
0.053002 0.000000 0.531215
0.247924 0.000000 0.535651
0.433768 0.000000 0.528827
0.604006 0.000000 0.522076
0.749177 0.000000 0.524318
0.844057 0.000000 0.542128
0.910165 0.121406 0.562644
0.948510 0.251132 0.583875
0.000000 0.115699 0.534864
0.071060 0.118081 0.539262
0.254294 0.117066 0.541056
0.440401 0.107892 0.536858
0.615024 0.092590 0.531154
0.759597 0.090032 0.530237
0.843956 0.136270 0.543020
0.907486 0.213158 0.557332
0.945568 0.311221 0.578537
0.000000 0.301236 0.523821
0.041759 0.304163 0.527966
0.243570 0.305856 0.529686
0.432426 0.304406 0.527966
0.608033 0.301726 0.524442
0.751995 0.305011 0.524566
0.832644 0.326916 0.531948
0.898272 0.362413 0.540578
0.940057 0.418630 0.565699
0.000000 0.487277 0.503293
0.000000 0.491680 0.509007
0.222252 0.493963 0.511258
0.416317 0.494164 0.511129
0.581486 0.474605 0.488094
0.720489 0.473759 0.487414
0.811907 0.482341 0.496100
0.890027 0.500208 0.514514
0.938278 0.532374 0.547570
0.000000 0.645506 0.503686
0.000000 0.648306 0.503555
0.204185 0.650573 0.503032
0.406389 0.650102 0.503489
0.574298 0.624901 0.483375
0.698075 0.594843 0.460909
0.797506 0.584308 0.459005
0.892683 0.596638 0.483100
0.948164 0.624703 0.527350
0.000000 0.768925 0.511386
0.000000 0.770743 0.510102
0.205901 0.771612 0.508491
0.409619 0.770062 0.509780
0.583767 0.760137 0.505055
0.715304 0.743459 0.497164
0.800968 0.729944 0.497563
0.886796 0.722755 0.510680
0.952584 0.725707 0.538302
0.000000 0.861180 0.528827
0.000000 0.862389 0.527534
0.241042 0.861115 0.529256
0.430841 0.858757 0.532192
0.601615 0.852791 0.533287
0.733343 0.844526 0.535046
0.812401 0.838529 0.544621
0.886261 0.833873 0.561678
0.949688 0.832781 0.582953
0.000000 0.938745 0.559110
0.124965 0.938249 0.560538
0.300868 0.936466 0.563438
0.467712 0.933416 0.568901
0.629151 0.928608 0.574962
0.755459 0.923827 0.583496
0.829596 0.922037 0.599473
0.894551 0.921080 0.616137
0.954299 0.921678 0.631311
0.212059 0.991989 0.612891
0.273075 0.991392 0.614517
0.386581 0.989844 0.618506
0.525062 0.987392 0.625794
0.671664 0.984138 0.634630
0.785382 0.982547 0.645220
0.852957 0.984631 0.657267
0.910925 0.988564 0.668717
0.966555 0.993777 0.679830
0.000000 0.003943 0.665432
0.021292 0.000000 0.688045
0.238644 0.000000 0.698934
0.431317 0.000000 0.692454
0.605145 0.000000 0.683821
0.748470 0.000000 0.681341
0.839307 0.018926 0.695358
0.902864 0.158466 0.708300
0.936203 0.292627 0.725912
0.000000 0.111504 0.700178
0.022080 0.113969 0.703169
0.245913 0.113270 0.703467
0.436202 0.105669 0.698419
0.611464 0.095088 0.691235
0.755265 0.102253 0.687563
0.838190 0.158717 0.694752
0.899230 0.243570 0.705804
0.932062 0.348222 0.723084
0.000000 0.302704 0.690189
0.000000 0.305253 0.692019
0.236218 0.306457 0.692280
0.428929 0.305494 0.688965
0.604938 0.304527 0.683512
0.747920 0.311339 0.680542
0.828943 0.339744 0.686948
0.888962 0.387850 0.698204
0.922753 0.456131 0.716636
0.000000 0.489925 0.661850
0.000000 0.492890 0.669943
0.216416 0.494699 0.673064
0.414405 0.494632 0.671484
0.591660 0.494365 0.668626
0.734754 0.498027 0.667943
0.815183 0.513942 0.675628
0.875505 0.541354 0.689052
0.918292 0.571302 0.697816
0.000000 0.644887 0.657127
0.000000 0.647501 0.660419
0.203802 0.649913 0.663369
0.406816 0.649347 0.662449
0.584578 0.648117 0.660927
0.714261 0.626338 0.636524
0.802404 0.631458 0.641395
0.876463 0.642690 0.652408
0.927423 0.662587 0.671981
0.000000 0.767026 0.666438
0.000000 0.768925 0.667032
0.213158 0.769759 0.666712
0.413068 0.768204 0.666118
0.588990 0.765845 0.665524
0.715762 0.743737 0.641251
0.797326 0.719621 0.615631
0.887801 0.711373 0.612127
0.953213 0.725503 0.637396
0.000000 0.858462 0.683069
0.000000 0.859806 0.682494
0.254892 0.858494 0.682450
0.437529 0.856127 0.682582
0.607364 0.852791 0.683246
0.737844 0.845967 0.677689
0.812048 0.837987 0.668990
0.885095 0.830934 0.664379
0.953185 0.828359 0.668490
0.039429 0.935558 0.705762
0.168203 0.934913 0.706016
0.319813 0.933210 0.706609
0.478109 0.930323 0.707794
0.636863 0.926177 0.710407
0.761060 0.922336 0.712044
0.830899 0.920841 0.712589
0.893368 0.920002 0.713718
0.954955 0.920242 0.716095
0.251738 0.989816 0.742031
0.303435 0.989299 0.742507
0.407412 0.987883 0.743578
0.537640 0.985589 0.745951
0.680408 0.982409 0.749530
0.790414 0.981035 0.753516
0.854412 0.983535 0.756468
0.910044 0.987828 0.759289
0.965797 0.993317 0.759944
0.000000 0.010251 0.798265
0.000000 0.000789 0.816762
0.235240 0.000000 0.824667
0.430443 0.000000 0.819594
0.606797 0.000000 0.812225
0.750783 0.000000 0.807690
0.833771 0.095499 0.812507
0.893991 0.217490 0.818617
0.927512 0.342914 0.826084
0.000000 0.115355 0.827085
0.000000 0.118418 0.829081
0.242310 0.119088 0.827911
0.434319 0.115699 0.821893
0.608803 0.114317 0.813389
0.750901 0.135389 0.807512
0.831619 0.200120 0.810528
0.890153 0.288531 0.815289
0.924006 0.389924 0.823004
0.000000 0.307657 0.815921
0.000000 0.310038 0.817183
0.232774 0.311693 0.816131
0.427167 0.312281 0.811554
0.602187 0.314738 0.804588
0.743420 0.327027 0.799348
0.822865 0.361232 0.802009
0.881142 0.414321 0.807263
0.916307 0.483994 0.816201
0.000000 0.494097 0.790048
0.000000 0.496366 0.797289
0.215336 0.497496 0.796566
0.414405 0.497960 0.793880
0.590487 0.499020 0.789463
0.731849 0.505055 0.786598
0.810988 0.524194 0.790414
0.869915 0.554912 0.797796
0.908248 0.596269 0.809536
0.000000 0.646409 0.775525
0.000000 0.648637 0.780864
0.209471 0.650479 0.786045
0.409788 0.650007 0.784052
0.585442 0.649347 0.781050
0.725748 0.651656 0.779636
0.804338 0.662449 0.784680
0.863269 0.680542 0.793916
0.904122 0.705126 0.807334
0.000000 0.766036 0.784163
0.000000 0.768052 0.786966
0.228766 0.768546 0.787885
0.420191 0.767140 0.786266
0.592405 0.765120 0.783978
0.729823 0.764853 0.783645
0.802261 0.749765 0.765082
0.872234 0.756700 0.772140
0.926652 0.767330 0.782868
0.000000 0.856884 0.801758
0.070533 0.857345 0.802045
0.278249 0.856094 0.801255
0.449635 0.853949 0.799852
0.613756 0.850901 0.798265
0.744884 0.849205 0.799059
0.812084 0.838156 0.778107
0.884938 0.823732 0.751565
0.960976 0.819699 0.744607
0.138882 0.932180 0.821371
0.220326 0.931532 0.821162
0.348532 0.929939 0.820605
0.494766 0.927275 0.819978
0.646647 0.923499 0.819350
0.766912 0.920931 0.821301
0.833635 0.920422 0.817918
0.892340 0.919163 0.805909
0.957006 0.918473 0.794425
0.301236 0.987883 0.849138
0.345840 0.987337 0.848972
0.436983 0.986081 0.848639
0.556642 0.984028 0.848105
0.690450 0.981227 0.847571
0.794825 0.980043 0.849338
0.857279 0.982519 0.850037
0.909588 0.987310 0.844426
0.965375 0.993208 0.835950
0.000000 0.021292 0.907791
0.000000 0.026812 0.909436
0.249305 0.026023 0.907181
0.437451 0.022080 0.900587
0.609367 0.030754 0.891341
0.748941 0.086965 0.884433
0.827980 0.184585 0.885284
0.884085 0.294272 0.886072
0.919343 0.401051 0.888210
0.000000 0.138017 0.909527
0.000789 0.142009 0.910621
0.253546 0.144793 0.907638
0.439317 0.148601 0.900402
0.609623 0.160711 0.890403
0.747487 0.194755 0.882410
0.824805 0.263520 0.881966
0.880698 0.348222 0.882821
0.916608 0.438929 0.885410
0.000000 0.322088 0.896166
0.000000 0.324681 0.896755
0.243413 0.327138 0.894302
0.431634 0.330783 0.888586
0.602604 0.338146 0.880381
0.740160 0.356759 0.873647
0.817007 0.396857 0.873550
0.873037 0.453233 0.875281
0.910743 0.517745 0.879459
0.000000 0.502442 0.873935
0.000000 0.504338 0.876623
0.230445 0.505576 0.874865
0.421254 0.507198 0.871269
0.592989 0.510423 0.865871
0.730309 0.519885 0.861540
0.807334 0.542664 0.863074
0.864604 0.575844 0.867006
0.905225 0.615682 0.873711
0.000000 0.651138 0.856094
0.000000 0.653486 0.864896
0.232774 0.653767 0.864116
0.420600 0.653908 0.861442
0.590701 0.654422 0.857608
0.726279 0.658567 0.855006
0.802691 0.671529 0.857673
0.860134 0.691017 0.863171
0.903232 0.714679 0.871623
0.000000 0.767634 0.861377
0.001577 0.769683 0.866682
0.260922 0.769001 0.865319
0.436202 0.767900 0.863106
0.601093 0.766455 0.859970
0.732293 0.767254 0.858429
0.807049 0.773985 0.861834
0.864018 0.784311 0.868301
0.908918 0.797687 0.877517
0.033909 0.856456 0.879173
0.170081 0.855962 0.878632
0.316710 0.854841 0.877421
0.470997 0.852990 0.875377
0.626140 0.850403 0.872620
0.748941 0.849538 0.871719
0.820187 0.853056 0.875217
0.878696 0.845029 0.862845
0.935236 0.851697 0.869141
0.229271 0.929436 0.895949
0.284365 0.928845 0.895514
0.390103 0.927453 0.894458
0.519948 0.925077 0.892776
0.661527 0.921708 0.890465
0.771498 0.919913 0.890121
0.838427 0.921618 0.893617
0.892121 0.919283 0.877612
0.963264 0.914890 0.855534
0.359352 0.986819 0.918623
0.395624 0.986382 0.918172
0.473194 0.985233 0.917090
0.581976 0.983343 0.915343
0.703808 0.980980 0.913228
0.798915 0.980319 0.913016
0.860494 0.982519 0.915916
0.910257 0.987283 0.912562
0.965460 0.993614 0.899847
0.000000 0.095499 0.962446
0.081950 0.101090 0.962615
0.281193 0.108258 0.958057
0.452711 0.121734 0.949947
0.615530 0.148333 0.938949
0.746818 0.202840 0.929525
0.820327 0.286327 0.926652
0.873615 0.375771 0.925315
0.912502 0.459079 0.926563
0.000000 0.188390 0.960042
0.082881 0.192523 0.959873
0.281327 0.199138 0.955126
0.451813 0.211692 0.946838
0.613705 0.234585 0.935587
0.744251 0.275812 0.926088
0.817533 0.340910 0.923499
0.870915 0.416483 0.922425
0.910439 0.489519 0.924333
0.000000 0.351708 0.944817
0.054295 0.354345 0.944411
0.272524 0.358257 0.940784
0.444781 0.365639 0.934326
0.607467 0.378486 0.925404
0.737844 0.403128 0.917782
0.811059 0.446609 0.916066
0.865254 0.499878 0.916428
0.906723 0.553059 0.920122
0.000000 0.518376 0.925821
0.032332 0.519697 0.925345
0.266513 0.521639 0.922932
0.438463 0.525124 0.918653
0.601093 0.531338 0.912562
0.730796 0.544502 0.907638
0.804445 0.569740 0.907943
0.859970 0.602031 0.910712
0.903263 0.637928 0.916006
0.000000 0.660281 0.913833
0.083803 0.660789 0.914769
0.277304 0.661435 0.913016
0.443097 0.662495 0.909983
0.602760 0.664608 0.905653
0.729457 0.671167 0.902556
0.802225 0.685585 0.904183
0.858035 0.704488 0.908492
0.903355 0.726116 0.915433
0.027600 0.772253 0.916488
0.165345 0.772027 0.915885
0.312046 0.771649 0.914407
0.464109 0.771045 0.911986
0.617348 0.770478 0.908522
0.737724 0.772479 0.906692
0.808472 0.779636 0.909131
0.863790 0.790012 0.914226
0.910287 0.802727 0.921768
0.199532 0.856193 0.927838
0.259904 0.855830 0.927305
0.370556 0.854907 0.925939
0.502770 0.853420 0.923738
0.645077 0.851366 0.920631
0.755227 0.851366 0.919313
0.822483 0.855402 0.921858
0.876080 0.862062 0.926771
0.922694 0.870592 0.933856
0.315900 0.927453 0.943717
0.356559 0.926949 0.943224
0.440401 0.925672 0.941976
0.553986 0.923589 0.939969
0.679963 0.920901 0.937373
0.777995 0.920062 0.936583
0.841029 0.922395 0.939095
0.892745 0.926860 0.943630
0.949573 0.925702 0.939299
0.417806 0.986655 0.963968
0.447368 0.986272 0.963461
0.512985 0.985288 0.962305
0.610289 0.983562 0.960269
0.718918 0.981667 0.957915
0.804159 0.981475 0.957375
0.862552 0.983891 0.959391
0.911926 0.987910 0.963123
0.966162 0.994615 0.953271
0.098330 0.199728 0.975676
0.193947 0.203802 0.974067
0.328690 0.215517 0.969692
0.476151 0.237030 0.962135
0.624951 0.270166 0.951295
0.744251 0.319584 0.942963
0.812613 0.384028 0.941744
0.864766 0.450162 0.943688
0.908065 0.510488 0.948970
0.090892 0.271833 0.970111
0.190675 0.275540 0.968573
0.326136 0.285021 0.964588
0.474041 0.301359 0.957546
0.623111 0.327249 0.947675
0.742110 0.367866 0.940115
0.810564 0.422640 0.939387
0.862976 0.480890 0.941773
0.906875 0.534076 0.947675
0.079582 0.400964 0.956864
0.185225 0.403214 0.955810
0.321975 0.408857 0.952956
0.469929 0.419370 0.947185
0.619210 0.436045 0.939445
0.737564 0.463747 0.933827
0.806373 0.502508 0.934502
0.859708 0.544917 0.938395
0.904918 0.585550 0.945424
0.094676 0.544680 0.942354
0.189848 0.545921 0.941482
0.323782 0.548802 0.939358
0.469001 0.554160 0.935793
0.617500 0.562757 0.930765
0.734230 0.577769 0.927927
0.803049 0.601875 0.930323
0.856917 0.630477 0.935441
0.903232 0.658892 0.943427
0.147523 0.673560 0.934913
0.219797 0.674055 0.934385
0.341227 0.675180 0.932975
0.478737 0.677510 0.930618
0.623211 0.680986 0.927423
0.735558 0.688571 0.926415
0.803515 0.702402 0.930027
0.857673 0.719539 0.936232
0.904980 0.737604 0.944817
0.222948 0.777472 0.938716
0.277169 0.777397 0.938249
0.378765 0.777248 0.937285
0.504273 0.777173 0.935646
0.640290 0.777135 0.933533
0.745635 0.779897 0.933651
0.811695 0.787150 0.937694
0.865189 0.797072 0.944064
0.912835 0.808152 0.952527
0.310038 0.857509 0.952298
0.349765 0.857213 0.951897
0.432030 0.856489 0.951037
0.544088 0.855303 0.949516
0.667442 0.853982 0.947732
0.763438 0.854841 0.948107
0.826188 0.859315 0.951725
0.878154 0.865806 0.957518
0.925434 0.873390 0.965066
0.394031 0.926533 0.970474
0.424507 0.926147 0.970111
0.491613 0.925196 0.969301
0.590274 0.923469 0.967817
0.699792 0.921559 0.966274
0.785603 0.921618 0.966667
0.844694 0.924393 0.969832
0.894862 0.928993 0.974705
0.941599 0.934356 0.981365
0.470855 0.987474 0.991962
0.495167 0.987146 0.991555
0.550031 0.986327 0.990768
0.636912 0.984823 0.989163
0.733303 0.983260 0.987610
0.809430 0.983507 0.987801
0.864766 0.986026 0.990224
0.912804 0.990061 0.994209
0.959532 0.995263 0.999356
