Zoran/InstaClarendon - Skin Save.cube
TITLE "Generated by 3D LUT Creator Pro (c) Oleg Sharonov"
LUT_3D_SIZE 5
#IMAGEPROFILE ProPhoto RGB v.2.10
#INPUTGAMMA ProPhoto RGB v.2.10
#OUTPUTGAMMA ProPhoto RGB v.2.10
0.007097 0.007886 0.046892
0.222426 0.016560 0.056196
0.537701 0.000000 0.038640
0.798554 0.000000 0.034697
0.970614 0.044005 0.057439
0.001577 0.264950 0.043264
0.215156 0.269328 0.044738
0.537580 0.262945 0.034697
0.797326 0.260341 0.028389
0.965291 0.281327 0.053651
0.000000 0.584902 0.013406
0.166543 0.590167 0.000000
0.510680 0.590380 0.000000
0.770478 0.593891 0.000000
0.933886 0.609880 0.000000
0.000000 0.815359 0.010251
0.167494 0.818057 0.000000
0.518942 0.816306 0.000000
0.781087 0.816166 0.000000
0.936378 0.827774 0.000000
0.015771 0.997797 0.051686
0.225535 0.997877 0.053002
0.552304 0.994344 0.044738
0.811413 0.991745 0.037063
0.963348 0.998577 0.062806
0.000000 0.003154 0.307896
0.218203 0.011829 0.317057
0.535227 0.000000 0.306337
0.794534 0.000000 0.307297
0.968377 0.040994 0.325801
0.000000 0.264236 0.308493
0.214250 0.268487 0.312399
0.537340 0.262513 0.306578
0.796602 0.260050 0.306097
0.963179 0.281327 0.323444
0.000000 0.585442 0.286457
0.171243 0.590060 0.282388
0.511514 0.590380 0.281858
0.772065 0.593307 0.284234
0.933092 0.609572 0.300130
0.000000 0.816271 0.288660
0.171706 0.817253 0.290587
0.520199 0.815464 0.289175
0.780567 0.815675 0.289690
0.935705 0.826912 0.301849
0.014194 0.996720 0.320953
0.226049 0.996747 0.322428
0.552420 0.993208 0.320383
0.810811 0.990605 0.319355
0.961994 0.997393 0.328026
0.000000 0.002366 0.606694
0.199335 0.000000 0.637009
0.529686 0.000000 0.630477
0.790488 0.000000 0.632436
0.962022 0.023657 0.656010
0.000000 0.259028 0.633851
0.203033 0.262945 0.637928
0.532435 0.258001 0.633510
0.792642 0.255785 0.634095
0.957660 0.277844 0.653393
0.000000 0.583333 0.604213
0.164864 0.588454 0.610954
0.510744 0.588508 0.610647
0.771196 0.591234 0.613756
0.930677 0.607261 0.630232
0.000000 0.812648 0.622613
0.171011 0.814832 0.622663
0.520011 0.813072 0.621465
0.779673 0.813318 0.622214
0.933651 0.824529 0.633754
0.003154 0.993831 0.652830
0.223814 0.993777 0.653955
0.550907 0.990333 0.651938
0.808720 0.987856 0.650856
0.959051 0.994642 0.658614
0.000000 0.003154 0.833054
0.197159 0.000000 0.855468
0.531887 0.000000 0.849405
0.791839 0.000000 0.846703
0.960269 0.019714 0.869980
0.000000 0.261068 0.851366
0.198349 0.264236 0.853883
0.532496 0.259028 0.848572
0.792751 0.256674 0.848005
0.956010 0.278249 0.866584
0.000000 0.587864 0.818127
0.154133 0.590967 0.825566
0.510873 0.590434 0.824355
0.771989 0.592511 0.826395
0.930411 0.607827 0.842376
0.000000 0.812931 0.833020
0.167494 0.815324 0.836358
0.520512 0.813389 0.834317
0.780195 0.813495 0.834385
0.933327 0.824355 0.845532
0.000000 0.992965 0.867330
0.224504 0.992829 0.867718
0.551431 0.989408 0.864896
0.808543 0.986955 0.863074
0.957972 0.993695 0.870335
0.003943 0.011829 0.999195
0.225192 0.015771 1.000000
0.545035 0.000000 0.992450
0.802799 0.000000 0.988728
0.965825 0.048294 1.000000
0.000000 0.272662 0.994317
0.216416 0.274994 0.995803
0.542485 0.269188 0.988918
0.800392 0.266088 0.985343
0.960976 0.285805 1.000000
0.000000 0.597480 0.962587
0.159717 0.599316 0.963405
0.516924 0.597900 0.960609
0.777734 0.598897 0.960863
0.934767 0.613095 0.975038
0.000000 0.818512 0.966920
0.173314 0.820257 0.970502
0.525000 0.818022 0.967481
0.784274 0.817673 0.966359
0.936495 0.828049 0.976314
0.021292 0.995587 1.000000
0.231447 0.995425 1.000000
0.555432 0.991880 0.996342
0.811483 0.989299 0.993587
0.960042 0.995803 0.999893
