Zoran/InstaClarendon - Skin Save.cube
TITLE "Generated by 3D LUT Creator Pro (c) Oleg Sharonov"
LUT_3D_SIZE 25
#IMAGEPROFILE ProPhoto RGB v.2.10
#INPUTGAMMA ProPhoto RGB v.2.10
#OUTPUTGAMMA ProPhoto RGB v.2.10
0.007097 0.007886 0.046892
0.034697 0.009463 0.048294
0.060464 0.011040 0.049669
0.090892 0.014983 0.052347
0.120418 0.019714 0.056196
0.160215 0.022080 0.059267
0.222426 0.016560 0.056196
0.279592 0.014194 0.051686
0.333404 0.011040 0.048294
0.386581 0.006309 0.044738
0.438230 0.001577 0.041759
0.489044 0.000000 0.039429
0.537701 0.000000 0.038640
0.587864 0.000000 0.037063
0.636912 0.000000 0.035486
0.682405 0.000000 0.033909
0.724520 0.000000 0.033120
0.763247 0.000000 0.033120
0.798554 0.000000 0.034697
0.831379 0.000000 0.036274
0.861736 0.000000 0.039429
0.889840 0.000000 0.044005
0.917601 0.009463 0.048294
0.944643 0.025234 0.052347
0.970614 0.044005 0.057439
0.007886 0.047596 0.047596
0.035486 0.048985 0.048294
0.061056 0.051020 0.050348
0.090892 0.053651 0.053002
0.120418 0.057439 0.056820
0.161205 0.058662 0.059267
0.222252 0.056196 0.055568
0.279859 0.053002 0.051686
0.333838 0.049669 0.048294
0.387126 0.045463 0.044738
0.438852 0.040994 0.042516
0.489654 0.034697 0.040217
0.538242 0.029177 0.038640
0.588454 0.021292 0.037063
0.637444 0.013406 0.035486
0.682892 0.007886 0.033909
0.724889 0.003943 0.033120
0.763553 0.003943 0.033120
0.798771 0.007097 0.033909
0.831550 0.013406 0.036274
0.861801 0.022869 0.039429
0.889840 0.035486 0.044005
0.917541 0.049669 0.047596
0.944556 0.062806 0.052347
0.970474 0.075669 0.057439
0.012617 0.077646 0.052347
0.040994 0.078134 0.053002
0.065085 0.079582 0.054934
0.095088 0.081481 0.054934
0.126235 0.083803 0.056820
0.165105 0.084261 0.059868
0.224677 0.081950 0.058053
0.282255 0.079582 0.054295
0.336216 0.076662 0.051020
0.389474 0.073137 0.047596
0.441096 0.069470 0.044738
0.491747 0.065085 0.042516
0.540279 0.060464 0.040994
0.590327 0.054295 0.038640
0.639183 0.047596 0.036274
0.684527 0.041759 0.034697
0.726402 0.037852 0.033909
0.764929 0.037852 0.033909
0.799996 0.040994 0.034697
0.832644 0.046892 0.037063
0.862813 0.054934 0.040217
0.890716 0.065085 0.044738
0.918323 0.074664 0.048985
0.945250 0.084717 0.053002
0.971116 0.095088 0.058053
0.019714 0.111859 0.057439
0.046181 0.112567 0.058053
0.068394 0.113620 0.059267
0.095499 0.115010 0.060464
0.134204 0.118418 0.050348
0.176933 0.119422 0.047596
0.233105 0.118081 0.044005
0.285544 0.114664 0.048294
0.338573 0.110432 0.053002
0.391894 0.107524 0.049669
0.443480 0.104542 0.046892
0.494097 0.101090 0.044005
0.542426 0.097930 0.042516
0.592458 0.093846 0.040217
0.641203 0.089165 0.037063
0.686333 0.085622 0.035486
0.728074 0.083803 0.034697
0.766379 0.083803 0.034697
0.801327 0.086072 0.035486
0.833771 0.089600 0.037852
0.863790 0.095088 0.040994
0.891528 0.102253 0.045463
0.919043 0.109350 0.049669
0.945857 0.117066 0.053651
0.971562 0.125284 0.058662
0.014194 0.157205 0.055568
0.042516 0.157710 0.055568
0.065646 0.158717 0.056820
0.094262 0.159717 0.057439
0.123360 0.161205 0.059267
0.180912 0.163897 0.037852
0.236218 0.163167 0.033120
0.286847 0.161698 0.033909
0.338252 0.156697 0.051020
0.392073 0.154133 0.049669
0.443940 0.151788 0.046892
0.494699 0.149137 0.044738
0.543139 0.146710 0.042516
0.593254 0.143686 0.039429
0.642019 0.140597 0.037063
0.687080 0.138306 0.035486
0.728725 0.137147 0.033909
0.766912 0.137147 0.033909
0.801686 0.138882 0.035486
0.833976 0.141728 0.037852
0.863823 0.145618 0.040994
0.891434 0.150998 0.044738
0.918803 0.156188 0.048985
0.945510 0.162189 0.053651
0.971088 0.168675 0.058662
0.011829 0.207976 0.050348
0.038640 0.208351 0.051020
0.062227 0.209285 0.051020
0.090892 0.210400 0.052347
0.119755 0.211876 0.053651
0.160711 0.212609 0.053002
0.235403 0.210214 0.027600
0.284103 0.209843 0.034697
0.335461 0.208912 0.048294
0.389564 0.207224 0.046892
0.441944 0.205521 0.044738
0.493025 0.203610 0.042516
0.541711 0.201873 0.040217
0.592139 0.199532 0.037063
0.641011 0.197358 0.034697
0.686201 0.195961 0.033120
0.727830 0.195158 0.032332
0.765921 0.195560 0.032332
0.800572 0.196960 0.033120
0.832781 0.199335 0.035486
0.862389 0.202647 0.038640
0.889871 0.206847 0.043264
0.917120 0.211139 0.047596
0.943717 0.215877 0.051686
0.969189 0.221204 0.056820
0.001577 0.264950 0.043264
0.027600 0.265377 0.043264
0.052347 0.266230 0.044005
0.082416 0.267220 0.044738
0.111859 0.268628 0.045463
0.152312 0.269747 0.046181
0.215156 0.269328 0.044738
0.274448 0.268066 0.042516
0.329463 0.267784 0.042516
0.384120 0.266655 0.040994
0.436905 0.265520 0.038640
0.488569 0.264093 0.036274
0.537580 0.262945 0.034697
0.588401 0.261213 0.031543
0.637638 0.259613 0.029177
0.682937 0.258588 0.027600
0.724643 0.258442 0.026812
0.762749 0.258881 0.026812
0.797326 0.260341 0.028389
0.829459 0.262369 0.029966
0.859019 0.265235 0.033909
0.886355 0.268908 0.037852
0.913500 0.272662 0.043264
0.939911 0.276763 0.047596
0.965291 0.281327 0.053651
0.000000 0.322428 0.033120
0.011040 0.322880 0.033120
0.036274 0.323669 0.033120
0.070533 0.324681 0.033909
0.101867 0.325912 0.035486
0.143686 0.327027 0.036274
0.207412 0.327027 0.035486
0.266938 0.326804 0.034697
0.322880 0.326359 0.033120
0.377833 0.325689 0.031543
0.431000 0.324905 0.029966
0.482962 0.324007 0.027600
0.532313 0.323331 0.026023
0.583496 0.322088 0.023657
0.632973 0.320953 0.021292
0.678493 0.320269 0.019714
0.720282 0.320269 0.018926
0.758363 0.320953 0.018926
0.792933 0.322428 0.020503
0.825013 0.324456 0.022869
0.854379 0.327138 0.026023
0.881618 0.330454 0.030754
0.908644 0.333947 0.035486
0.934942 0.337611 0.041759
0.960212 0.341755 0.047596
0.000000 0.378858 0.021292
0.000000 0.379323 0.021292
0.014194 0.379973 0.022080
0.053651 0.380900 0.022080
0.089165 0.382099 0.023657
0.134204 0.383203 0.024446
0.199532 0.383386 0.023657
0.259904 0.383295 0.022869
0.316247 0.383203 0.021292
0.371606 0.382927 0.020503
0.425073 0.382468 0.018926
0.477271 0.381915 0.016560
0.526794 0.381546 0.014983
0.578263 0.380715 0.012617
0.627969 0.379881 0.010251
0.673605 0.379602 0.009463
0.715429 0.379788 0.008674
0.753555 0.380622 0.008674
0.788032 0.382099 0.010251
0.819978 0.384120 0.012617
0.849238 0.386763 0.016560
0.876336 0.389834 0.021292
0.903171 0.393142 0.026023
0.929348 0.396681 0.032332
0.954499 0.400530 0.038640
0.000000 0.433374 0.022080
0.000000 0.434633 0.010251
0.000000 0.435418 0.008674
0.028389 0.436280 0.009463
0.072622 0.437373 0.010251
0.122712 0.438308 0.011040
0.191088 0.438619 0.010251
0.252644 0.438774 0.009463
0.309801 0.438852 0.008674
0.365541 0.438696 0.007097
0.419206 0.438541 0.005520
0.471636 0.438308 0.003943
0.521326 0.438152 0.002366
0.573025 0.437607 0.000000
0.622912 0.437061 0.000000
0.668581 0.436983 0.000000
0.710491 0.437373 0.000000
0.748510 0.438308 0.000000
0.782905 0.439937 0.000000
0.814726 0.441944 0.000789
0.843855 0.444475 0.004731
0.870721 0.447519 0.009463
0.897467 0.450688 0.014983
0.923499 0.454053 0.020503
0.948423 0.457755 0.027600
0.000000 0.486937 0.014983
0.000000 0.487754 0.008674
0.000000 0.488637 0.003943
0.000789 0.489857 0.000000
0.051020 0.490938 0.000000
0.109350 0.491815 0.000000
0.182217 0.492151 0.000000
0.245602 0.492353 0.000000
0.303556 0.492555 0.000000
0.359748 0.492555 0.000000
0.413821 0.492555 0.000000
0.466491 0.492420 0.000000
0.516291 0.492420 0.000000
0.568117 0.492084 0.000000
0.617903 0.491882 0.000000
0.663461 0.492017 0.000000
0.705253 0.492622 0.000000
0.743301 0.493628 0.000000
0.778032 0.495033 0.000000
0.809713 0.497098 0.000000
0.838698 0.499614 0.000000
0.865384 0.502573 0.000000
0.891934 0.505641 0.001577
0.917812 0.508943 0.007886
0.942499 0.512538 0.014983
0.000000 0.537941 0.012617
0.000000 0.538542 0.009463
0.000000 0.539321 0.003943
0.000000 0.540458 0.000000
0.029966 0.541890 0.000000
0.094676 0.542901 0.000000
0.173543 0.543198 0.000000
0.238805 0.543436 0.000000
0.297902 0.543614 0.000000
0.354850 0.543673 0.000000
0.409280 0.543732 0.000000
0.462440 0.543614 0.000000
0.512793 0.543495 0.000000
0.564627 0.543258 0.000000
0.614212 0.543198 0.000000
0.659448 0.543614 0.000000
0.700992 0.544325 0.000000
0.738764 0.545508 0.000000
0.772932 0.547099 0.000000
0.804695 0.549095 0.000000
0.833839 0.551373 0.000000
0.860821 0.554044 0.000000
0.887236 0.556987 0.000000
0.912895 0.560196 0.000000
0.937431 0.563608 0.002366
0.000000 0.584902 0.013406
0.000000 0.585442 0.010251
0.000000 0.586143 0.003943
0.000000 0.587220 0.000000
0.026812 0.588562 0.000000
0.081481 0.589953 0.000000
0.166543 0.590167 0.000000
0.233929 0.590327 0.000000
0.294019 0.590487 0.000000
0.351504 0.590541 0.000000
0.406389 0.590594 0.000000
0.460909 0.590220 0.000000
0.510680 0.590380 0.000000
0.562871 0.590113 0.000000
0.612688 0.589953 0.000000
0.657871 0.590327 0.000000
0.699149 0.591127 0.000000
0.736642 0.592298 0.000000
0.770478 0.593891 0.000000
0.801902 0.595847 0.000000
0.830660 0.598162 0.000000
0.857443 0.600780 0.000000
0.883548 0.603694 0.000000
0.909436 0.606591 0.000000
0.933886 0.609880 0.000000
0.000000 0.629888 0.013406
0.000000 0.630330 0.009463
0.000000 0.631066 0.003154
0.000000 0.631996 0.000000
0.023657 0.633217 0.000000
0.073649 0.634679 0.000000
0.160463 0.635019 0.000000
0.229775 0.635165 0.000000
0.290843 0.635311 0.000000
0.349046 0.635360 0.000000
0.405020 0.635214 0.000000
0.458418 0.635214 0.000000
0.509458 0.635019 0.000000
0.562133 0.634679 0.000000
0.611822 0.634679 0.000000
0.657174 0.634971 0.000000
0.698419 0.635603 0.000000
0.735598 0.636767 0.000000
0.769190 0.638411 0.000000
0.800140 0.640387 0.000000
0.828531 0.642690 0.000000
0.854478 0.645411 0.000000
0.880857 0.648070 0.000000
0.906448 0.650950 0.000000
0.931060 0.654048 0.000000
0.000000 0.672749 0.015771
0.000000 0.673470 0.003943
0.000000 0.673965 0.000789
0.000789 0.674640 0.000000
0.026023 0.675763 0.000000
0.075669 0.677107 0.000000
0.155421 0.677778 0.000000
0.226732 0.677823 0.000000
0.288789 0.677867 0.000000
0.347499 0.677912 0.000000
0.403128 0.677867 0.000000
0.457681 0.677599 0.000000
0.509007 0.677376 0.000000
0.561735 0.677062 0.000000
0.612025 0.676794 0.000000
0.657499 0.676973 0.000000
0.698676 0.677599 0.000000
0.735799 0.678626 0.000000
0.769115 0.680097 0.000000
0.799744 0.682006 0.000000
0.827843 0.684218 0.000000
0.853718 0.686817 0.000000
0.879523 0.689490 0.000000
0.904581 0.692323 0.000000
0.928904 0.695315 0.000000
0.000000 0.711793 0.016560
0.000000 0.712296 0.007886
0.000000 0.712924 0.000000
0.000000 0.713551 0.000000
0.022080 0.714595 0.000000
0.072622 0.715762 0.000000
0.154650 0.716345 0.000000
0.226561 0.716345 0.000000
0.289046 0.716345 0.000000
0.348119 0.716220 0.000000
0.404075 0.716137 0.000000
0.458932 0.715804 0.000000
0.509458 0.715721 0.000000
0.563155 0.715179 0.000000
0.613247 0.714929 0.000000
0.659309 0.714846 0.000000
0.700350 0.715388 0.000000
0.737604 0.716220 0.000000
0.770856 0.717550 0.000000
0.801363 0.719290 0.000000
0.829081 0.721355 0.000000
0.854676 0.723782 0.000000
0.880190 0.726361 0.000000
0.905286 0.729010 0.000000
0.929081 0.731970 0.000000
0.000000 0.748195 0.014194
0.000000 0.748706 0.003943
0.000000 0.749098 0.000789
0.000000 0.749765 0.000000
0.026812 0.750549 0.000000
0.074664 0.751683 0.000000
0.156443 0.752151 0.000000
0.228428 0.752112 0.000000
0.291099 0.751995 0.000000
0.350380 0.751839 0.000000
0.406389 0.751604 0.000000
0.460471 0.751409 0.000000
0.511129 0.751292 0.000000
0.564966 0.750666 0.000000
0.615732 0.750196 0.000000
0.661435 0.750157 0.000000
0.703169 0.750353 0.000000
0.740320 0.751057 0.000000
0.773572 0.752229 0.000000
0.804016 0.753827 0.000000
0.831687 0.755692 0.000000
0.857016 0.757938 0.000000
0.882315 0.760368 0.000000
0.906998 0.762902 0.000000
0.930647 0.765693 0.000000
0.000000 0.782386 0.011040
0.000000 0.782683 0.007097
0.000000 0.783238 0.000000
0.000000 0.783719 0.000000
0.028389 0.784385 0.000000
0.077646 0.785455 0.000000
0.161205 0.785677 0.000000
0.232277 0.785529 0.000000
0.294775 0.785382 0.000000
0.353941 0.785123 0.000000
0.409957 0.784865 0.000000
0.464037 0.784533 0.000000
0.514769 0.784348 0.000000
0.567668 0.783867 0.000000
0.618909 0.783238 0.000000
0.665249 0.782942 0.000000
0.706567 0.783164 0.000000
0.743855 0.783719 0.000000
0.776911 0.784791 0.000000
0.807548 0.786045 0.000000
0.835032 0.787848 0.000000
0.860264 0.789902 0.000000
0.885442 0.792131 0.000000
0.909892 0.794534 0.000000
0.933151 0.797145 0.000000
0.000000 0.815359 0.010251
0.000000 0.815605 0.005520
0.000000 0.815885 0.002366
0.000000 0.816552 0.000000
0.026023 0.817218 0.000000
0.076167 0.818162 0.000000
0.167494 0.818057 0.000000
0.237354 0.817848 0.000000
0.299389 0.817638 0.000000
0.358357 0.817323 0.000000
0.414155 0.816972 0.000000
0.468214 0.816622 0.000000
0.518942 0.816306 0.000000
0.571914 0.815780 0.000000
0.622313 0.815289 0.000000
0.668307 0.815043 0.000000
0.709944 0.815113 0.000000
0.747487 0.815499 0.000000
0.781087 0.816166 0.000000
0.811342 0.817463 0.000000
0.838799 0.819036 0.000000
0.863921 0.820988 0.000000
0.888994 0.823039 0.000000
0.913319 0.825290 0.000000
0.936378 0.827774 0.000000
0.000000 0.847838 0.013406
0.000000 0.848239 0.003154
0.000000 0.848539 0.000000
0.000000 0.848972 0.000000
0.020503 0.849771 0.000000
0.087851 0.850303 0.000000
0.174681 0.850103 0.000000
0.242941 0.849871 0.000000
0.304406 0.849604 0.000000
0.363002 0.849272 0.000000
0.418712 0.848872 0.000000
0.472628 0.848439 0.000000
0.523323 0.848038 0.000000
0.576340 0.847438 0.000000
0.626685 0.846937 0.000000
0.672478 0.846669 0.000000
0.713969 0.846669 0.000000
0.751565 0.846903 0.000000
0.784680 0.847672 0.000000
0.815148 0.848739 0.000000
0.842679 0.850103 0.000000
0.867621 0.851963 0.000000
0.892589 0.853850 0.000000
0.916819 0.855929 0.000000
0.939766 0.858265 0.000000
0.000000 0.880254 0.009463
0.000000 0.880444 0.004731
0.000000 0.880762 0.001577
0.000000 0.881111 0.000000
0.022869 0.881871 0.000000
0.100309 0.882061 0.000000
0.182434 0.881871 0.000000
0.248999 0.881586 0.000000
0.309683 0.881269 0.000000
0.367963 0.880888 0.000000
0.423453 0.880412 0.000000
0.477341 0.879904 0.000000
0.527904 0.879459 0.000000
0.580941 0.878823 0.000000
0.631262 0.878250 0.000000
0.677018 0.877867 0.000000
0.718504 0.877804 0.000000
0.755654 0.878059 0.000000
0.788876 0.878696 0.000000
0.819176 0.879682 0.000000
0.846536 0.880952 0.000000
0.871558 0.882568 0.000000
0.896445 0.884338 0.000000
0.920512 0.886261 0.000000
0.943340 0.888398 0.000000
0.000000 0.910894 0.014194
0.000000 0.911289 0.001577
0.000000 0.911532 0.000000
0.000000 0.911865 0.000000
0.050348 0.912138 0.000000
0.115355 0.912259 0.000000
0.191909 0.911956 0.000000
0.256674 0.911683 0.000000
0.316363 0.911319 0.000000
0.374074 0.910834 0.000000
0.429248 0.910348 0.000000
0.482893 0.909770 0.000000
0.533348 0.909253 0.000000
0.586359 0.908553 0.000000
0.636670 0.907882 0.000000
0.682317 0.907455 0.000000
0.723741 0.907303 0.000000
0.760868 0.907455 0.000000
0.793953 0.908004 0.000000
0.824217 0.908797 0.000000
0.851465 0.909983 0.000000
0.876400 0.911471 0.000000
0.901172 0.913077 0.000000
0.925107 0.914860 0.001577
0.947732 0.916909 0.008674
0.000000 0.940930 0.008674
0.000000 0.940988 0.008674
0.000000 0.941104 0.009463
0.029177 0.941221 0.009463
0.076167 0.941482 0.010251
0.130891 0.941569 0.011040
0.202454 0.941250 0.010251
0.265093 0.940901 0.009463
0.323782 0.940494 0.008674
0.380807 0.939969 0.007097
0.435575 0.939416 0.005520
0.488977 0.938774 0.003154
0.539262 0.938220 0.001577
0.592245 0.937460 0.000000
0.642402 0.936729 0.000000
0.688045 0.936232 0.000000
0.729376 0.935998 0.000000
0.766493 0.936056 0.000000
0.799456 0.936495 0.000000
0.829630 0.937227 0.000000
0.856752 0.938278 0.000789
0.881586 0.939649 0.006309
0.906265 0.941133 0.011829
0.930116 0.942789 0.018137
0.952613 0.944701 0.025234
0.000000 0.969636 0.029177
0.000000 0.969636 0.029177
0.026023 0.969748 0.029966
0.065085 0.969916 0.030754
0.099522 0.970083 0.031543
0.146981 0.970167 0.031543
0.213705 0.969804 0.031543
0.274174 0.969440 0.029966
0.331769 0.968965 0.029177
0.388031 0.968405 0.027600
0.442406 0.967789 0.026023
0.495500 0.967144 0.023657
0.545626 0.966499 0.022080
0.598425 0.965685 0.018926
0.648543 0.964897 0.016560
0.694059 0.964334 0.014194
0.735357 0.964025 0.013406
0.772366 0.963997 0.013406
0.805303 0.964363 0.014194
0.835406 0.964982 0.017349
0.862389 0.965966 0.020503
0.887142 0.967172 0.026023
0.911714 0.968545 0.031543
0.935441 0.970083 0.037852
0.957802 0.971869 0.044738
0.015771 0.997797 0.051686
0.044738 0.997851 0.051686
0.066202 0.997958 0.052347
0.093011 0.998039 0.052347
0.120748 0.998200 0.053002
0.162923 0.998254 0.053651
0.225535 0.997877 0.053002
0.283839 0.997474 0.052347
0.340169 0.996989 0.051686
0.395712 0.996396 0.050348
0.449560 0.995722 0.048294
0.502377 0.994993 0.046892
0.552304 0.994344 0.044738
0.604990 0.993425 0.041759
0.654937 0.992612 0.039429
0.700435 0.991962 0.037063
0.741633 0.991609 0.036274
0.778518 0.991501 0.036274
0.811413 0.991745 0.037063
0.841433 0.992260 0.039429
0.868301 0.993100 0.043264
0.892963 0.994263 0.047596
0.917481 0.995479 0.052347
0.941104 0.996908 0.057439
0.963348 0.998577 0.062806
0.007097 0.007886 0.077646
0.034697 0.009463 0.078619
0.060464 0.011829 0.080060
0.090463 0.014983 0.081950
0.120087 0.018926 0.084717
0.160958 0.021292 0.086965
0.222774 0.016560 0.084717
0.279726 0.014194 0.081950
0.333513 0.011040 0.079102
0.386672 0.006309 0.077155
0.438386 0.001577 0.075168
0.489180 0.000000 0.073137
0.537881 0.000000 0.071584
0.588025 0.000000 0.070003
0.637106 0.000000 0.067852
0.682582 0.000000 0.066756
0.724643 0.000000 0.066202
0.763323 0.000000 0.066756
0.798626 0.000000 0.068394
0.831413 0.000000 0.070533
0.861703 0.000000 0.073137
0.889808 0.000000 0.076662
0.917541 0.009463 0.080060
0.944585 0.025234 0.083803
0.970530 0.044005 0.087851
0.007097 0.047596 0.078134
0.035486 0.048985 0.078619
0.061056 0.051020 0.080060
0.090892 0.053651 0.082416
0.120418 0.057439 0.085170
0.161698 0.058662 0.086965
0.222426 0.056196 0.084717
0.279993 0.053002 0.081950
0.333947 0.049669 0.079582
0.387216 0.045463 0.077155
0.439007 0.040994 0.075168
0.489790 0.034697 0.073649
0.538482 0.029177 0.072104
0.588615 0.021292 0.070003
0.637638 0.013406 0.067852
0.683025 0.007886 0.066756
0.725052 0.003943 0.066756
0.763668 0.003943 0.066756
0.798843 0.007097 0.068394
0.831584 0.013406 0.070533
0.861801 0.022869 0.073137
0.889808 0.035486 0.076662
0.917481 0.049669 0.080060
0.944469 0.062806 0.083803
0.970362 0.075669 0.087851
0.012617 0.077646 0.081481
0.040994 0.078134 0.082416
0.065085 0.079582 0.083803
0.095499 0.081481 0.083343
0.123683 0.083343 0.087851
0.164139 0.084261 0.089165
0.224849 0.081950 0.086520
0.282520 0.079102 0.083803
0.336323 0.076662 0.081481
0.389564 0.073137 0.079102
0.441251 0.069470 0.076662
0.491949 0.064521 0.074664
0.540399 0.060464 0.073137
0.590541 0.054295 0.071060
0.639376 0.046892 0.068934
0.684704 0.040994 0.067852
0.726524 0.037852 0.067305
0.765006 0.037063 0.067852
0.800068 0.040217 0.069470
0.832644 0.046181 0.071060
0.862780 0.054934 0.074158
0.890653 0.065085 0.077155
0.918292 0.074664 0.081010
0.945193 0.084717 0.084717
0.970976 0.095499 0.088729
0.018926 0.111859 0.085622
0.046181 0.112567 0.086072
0.067852 0.113620 0.086965
0.095908 0.115010 0.087851
0.134798 0.118418 0.079582
0.177380 0.119422 0.077646
0.230780 0.117066 0.080536
0.285152 0.113969 0.081950
0.338786 0.110432 0.082881
0.391984 0.107524 0.080536
0.443634 0.104542 0.078619
0.494231 0.101090 0.076167
0.542604 0.097930 0.074664
0.592670 0.093846 0.072104
0.641395 0.089165 0.070003
0.686509 0.085622 0.068934
0.728196 0.083803 0.068394
0.766455 0.083803 0.068934
0.801363 0.086072 0.070003
0.833805 0.089600 0.072104
0.863758 0.095088 0.074664
0.891497 0.102253 0.078134
0.918983 0.109350 0.081481
0.945770 0.117066 0.085170
0.971478 0.125602 0.089165
0.014983 0.157458 0.084261
0.043264 0.157710 0.084717
0.066202 0.158717 0.085170
0.094676 0.159717 0.086072
0.123683 0.161205 0.087409
0.181130 0.163897 0.070533
0.236381 0.163167 0.067305
0.287755 0.162434 0.063953
0.337289 0.158968 0.073137
0.392162 0.154133 0.080536
0.444016 0.151788 0.078619
0.494833 0.149137 0.076167
0.543258 0.146981 0.074664
0.593467 0.143686 0.072104
0.642163 0.140597 0.070003
0.687256 0.138306 0.068934
0.728807 0.137147 0.068394
0.766950 0.137437 0.068934
0.801686 0.138882 0.070003
0.834010 0.141728 0.072104
0.863758 0.145891 0.074664
0.891372 0.150998 0.078134
0.918743 0.156443 0.081481
0.945424 0.162189 0.085170
0.970949 0.168675 0.089165
0.011040 0.208164 0.080536
0.038640 0.208538 0.081010
0.062227 0.209471 0.081481
0.090463 0.210400 0.082416
0.119422 0.211876 0.083343
0.159468 0.212792 0.084261
0.237354 0.210029 0.060464
0.287237 0.209285 0.058053
0.334597 0.208725 0.062806
0.389294 0.207412 0.077155
0.442021 0.205711 0.076662
0.493159 0.203802 0.074664
0.541831 0.202067 0.073137
0.592298 0.199728 0.070533
0.641155 0.197557 0.068934
0.686289 0.195961 0.067305
0.727911 0.195359 0.066756
0.765921 0.195761 0.067305
0.800572 0.197159 0.068394
0.832713 0.199532 0.070533
0.862389 0.202840 0.073137
0.889808 0.207036 0.076662
0.917060 0.211323 0.080060
0.943601 0.216237 0.083803
0.969021 0.221379 0.087851
0.001577 0.265093 0.073649
0.027600 0.265662 0.074158
0.052347 0.266372 0.074664
0.082416 0.267502 0.075669
0.111859 0.268908 0.076662
0.152574 0.269887 0.077646
0.215517 0.269328 0.076167
0.281990 0.260487 0.060464
0.330783 0.262369 0.064521
0.384120 0.266513 0.072622
0.437061 0.265662 0.071584
0.488705 0.264236 0.070003
0.537701 0.263089 0.068394
0.588562 0.261502 0.066202
0.637734 0.259758 0.064521
0.683025 0.258881 0.062806
0.724725 0.258442 0.062806
0.762787 0.259028 0.062806
0.797362 0.260487 0.064521
0.829424 0.262657 0.066202
0.858954 0.265520 0.069470
0.886292 0.269048 0.072622
0.913410 0.272937 0.076662
0.939824 0.277034 0.080536
0.965150 0.281459 0.084717
0.000000 0.322541 0.065646
0.011040 0.323106 0.066202
0.036274 0.323894 0.066756
0.070533 0.324793 0.067305
0.101867 0.326136 0.068394
0.143964 0.327249 0.068934
0.207788 0.327249 0.068934
0.267220 0.326916 0.067852
0.323218 0.326247 0.066756
0.378019 0.325912 0.065646
0.431158 0.325129 0.064521
0.483168 0.324232 0.062806
0.532435 0.323444 0.061643
0.583658 0.322201 0.059267
0.633120 0.321066 0.057439
0.678626 0.320497 0.056196
0.720365 0.320497 0.056196
0.758440 0.321180 0.056196
0.792933 0.322654 0.058053
0.824944 0.324681 0.060464
0.854379 0.327360 0.063382
0.881554 0.330673 0.067305
0.908553 0.334164 0.071060
0.934884 0.337825 0.075669
0.960071 0.341861 0.080060
0.000000 0.378486 0.061643
0.000000 0.379509 0.056196
0.014983 0.380159 0.056820
0.053651 0.381084 0.057439
0.089600 0.382284 0.058662
0.134501 0.383295 0.059267
0.199924 0.383478 0.059267
0.260196 0.383478 0.058662
0.316595 0.383386 0.057439
0.371892 0.383019 0.056820
0.425234 0.382652 0.054934
0.477411 0.382099 0.053651
0.526980 0.381638 0.052347
0.578482 0.380900 0.050348
0.628117 0.380066 0.048294
0.673695 0.379788 0.046892
0.715554 0.379973 0.046892
0.753632 0.380807 0.047596
0.788069 0.382284 0.048985
0.819943 0.384303 0.051686
0.849205 0.386944 0.055568
0.876240 0.390103 0.059868
0.903109 0.393320 0.063953
0.929288 0.396857 0.068934
0.954356 0.400703 0.073649
0.000000 0.434083 0.050348
0.000000 0.434791 0.046892
0.000000 0.435654 0.044738
0.029177 0.436436 0.045463
0.073137 0.437529 0.046892
0.123036 0.438541 0.047596
0.191499 0.438774 0.046892
0.252945 0.438929 0.046892
0.310038 0.439007 0.045463
0.365736 0.438929 0.044738
0.419452 0.438696 0.043264
0.471849 0.438463 0.041759
0.521514 0.438230 0.040217
0.573246 0.437685 0.037852
0.623061 0.437217 0.035486
0.668717 0.437139 0.034697
0.710575 0.437529 0.033909
0.748549 0.438541 0.034697
0.782942 0.440092 0.037063
0.814691 0.442098 0.040217
0.843822 0.444628 0.044738
0.870689 0.447671 0.049669
0.897405 0.450838 0.054295
0.923440 0.454202 0.059868
0.948308 0.457976 0.065646
0.000000 0.486868 0.053651
0.000000 0.488434 0.034697
0.000000 0.489383 0.029966
0.000789 0.490128 0.030754
0.051686 0.491073 0.032332
0.110072 0.492017 0.033120
0.182866 0.492286 0.032332
