Zoran/InstaClarendon - Skin Save.cube
TITLE "Generated by 3D LUT Creator Pro (c) Oleg Sharonov"
LUT_3D_SIZE 9
#IMAGEPROFILE ProPhoto RGB v.2.10
#INPUTGAMMA ProPhoto RGB v.2.10
#OUTPUTGAMMA ProPhoto RGB v.2.10
0.007097 0.007886 0.046892
0.090892 0.014983 0.052347
0.222426 0.016560 0.056196
0.386581 0.006309 0.044738
0.537701 0.000000 0.038640
0.682405 0.000000 0.033909
0.798554 0.000000 0.034697
0.889840 0.000000 0.044005
0.970614 0.044005 0.057439
0.019714 0.111859 0.057439
0.095499 0.115010 0.060464
0.233105 0.118081 0.044005
0.391894 0.107524 0.049669
0.542426 0.097930 0.042516
0.686333 0.085622 0.035486
0.801327 0.086072 0.035486
0.891528 0.102253 0.045463
0.971562 0.125284 0.058662
0.001577 0.264950 0.043264
0.082416 0.267220 0.044738
0.215156 0.269328 0.044738
0.384120 0.266655 0.040994
0.537580 0.262945 0.034697
0.682937 0.258588 0.027600
0.797326 0.260341 0.028389
0.886355 0.268908 0.037852
0.965291 0.281327 0.053651
0.000000 0.433374 0.022080
0.028389 0.436280 0.009463
0.191088 0.438619 0.010251
0.365541 0.438696 0.007097
0.521326 0.438152 0.002366
0.668581 0.436983 0.000000
0.782905 0.439937 0.000000
0.870721 0.447519 0.009463
0.948423 0.457755 0.027600
0.000000 0.584902 0.013406
0.000000 0.587220 0.000000
0.166543 0.590167 0.000000
0.351504 0.590541 0.000000
0.510680 0.590380 0.000000
0.657871 0.590327 0.000000
0.770478 0.593891 0.000000
0.857443 0.600780 0.000000
0.933886 0.609880 0.000000
0.000000 0.711793 0.016560
0.000000 0.713551 0.000000
0.154650 0.716345 0.000000
0.348119 0.716220 0.000000
0.509458 0.715721 0.000000
0.659309 0.714846 0.000000
0.770856 0.717550 0.000000
0.854676 0.723782 0.000000
0.929081 0.731970 0.000000
0.000000 0.815359 0.010251
0.000000 0.816552 0.000000
0.167494 0.818057 0.000000
0.358357 0.817323 0.000000
0.518942 0.816306 0.000000
0.668307 0.815043 0.000000
0.781087 0.816166 0.000000
0.863921 0.820988 0.000000
0.936378 0.827774 0.000000
0.000000 0.910894 0.014194
0.000000 0.911865 0.000000
0.191909 0.911956 0.000000
0.374074 0.910834 0.000000
0.533348 0.909253 0.000000
0.682317 0.907455 0.000000
0.793953 0.908004 0.000000
0.876400 0.911471 0.000000
0.947732 0.916909 0.008674
0.015771 0.997797 0.051686
0.093011 0.998039 0.052347
0.225535 0.997877 0.053002
0.395712 0.996396 0.050348
0.552304 0.994344 0.044738
0.700435 0.991962 0.037063
0.811413 0.991745 0.037063
0.892963 0.994263 0.047596
0.963348 0.998577 0.062806
0.007886 0.007097 0.155677
0.090032 0.013406 0.159717
0.222078 0.015771 0.162434
0.386763 0.005520 0.155164
0.538121 0.000000 0.150203
0.682760 0.000000 0.146437
0.798626 0.000000 0.148601
0.889526 0.000000 0.156697
0.970055 0.044005 0.166781
0.014983 0.111504 0.162923
0.095499 0.114317 0.165825
0.226391 0.114664 0.166304
0.391894 0.107156 0.158968
0.542723 0.097529 0.153356
0.686641 0.085170 0.148869
0.801327 0.085622 0.150733
0.891216 0.101867 0.158215
0.971004 0.125284 0.167967
0.000789 0.265235 0.152312
0.081950 0.267502 0.154133
0.215156 0.269608 0.155421
0.378393 0.256230 0.135093
0.537821 0.263233 0.148869
0.683202 0.259028 0.145343
0.797289 0.260632 0.147253
0.886009 0.269328 0.154392
0.964728 0.281725 0.164381
0.000000 0.434162 0.136270
0.031543 0.436671 0.133308
0.192523 0.438929 0.134798
0.366415 0.439007 0.133906
0.521951 0.438386 0.132105
0.668990 0.437295 0.129973
0.782979 0.440169 0.132407
0.870528 0.447822 0.140312
0.948049 0.458123 0.150998
0.000000 0.585011 0.135093
0.000000 0.588615 0.114664
0.168675 0.590327 0.116042
0.352624 0.590701 0.115010
0.510552 0.590754 0.113620
0.658614 0.590594 0.111504
0.771838 0.593732 0.114317
0.857838 0.600728 0.122712
0.933651 0.609982 0.134501
0.000000 0.712589 0.128429
0.000000 0.715304 0.106415
0.156951 0.716303 0.107892
0.349252 0.716220 0.106786
0.509458 0.715846 0.104919
0.658196 0.715429 0.102253
0.770818 0.717840 0.104919
0.855303 0.723741 0.113620
0.929377 0.731768 0.125284
0.000000 0.816201 0.125602
0.000000 0.817428 0.117744
0.169379 0.817883 0.118418
0.359252 0.817148 0.117405
0.519508 0.816131 0.115355
0.668581 0.814937 0.112567
0.780492 0.816342 0.114317
0.863725 0.820919 0.121406
0.936203 0.827601 0.132105
0.000000 0.911319 0.135683
0.000000 0.911653 0.136855
0.193135 0.911744 0.137437
0.374735 0.910560 0.136270
0.533773 0.909040 0.134204
0.682627 0.907211 0.131196
0.793989 0.907730 0.132407
0.876240 0.911228 0.138017
0.947444 0.916669 0.146981
0.015771 0.997528 0.161944
0.093011 0.997743 0.162923
0.226049 0.997554 0.163411
0.396153 0.996073 0.162189
0.552594 0.994020 0.160215
0.700649 0.991636 0.157458
0.811342 0.991419 0.157963
0.892745 0.993912 0.162434
0.962954 0.998200 0.169847
0.000000 0.003154 0.307896
0.082881 0.009463 0.312751
0.218203 0.011829 0.317057
0.385034 0.001577 0.311339
0.535227 0.000000 0.306337
0.677241 0.000000 0.303799
0.794534 0.000000 0.307297
0.888272 0.000000 0.315087
0.968377 0.040994 0.325801
0.010251 0.107892 0.317172
0.091745 0.110432 0.320611
0.223468 0.111504 0.322201
0.390103 0.104919 0.315900
0.541711 0.095499 0.310394
0.686069 0.082416 0.306337
0.800428 0.082881 0.308850
0.889902 0.100309 0.316941
0.969301 0.124326 0.327138
0.000000 0.264236 0.308493
0.078619 0.266513 0.310631
0.214250 0.268487 0.312399
0.383662 0.266088 0.309801
0.537340 0.262513 0.306578
0.682848 0.258295 0.303678
0.796602 0.260050 0.306097
0.884906 0.268768 0.313688
0.963179 0.281327 0.323444
0.000000 0.433689 0.292754
0.031543 0.436515 0.292373
0.193338 0.438696 0.294019
0.366900 0.438696 0.293640
0.508168 0.398086 0.265804
0.669308 0.436905 0.291609
0.782905 0.439782 0.294650
0.869948 0.447519 0.301971
0.947040 0.457829 0.311693
0.000000 0.585442 0.286457
0.000000 0.588454 0.280927
0.171243 0.590060 0.282388
0.353941 0.590380 0.282123
0.511514 0.590380 0.281858
0.659263 0.590220 0.281327
0.772065 0.593307 0.284234
0.857640 0.600310 0.290971
0.933092 0.609572 0.300130
0.000000 0.712589 0.286066
0.000000 0.714345 0.282520
0.159966 0.715846 0.280794
0.350687 0.715679 0.280661
0.510423 0.715346 0.280127
0.658892 0.714887 0.279324
0.771083 0.717301 0.281725
0.855204 0.723166 0.287626
0.928934 0.731201 0.295906
0.000000 0.816271 0.288660
0.000000 0.816762 0.289690
0.171706 0.817253 0.290587
0.360244 0.816482 0.290075
0.520199 0.815464 0.289175
0.668990 0.814234 0.288014
0.780567 0.815675 0.289690
0.863530 0.820257 0.294650
0.935705 0.826912 0.301849
0.000000 0.910591 0.302582
0.000000 0.910925 0.303678
0.194149 0.911016 0.304285
0.375112 0.909831 0.303678
0.534016 0.908279 0.302582
0.682671 0.906478 0.301114
0.793771 0.907028 0.302093
0.875728 0.910530 0.306337
0.946723 0.915976 0.312399
0.014194 0.996720 0.320953
0.091745 0.996962 0.321861
0.226049 0.996747 0.322428
0.395888 0.995236 0.321634
0.552420 0.993208 0.320383
0.700392 0.990822 0.318783
0.810811 0.990605 0.319355
0.892059 0.993100 0.322767
0.961994 0.997393 0.328026
0.000000 0.002366 0.459592
0.062227 0.002366 0.473123
0.210585 0.003943 0.478667
0.380900 0.000000 0.475168
0.532435 0.000000 0.469501
0.674775 0.000000 0.466059
0.791109 0.000000 0.471281
0.885316 0.000000 0.481513
0.965572 0.034697 0.493025
0.000000 0.101867 0.478667
0.080536 0.104542 0.482203
0.217669 0.106043 0.484749
0.386036 0.099916 0.480197
0.539082 0.090463 0.475519
0.684263 0.077155 0.471778
0.798554 0.077646 0.474746
0.887582 0.095908 0.483444
0.966471 0.121406 0.494499
0.000000 0.262081 0.473053
0.067852 0.264236 0.475168
0.210400 0.266230 0.477131
0.381177 0.264093 0.474957
0.535530 0.260632 0.471991
0.681430 0.256526 0.469215
0.795006 0.258295 0.472062
0.882853 0.267220 0.480127
0.960750 0.279993 0.490533
0.000000 0.432505 0.453382
0.017349 0.435732 0.457608
0.190675 0.437763 0.459446
0.365930 0.437763 0.459152
0.521826 0.437061 0.458344
0.668899 0.435889 0.457534
0.782126 0.438852 0.460909
0.868818 0.446457 0.468644
0.945424 0.456796 0.478597
0.000000 0.584362 0.448654
0.000000 0.587703 0.447519
0.170779 0.589365 0.448730
0.354042 0.589632 0.448805
0.511770 0.589579 0.448654
0.637589 0.532861 0.402004
0.770516 0.586359 0.446609
0.857114 0.599368 0.458491
0.932151 0.608598 0.467641
0.000000 0.711834 0.450237
0.000000 0.713677 0.448805
0.161205 0.715012 0.448956
0.351402 0.714846 0.448805
0.510937 0.714428 0.448428
0.659263 0.713969 0.448049
0.771083 0.716345 0.450538
0.854907 0.722138 0.456427
0.928223 0.730188 0.464471
0.000000 0.814445 0.460032
0.000000 0.815780 0.458491
0.172856 0.816201 0.459299
0.360639 0.815464 0.459005
0.520450 0.814410 0.458270
0.669081 0.813213 0.457387
0.780343 0.814621 0.459079
0.862943 0.819210 0.463892
0.934825 0.825877 0.470641
0.000000 0.909405 0.471352
0.000000 0.909740 0.472345
0.194352 0.909831 0.472911
0.375207 0.908644 0.472416
0.534016 0.907120 0.471423
0.682450 0.905347 0.470214
0.793261 0.905898 0.471352
0.874961 0.909405 0.475168
0.945684 0.914860 0.480959
0.009463 0.995479 0.488637
0.088729 0.995695 0.489519
0.225192 0.995452 0.490060
0.395270 0.993993 0.489316
0.551780 0.991935 0.488162
0.699707 0.989572 0.486800
0.809891 0.989408 0.487345
0.890966 0.991853 0.490466
0.960665 0.996180 0.495367
0.000000 0.002366 0.606694
0.028389 0.000000 0.628856
0.199335 0.000000 0.637009
0.374830 0.000000 0.635311
0.529686 0.000000 0.630477
0.672613 0.000000 0.625050
0.790488 0.000000 0.632436
0.882853 0.000000 0.644028
0.962022 0.023657 0.656010
0.000000 0.094676 0.637009
0.053002 0.097126 0.640242
0.208351 0.098729 0.643264
0.380437 0.093011 0.640290
0.535167 0.082881 0.636621
0.681385 0.068394 0.633413
0.795696 0.069470 0.636767
0.884433 0.089600 0.645934
0.962954 0.116385 0.657407
0.000000 0.259028 0.633851
0.042516 0.261068 0.635894
0.203033 0.262945 0.637928
0.376897 0.261068 0.636088
0.532435 0.258001 0.633510
0.679072 0.253846 0.630968
0.792642 0.255785 0.634095
0.880190 0.264808 0.642546
0.957660 0.277844 0.653393
0.000000 0.432347 0.613603
0.000000 0.434633 0.619511
0.183298 0.436515 0.621265
0.362806 0.436358 0.620964
0.519948 0.435575 0.620213
0.667533 0.434476 0.619411
0.780678 0.437373 0.622862
0.867006 0.444934 0.630870
0.943195 0.455242 0.641203
0.000000 0.583333 0.604213
0.000000 0.586090 0.607981
0.164864 0.588454 0.610954
0.352013 0.588615 0.610903
0.510744 0.588508 0.610647
0.658846 0.588240 0.610443
0.771196 0.591234 0.613756
0.855995 0.598110 0.620864
0.930677 0.607261 0.630232
0.000000 0.709986 0.610136
0.000000 0.712044 0.610903
0.157458 0.713969 0.611566
0.350175 0.713718 0.611464
0.510359 0.713300 0.611056
0.658938 0.712798 0.610647
0.757474 0.658243 0.541771
0.856917 0.708089 0.603227
0.927067 0.728888 0.627278
0.000000 0.812648 0.622613
0.000000 0.814304 0.622114
0.171011 0.814832 0.622663
0.359848 0.814093 0.622214
0.520011 0.813072 0.621465
0.668671 0.811872 0.620564
0.779673 0.813318 0.622214
0.862128 0.817673 0.626635
0.933651 0.824529 0.633754
0.000000 0.907608 0.635894
0.000000 0.908279 0.636233
0.193135 0.908309 0.636718
0.374358 0.907211 0.636088
0.533348 0.905653 0.635019
0.681829 0.903907 0.633754
0.792314 0.904551 0.634728
0.873903 0.908035 0.638556
0.944267 0.913440 0.644219
0.003154 0.993831 0.652830
0.084717 0.994020 0.653580
0.223814 0.993777 0.653955
0.394297 0.992287 0.653205
0.550907 0.990333 0.651938
0.698805 0.987965 0.650385
0.808720 0.987856 0.650856
0.889558 0.990333 0.653908
0.959051 0.994642 0.658614
0.000000 0.003154 0.725830
0.027600 0.000000 0.743657
0.195359 0.000000 0.754411
0.373412 0.000000 0.752385
0.530237 0.000000 0.749491
0.675763 0.000000 0.743895
0.788949 0.000000 0.746621
0.881808 0.000000 0.759867
0.960524 0.018926 0.771763
0.000000 0.092590 0.754760
0.034697 0.095088 0.757242
0.204377 0.096315 0.759559
0.378672 0.090463 0.756700
0.534258 0.080060 0.752970
0.680986 0.065646 0.749569
0.795079 0.066202 0.752580
0.883327 0.086965 0.761483
0.961401 0.114317 0.772894
0.000000 0.259174 0.751174
0.021292 0.261068 0.752775
0.198941 0.262657 0.754372
0.375207 0.260777 0.752385
0.531582 0.257707 0.749569
0.678626 0.253546 0.746779
0.792058 0.255487 0.749569
0.879205 0.264379 0.757783
0.956295 0.277439 0.768508
0.000000 0.433925 0.735196
0.000000 0.435497 0.736361
0.177380 0.437217 0.737764
0.361035 0.436905 0.737083
0.519445 0.435967 0.735960
0.667488 0.434712 0.734834
0.780492 0.437451 0.738004
0.866520 0.444934 0.745753
0.942354 0.455167 0.755964
0.000000 0.584794 0.717259
0.000000 0.587166 0.723042
0.158968 0.589151 0.726933
0.350482 0.589204 0.726606
0.510423 0.588937 0.726116
0.658985 0.588508 0.725584
0.771234 0.591394 0.728522
0.855863 0.598110 0.735478
0.930175 0.607158 0.744726
0.000000 0.710070 0.722220
0.000000 0.712044 0.724684
0.153615 0.714220 0.727381
0.349252 0.713969 0.726892
0.510295 0.713384 0.726198
0.659170 0.712798 0.725503
0.770705 0.715054 0.727830
0.854048 0.720778 0.733585
0.926741 0.728603 0.741514
0.000000 0.812366 0.736963
0.000000 0.813917 0.737804
0.168910 0.814691 0.738284
0.359451 0.813952 0.737564
0.520011 0.812860 0.736522
0.668808 0.811695 0.735317
0.779673 0.813036 0.736802
0.868656 0.783090 0.681874
0.941133 0.815605 0.733747
0.000000 0.906845 0.751995
0.000000 0.907760 0.752151
0.192523 0.907821 0.752346
0.374263 0.906723 0.751409
0.533409 0.905194 0.750079
0.681874 0.903447 0.748510
0.792204 0.904091 0.749295
0.873550 0.907547 0.752853
0.944122 0.912714 0.757358
0.000000 0.993100 0.769039
0.082881 0.993289 0.769532
0.223814 0.993019 0.769645
0.394297 0.991555 0.768508
0.550965 0.989572 0.766988
0.698634 0.987283 0.765120
0.808401 0.987146 0.765387
0.889056 0.989626 0.768166
0.958228 0.993939 0.772705
0.000000 0.003154 0.833054
0.018137 0.000000 0.849937
0.197159 0.000000 0.855468
0.374924 0.000000 0.852857
0.531887 0.000000 0.849405
0.677644 0.000000 0.842948
0.791839 0.000000 0.846703
0.882125 0.000000 0.858396
0.960269 0.019714 0.869980
0.000000 0.094262 0.855929
0.033909 0.095908 0.857936
0.205140 0.097126 0.859511
0.379695 0.091319 0.856423
0.535530 0.081481 0.852460
0.682228 0.066756 0.848672
0.795913 0.067305 0.851299
0.883580 0.087409 0.859904
0.961118 0.115010 0.871043
0.000000 0.261068 0.851366
0.012617 0.262801 0.852692
0.198349 0.264236 0.853883
0.375677 0.262369 0.851631
0.532496 0.259028 0.848572
0.679696 0.254892 0.845498
0.792751 0.256674 0.848005
0.879459 0.265377 0.855995
0.956010 0.278249 0.866584
0.000000 0.436358 0.834828
0.000000 0.437841 0.835814
0.173999 0.439317 0.836935
0.360639 0.438852 0.836052
0.520011 0.437685 0.834691
0.668398 0.436202 0.833259
0.781236 0.438696 0.836222
0.866941 0.445924 0.843822
0.942383 0.455909 0.853850
0.000000 0.587864 0.818127
0.000000 0.589846 0.824667
0.154133 0.590967 0.825566
0.349765 0.590861 0.825048
0.510873 0.590434 0.824355
0.659864 0.589793 0.823593
0.771989 0.592511 0.826395
0.856456 0.599002 0.833225
0.930411 0.607827 0.842376
0.000000 0.711667 0.817218
0.000000 0.713468 0.820953
0.150203 0.715471 0.825532
0.348841 0.715054 0.825013
0.510680 0.714428 0.824148
0.659911 0.713718 0.823316
0.771347 0.715887 0.825532
0.854544 0.721396 0.831173
0.926978 0.729132 0.839104
0.000000 0.812931 0.833020
0.000000 0.814375 0.835100
0.167494 0.815324 0.836358
0.359451 0.814550 0.835508
0.520512 0.813389 0.834317
0.669444 0.812154 0.833054
0.780195 0.813495 0.834385
0.862291 0.817883 0.838935
0.933327 0.824355 0.845532
0.000000 0.907028 0.849471
0.000000 0.908004 0.850236
0.192523 0.908035 0.850369
0.374641 0.906906 0.849305
0.533894 0.905378 0.847905
0.682361 0.903631 0.846268
0.792460 0.904244 0.846937
0.873647 0.907669 0.850436
0.944440 0.912471 0.854312
0.000000 0.992965 0.867330
0.083343 0.993127 0.867718
0.224504 0.992829 0.867718
0.394917 0.991365 0.866520
0.551431 0.989408 0.864896
0.699020 0.987092 0.862943
0.808543 0.986955 0.863074
0.889025 0.989408 0.865838
0.957972 0.993695 0.870335
0.000000 0.001577 0.930854
0.033909 0.000000 0.940057
0.205901 0.000000 0.941337
0.380344 0.000000 0.937869
0.536315 0.000000 0.933474
0.683069 0.000000 0.929288
0.796747 0.000000 0.931561
0.884306 0.000000 0.939911
0.961740 0.027600 0.950923
0.000000 0.099126 0.941976
0.056820 0.101090 0.943398
0.212609 0.101867 0.944209
0.384394 0.096721 0.940494
0.539501 0.087409 0.935880
0.685717 0.073649 0.931385
0.798698 0.073649 0.933269
0.885631 0.092590 0.941075
0.962502 0.118753 0.951668
0.000000 0.265235 0.935939
0.025234 0.266938 0.936905
0.203033 0.268066 0.937548
0.379138 0.265946 0.934796
0.535711 0.262513 0.931237
0.682671 0.258442 0.927571
0.795224 0.259758 0.929436
0.881364 0.268206 0.936788
0.957347 0.280661 0.946896
0.000000 0.440324 0.918292
0.000000 0.441790 0.919013
0.175134 0.443020 0.919763
0.362610 0.442329 0.918413
0.522451 0.440942 0.916548
0.670940 0.439162 0.914649
0.783460 0.441405 0.917120
0.868721 0.448352 0.924184
0.943717 0.458050 0.933827
0.000000 0.591766 0.902771
0.000000 0.593148 0.906692
0.153095 0.594155 0.907303
0.350789 0.593891 0.906509
0.512666 0.593201 0.905347
0.661942 0.592352 0.904275
0.773948 0.594738 0.906692
0.858100 0.600989 0.913168
0.931738 0.609623 0.921977
0.000000 0.714971 0.898735
0.000000 0.716719 0.903754
0.149404 0.717840 0.906448
0.349663 0.717384 0.905592
0.512218 0.716636 0.904459
0.661666 0.715721 0.903386
0.773007 0.717716 0.905286
0.855995 0.723042 0.910682
0.928134 0.730593 0.918353
0.000000 0.814550 0.911683
0.000000 0.815956 0.914437
0.168203 0.817007 0.916639
0.360541 0.816131 0.915584
0.521889 0.814972 0.914135
0.670940 0.813635 0.912653
0.781496 0.814867 0.913772
0.863432 0.819176 0.918022
0.934238 0.825532 0.924423
0.000000 0.908126 0.929081
0.000000 0.909192 0.930411
0.194149 0.909162 0.930293
0.375959 0.908035 0.929022
0.535288 0.906448 0.927394
0.683644 0.904673 0.925494
0.793589 0.905225 0.925969
0.874640 0.908583 0.929259
0.944267 0.913893 0.934532
0.006309 0.993641 0.947415
0.086965 0.993777 0.947617
0.226732 0.993479 0.947444
0.396417 0.992016 0.946059
0.552769 0.989980 0.944180
0.700178 0.987719 0.942034
0.809430 0.987528 0.942034
0.889746 0.989952 0.944556
0.958426 0.994155 0.948884
0.003943 0.011829 0.999195
0.090463 0.014194 1.000000
0.225192 0.015771 1.000000
0.391716 0.006309 0.997366
0.545035 0.000000 0.992450
0.690363 0.000000 0.987665
0.802799 0.000000 0.988728
0.889338 0.000000 0.995911
0.965825 0.048294 1.000000
0.021292 0.110432 1.000000
0.099126 0.112214 1.000000
0.229439 0.112919 1.000000
0.394740 0.107892 0.999409
0.547570 0.099522 0.994453
0.692627 0.087851 0.989136
0.804481 0.087851 0.989925
0.890434 0.104163 0.996720
0.966415 0.127806 1.000000
0.000000 0.272662 0.994317
0.066756 0.274174 0.995182
0.216416 0.274994 0.995803
0.387488 0.272799 0.993181
0.542485 0.269188 0.988918
0.688702 0.264950 0.984384
0.800392 0.266088 0.985343
0.885757 0.273899 0.991826
0.960976 0.285805 1.000000
0.000000 0.446837 0.975704
0.000000 0.448125 0.976424
0.184371 0.449107 0.977338
0.368733 0.448125 0.975538
0.527842 0.446457 0.973010
0.675942 0.444399 0.970390
0.787922 0.446305 0.972119
0.872684 0.452711 0.978526
0.947069 0.462076 0.987501
0.000000 0.597480 0.962587
0.000000 0.598477 0.963179
0.159717 0.599316 0.963405
0.355253 0.598844 0.962192
0.516924 0.597900 0.960609
0.666118 0.596795 0.958909
0.777734 0.598897 0.960863
0.861573 0.604834 0.966724
0.934767 0.613095 0.975038
0.000000 0.719993 0.956551
0.000000 0.721479 0.961231
0.154650 0.721973 0.961287
0.353334 0.721396 0.960071
0.515784 0.720448 0.958597
0.665158 0.719373 0.957091
0.776275 0.721149 0.958568
0.858987 0.726239 0.963546
0.930765 0.733545 0.970781
0.000000 0.818512 0.966920
0.000000 0.819734 0.969524
0.173314 0.820257 0.970502
0.363884 0.819315 0.969189
0.525000 0.818022 0.967481
0.673920 0.816587 0.965572
0.784274 0.817673 0.966359
0.865968 0.821858 0.970251
0.936495 0.828049 0.976314
0.000000 0.910894 0.982464
0.000000 0.911774 0.983809
0.198941 0.911714 0.983480
0.379138 0.910530 0.981942
0.538121 0.908888 0.980016
0.686289 0.907028 0.977863
0.795913 0.907516 0.977973
0.876783 0.910773 0.981035
0.946146 0.915976 0.985944
0.021292 0.995587 1.000000
0.095088 0.995749 1.000000
0.231447 0.995425 1.000000
0.399485 0.993885 0.998442
0.555432 0.991880 0.996342
0.702530 0.989544 0.993885
0.811483 0.989299 0.993587
0.891622 0.991663 0.995830
0.960042 0.995803 0.999893
