Zoran/InstaClarendon - Skin Save2.cube
TITLE "Generated by 3D LUT Creator Pro (c) Oleg Sharonov"
LUT_3D_SIZE 5
#IMAGEPROFILE ProPhoto RGB v.2.10
#INPUTGAMMA ProPhoto RGB v.2.10
#OUTPUTGAMMA ProPhoto RGB v.2.10
0.007886 0.008674 0.047596
0.255933 0.008674 0.031543
0.574464 0.000000 0.014983
0.825151 0.002366 0.068934
0.971952 0.202647 0.230947
0.000000 0.293261 0.031543
0.250525 0.294524 0.021292
0.569740 0.283576 0.007886
0.814199 0.291482 0.073649
0.966667 0.365930 0.236543
0.000000 0.643120 0.016560
0.206280 0.642785 0.000000
0.570689 0.622114 0.000000
0.802942 0.603954 0.103403
0.952413 0.616288 0.280127
0.000000 0.863953 0.037852
0.222774 0.863269 0.004731
0.591979 0.851963 0.096315
0.812966 0.840151 0.226902
0.947415 0.837478 0.390373
0.164139 0.996100 0.268066
0.363590 0.993912 0.285805
0.659726 0.987883 0.340910
0.852294 0.987010 0.437061
0.968041 0.994858 0.535651
0.000000 0.005520 0.338466
0.254294 0.003943 0.349663
0.603746 0.000000 0.339956
0.840523 0.000000 0.349046
0.961061 0.223295 0.416483
0.000000 0.298771 0.334705
0.247924 0.305856 0.341966
0.590541 0.293007 0.319927
0.824321 0.308015 0.332860
0.954185 0.391000 0.406730
0.000000 0.645315 0.325129
0.202261 0.651327 0.314388
0.572969 0.624057 0.308254
0.801076 0.596479 0.324456
0.956067 0.609880 0.403041
0.000000 0.863008 0.349560
0.231280 0.863530 0.347293
0.596638 0.852294 0.358855
0.812825 0.839408 0.402523
0.948222 0.835440 0.492017
0.184371 0.994182 0.458859
0.373885 0.991989 0.468357
0.664974 0.986163 0.495233
0.852526 0.985862 0.551839
0.967172 0.994182 0.613806
0.000000 0.003943 0.665432
0.238644 0.000000 0.698934
0.605145 0.000000 0.683821
0.839307 0.018926 0.695358
0.936203 0.292627 0.725912
0.000000 0.302704 0.690189
0.236218 0.306457 0.692280
0.604938 0.304527 0.683512
0.828943 0.339744 0.686948
0.922753 0.456131 0.716636
0.000000 0.644887 0.657127
0.203802 0.649913 0.663369
0.584578 0.648117 0.660927
0.802404 0.631458 0.641395
0.927423 0.662587 0.671981
0.000000 0.858462 0.683069
0.254892 0.858494 0.682450
0.607364 0.852791 0.683246
0.812048 0.837987 0.668990
0.953185 0.828359 0.668490
0.251738 0.989816 0.742031
0.407412 0.987883 0.743578
0.680408 0.982409 0.749530
0.854412 0.983535 0.756468
0.965797 0.993317 0.759944
0.000000 0.021292 0.907791
0.249305 0.026023 0.907181
0.609367 0.030754 0.891341
0.827980 0.184585 0.885284
0.919343 0.401051 0.888210
0.000000 0.322088 0.896166
0.243413 0.327138 0.894302
0.602604 0.338146 0.880381
0.817007 0.396857 0.873550
0.910743 0.517745 0.879459
0.000000 0.651138 0.856094
0.232774 0.653767 0.864116
0.590701 0.654422 0.857608
0.802691 0.671529 0.857673
0.903232 0.714679 0.871623
0.033909 0.856456 0.879173
0.316710 0.854841 0.877421
0.626140 0.850403 0.872620
0.820187 0.853056 0.875217
0.935236 0.851697 0.869141
0.359352 0.986819 0.918623
0.473194 0.985233 0.917090
0.703808 0.980980 0.913228
0.860494 0.982519 0.915916
0.965460 0.993614 0.899847
0.098330 0.199728 0.975676
0.328690 0.215517 0.969692
0.624951 0.270166 0.951295
0.812613 0.384028 0.941744
0.908065 0.510488 0.948970
0.079582 0.400964 0.956864
0.321975 0.408857 0.952956
0.619210 0.436045 0.939445
0.806373 0.502508 0.934502
0.904918 0.585550 0.945424
0.147523 0.673560 0.934913
0.341227 0.675180 0.932975
0.623211 0.680986 0.927423
0.803515 0.702402 0.930027
0.904980 0.737604 0.944817
0.310038 0.857509 0.952298
0.432030 0.856489 0.951037
0.667442 0.853982 0.947732
0.826188 0.859315 0.951725
0.925434 0.873390 0.965066
0.470855 0.987474 0.991962
0.550031 0.986327 0.990768
0.733303 0.983260 0.987610
0.864766 0.986026 0.990224
0.959532 0.995263 0.999356
