Zoran/InstaClarendon - Skin Save2.cube
TITLE "Generated by 3D LUT Creator Pro (c) Oleg Sharonov"
LUT_3D_SIZE 25
#IMAGEPROFILE ProPhoto RGB v.2.10
#INPUTGAMMA ProPhoto RGB v.2.10
#OUTPUTGAMMA ProPhoto RGB v.2.10
0.007886 0.008674 0.047596
0.039429 0.007886 0.039429
0.069470 0.009463 0.040994
0.103021 0.012617 0.043264
0.137437 0.014983 0.045463
0.191499 0.013406 0.041759
0.255933 0.008674 0.031543
0.312986 0.003943 0.024446
0.367963 0.000000 0.019714
0.421091 0.000000 0.015771
0.473123 0.000000 0.013406
0.523448 0.000000 0.014194
0.574464 0.000000 0.014983
0.624901 0.000000 0.015771
0.672523 0.000000 0.018926
0.715513 0.000000 0.023657
0.754022 0.000000 0.035486
0.790488 0.000000 0.049669
0.825151 0.002366 0.068934
0.858297 0.026812 0.090032
0.890372 0.059868 0.113969
0.921349 0.091745 0.139170
0.950865 0.124326 0.165825
0.966218 0.161944 0.196561
0.971952 0.202647 0.230947
0.007097 0.051686 0.046892
0.039429 0.051020 0.037852
0.076167 0.049669 0.024446
0.115355 0.050348 0.022869
0.147794 0.054295 0.031543
0.198151 0.054295 0.029966
0.258001 0.051686 0.024446
0.312986 0.048985 0.020503
0.366900 0.044738 0.016560
0.419699 0.039429 0.014194
0.471565 0.033120 0.012617
0.522638 0.026812 0.012617
0.574243 0.018926 0.013406
0.624007 0.012617 0.015771
0.671303 0.007886 0.018926
0.714595 0.007886 0.024446
0.753477 0.013406 0.036274
0.790122 0.025234 0.050348
0.824909 0.043264 0.068934
0.858068 0.065646 0.091319
0.890215 0.090032 0.114317
0.921140 0.116385 0.139742
0.950693 0.144241 0.166304
0.966022 0.178934 0.196761
0.971646 0.216954 0.231280
0.011829 0.081010 0.051020
0.043264 0.081950 0.049669
0.072104 0.083803 0.042516
0.111859 0.085622 0.031543
0.155677 0.087409 0.024446
0.206847 0.087851 0.018926
0.261357 0.086965 0.016560
0.313688 0.085622 0.015771
0.366221 0.083343 0.014194
0.418383 0.080536 0.013406
0.469929 0.077155 0.011829
0.520888 0.073649 0.011829
0.572470 0.068934 0.014194
0.622264 0.064521 0.015771
0.669807 0.061643 0.018926
0.713342 0.061643 0.024446
0.752502 0.067305 0.037063
0.789426 0.075669 0.051020
0.824286 0.088291 0.070533
0.857575 0.104163 0.091745
0.889777 0.122712 0.115355
0.920781 0.144241 0.140312
0.950263 0.168675 0.167019
0.965628 0.200315 0.197358
0.971088 0.235730 0.231613
0.014194 0.119422 0.053651
0.045463 0.120087 0.053651
0.071060 0.122061 0.050348
0.106786 0.124965 0.043264
0.148333 0.128118 0.035486
0.203225 0.129357 0.028389
0.261936 0.129049 0.020503
0.314622 0.129049 0.016560
0.366027 0.128118 0.012617
0.416400 0.127180 0.011040
0.466275 0.125919 0.010251
0.517240 0.123683 0.011829
0.568789 0.121078 0.013406
0.618909 0.118753 0.014983
0.666712 0.117405 0.018137
0.710701 0.118081 0.024446
0.750431 0.121406 0.037063
0.787738 0.127493 0.051686
0.823004 0.136270 0.071060
0.856555 0.148063 0.092590
0.888868 0.162679 0.116042
0.919972 0.180912 0.141446
0.949516 0.202067 0.167731
0.964982 0.229775 0.198151
0.970167 0.261792 0.232277
0.011829 0.168675 0.049669
0.043264 0.169613 0.049669
0.068934 0.171474 0.047596
0.102637 0.173999 0.044005
0.141446 0.176260 0.038640
0.198547 0.177156 0.032332
0.260632 0.176933 0.025234
0.315320 0.176709 0.019714
0.367866 0.176260 0.016560
0.418630 0.175585 0.014194
0.468500 0.174907 0.012617
0.517556 0.173999 0.012617
0.566882 0.172856 0.012617
0.614720 0.172167 0.013406
0.661804 0.171706 0.016560
0.706567 0.172167 0.023657
0.746975 0.175134 0.036274
0.784976 0.180036 0.051686
0.820710 0.187131 0.072104
0.854643 0.196561 0.093429
0.887236 0.208725 0.117066
0.918563 0.223987 0.142290
0.948279 0.241835 0.168675
0.963940 0.265662 0.199138
0.969021 0.293514 0.233270
0.003943 0.227072 0.043264
0.033909 0.228259 0.042516
0.061643 0.229607 0.040994
0.095499 0.231280 0.038640
0.133608 0.232939 0.036274
0.191909 0.233105 0.031543
0.256969 0.232277 0.026812
0.313688 0.231447 0.022080
0.367866 0.230278 0.018137
0.419534 0.229439 0.014983
0.469858 0.228597 0.013406
0.519194 0.227582 0.011829
0.568733 0.226561 0.011040
0.616390 0.225878 0.011829
0.661850 0.225878 0.015771
0.703978 0.226902 0.022869
0.742587 0.229607 0.035486
0.780715 0.233599 0.052347
0.817253 0.239446 0.072622
0.851731 0.247461 0.094262
0.884906 0.257559 0.118081
0.916608 0.269887 0.143129
0.946723 0.284759 0.169847
0.962869 0.304648 0.200315
0.967817 0.328580 0.234585
0.000000 0.293261 0.031543
0.013406 0.293893 0.030754
0.044738 0.294775 0.029966
0.081950 0.295780 0.029177
0.122061 0.296531 0.027600
0.183298 0.296031 0.025234
0.250525 0.294524 0.021292
0.309445 0.292627 0.017349
0.365541 0.290459 0.014194
0.418795 0.288660 0.011829
0.469929 0.286717 0.009463
0.519948 0.285152 0.007886
0.569740 0.283576 0.007886
0.617500 0.282388 0.009463
0.662725 0.281990 0.012617
0.704276 0.282652 0.021292
0.742388 0.284365 0.034697
0.778891 0.287366 0.052347
0.814199 0.291482 0.073649
0.848539 0.297155 0.095499
0.882251 0.305253 0.119755
0.914558 0.315552 0.144793
0.945164 0.328026 0.171243
0.961881 0.345007 0.202067
0.966667 0.365930 0.236543
0.000000 0.357459 0.027600
0.000000 0.358855 0.015771
0.017349 0.359352 0.014983
0.062806 0.359848 0.014983
0.107892 0.360145 0.014983
0.173543 0.359252 0.012617
0.243256 0.357259 0.011040
0.304163 0.354850 0.008674
0.362118 0.352013 0.006309
0.416814 0.349149 0.003943
0.469215 0.346360 0.002366
0.519948 0.343858 0.001577
0.570354 0.341439 0.002366
0.618406 0.339425 0.003943
0.663552 0.338252 0.009463
0.704616 0.338252 0.020503
0.741912 0.339319 0.033120
0.777771 0.341333 0.054295
0.812507 0.344485 0.076167
0.846335 0.348841 0.098729
0.879555 0.354648 0.123036
0.912168 0.361823 0.147794
0.943717 0.370938 0.173771
0.961231 0.385672 0.204568
0.965797 0.404161 0.238805
0.000000 0.420764 0.021292
0.000000 0.421826 0.008674
0.000000 0.422640 0.000000
0.031543 0.423047 0.000000
0.089165 0.422966 0.000000
0.162189 0.421907 0.000000
0.234913 0.419781 0.000000
0.297902 0.417145 0.000000
0.357559 0.413988 0.000000
0.413737 0.410463 0.000000
0.467354 0.406901 0.000000
0.519131 0.403472 0.000000
0.570578 0.400095 0.000000
0.618909 0.397384 0.000000
0.664012 0.395270 0.005520
0.704658 0.394385 0.016560
0.741236 0.394563 0.032332
0.776387 0.395712 0.055568
0.810422 0.397823 0.078619
0.843654 0.401051 0.102637
0.876495 0.405363 0.127180
0.908705 0.411137 0.152574
0.940086 0.418383 0.179155
0.959249 0.429088 0.209471
0.964616 0.443480 0.242468
0.000000 0.482203 0.014194
0.000000 0.482755 0.007097
0.000000 0.483237 0.000000
0.011040 0.483994 0.000000
0.062806 0.484337 0.000000
0.148869 0.483168 0.000000
0.225707 0.481097 0.000000
0.291226 0.478319 0.000000
0.352522 0.475027 0.000000
0.410885 0.470997 0.000000
0.465483 0.466995 0.000000
0.517934 0.463094 0.000000
0.569740 0.459152 0.000000
0.618909 0.455538 0.000000
0.664379 0.452561 0.000000
0.704616 0.450763 0.011040
0.740479 0.449936 0.031543
0.774850 0.450162 0.056820
0.808187 0.451214 0.082416
0.840793 0.453308 0.107524
0.873133 0.456353 0.132708
0.905041 0.460544 0.158466
0.936144 0.466203 0.185650
0.956067 0.474675 0.216416
0.961542 0.486664 0.249763
0.000000 0.539561 0.014983
0.000000 0.539980 0.007097
0.000000 0.540399 0.000000
0.014194 0.540757 0.000000
0.055568 0.541234 0.000000
0.134501 0.540817 0.000000
0.217847 0.538542 0.000000
0.286977 0.535651 0.000000
0.349149 0.532496 0.000000
0.408008 0.528704 0.000000
0.464182 0.524442 0.000000
0.517556 0.520261 0.000000
0.569908 0.515911 0.000000
0.619210 0.511834 0.000000
0.665020 0.508233 0.000000
0.704913 0.505576 0.007886
0.740001 0.504012 0.031543
0.773609 0.503293 0.060464
0.806194 0.503359 0.087409
0.838054 0.504404 0.113270
0.869883 0.506290 0.139170
0.901295 0.509201 0.165825
0.932092 0.513368 0.194149
0.952928 0.519948 0.224849
0.958483 0.529931 0.258295
0.000000 0.592405 0.014194
0.000000 0.592617 0.009463
0.000000 0.593148 0.000000
0.008674 0.593360 0.000000
0.054934 0.593679 0.000000
0.130280 0.593467 0.000000
0.210770 0.591873 0.000000
0.283576 0.588990 0.000000
0.345528 0.586197 0.000000
0.406901 0.582302 0.000000
0.462731 0.578592 0.000000
0.517240 0.574298 0.000000
0.570522 0.569852 0.000000
0.620163 0.565586 0.000000
0.665707 0.561735 0.000000
0.705508 0.558537 0.006309
0.739961 0.556297 0.035486
0.772705 0.554796 0.066202
0.804409 0.554160 0.093846
0.835542 0.554276 0.121078
0.866714 0.555201 0.147794
0.897622 0.557102 0.174907
0.927986 0.560082 0.203802
0.949746 0.565191 0.234749
0.955297 0.573468 0.268487
0.000000 0.643120 0.016560
0.000000 0.643646 0.003154
0.000000 0.643837 0.000000
0.007097 0.643980 0.000000
0.046892 0.644314 0.000000
0.122061 0.644314 0.000000
0.206280 0.642785 0.000000
0.279190 0.640290 0.000000
0.342282 0.637734 0.000000
0.404934 0.634046 0.000000
0.461712 0.630477 0.000000
0.516924 0.626388 0.000000
0.570689 0.622114 0.000000
0.621265 0.617600 0.000000
0.666803 0.613654 0.000000
0.706271 0.610136 0.008674
0.740041 0.607415 0.041759
0.772027 0.605352 0.074158
0.802942 0.603954 0.103403
0.833328 0.603227 0.130586
0.863725 0.603331 0.157710
0.894084 0.604161 0.186075
0.923946 0.605972 0.215697
0.946752 0.609572 0.246844
0.952413 0.616288 0.280127
0.000000 0.689227 0.018137
0.000000 0.689752 0.003943
0.000000 0.689839 0.000000
0.003943 0.690014 0.000000
0.051020 0.690145 0.000000
0.121734 0.690363 0.000000
0.198547 0.689533 0.000000
0.272937 0.687387 0.000000
0.340275 0.684748 0.000000
0.403041 0.681519 0.000000
0.460032 0.678359 0.000000
0.516355 0.674505 0.000000
0.571803 0.670215 0.000000
0.622413 0.666073 0.000000
0.668307 0.662034 0.000000
0.707709 0.658428 0.017349
0.740917 0.655497 0.054295
0.772140 0.653064 0.086072
0.802189 0.651185 0.115010
0.831653 0.650007 0.142850
0.861311 0.649394 0.170547
0.890997 0.649441 0.199728
0.920302 0.650385 0.229607
0.944122 0.652736 0.260777
0.949803 0.658057 0.293767
0.000000 0.731727 0.014983
0.000000 0.732010 0.005520
0.000000 0.732132 0.000789
0.000000 0.732253 0.000000
0.048985 0.732415 0.000000
0.116726 0.732819 0.000000
0.199924 0.731808 0.000000
0.268908 0.730431 0.000000
0.339425 0.727748 0.000000
0.401224 0.725093 0.000000
0.461274 0.721767 0.000000
0.517303 0.718462 0.000000
0.572636 0.714720 0.000000
0.624007 0.710743 0.000000
0.670578 0.706779 0.001577
0.709776 0.703254 0.036274
0.742507 0.700307 0.071584
0.773045 0.697816 0.101867
0.802225 0.695747 0.129973
0.830831 0.694189 0.157710
0.859609 0.693062 0.186498
0.888555 0.692541 0.215877
0.917210 0.692714 0.246069
0.942063 0.694059 0.276627
0.947819 0.698204 0.309445
0.000000 0.769039 0.022869
0.000000 0.769532 0.007886
0.000000 0.769607 0.002366
0.000000 0.769759 0.000000
0.040994 0.769910 0.000000
0.113620 0.770364 0.000000
0.193744 0.769797 0.000000
0.270584 0.768090 0.000000
0.338786 0.765998 0.000000
0.401918 0.763553 0.000000
0.461347 0.760791 0.000000
0.519068 0.757590 0.000000
0.575403 0.754022 0.000000
0.627426 0.750392 0.000000
0.674010 0.746779 0.028389
0.713091 0.743539 0.062806
0.745279 0.740838 0.093429
0.775112 0.738484 0.121406
0.803479 0.736401 0.148869
0.831105 0.734713 0.176485
0.859019 0.733384 0.205711
0.887173 0.732455 0.235240
0.915101 0.732172 0.265093
0.940901 0.732738 0.295153
0.946579 0.735879 0.327138
0.000000 0.802153 0.027600
0.000000 0.802261 0.023657
0.000000 0.802799 0.005520
0.000000 0.802942 0.000000
0.025234 0.803121 0.000000
0.111148 0.803587 0.000000
0.200511 0.802691 0.000000
0.276084 0.801111 0.000000
0.343858 0.799276 0.000000
0.406645 0.797145 0.000000
0.466059 0.794643 0.000000
0.523696 0.791839 0.000000
0.580069 0.788729 0.007886
0.632241 0.785455 0.036274
0.678805 0.782275 0.065646
0.717674 0.779413 0.092590
0.749334 0.777098 0.118753
0.778443 0.775000 0.145068
0.806016 0.773120 0.171706
0.832679 0.771536 0.199728
0.859675 0.770175 0.228259
0.886859 0.769228 0.257412
0.913984 0.768660 0.286847
0.940581 0.768735 0.316247
0.946319 0.771196 0.346878
0.000000 0.833873 0.026812
0.000000 0.833976 0.022869
0.000000 0.834283 0.011040
0.000000 0.834487 0.003154
0.022080 0.834725 0.000000
0.118081 0.834998 0.000000
0.210214 0.833839 0.000000
0.283839 0.832474 0.000000
0.350585 0.830797 0.000000
0.412733 0.828840 0.000000
0.471707 0.826671 0.008674
0.529318 0.824148 0.030754
0.585550 0.821371 0.053651
0.637589 0.818442 0.076662
0.684130 0.815605 0.099522
0.722714 0.813072 0.122387
0.753905 0.811094 0.146437
0.782423 0.809253 0.171243
0.809146 0.807619 0.197953
0.834964 0.806194 0.225364
0.860984 0.804981 0.253396
0.887299 0.804016 0.281990
0.913561 0.803443 0.310394
0.939445 0.803228 0.338893
0.946550 0.805088 0.367963
0.000000 0.863953 0.037852
0.000000 0.864051 0.033909
0.000000 0.864213 0.029177
0.000000 0.864636 0.014194
0.000000 0.865124 0.000000
0.138882 0.864279 0.000000
0.222774 0.863269 0.004731
0.293893 0.862030 0.015771
0.358954 0.860461 0.028389
0.420273 0.858724 0.045463
0.478667 0.856752 0.061643
0.536013 0.854478 0.078619
0.591979 0.851963 0.096315
0.643741 0.849438 0.113969
0.689970 0.846937 0.133009
0.728318 0.844761 0.153615
0.759058 0.843083 0.176260
0.786929 0.841501 0.201096
0.812966 0.840151 0.226902
0.837919 0.838968 0.253546
0.863008 0.837919 0.280927
0.888492 0.837071 0.308373
0.913863 0.836494 0.336108
0.938920 0.836154 0.363100
0.947415 0.837478 0.390373
0.000000 0.891934 0.054295
0.000000 0.892090 0.051686
0.000000 0.892433 0.040217
0.000000 0.892464 0.041759
0.049669 0.892059 0.047596
0.163654 0.891216 0.054934
0.238965 0.890278 0.063382
0.306698 0.889088 0.072104
0.369981 0.887739 0.082881
0.429806 0.886166 0.094262
0.487345 0.884370 0.106786
0.544266 0.882346 0.120087
0.599578 0.880063 0.134204
0.651044 0.877772 0.149937
0.696912 0.875569 0.167256
0.734834 0.873711 0.187131
0.765044 0.872330 0.209657
0.792314 0.871108 0.233435
0.817603 0.870044 0.258295
0.841838 0.869108 0.284365
0.866001 0.868333 0.310394
0.890591 0.867653 0.336968
0.915101 0.867103 0.363100
0.939270 0.866779 0.388392
0.949114 0.867815 0.413654
0.000000 0.918172 0.093846
0.000000 0.918292 0.092168
0.000000 0.918413 0.091745
0.000000 0.918292 0.095088
0.102253 0.917812 0.099522
0.189640 0.917060 0.104163
0.257559 0.916187 0.110791
0.321748 0.915071 0.118081
0.382652 0.913803 0.126235
0.440942 0.912320 0.135977
0.497231 0.910682 0.146437
0.553639 0.908797 0.158215
0.608238 0.906723 0.171011
0.659170 0.904612 0.186287
0.704531 0.902618 0.203994
0.741872 0.901018 0.223295
0.771536 0.899878 0.244823
0.798265 0.898890 0.267784
0.822934 0.898024 0.291864
0.846335 0.897405 0.316363
0.869754 0.896755 0.341650
0.893399 0.896259 0.366706
0.917060 0.895793 0.390911
0.940464 0.895514 0.414571
0.951553 0.896414 0.437841
0.000000 0.943572 0.133009
0.000000 0.943572 0.134501
0.000000 0.943514 0.136270
0.062806 0.943311 0.139456
0.146437 0.942818 0.142571
0.216775 0.942063 0.146981
0.278518 0.941250 0.152574
0.338893 0.940173 0.158968
0.397209 0.938979 0.166304
0.453755 0.937577 0.174907
0.508427 0.936085 0.185012
0.564287 0.934297 0.196561
0.617903 0.932327 0.210029
0.668080 0.930411 0.225192
0.712756 0.928608 0.242152
0.749373 0.927186 0.261357
0.778555 0.926207 0.281858
0.804660 0.925404 0.303921
0.828703 0.924839 0.326470
0.851399 0.924333 0.350175
0.873967 0.923916 0.373790
0.896786 0.923529 0.396857
0.919643 0.923171 0.419452
0.942237 0.923052 0.441096
0.954442 0.923887 0.462149
0.000000 0.967873 0.174907
0.024446 0.967845 0.176036
0.067305 0.967761 0.177603
0.125284 0.967453 0.180255
0.187762 0.966864 0.183298
0.245447 0.966218 0.187342
0.301971 0.965403 0.192319
0.358457 0.964391 0.198547
0.413821 0.963236 0.206280
0.468429 0.961909 0.214975
0.521326 0.960495 0.225878
0.576340 0.958767 0.237354
0.628757 0.956949 0.250829
0.678001 0.955126 0.265520
0.721767 0.953471 0.282123
0.757513 0.952241 0.300376
0.786008 0.951439 0.319927
0.811519 0.950808 0.340593
0.834964 0.950320 0.362413
0.856950 0.950004 0.384303
0.878696 0.949746 0.405876
0.900772 0.949516 0.427327
0.922813 0.949344 0.447822
0.944730 0.949372 0.467569
0.957944 0.950234 0.486664
0.092168 0.984521 0.219444
0.112567 0.984439 0.220678
0.142009 0.984302 0.222252
0.183513 0.984028 0.224504
0.231945 0.983617 0.227582
0.279859 0.983151 0.231779
0.330783 0.982574 0.237030
0.382836 0.981887 0.243570
0.434869 0.981090 0.251284
0.486868 0.980208 0.260050
0.537761 0.979271 0.270166
0.591287 0.978167 0.281327
0.642115 0.977033 0.294145
0.689839 0.976009 0.308254
0.732213 0.975288 0.323444
0.766607 0.975066 0.340381
0.794025 0.975288 0.358855
0.818861 0.974927 0.378206
0.841568 0.974650 0.398261
0.862878 0.974428 0.418300
0.883896 0.974344 0.438152
0.905286 0.974289 0.457460
0.926622 0.974317 0.476081
0.947847 0.974539 0.493762
0.961937 0.975482 0.510744
0.164139 0.996100 0.268066
0.182000 0.995992 0.269328
0.205521 0.995776 0.270723
0.238644 0.995452 0.272937
0.275812 0.995020 0.276220
0.317748 0.994534 0.280394
0.363590 0.993912 0.285805
0.411474 0.993127 0.291991
0.460251 0.992260 0.299389
0.509716 0.991338 0.308254
0.558766 0.990279 0.317979
0.610545 0.989082 0.329022
0.659726 0.987883 0.340910
0.706016 0.986791 0.354143
0.747054 0.985972 0.368829
0.780195 0.985671 0.384760
0.806729 0.985890 0.401745
0.830557 0.986327 0.419206
0.852294 0.987010 0.437061
0.872555 0.987937 0.454796
0.892589 0.989027 0.472416
0.912895 0.990170 0.489316
0.933269 0.991473 0.505706
0.953528 0.992856 0.521013
0.968041 0.994858 0.535651
0.007886 0.008674 0.081950
0.038640 0.009463 0.083343
0.065646 0.011829 0.084717
0.096721 0.014194 0.086965
0.129357 0.018137 0.089600
0.187762 0.014983 0.085622
0.255339 0.010251 0.077646
0.313922 0.004731 0.072622
0.369981 0.000000 0.068394
0.423859 0.000000 0.065646
0.476431 0.000000 0.063382
0.527473 0.000000 0.062227
0.579686 0.000000 0.060464
0.628856 0.000000 0.061643
0.676973 0.000000 0.062806
0.719580 0.000000 0.067852
0.757319 0.000000 0.076167
0.792933 0.000000 0.087409
0.826740 0.000789 0.101867
0.859085 0.026812 0.119088
0.890622 0.059868 0.138595
0.921080 0.092590 0.160463
0.950177 0.125284 0.184371
0.965460 0.163167 0.213158
0.971172 0.203994 0.245913
0.007097 0.052347 0.082416
0.037852 0.053002 0.083343
0.068934 0.053651 0.077646
0.102637 0.054934 0.079102
0.138882 0.058053 0.080536
0.193744 0.056820 0.077646
0.257265 0.053002 0.072622
0.314038 0.048985 0.068934
0.369022 0.044738 0.066202
0.422640 0.038640 0.063953
0.475098 0.031543 0.062227
0.526486 0.025234 0.061056
0.578537 0.016560 0.059868
0.628560 0.009463 0.059868
0.675853 0.004731 0.062806
0.718711 0.004731 0.068394
0.756778 0.011040 0.076662
0.792569 0.022869 0.087851
0.826464 0.041759 0.102253
0.858921 0.065085 0.119422
0.890434 0.090032 0.138882
0.920871 0.117066 0.160958
0.949976 0.145343 0.184799
0.965207 0.180036 0.213523
0.970781 0.218381 0.246224
0.011829 0.081481 0.085622
0.043264 0.081950 0.086520
0.072104 0.083803 0.079102
0.115355 0.086072 0.066202
0.158968 0.087851 0.062227
0.204759 0.087851 0.066756
0.260922 0.086520 0.066756
0.314854 0.084717 0.065646
0.368637 0.082416 0.063953
0.421499 0.079102 0.062806
0.473477 0.075669 0.061643
0.524938 0.071584 0.060464
0.576835 0.066202 0.059868
0.626932 0.061643 0.060464
0.674370 0.058662 0.063382
0.717425 0.058662 0.068394
0.755731 0.064521 0.077155
0.791803 0.073649 0.088729
0.825877 0.086965 0.103021
0.858396 0.103784 0.120087
0.889934 0.123036 0.139742
0.920482 0.144793 0.161452
0.949602 0.169613 0.185225
0.964841 0.201485 0.214069
0.970195 0.237192 0.246379
0.014194 0.119755 0.087851
0.045463 0.120418 0.087851
0.070533 0.122061 0.086965
0.106786 0.125284 0.080536
0.149937 0.128429 0.074158
0.205140 0.129666 0.067852
0.262513 0.129666 0.063382
0.314388 0.129666 0.060464
0.365736 0.128739 0.059868
0.417971 0.126551 0.059868
0.469858 0.124646 0.059267
0.521326 0.122387 0.059267
0.573246 0.119422 0.058053
0.623609 0.117066 0.059868
0.671303 0.115699 0.062806
0.714762 0.116385 0.068394
0.753594 0.120087 0.077155
0.790085 0.126551 0.089165
0.824459 0.135977 0.103403
0.857312 0.148063 0.120418
0.889056 0.163411 0.140028
0.919643 0.181783 0.161944
0.948826 0.203225 0.185650
0.964166 0.231280 0.214432
0.969357 0.263376 0.246844
0.011040 0.169145 0.085622
0.042516 0.170314 0.086072
0.067852 0.172397 0.085170
0.101479 0.174454 0.082881
0.141446 0.176709 0.078619
0.199335 0.177603 0.073137
0.261213 0.177156 0.067305
0.315203 0.176933 0.063953
0.367190 0.176709 0.060464
0.417641 0.176036 0.058662
0.467282 0.175134 0.056820
0.516165 0.174226 0.056196
0.567387 0.172856 0.056820
0.617953 0.171474 0.058053
0.666164 0.170779 0.061643
0.710281 0.171706 0.067852
0.749922 0.174681 0.076662
0.787039 0.179816 0.089165
0.822066 0.187131 0.103784
0.855303 0.196960 0.121078
0.887362 0.209657 0.140597
0.918172 0.225021 0.162434
0.947502 0.243413 0.186287
0.963123 0.267220 0.215336
0.968209 0.295027 0.247770
0.003154 0.227921 0.080536
0.033120 0.229271 0.080536
0.060464 0.230780 0.080060
0.094262 0.232277 0.078619
0.133009 0.233599 0.076662
0.192319 0.233764 0.072622
0.257265 0.232609 0.067852
0.313922 0.231447 0.064521
0.367673 0.230278 0.060464
0.419041 0.229439 0.058053
0.469001 0.228597 0.056196
0.518061 0.227582 0.054934
0.567275 0.226732 0.054934
0.614872 0.226049 0.056196
0.660327 0.226049 0.060464
0.703765 0.227072 0.066756
0.744449 0.230111 0.076167
0.782608 0.234421 0.088729
0.818372 0.240405 0.103403
0.852327 0.248539 0.121078
0.884874 0.258735 0.140880
0.916187 0.271278 0.162923
0.945886 0.286327 0.186920
0.961994 0.306337 0.216057
0.966976 0.330234 0.248539
0.000000 0.294019 0.072104
0.013406 0.295404 0.071060
0.043264 0.296406 0.070533
0.081010 0.297155 0.070003
0.121078 0.297902 0.068934
0.183298 0.297031 0.066756
0.250981 0.295027 0.063382
0.309920 0.292754 0.059868
0.365833 0.290459 0.056820
0.418630 0.288272 0.054295
0.469572 0.286327 0.052347
0.519068 0.284759 0.051686
0.568677 0.283181 0.051686
0.616288 0.281990 0.054295
0.661481 0.281592 0.058662
0.703126 0.282255 0.065646
0.741355 0.283971 0.075669
0.778144 0.287107 0.088291
0.814023 0.291609 0.103403
0.848872 0.298399 0.121734
0.882220 0.306818 0.141728
0.914075 0.317287 0.163897
0.944296 0.329794 0.188181
0.961005 0.346775 0.217490
0.965769 0.367770 0.250068
0.000000 0.358556 0.068394
0.000000 0.360639 0.058053
0.015771 0.361035 0.058662
0.061643 0.361528 0.058053
0.107156 0.361528 0.058053
0.173543 0.360541 0.056820
0.243413 0.358158 0.054295
0.304527 0.355454 0.051686
0.362413 0.352319 0.049669
0.416979 0.349046 0.047596
0.469144 0.346048 0.046892
0.519634 0.343229 0.046892
0.569740 0.340804 0.047596
0.617500 0.338893 0.051020
0.662587 0.337825 0.056196
0.703638 0.337718 0.063953
0.741156 0.338786 0.075168
0.777135 0.340804 0.089600
0.812048 0.344067 0.105295
0.846034 0.348325 0.123683
0.879427 0.354143 0.143129
0.912017 0.362020 0.165345
0.942847 0.372843 0.190055
0.960326 0.387488 0.219268
0.964869 0.405962 0.251889
0.000000 0.422152 0.060464
0.000000 0.423940 0.046892
0.000000 0.424588 0.041759
0.029966 0.424749 0.041759
0.088291 0.424507 0.042516
0.161944 0.423291 0.041759
0.235077 0.420927 0.040217
0.298275 0.417971 0.038640
0.357859 0.414488 0.037063
0.414155 0.410716 0.036274
0.467712 0.406730 0.036274
0.519257 0.403128 0.037852
0.570243 0.399572 0.040217
0.618406 0.396769 0.045463
0.663369 0.394651 0.052347
0.703978 0.393764 0.062227
0.740639 0.393942 0.075168
0.775900 0.395094 0.090463
0.810068 0.397209 0.107524
0.843452 0.400356 0.126551
0.876400 0.404848 0.147253
0.908827 0.410548 0.169613
0.940261 0.417806 0.194352
0.959504 0.428609 0.222426
0.964503 0.443787 0.254294
0.000000 0.483444 0.056196
0.000000 0.485023 0.038640
0.000000 0.485707 0.029966
0.000000 0.486186 0.021292
0.061643 0.485844 0.022080
0.148601 0.484543 0.022080
0.225878 0.482203 0.021292
0.291226 0.479363 0.021292
0.352725 0.475800 0.020503
0.410463 0.471778 0.022080
0.465410 0.467497 0.023657
0.518250 0.463094 0.026812
0.570243 0.458785 0.030754
0.618959 0.455093 0.037852
0.664012 0.452038 0.047596
0.704148 0.450087 0.060464
0.740041 0.449334 0.075168
0.774512 0.449484 0.092168
0.807939 0.450538 0.110432
0.840658 0.452636 0.130586
0.873133 0.455686 0.152050
0.905133 0.459959 0.175134
0.936320 0.465555 0.200706
0.956408 0.474182 0.229271
0.961824 0.486186 0.260777
0.000000 0.541473 0.045463
0.000000 0.541890 0.040994
0.000000 0.543020 0.018926
0.000000 0.543317 0.011040
0.022869 0.543436 0.002366
0.134501 0.542069 0.002366
0.216775 0.539920 0.002366
