Zoran/Simplify palete - warm skin.cube
TITLE "Generated by 3D LUT Creator Pro (c) Oleg Sharonov"
LUT_3D_SIZE 5
#IMAGEPROFILE sRGB
#INPUTGAMMA sRGB
#OUTPUTGAMMA sRGB
0.000000 0.000000 0.000000
0.258586 0.003015 0.000379
0.510626 0.000000 0.000828
0.751260 0.004475 0.001475
0.985045 0.356623 0.287176
0.028758 0.245949 0.000000
0.273990 0.065631 0.000783
0.524615 0.147943 0.001258
0.762421 0.221011 0.002041
0.984848 0.537554 0.276219
0.039658 0.493518 0.000000
0.097284 0.489179 0.000000
0.532737 0.126236 0.001617
0.762401 0.251464 0.002105
0.984802 0.576968 0.296176
0.080899 0.744328 0.000000
0.157678 0.741771 0.000000
0.327279 0.742790 0.029233
0.766525 0.211863 0.002698
0.984183 0.576816 0.276285
0.427258 1.000000 0.224058
0.486764 1.000000 0.306979
0.501068 1.000000 0.326821
0.840981 1.000000 0.434439
0.979852 0.553599 0.219978
0.000000 0.166679 0.245698
0.176686 0.000000 0.237541
0.367459 0.001354 0.433592
0.721361 0.093721 0.465269
0.984860 0.403960 0.596928
0.000000 0.167582 0.246684
0.260432 0.244510 0.243458
0.445527 0.194903 0.177412
0.677119 0.211982 0.173578
0.984796 0.522165 0.448385
0.000000 0.342188 0.478032
0.265887 0.494094 0.185051
0.532761 0.307359 0.182954
0.762205 0.413711 0.205737
0.984657 0.671344 0.446279
0.162691 0.736694 0.462209
0.299374 0.743229 0.141961
0.366792 0.746381 0.220980
0.766265 0.392602 0.148156
0.984004 0.691009 0.455091
0.487263 1.000000 0.552668
0.568607 1.000000 0.415294
0.620175 1.000000 0.487649
0.738253 1.000000 0.509079
0.979623 0.669255 0.394360
0.000000 0.327958 0.493118
0.155251 0.157869 0.474478
0.347749 0.000000 0.474703
0.564347 0.000000 0.673617
0.846956 0.374340 0.998814
0.000000 0.340141 0.480402
0.147091 0.357864 0.439309
0.339869 0.151469 0.377142
0.588621 0.225775 0.620193
0.984451 0.592178 0.824294
0.000000 0.329496 0.494694
0.142087 0.359233 0.441152
0.514045 0.500314 0.484224
0.724362 0.469751 0.416672
0.984567 0.685654 0.614331
0.000000 0.524411 0.733902
0.196116 0.567686 0.705068
0.532015 0.748191 0.436327
0.765971 0.579388 0.419103
0.983844 0.791276 0.619215
0.344915 0.823020 1.000000
0.616808 1.000000 0.823068
0.712354 1.000000 0.610463
0.760913 1.000000 0.631610
0.979404 0.780884 0.571934
0.000000 0.502473 0.743978
0.087602 0.410186 0.732780
0.445119 0.056134 0.723345
0.527716 0.000000 0.720623
0.833655 0.328916 0.998197
0.000000 0.526031 0.733012
0.130589 0.549732 0.712398
0.374328 0.387489 0.689715
0.556214 0.152246 0.662149
0.873080 0.516817 0.998649
0.000000 0.519362 0.735017
0.185507 0.564834 0.706117
0.381023 0.609411 0.697174
0.622999 0.416125 0.660444
0.912554 0.697334 0.999160
0.000000 0.504121 0.745357
0.120315 0.550359 0.713317
0.372851 0.608046 0.696255
0.756704 0.752697 0.729548
0.977814 0.845210 0.779137
0.312018 0.813340 1.000000
0.471139 0.856647 1.000000
0.631117 0.900675 1.000000
0.856569 1.000000 0.786041
0.977797 0.891403 0.761631
0.254815 0.791410 1.000000
0.388980 0.735590 1.000000
0.580992 0.584428 1.000000
0.818843 0.332457 1.000000
0.806552 0.255756 0.999174
0.310343 0.811912 1.000000
0.420386 0.838085 1.000000
0.558908 0.782929 1.000000
0.811590 0.554504 1.000000
0.852218 0.442791 0.999374
0.332267 0.818167 1.000000
0.474722 0.857975 1.000000
0.585736 0.884539 1.000000
0.769190 0.785864 1.000000
0.898375 0.631018 0.999579
0.310921 0.807658 1.000000
0.469493 0.852841 1.000000
0.623077 0.897544 1.000000
0.781325 0.939204 1.000000
0.944562 0.816242 0.999814
0.242886 0.792027 1.000000
0.409811 0.838143 1.000000
0.577801 0.884352 1.000000
0.776120 0.938881 1.000000
0.990785 1.000000 1.000000
