Zoran/Simplify palete - warm skin.cube
TITLE "Generated by 3D LUT Creator Pro (c) Oleg Sharonov"
LUT_3D_SIZE 9
#IMAGEPROFILE sRGB
#INPUTGAMMA sRGB
#OUTPUTGAMMA sRGB
0.000000 0.000000 0.000000
0.128556 0.011120 0.005616
0.258586 0.003015 0.000379
0.386303 0.000000 0.000575
0.510626 0.000000 0.000828
0.631966 0.000000 0.001120
0.751260 0.004475 0.001475
0.867797 0.085154 0.024400
0.985045 0.356623 0.287176
0.025437 0.122873 0.000000
0.136463 0.038108 0.000435
0.268044 0.077188 0.000609
0.398876 0.100196 0.000885
0.521330 0.116888 0.001180
0.635448 0.112337 0.001447
0.751527 0.128140 0.001804
0.867160 0.201511 0.014400
0.984944 0.446187 0.280263
0.028758 0.245949 0.000000
0.056121 0.243237 0.000000
0.273990 0.065631 0.000783
0.398881 0.115441 0.000920
0.524615 0.147943 0.001258
0.645647 0.176047 0.001618
0.762421 0.221011 0.002041
0.874496 0.314261 0.010951
0.984848 0.537554 0.276219
0.032229 0.369430 0.000000
0.071043 0.366918 0.000000
0.156862 0.363817 0.006070
0.406753 0.094299 0.001169
0.525630 0.147329 0.001309
0.645640 0.198148 0.001666
0.762407 0.242572 0.002086
0.874460 0.334080 0.028272
0.984820 0.562745 0.285107
0.039658 0.493518 0.000000
0.086368 0.490994 0.000000
0.097284 0.489179 0.000000
0.385982 0.492621 0.065832
0.532737 0.126236 0.001617
0.647689 0.181171 0.001793
0.762401 0.251464 0.002105
0.874432 0.354053 0.044362
0.984802 0.576968 0.296176
0.049641 0.618417 0.000000
0.095892 0.615449 0.000000
0.118053 0.614877 0.000000
0.126060 0.613311 0.000000
0.606355 0.624020 0.122053
0.652465 0.160434 0.002116
0.764120 0.231828 0.002351
0.874452 0.347937 0.021392
0.984788 0.588827 0.303882
0.080899 0.744328 0.000000
0.125310 0.741548 0.000000
0.157678 0.741771 0.000000
0.165547 0.740532 0.000000
0.327279 0.742790 0.029233
0.762449 0.703365 0.148278
0.766525 0.211863 0.002698
0.874415 0.329783 0.003046
0.984183 0.576816 0.276285
0.171821 0.871455 0.000000
0.211477 0.869621 0.000000
0.250506 0.870075 0.033682
0.257682 0.869417 0.043889
0.264845 0.868811 0.054101
0.581951 0.872155 0.164556
0.871723 0.756655 0.192113
0.874352 0.311669 0.003436
0.982015 0.565273 0.247756
0.427258 1.000000 0.224058
0.455653 1.000000 0.263775
0.486764 1.000000 0.306979
0.495773 1.000000 0.319462
0.501068 1.000000 0.326821
0.534001 1.000000 0.342551
0.840981 1.000000 0.434439
0.976885 0.860671 0.391335
0.979852 0.553599 0.219978
0.000000 0.087294 0.122742
0.091657 0.000000 0.121098
0.182996 0.007324 0.214724
0.353491 0.034662 0.218827
0.471992 0.017394 0.176100
0.593816 0.002695 0.134205
0.719801 0.005812 0.108293
0.848968 0.070994 0.139397
0.985024 0.346106 0.370437
0.000000 0.087767 0.123259
0.129992 0.119826 0.124203
0.215136 0.092916 0.093277
0.304867 0.082832 0.075438
0.440698 0.086937 0.068086
0.577599 0.090242 0.059117
0.713950 0.110245 0.066986
0.848568 0.186743 0.131571
0.984920 0.438690 0.366333
0.000000 0.171798 0.236270
0.137070 0.246309 0.098375
0.274115 0.150325 0.102809
0.398925 0.195078 0.101280
0.524595 0.222102 0.078519
0.638658 0.238969 0.058626
0.744291 0.247085 0.063495
0.860262 0.310445 0.127778
0.984824 0.529863 0.362101
0.073143 0.361931 0.223835
0.143079 0.368349 0.063187
0.177929 0.367393 0.105220
0.406786 0.182563 0.073367
0.525611 0.237362 0.086367
0.645585 0.272797 0.074935
0.762307 0.315431 0.074085
0.874355 0.401979 0.132472
0.984747 0.610039 0.359781
0.086034 0.486875 0.137165
0.151241 0.492132 0.030091
0.192577 0.493635 0.087534
0.293537 0.492879 0.123842
0.532694 0.215799 0.044684
0.647619 0.271918 0.059950
0.762287 0.337566 0.090878
0.874327 0.422887 0.147593
0.984729 0.624366 0.370833
0.100818 0.612478 0.049894
0.160792 0.616047 0.000000
0.210682 0.618852 0.067929
0.221329 0.617009 0.083269
0.519717 0.624311 0.178833
0.652395 0.250593 0.015661
0.763997 0.320697 0.054095
0.874317 0.431677 0.146238
0.984712 0.638591 0.381876
0.134959 0.739517 0.000000
0.188165 0.741391 0.000000
0.237108 0.744355 0.058946
0.258299 0.743863 0.088808
0.272343 0.743912 0.099711
0.728913 0.752452 0.247025
0.766426 0.299996 0.009601
0.874239 0.413279 0.109127
0.984092 0.634658 0.365376
0.224502 0.868536 0.000000
0.268196 0.869219 0.055074
0.312382 0.870918 0.115763
0.341673 0.871472 0.156604
0.348484 0.870697 0.166369
0.504722 0.872667 0.216579
0.871653 0.833703 0.312074
0.874171 0.394367 0.072863
0.981912 0.623170 0.335721
0.465463 1.000000 0.274607
0.496429 1.000000 0.317885
0.527697 1.000000 0.361236
0.555660 1.000000 0.400325
0.560684 1.000000 0.407377
0.566957 1.000000 0.413265
0.789756 1.000000 0.471681
0.976773 0.915044 0.478521
0.979738 0.611565 0.306550
0.000000 0.166679 0.245698
0.082843 0.084083 0.234049
0.176686 0.000000 0.237541
0.277464 0.000000 0.322519
0.367459 0.001354 0.433592
0.598834 0.090710 0.496744
0.721361 0.093721 0.465269
0.848968 0.156438 0.470447
0.984860 0.403960 0.596928
0.000000 0.171096 0.237751
0.076614 0.174316 0.212068
0.159348 0.072482 0.177236
0.266948 0.088873 0.273717
0.407688 0.120634 0.279226
0.528929 0.111719 0.252686
0.670205 0.120313 0.239322
0.822103 0.184186 0.269211
0.984892 0.431557 0.454360
0.000000 0.167582 0.246684
0.074422 0.175201 0.213220
0.260432 0.244510 0.243458
0.358449 0.205377 0.196521
0.445527 0.194903 0.177412
0.553540 0.193739 0.166578
0.677119 0.211982 0.173578
0.828520 0.287317 0.234466
0.984796 0.522165 0.448385
0.000000 0.254193 0.359190
0.086285 0.264849 0.330870
0.264487 0.369207 0.214644
0.406956 0.272880 0.209865
0.525661 0.319706 0.213672
0.645579 0.349086 0.193160
0.756677 0.378972 0.189135
0.860443 0.426177 0.238986
0.984710 0.612146 0.444374
0.000000 0.342188 0.478032
0.182378 0.474062 0.339382
0.265887 0.494094 0.185051
0.315097 0.494677 0.218336
0.532761 0.307359 0.182954
0.647608 0.364818 0.200508
0.762205 0.413711 0.205737
0.874223 0.491799 0.251366
0.984657 0.671344 0.446279
0.128025 0.607142 0.535997
0.204305 0.608231 0.259770
0.275708 0.618523 0.154110
0.317046 0.619002 0.211738
0.430262 0.624822 0.236122
0.652360 0.343695 0.156955
0.763885 0.413047 0.189715
0.874198 0.511743 0.266573
0.984641 0.685076 0.457264
0.162691 0.736694 0.462209
0.238979 0.739299 0.191350
0.299374 0.743229 0.141961
0.347962 0.744811 0.209531
0.366792 0.746381 0.220980
0.648595 0.752604 0.302411
0.766265 0.392602 0.148156
0.874095 0.497561 0.230813
0.984004 0.691009 0.455091
0.250343 0.867399 0.431819
0.320116 0.869211 0.185146
0.369081 0.870697 0.190975
0.412490 0.871540 0.251604
0.432053 0.871478 0.278863
0.455864 0.872959 0.278887
0.842595 0.876852 0.402514
0.874004 0.480437 0.192680
0.981810 0.680258 0.424464
0.487263 1.000000 0.552668
0.537184 1.000000 0.374789
0.568607 1.000000 0.415294
0.599350 1.000000 0.458518
0.620175 1.000000 0.487649
0.626613 1.000000 0.493489
0.738253 1.000000 0.509079
0.976656 0.969786 0.566712
0.979623 0.669255 0.394360
0.000000 0.246393 0.369085
0.035222 0.196652 0.358087
0.211423 0.019327 0.348821
0.261679 0.000000 0.355391
0.371985 0.000000 0.432921
0.463902 0.000000 0.549422
0.565408 0.020243 0.677503
0.845776 0.237401 0.818473
0.984503 0.471803 0.868565
0.000000 0.254703 0.358316
0.055328 0.259019 0.338069
0.167915 0.174085 0.315792
0.254154 0.061116 0.299973
0.369100 0.081110 0.389207
0.468156 0.101606 0.513290
0.691409 0.213850 0.591639
0.829883 0.271372 0.598174
0.984672 0.498954 0.706968
0.000000 0.252033 0.360285
0.081307 0.263895 0.331900
0.173066 0.281464 0.323118
0.286083 0.180330 0.298339
0.381688 0.186493 0.368148
0.537029 0.228023 0.387013
0.659009 0.237203 0.373181
0.804717 0.295606 0.396292
0.984744 0.526167 0.559552
0.000000 0.247662 0.370440
0.050394 0.259670 0.338972
0.168948 0.280411 0.322214
0.388744 0.371028 0.363569
0.496494 0.331231 0.307083
0.587685 0.320609 0.289750
0.698207 0.333889 0.293461
0.830674 0.398480 0.343287
0.984680 0.605003 0.531004
0.000000 0.338660 0.483604
0.069032 0.352366 0.457725
0.176494 0.363870 0.432914
0.396100 0.497213 0.331330
0.534826 0.402967 0.320594
0.648918 0.451694 0.327168
0.762109 0.490221 0.321029
0.871185 0.549403 0.355858
0.984605 0.693140 0.527013
0.000000 0.429099 0.604689
0.077481 0.447340 0.584008
0.295073 0.592809 0.460418
0.390643 0.619846 0.309303
0.451072 0.625795 0.330436
0.652310 0.440912 0.295780
0.763755 0.506464 0.326890
0.874095 0.579267 0.371585
0.984573 0.731493 0.532842
0.000000 0.529508 0.730778
0.255554 0.726200 0.660312
0.337173 0.733816 0.395731
0.411415 0.744833 0.293311
0.460625 0.747325 0.343061
0.565698 0.751839 0.358415
0.766117 0.487152 0.282497
0.873952 0.579817 0.354853
0.983921 0.745352 0.542741
0.273745 0.864719 0.862784
0.339032 0.863925 0.617312
0.412551 0.867586 0.371770
0.470186 0.871770 0.327747
0.513274 0.871770 0.388020
0.539213 0.873567 0.386751
0.775734 0.877021 0.453156
0.873843 0.563653 0.314303
0.981713 0.736434 0.513765
0.505153 1.000000 0.864598
0.553182 1.000000 0.687522
0.605017 1.000000 0.508879
0.640378 1.000000 0.512827
0.671352 1.000000 0.556310
0.686144 1.000000 0.573879
0.705236 1.000000 0.553476
0.955982 1.000000 0.634914
0.979514 0.725731 0.482685
0.000000 0.327958 0.493118
0.009129 0.278042 0.483182
0.155251 0.157869 0.474478
0.332970 0.000000 0.469555
0.347749 0.000000 0.474703
0.465635 0.000000 0.546594
0.564347 0.000000 0.673617
0.683550 0.088985 0.819349
0.846956 0.374340 0.998814
0.000000 0.337746 0.483883
0.032342 0.345249 0.466543
0.132518 0.295906 0.454226
0.298947 0.122015 0.428614
0.346794 0.042998 0.424864
0.470523 0.071819 0.510019
0.576317 0.109770 0.645340
0.701614 0.203686 0.802847
0.979851 0.559983 0.999382
0.000000 0.340141 0.480402
0.071576 0.352900 0.457153
0.147091 0.357864 0.439309
0.263240 0.274437 0.418245
0.339869 0.151469 0.377142
0.473359 0.180578 0.476158
0.588621 0.225775 0.620193
0.823982 0.390218 0.734051
0.984451 0.592178 0.824294
0.000000 0.334779 0.484373
0.067752 0.349207 0.457252
0.171372 0.362681 0.434095
0.295058 0.410331 0.454721
0.419434 0.303837 0.426663
0.526000 0.314228 0.498141
0.681725 0.368053 0.518620
0.817244 0.422474 0.535315
0.984586 0.619018 0.667906
0.000000 0.329496 0.494694
0.024502 0.346459 0.468119
0.142087 0.359233 0.441152
0.290753 0.409384 0.453933
0.514045 0.500314 0.484224
0.626585 0.471040 0.422405
0.724362 0.469751 0.416672
0.841377 0.517672 0.454892
0.984567 0.685654 0.614331
0.000000 0.424956 0.609567
0.052133 0.443266 0.588886
0.166593 0.459498 0.568206
0.288951 0.487873 0.561279
0.520843 0.624484 0.451614
0.655630 0.537885 0.432565
0.765291 0.588883 0.448381
0.873875 0.646445 0.473469
0.984504 0.772044 0.609928
0.000000 0.524411 0.733902
0.080379 0.546554 0.719485
0.196116 0.567686 0.705068
0.420608 0.717906 0.590419
0.532015 0.748191 0.436327
0.585124 0.753655 0.450299
0.765971 0.579388 0.419103
0.873811 0.660816 0.479541
0.983844 0.791276 0.619215
0.059169 0.646115 0.863690
0.168357 0.670388 0.856195
0.420561 0.856072 0.798716
0.500050 0.863624 0.557626
0.570543 0.872064 0.463635
0.621959 0.874919 0.495738
0.706184 0.876399 0.503986
0.873681 0.644685 0.437878
0.981611 0.791855 0.604452
0.344915 0.823020 1.000000
0.566778 0.999170 1.000000
0.616808 1.000000 0.823068
0.671724 1.000000 0.643973
0.712354 1.000000 0.610463
0.744026 1.000000 0.651640
0.760913 1.000000 0.631610
0.909728 1.000000 0.674775
0.979404 0.780884 0.571934
0.000000 0.411000 0.618010
0.000000 0.361790 0.609838
0.096969 0.303185 0.602635
0.293693 0.096548 0.595891
0.421186 0.000000 0.598514
0.434346 0.000000 0.595578
0.559022 0.000000 0.676154
0.679609 0.060402 0.815704
0.840127 0.351545 0.998516
0.000000 0.422248 0.610641
0.009750 0.432716 0.596616
0.112781 0.383924 0.587265
0.256611 0.264643 0.572849
0.427292 0.079200 0.557053
0.441428 0.024246 0.554757
0.571062 0.080944 0.646924
0.697578 0.174560 0.798344
0.860261 0.445521 0.998702
0.000000 0.431245 0.603579
0.050894 0.442388 0.589113
0.131304 0.451243 0.575223
0.232192 0.403061 0.563869
0.396812 0.224382 0.526347
0.446203 0.146652 0.516863
0.583954 0.197566 0.621998
0.716318 0.288683 0.783504
0.880612 0.537957 0.998903
0.000000 0.425604 0.606647
0.067061 0.444291 0.585487
0.168771 0.459854 0.567586
0.244379 0.467826 0.553829
0.382991 0.397388 0.549943
0.475243 0.270783 0.511584
0.603792 0.314440 0.608940
0.732567 0.403546 0.767137
0.980859 0.683982 0.955553
0.000000 0.419155 0.611027
0.051699 0.438065 0.587799
0.165740 0.457480 0.568982
0.281131 0.484497 0.560170
0.422718 0.542020 0.588211
0.552299 0.436479 0.557122
0.663020 0.468286 0.641812
0.831599 0.557245 0.680459
0.981185 0.710367 0.775443
0.000000 0.412679 0.619611
0.000000 0.433940 0.598220
0.123392 0.451989 0.576183
0.238571 0.468268 0.554631
0.418418 0.541181 0.587570
0.636648 0.627585 0.605367
0.746622 0.612721 0.549830
0.852804 0.639237 0.566144
0.981233 0.766197 0.693790
0.000000 0.519497 0.737405
0.055533 0.542008 0.722988
0.171056 0.562171 0.707947
0.281897 0.581638 0.692613
0.428351 0.629820 0.704252
0.647644 0.750781 0.577932
0.766357 0.669602 0.555304
0.873475 0.732405 0.587026
0.981173 0.837591 0.692666
0.036529 0.640773 0.865564
0.145449 0.665101 0.858072
0.252937 0.688315 0.849821
0.358213 0.711379 0.841471
0.575979 0.853801 0.738346
0.682509 0.874946 0.581866
0.720820 0.877171 0.589995
0.873502 0.724343 0.561379
0.981159 0.847331 0.698482
0.328435 0.818198 1.000000
0.408094 0.839882 1.000000
0.488537 0.861987 1.000000
0.677048 1.000000 0.960188
0.734849 1.000000 0.779505
0.784563 1.000000 0.705575
0.815423 1.000000 0.712036
0.862838 1.000000 0.715499
0.979269 0.836151 0.665084
0.000000 0.502473 0.743978
0.000000 0.455687 0.738098
0.087602 0.410186 0.732780
0.253178 0.257070 0.727668
0.445119 0.056134 0.723345
0.517689 0.000000 0.729737
0.527716 0.000000 0.720623
0.669494 0.035246 0.822256
0.833655 0.328916 0.998197
0.000000 0.514784 0.738783
0.008981 0.527237 0.728188
0.110858 0.481337 0.722507
0.218976 0.424539 0.714914
0.410349 0.225667 0.702745
0.531392 0.080218 0.698869
0.542684 0.024549 0.690617
0.687728 0.148764 0.804698
0.853315 0.422829 0.998421
0.000000 0.526031 0.733012
0.050188 0.539345 0.723758
0.130589 0.549732 0.712398
0.231912 0.504247 0.705294
0.374328 0.387489 0.689715
0.543988 0.205679 0.670297
0.556214 0.152246 0.662149
0.706709 0.262817 0.789617
0.873080 0.516817 0.998649
0.000000 0.525475 0.732852
0.086578 0.548561 0.718474
0.169808 0.561404 0.708069
0.247617 0.571676 0.696896
0.349826 0.526948 0.689113
0.530121 0.355905 0.663924
0.565635 0.270028 0.632786
0.723617 0.375670 0.773816
0.893055 0.608159 0.998896
0.000000 0.519362 0.735017
0.074031 0.541790 0.719648
0.185507 0.564834 0.706117
0.283851 0.581951 0.692279
0.381023 0.609411 0.697174
0.525013 0.539629 0.695685
0.622999 0.416125 0.660444
0.758758 0.505570 0.784361
0.912554 0.697334 0.999160
0.000000 0.511759 0.739144
0.047993 0.535246 0.723121
0.171165 0.558270 0.707362
0.281475 0.579603 0.693518
0.420318 0.626701 0.703455
0.559151 0.677671 0.723587
0.687468 0.578451 0.693501
0.800655 0.640053 0.803484
0.977594 0.799990 0.902967
0.000000 0.504121 0.745357
0.000000 0.528660 0.729915
0.120315 0.550359 0.713317
0.239564 0.572795 0.698508
0.372851 0.608046 0.696255
0.554942 0.676937 0.723127
0.756704 0.752697 0.729548
0.862941 0.758295 0.696485
0.977814 0.845210 0.779137
0.013800 0.635433 0.867441
0.122821 0.659850 0.859674
0.229642 0.682173 0.851228
0.334968 0.705541 0.843348
0.440972 0.729935 0.836830
0.593119 0.781224 0.850492
0.778857 0.875792 0.717251
0.873425 0.801515 0.695687
0.977758 0.896833 0.782636
0.312018 0.813340 1.000000
0.391392 0.835137 1.000000
0.471139 0.856647 1.000000
0.550982 0.878598 1.000000
0.631117 0.900675 1.000000
0.797022 1.000000 0.915700
0.856569 1.000000 0.786041
0.873311 1.000000 0.791440
0.977797 0.891403 0.761631
0.000000 0.616496 0.871236
0.054278 0.575379 0.868097
0.147628 0.534856 0.865107
0.266527 0.451684 0.862389
0.443673 0.267477 0.859787
0.619418 0.084197 0.857714
0.635560 0.017640 0.863480
0.640769 0.000000 0.852734
0.824582 0.305544 0.998437
0.000042 0.628947 0.868505
0.076113 0.642747 0.862547
0.169233 0.602300 0.859766
0.262521 0.561667 0.856227
0.414955 0.423564 0.850800
0.591785 0.242342 0.845055
0.656630 0.142459 0.846781
0.661923 0.088926 0.835908
0.845814 0.401680 0.998639
0.038349 0.640716 0.865413
0.113877 0.655073 0.860228
0.188292 0.668174 0.854345
0.281923 0.627742 0.850618
0.382459 0.577575 0.846013
0.563246 0.396496 0.835786
0.678086 0.263410 0.831808
0.682085 0.210472 0.819392
0.866294 0.495183 0.998824
0.061330 0.647033 0.863692
0.151045 0.666951 0.857595
0.224796 0.679609 0.851538
0.298749 0.693621 0.846526
0.393808 0.653467 0.842078
0.531016 0.548242 0.831303
0.696726 0.379027 0.815243
0.701823 0.328696 0.803835
0.886743 0.585554 0.999025
0.049297 0.640974 0.864886
0.154675 0.665928 0.857048
0.257810 0.690416 0.849415
0.333911 0.704550 0.843435
0.407069 0.718191 0.838092
0.507816 0.679965 0.834453
0.697225 0.530726 0.827555
0.729731 0.452524 0.800071
0.906809 0.674705 0.999239
0.037138 0.634781 0.865987
0.142921 0.659205 0.857677
0.246914 0.684098 0.849887
0.348217 0.707984 0.842502
0.443802 0.731189 0.837188
0.550313 0.764460 0.846700
0.685779 0.699671 0.845900
0.777194 0.590711 0.819989
0.927112 0.762265 0.999470
0.000000 0.626184 0.868770
0.109527 0.652046 0.860397
0.223584 0.676792 0.851282
0.335739 0.702692 0.844026
0.441513 0.727969 0.837126
0.585944 0.778493 0.850065
0.709813 0.818676 0.860850
0.824392 0.731151 0.838567
0.947878 0.848937 0.999709
0.000000 0.617861 0.872098
0.062066 0.643926 0.863781
0.176458 0.668853 0.855166
0.288864 0.694185 0.847214
0.398879 0.718420 0.838709
0.542857 0.763583 0.846208
0.706031 0.818124 0.860604
0.874165 0.876558 0.859333
0.981331 0.922125 0.888631
0.291296 0.807124 1.000000
0.374838 0.830372 1.000000
0.453935 0.851422 1.000000
0.533357 0.873219 1.000000
0.612926 0.895221 1.000000
0.704755 0.920301 1.000000
0.811004 0.949255 1.000000
0.923766 1.000000 0.889877
0.981334 0.945294 0.878633
0.254815 0.791410 1.000000
0.321619 0.763431 1.000000
0.388980 0.735590 1.000000
0.456958 0.707883 1.000000
0.580992 0.584428 1.000000
0.709948 0.451591 1.000000
0.818843 0.332457 1.000000
0.810510 0.295990 1.000000
0.806552 0.255756 0.999174
0.282670 0.801762 1.000000
0.337710 0.814857 1.000000
0.405346 0.787003 1.000000
0.473516 0.759122 1.000000
0.561457 0.700396 1.000000
0.693932 0.568584 1.000000
0.825851 0.436614 1.000000
0.835193 0.388261 1.000000
0.829374 0.347496 0.999280
0.310343 0.811912 1.000000
0.365306 0.825038 1.000000
0.420386 0.838085 1.000000
0.489054 0.810305 1.000000
0.558908 0.782929 1.000000
0.675038 0.685094 1.000000
0.811590 0.554504 1.000000
0.859929 0.480844 1.000000
0.852218 0.442791 0.999374
0.337819 0.821867 1.000000
0.392748 0.835280 1.000000
0.447558 0.847979 1.000000
0.502841 0.861092 1.000000
0.573343 0.833779 1.000000
0.650311 0.799667 1.000000
0.793357 0.670927 1.000000
0.884409 0.573071 1.000000
0.875473 0.537585 0.999473
0.332267 0.818167 1.000000
0.409284 0.840757 1.000000
0.474722 0.857975 1.000000
0.529982 0.871324 1.000000
0.585736 0.884539 1.000000
0.658824 0.857700 1.000000
0.769190 0.785864 1.000000
0.909401 0.666142 1.000000
0.898375 0.631018 0.999579
0.323496 0.813150 1.000000
0.400619 0.835486 1.000000
0.477704 0.857820 1.000000
0.554305 0.880193 1.000000
0.612183 0.894323 1.000000
0.672098 0.908915 1.000000
0.755637 0.884336 1.000000
0.901551 0.775943 1.000000
0.921442 0.724141 0.999694
0.310921 0.807658 1.000000
0.391890 0.830164 1.000000
0.469493 0.852841 1.000000
0.546469 0.875497 1.000000
0.623077 0.897544 1.000000
0.706475 0.920919 1.000000
0.781325 0.939204 1.000000
0.881914 0.892292 1.000000
0.944562 0.816242 0.999814
0.276147 0.799657 1.000000
0.360468 0.822894 1.000000
0.444781 0.845865 1.000000
0.529207 0.869590 1.000000
0.613685 0.892635 1.000000
0.705126 0.918687 1.000000
0.806076 0.947470 1.000000
0.890479 0.969418 1.000000
0.967676 0.908077 0.999936
0.242886 0.792027 1.000000
0.325848 0.815096 1.000000
0.409811 0.838143 1.000000
0.493820 0.861059 1.000000
0.577801 0.884352 1.000000
0.664123 0.908289 1.000000
0.776120 0.938881 1.000000
0.887855 0.969160 1.000000
0.990785 1.000000 1.000000
