Zoran/Simplify palete - warm skin.cube
TITLE "Generated by 3D LUT Creator Pro (c) Oleg Sharonov"
LUT_3D_SIZE 25
#IMAGEPROFILE sRGB
#INPUTGAMMA sRGB
#OUTPUTGAMMA sRGB
0.000000 0.000000 0.000000
0.040790 0.006595 0.007352
0.085044 0.010294 0.009064
0.128556 0.011120 0.005616
0.172053 0.009550 0.000282
0.215434 0.006473 0.000331
0.258586 0.003015 0.000379
0.301421 0.000334 0.000432
0.343987 0.000000 0.000501
0.386303 0.000000 0.000575
0.428163 0.000000 0.000655
0.469575 0.000000 0.000739
0.510626 0.000000 0.000828
0.551349 0.000000 0.000921
0.591774 0.000000 0.001019
0.631966 0.000000 0.001120
0.672018 0.000000 0.001225
0.711850 0.000000 0.001334
0.751260 0.004475 0.001475
0.790190 0.019556 0.001650
0.829015 0.042874 0.001843
0.867797 0.085154 0.024400
0.906666 0.156462 0.095104
0.945718 0.249960 0.185158
0.985045 0.356623 0.287176
0.011990 0.040948 0.001716
0.042838 0.013570 0.003337
0.088449 0.030809 0.010880
0.133615 0.041152 0.004568
0.177135 0.046700 0.000403
0.217526 0.043455 0.000452
0.258891 0.039916 0.000504
0.300608 0.036581 0.000560
0.342458 0.033759 0.000622
0.384329 0.031567 0.000689
0.425941 0.029889 0.000763
0.467237 0.028362 0.000842
0.508221 0.026586 0.000926
0.548911 0.024964 0.001014
0.589366 0.023979 0.001108
0.629641 0.024287 0.001210
0.669821 0.026702 0.001323
0.709832 0.032238 0.001449
0.749455 0.042173 0.001592
0.788615 0.058114 0.001754
0.827690 0.081833 0.001935
0.866760 0.122761 0.020471
0.905937 0.191485 0.091724
0.945327 0.281735 0.182130
0.985014 0.385775 0.284553
0.020362 0.081903 0.000000
0.027962 0.080945 0.009459
0.090149 0.026659 0.000311
0.133616 0.045341 0.007854
0.178697 0.055895 0.001177
0.223555 0.063307 0.000510
0.268040 0.070253 0.000593
0.312076 0.077338 0.000680
0.352956 0.078741 0.000753
0.392055 0.075770 0.000816
0.431556 0.073590 0.000887
0.471247 0.071742 0.000965
0.511043 0.069686 0.001047
0.550861 0.067764 0.001134
0.590656 0.066525 0.001227
0.630434 0.066626 0.001327
0.670246 0.068888 0.001437
0.709988 0.074297 0.001558
0.749427 0.084013 0.001695
0.788474 0.099379 0.001851
0.827496 0.121930 0.002027
0.866562 0.161038 0.016565
0.905764 0.227011 0.088335
0.945213 0.313824 0.178957
0.984980 0.415246 0.281757
0.025437 0.122873 0.000000
0.036506 0.121914 0.006629
0.061185 0.118656 0.019109
0.136463 0.038108 0.000435
0.179194 0.055513 0.000446
0.223559 0.070039 0.000525
0.268044 0.077188 0.000609
0.312080 0.084399 0.000696
0.355705 0.092025 0.000788
0.398876 0.100196 0.000885
0.441376 0.108823 0.000989
0.483265 0.117589 0.001097
0.521330 0.116888 0.001180
0.559012 0.114337 0.001262
0.597078 0.112636 0.001351
0.635448 0.112337 0.001447
0.674109 0.114180 0.001553
0.712886 0.119080 0.001671
0.751527 0.128140 0.001804
0.789946 0.142651 0.001955
0.828476 0.164116 0.002125
0.867160 0.201511 0.014400
0.906072 0.264545 0.086666
0.945313 0.348048 0.177458
0.984944 0.446187 0.280263
0.027850 0.163866 0.000000
0.041702 0.162775 0.000000
0.044859 0.161991 0.003952
0.133018 0.154946 0.039163
0.182661 0.048025 0.000552
0.225063 0.064359 0.000565
0.268045 0.080045 0.000615
0.312083 0.091461 0.000713
0.355708 0.099170 0.000805
0.398878 0.107392 0.000902
0.441377 0.116051 0.001005
0.483265 0.124843 0.001113
0.524615 0.133354 0.001225
0.565430 0.141934 0.001340
0.605755 0.151082 0.001460
0.645408 0.160547 0.001583
0.682080 0.161468 0.001682
0.719147 0.165483 0.001794
0.756320 0.173606 0.001920
0.793544 0.187057 0.002065
0.831077 0.207279 0.002227
0.868926 0.242697 0.012171
0.907127 0.302669 0.085070
0.945770 0.383161 0.176030
0.984910 0.476997 0.278909
0.028560 0.204889 0.000000
0.042716 0.203335 0.000000
0.049528 0.203037 0.000000
0.051891 0.202217 0.000000
0.209827 0.193718 0.056576
0.228574 0.056928 0.000666
0.270522 0.073014 0.000685
0.312082 0.089310 0.000708
0.355710 0.105148 0.000819
0.398880 0.114591 0.000918
0.441379 0.123285 0.001022
0.483266 0.132103 0.001130
0.524615 0.140645 0.001241
0.565429 0.149251 0.001357
0.605753 0.158416 0.001477
0.645650 0.168702 0.001602
0.685177 0.180800 0.001733
0.724171 0.195528 0.001874
0.762426 0.213831 0.002026
0.799431 0.233094 0.002181
0.835419 0.251633 0.002333
0.871939 0.284775 0.009884
0.908979 0.341657 0.083547
0.946609 0.419040 0.174678
0.984879 0.507342 0.277562
0.028758 0.245949 0.000000
0.043100 0.243963 0.000000
0.053669 0.244122 0.000000
0.056121 0.243237 0.000000
0.108901 0.240449 0.012610
0.271122 0.217758 0.058242
0.273990 0.065631 0.000783
0.315447 0.081937 0.000809
0.356630 0.098663 0.000838
0.398881 0.115441 0.000920
0.441380 0.130523 0.001038
0.483266 0.139368 0.001146
0.524615 0.147943 0.001258
0.565428 0.156577 0.001373
0.605751 0.165759 0.001493
0.645647 0.176047 0.001618
0.685174 0.188125 0.001749
0.724167 0.202807 0.001889
0.762421 0.221011 0.002041
0.800082 0.243770 0.002205
0.837424 0.272306 0.002382
0.874496 0.314261 0.010951
0.911353 0.378387 0.082735
0.947859 0.455259 0.173406
0.984848 0.537554 0.276219
0.029230 0.287054 0.000000
0.043642 0.284667 0.000000
0.058007 0.285258 0.000000
0.060529 0.284401 0.000000
0.063042 0.283613 0.000000
0.182679 0.279379 0.031182
0.318371 0.229044 0.047975
0.318811 0.074639 0.000905
0.359857 0.091392 0.000938
0.400630 0.108642 0.000973
0.441379 0.126186 0.001028
0.483267 0.143310 0.001155
0.524614 0.155247 0.001274
0.565427 0.163910 0.001389
0.605750 0.173113 0.001509
0.645645 0.183403 0.001634
0.685171 0.195462 0.001765
0.724163 0.210094 0.001905
0.762416 0.228194 0.002056
0.800076 0.250813 0.002220
0.837418 0.279172 0.002396
0.874481 0.320851 0.017169
0.911345 0.384648 0.087412
0.948097 0.465826 0.176691
0.984832 0.553242 0.277738
0.030350 0.328212 0.000000
0.044739 0.325458 0.000000
0.060925 0.326217 0.000000
0.065463 0.325625 0.000000
0.068018 0.324783 0.000000
0.084501 0.323920 0.000045
0.259580 0.319750 0.049581
0.363900 0.240491 0.037305
0.363083 0.084166 0.001033
0.403691 0.101462 0.001073
0.443824 0.119131 0.001115
0.483640 0.136939 0.001158
0.524614 0.153960 0.001271
0.565426 0.171014 0.001405
0.605748 0.180474 0.001526
0.645643 0.190768 0.001650
0.685168 0.202811 0.001781
0.724159 0.217383 0.001920
0.762412 0.235381 0.002071
0.800071 0.257862 0.002234
0.837412 0.286047 0.002410
0.874471 0.327458 0.022762
0.911337 0.390924 0.092088
0.948090 0.471385 0.180854
0.984826 0.557995 0.281422
0.032229 0.369430 0.000000
0.046527 0.366349 0.000000
0.062780 0.367068 0.000000
0.071043 0.366918 0.000000
0.073631 0.366110 0.000000
0.076213 0.365365 0.000000
0.156862 0.363817 0.006070
0.337138 0.361604 0.067824
0.407460 0.252385 0.026478
0.406753 0.094299 0.001169
0.446677 0.112030 0.001215
0.486257 0.129807 0.001262
0.525630 0.147329 0.001309
0.565427 0.164696 0.001391
0.605747 0.182302 0.001530
0.645640 0.198148 0.001666
0.685165 0.210165 0.001797
0.724155 0.224671 0.001936
0.762407 0.242572 0.002086
0.800066 0.264919 0.002249
0.837406 0.292933 0.002423
0.874460 0.334080 0.028272
0.911328 0.397213 0.096762
0.948083 0.476928 0.185020
0.984820 0.562745 0.285107
0.034709 0.410715 0.000000
0.048875 0.407351 0.000000
0.065162 0.408031 0.000000
0.077148 0.408288 0.000000
0.079757 0.407515 0.000000
0.082358 0.406731 0.000000
0.084956 0.406099 0.000000
0.232544 0.405459 0.027112
0.413980 0.405456 0.085904
0.450113 0.264277 0.014683
0.449529 0.104922 0.001312
0.488874 0.122772 0.001364
0.527999 0.140256 0.001414
0.566936 0.157838 0.001465
0.605749 0.175989 0.001516
0.645641 0.194677 0.001659
0.685163 0.215117 0.001807
0.724151 0.231964 0.001951
0.762402 0.249764 0.002101
0.800060 0.271981 0.002263
0.837400 0.299829 0.002437
0.874451 0.340716 0.033709
0.911319 0.403512 0.101435
0.948075 0.482450 0.189188
0.984814 0.567491 0.288795
0.037365 0.452075 0.000000
0.051391 0.448476 0.000000
0.067703 0.449118 0.000000
0.083412 0.449743 0.000000
0.086040 0.449007 0.000000
0.088660 0.448262 0.000000
0.091277 0.447574 0.000000
0.133828 0.447329 0.000150
0.309398 0.448731 0.047052
0.484883 0.446427 0.100372
0.491952 0.276151 0.002088
0.491491 0.115708 0.001462
0.530368 0.133271 0.001517
0.569048 0.150815 0.001571
0.607600 0.168939 0.001626
0.646097 0.188161 0.001681
0.685165 0.208789 0.001794
0.724151 0.231627 0.001950
0.762397 0.256972 0.002116
0.800055 0.279053 0.002278
0.837394 0.306733 0.002450
0.874441 0.347368 0.039073
0.911311 0.409818 0.106107
0.948068 0.487951 0.193359
0.984808 0.572232 0.292484
0.039658 0.493518 0.000000
0.053668 0.489910 0.000000
0.069908 0.490341 0.000000
0.086368 0.490994 0.000000
0.092006 0.490596 0.000000
0.094648 0.489892 0.000000
0.097284 0.489179 0.000000
0.099916 0.488603 0.000000
0.207658 0.489917 0.004076
0.385982 0.492621 0.065832
0.528288 0.459407 0.091214
0.533050 0.287789 0.002239
0.532737 0.126236 0.001617
0.571160 0.143871 0.001675
0.609450 0.161964 0.001734
0.647689 0.181171 0.001793
0.685931 0.202116 0.001854
0.724155 0.225375 0.001937
0.762401 0.251464 0.002105
0.800053 0.281733 0.002283
0.837388 0.313656 0.002463
0.874432 0.354053 0.044362
0.911302 0.416124 0.110764
0.948061 0.493430 0.197530
0.984802 0.576968 0.296176
0.042035 0.535051 0.000000
0.056131 0.531635 0.000000
0.072190 0.531710 0.000000
0.088672 0.532316 0.000000
0.098053 0.532287 0.000000
0.100714 0.531627 0.000000
0.103371 0.530959 0.000000
0.106023 0.530340 0.000000
0.111485 0.529858 0.000000
0.283252 0.533066 0.024962
0.461278 0.536422 0.084105
0.570572 0.472243 0.082100
0.573436 0.299423 0.002395
0.573272 0.136858 0.001776
0.611302 0.155061 0.001839
0.649281 0.174250 0.001903
0.687269 0.195198 0.001967
0.725079 0.218610 0.002036
0.762518 0.245222 0.002111
0.800057 0.275648 0.002271
0.837391 0.311298 0.002459
0.874425 0.359452 0.047701
0.911294 0.422437 0.115412
0.948055 0.498903 0.201688
0.984796 0.581696 0.299858
0.045127 0.576682 0.000000
0.059280 0.573478 0.000000
0.075144 0.573239 0.000000
0.091627 0.573797 0.000000
0.104739 0.574091 0.000000
0.107414 0.573477 0.000000
0.110085 0.572856 0.000000
0.112752 0.572228 0.000000
0.115414 0.571719 0.000000
0.184540 0.572736 0.000256
0.359770 0.576599 0.045342
0.534832 0.580310 0.102649
0.611810 0.485040 0.073568
0.613173 0.311395 0.002557
0.613153 0.148071 0.001942
0.650873 0.167395 0.002010
0.688608 0.188343 0.002079
0.726158 0.211799 0.002152
0.763319 0.238502 0.002232
0.800281 0.269374 0.002317
0.837396 0.305368 0.002447
0.874437 0.353658 0.034742
0.911294 0.422963 0.112203
0.948048 0.504380 0.205848
0.984790 0.586423 0.303536
0.049641 0.618417 0.000000
0.063806 0.615447 0.000000
0.079444 0.614939 0.000000
0.095892 0.615449 0.000000
0.112426 0.615992 0.000000
0.115375 0.615449 0.000000
0.118053 0.614877 0.000000
0.120727 0.614300 0.000000
0.123399 0.613763 0.000000
0.126060 0.613311 0.000000
0.260419 0.616184 0.005036
0.436095 0.620217 0.066271
0.606355 0.624020 0.122053
0.652109 0.498022 0.066251
0.652350 0.324147 0.002724
0.652465 0.160434 0.002116
0.689947 0.181547 0.002189
0.727237 0.205036 0.002266
0.764120 0.231828 0.002351
0.800796 0.262820 0.002441
0.837569 0.299120 0.002537
0.874452 0.347937 0.021392
0.911303 0.417530 0.100787
0.948054 0.500901 0.197432
0.984788 0.588827 0.303882
0.056423 0.660265 0.000000
0.070543 0.657549 0.000000
0.085910 0.656823 0.000000
0.102272 0.657283 0.000000
0.118710 0.657772 0.000000
0.125354 0.657551 0.000000
0.128028 0.657032 0.000000
0.130700 0.656508 0.000000
0.133369 0.655979 0.000000
0.136033 0.655548 0.000000
0.167070 0.655719 0.000084
0.338172 0.659707 0.030153
0.511341 0.663632 0.088537
0.675771 0.667287 0.142945
0.690841 0.511645 0.060832
0.691072 0.338230 0.002898
0.691286 0.174628 0.002297
0.728317 0.198317 0.002379
0.764921 0.225198 0.002468
0.801312 0.256309 0.002564
0.837809 0.292766 0.002665
0.874450 0.341857 0.006531
0.911232 0.412071 0.089404
0.948062 0.496200 0.187244
0.984795 0.584754 0.294872
0.066464 0.702233 0.000000
0.080471 0.699790 0.000000
0.095503 0.698903 0.000000
0.111713 0.699312 0.000000
0.127990 0.699745 0.000000
0.138240 0.699791 0.000000
0.140897 0.699327 0.000000
0.143553 0.698859 0.000000
0.146207 0.698387 0.000000
0.148858 0.697945 0.000000
0.151499 0.697575 0.000000
0.245747 0.699276 0.000371
0.416905 0.703037 0.056982
0.585038 0.706593 0.113059
0.724066 0.689575 0.147814
0.728677 0.526421 0.058461
0.729080 0.354394 0.003079
0.729397 0.191461 0.002489
0.765723 0.218607 0.002584
0.801828 0.249839 0.002685
0.838050 0.286449 0.002791
0.874436 0.335807 0.002914
0.910961 0.406466 0.078137
0.947775 0.491538 0.176897
0.984802 0.580704 0.285870
0.080899 0.744328 0.000000
0.094711 0.742179 0.000000
0.109336 0.741192 0.000000
0.125310 0.741548 0.000000
0.141343 0.741924 0.000000
0.155052 0.742177 0.000000
0.157678 0.741771 0.000000
0.160302 0.741361 0.000000
0.162926 0.740948 0.000000
0.165547 0.740532 0.000000
0.168163 0.740190 0.000000
0.170768 0.739864 0.000000
0.327279 0.742790 0.029233
0.495368 0.746097 0.086742
0.656851 0.749192 0.140652
0.762449 0.703365 0.148278
0.765504 0.542972 0.060406
0.766083 0.373610 0.003271
0.766525 0.211863 0.002698
0.802345 0.243401 0.002805
0.838291 0.280169 0.002917
0.874415 0.329783 0.003046
0.910691 0.400864 0.066974
0.947268 0.486890 0.166506
0.984183 0.576816 0.276285
0.101009 0.786559 0.000000
0.114535 0.784721 0.000000
0.128666 0.783701 0.000000
0.144305 0.784003 0.000000
0.159995 0.784321 0.000000
0.175742 0.784655 0.000000
0.179520 0.784372 0.000000
0.182096 0.784023 0.000000
0.184671 0.783672 0.000000
0.187246 0.783318 0.000000
0.189818 0.782985 0.000000
0.192381 0.782709 0.000000
0.247159 0.783270 0.008300
0.410738 0.786118 0.066194
0.572853 0.788896 0.120632
0.726245 0.791496 0.172215
0.799629 0.718467 0.153773
0.801536 0.562007 0.067975
0.802282 0.396840 0.003474
0.802862 0.236808 0.002922
0.838533 0.273914 0.003041
0.874393 0.323788 0.003178
0.910423 0.395267 0.055832
0.946761 0.482233 0.156233
0.983460 0.572962 0.266685
0.128219 0.828932 0.000000
0.141361 0.827424 0.000000
0.154905 0.826444 0.000000
0.170092 0.826690 0.000000
0.185324 0.826948 0.000000
0.200605 0.827218 0.000000
0.207711 0.827137 0.000000
0.210220 0.826852 0.000000
0.212728 0.826566 0.000000
0.215236 0.826277 0.001731
0.217744 0.825986 0.005321
0.220245 0.825745 0.008907
0.222736 0.825518 0.012482
0.336051 0.826931 0.054173
0.494861 0.829238 0.108410
0.648809 0.831450 0.159706
0.791830 0.833551 0.208787
0.836009 0.735533 0.165684
0.837186 0.584335 0.082583
0.838068 0.425079 0.003685
0.838775 0.267502 0.003163
0.874373 0.317807 0.003308
0.910157 0.389676 0.044593
0.946256 0.477563 0.146075
0.982737 0.569114 0.257175
0.171821 0.871455 0.000000
0.184321 0.870297 0.000000
0.197031 0.869433 0.000000
0.211477 0.869621 0.000000
0.225961 0.869817 0.000000
0.240486 0.870022 0.019840
0.250506 0.870075 0.033682
0.252898 0.869857 0.037083
0.255290 0.869638 0.040486
0.257682 0.869417 0.043889
0.260074 0.869194 0.047294
0.262465 0.868984 0.050701
0.264845 0.868811 0.054101
0.282225 0.868752 0.062747
0.432692 0.870428 0.115044
0.581951 0.872155 0.164556
0.724252 0.873807 0.211784
0.854243 0.875411 0.257576
0.871723 0.756655 0.192113
0.872550 0.613870 0.113286
0.873489 0.464087 0.032380
0.874352 0.311669 0.003436
0.909894 0.384077 0.033161
0.945751 0.472879 0.136030
0.982015 0.565273 0.247756
0.241237 0.914136 0.002503
0.252723 0.913345 0.018863
0.264243 0.912681 0.035247
0.277508 0.912808 0.053706
0.290805 0.912940 0.072156
0.304135 0.913079 0.090599
0.316326 0.913193 0.107423
0.318529 0.913045 0.110536
0.320733 0.912895 0.113651
0.322937 0.912745 0.116769
0.325142 0.912594 0.119887
0.327347 0.912442 0.123007
0.329545 0.912316 0.126129
0.331735 0.912197 0.129243
0.400292 0.912595 0.154092
0.538437 0.913759 0.199440
0.672621 0.914911 0.242661
0.797841 0.916034 0.284513
0.907520 0.911159 0.319785
0.906904 0.784823 0.242069
0.907725 0.654953 0.169573
0.908708 0.519097 0.097164
0.909636 0.378313 0.021183
0.945247 0.468160 0.126124
0.981293 0.561437 0.238429
0.329407 0.956982 0.106754
0.339707 0.956577 0.121314
0.349898 0.956199 0.135736
0.361727 0.956263 0.152218
0.373582 0.956330 0.168694
0.385464 0.956401 0.185160
0.397373 0.956474 0.201617
0.400973 0.956423 0.206622
0.402955 0.956347 0.209402
0.404937 0.956270 0.212184
0.406919 0.956193 0.214968
0.408903 0.956116 0.217753
0.410885 0.956042 0.220541
0.412857 0.955982 0.223326
0.414823 0.955921 0.226105
0.523210 0.956369 0.261335
0.644764 0.956965 0.299112
0.760386 0.957572 0.335528
0.867067 0.958192 0.371201
0.943482 0.932597 0.381509
0.941781 0.819981 0.310813
0.942820 0.705071 0.245925
0.943820 0.586105 0.181109
0.944744 0.463265 0.116176
0.980573 0.557584 0.229223
0.427258 1.000000 0.224058
0.436394 1.000000 0.236840
0.445438 1.000000 0.249513
0.455653 1.000000 0.263775
0.466004 1.000000 0.278186
0.476374 1.000000 0.292588
0.486764 1.000000 0.306979
0.492249 1.000000 0.314567
0.494011 1.000000 0.317014
0.495773 1.000000 0.319462
0.497537 1.000000 0.321913
0.499302 1.000000 0.324366
0.501068 1.000000 0.326821
0.502823 1.000000 0.329274
0.504569 1.000000 0.331723
0.534001 1.000000 0.342551
0.641441 1.000000 0.374291
0.744738 1.000000 0.404713
0.840981 1.000000 0.434439
0.930562 1.000000 0.463820
0.979125 0.959309 0.453895
0.976885 0.860671 0.391335
0.977948 0.760840 0.334375
0.978930 0.658951 0.277219
0.979852 0.553599 0.219978
0.003268 0.030368 0.040903
0.030530 0.002999 0.043244
0.061953 0.010784 0.076923
0.115470 0.021071 0.081456
0.153938 0.016236 0.070140
0.193087 0.009862 0.056059
0.232615 0.003116 0.039937
0.272351 0.000000 0.022461
0.316943 0.000000 0.014207
0.361431 0.000000 0.006735
0.405422 0.000000 0.000611
0.448782 0.000000 0.000696
0.491647 0.000000 0.000786
0.534121 0.000000 0.000881
0.576230 0.000000 0.000981
0.617981 0.000000 0.001085
0.659508 0.000000 0.001192
0.700881 0.000000 0.001304
0.741887 0.000418 0.001424
0.782376 0.013796 0.001606
0.822681 0.036731 0.022602
0.863007 0.078885 0.062450
0.903439 0.150504 0.128421
0.944078 0.244638 0.215051
0.985040 0.352250 0.314039
0.002677 0.030530 0.041078
0.042190 0.038068 0.044343
0.069392 0.032175 0.040416
0.096280 0.031159 0.036916
0.139418 0.033501 0.035990
0.183650 0.033359 0.031961
0.227859 0.031793 0.026134
0.271903 0.029770 0.019361
0.315741 0.027825 0.011716
0.359414 0.026224 0.004111
0.402859 0.024961 0.000703
0.445876 0.023746 0.000784
0.488543 0.022151 0.000868
0.530937 0.020567 0.000958
0.573061 0.019560 0.001054
0.614975 0.019780 0.001158
0.656762 0.022038 0.001274
0.698436 0.027350 0.001403
0.739775 0.037003 0.001549
0.780594 0.052632 0.001715
0.821230 0.076143 0.019538
0.861899 0.117076 0.059526
0.902685 0.185976 0.125580
0.943685 0.276753 0.212369
0.985009 0.381592 0.311619
0.011034 0.060263 0.078486
0.051075 0.082030 0.040110
0.090177 0.048733 0.047695
0.133643 0.067603 0.050124
0.178706 0.077610 0.043909
0.219469 0.081681 0.035062
0.252984 0.075920 0.026347
0.290172 0.072072 0.018094
0.329303 0.069323 0.009540
0.369575 0.067388 0.001524
0.410418 0.066023 0.000828
0.451457 0.064831 0.000907
0.492605 0.063295 0.000991
0.533815 0.061812 0.001080
0.575018 0.060931 0.001175
0.616218 0.061310 0.001278
0.657459 0.063780 0.001391
0.698722 0.069357 0.001515
0.739765 0.079210 0.001655
0.780391 0.094703 0.001815
0.820929 0.117381 0.017380
0.861570 0.156698 0.057646
0.902395 0.223010 0.123848
0.943497 0.310415 0.210802
0.984973 0.412601 0.310254
0.036818 0.120010 0.080228
0.057395 0.122461 0.034320
0.067572 0.119987 0.048076
0.136482 0.062326 0.042982
0.179209 0.081852 0.046551
0.223564 0.092683 0.040784
0.268039 0.100439 0.030889
0.312070 0.108023 0.020510
0.355703 0.115864 0.008751
0.394056 0.117148 0.000915
0.429661 0.113714 0.000976
0.466708 0.111233 0.001047
0.504742 0.108964 0.001124
0.543457 0.107054 0.001208
0.582647 0.105916 0.001299
0.622210 0.106041 0.001399
0.662117 0.108240 0.001508
0.702264 0.113441 0.001628
0.742373 0.122763 0.001764
0.782249 0.137518 0.001920
0.822201 0.159220 0.015152
0.862371 0.196921 0.055840
0.902832 0.260409 0.122225
0.943658 0.344555 0.209323
0.984937 0.443686 0.308891
0.041363 0.160995 0.056623
0.061194 0.163267 0.024917
0.073687 0.163916 0.042205
0.104411 0.155052 0.057162
0.182668 0.073952 0.034425
0.225067 0.091838 0.036221
0.268046 0.107433 0.036835
0.312074 0.115198 0.026827
0.355697 0.123149 0.016528
0.398879 0.131509 0.005271
0.441382 0.140254 0.001060
0.483267 0.149116 0.001168
0.524614 0.157720 0.001280
0.560653 0.156511 0.001361
0.596568 0.154081 0.001444
0.633440 0.153287 0.001536
0.671117 0.154726 0.001638
0.709348 0.159210 0.001752
0.747812 0.167715 0.001882
0.786329 0.181509 0.002030
0.825163 0.202065 0.012862
0.864383 0.237908 0.054105
0.904044 0.298403 0.120711
0.944190 0.379556 0.207931
0.984902 0.474525 0.307535
0.044050 0.201781 0.028352
0.062828 0.203648 0.012808
0.078526 0.205116 0.034253
0.081648 0.204152 0.038904
0.179654 0.193885 0.074551
0.228571 0.084082 0.022766
0.270517 0.101255 0.024235
0.312075 0.118219 0.026278
0.355698 0.130424 0.023335
0.398870 0.138847 0.013287
0.441380 0.147610 0.002627
0.483267 0.156483 0.001185
0.524614 0.165102 0.001296
0.565426 0.173786 0.001411
0.605747 0.183000 0.001531
0.645642 0.193289 0.001656
0.684853 0.204465 0.001784
0.720269 0.207482 0.001888
0.756299 0.214666 0.002009
0.792803 0.227115 0.002148
0.829942 0.246147 0.010488
0.867694 0.279808 0.052439
0.906083 0.337269 0.119309
0.945118 0.415385 0.206633
0.984871 0.504894 0.306185
0.046090 0.242512 0.000000
0.063571 0.243850 0.000000
0.079900 0.245968 0.021572
0.086770 0.245616 0.031323
0.090963 0.241244 0.036443
0.257895 0.234248 0.090895
0.274003 0.093595 0.006378
0.315450 0.110660 0.009542
0.356625 0.127931 0.013556
0.398867 0.145013 0.018473
0.441369 0.154988 0.010768
0.483267 0.163880 0.001201
0.524613 0.172514 0.001313
0.565424 0.181212 0.001428
0.605745 0.190432 0.001547
0.645639 0.200713 0.001672
0.685164 0.212711 0.001802
0.724154 0.227187 0.001941
0.762405 0.245051 0.002091
0.800064 0.267354 0.002254
0.836677 0.291686 0.007940
0.872397 0.322889 0.050753
0.909005 0.377406 0.117969
0.946471 0.451566 0.205415
0.984841 0.535112 0.304841
0.048274 0.283256 0.000000
0.064340 0.284144 0.000000
0.080902 0.286355 0.008577
0.091827 0.287076 0.023622
0.094119 0.286067 0.027180
0.152571 0.280055 0.050968
0.318550 0.258510 0.092548
0.318829 0.103088 0.000992
0.359871 0.120414 0.001016
0.400639 0.138099 0.001045
0.441377 0.155918 0.005694
0.483256 0.171297 0.008443
0.524613 0.179956 0.001329
0.565423 0.188666 0.001444
0.605743 0.197892 0.001563
0.645636 0.208164 0.001688
0.685161 0.220115 0.001818
0.724150 0.234516 0.001957
0.762400 0.252275 0.002107
0.800058 0.274439 0.002268
0.837376 0.302212 0.014066
0.874439 0.343036 0.053489
0.911312 0.405723 0.118899
0.948069 0.484385 0.204804
0.984811 0.565069 0.303436
0.049590 0.324098 0.000000
0.065631 0.324783 0.000000
0.082197 0.326670 0.000000
0.097221 0.328528 0.016359
0.099554 0.327600 0.019974
0.102245 0.326170 0.023841
0.228946 0.320359 0.068974
0.363922 0.270198 0.082983
0.363099 0.112911 0.001121
0.403702 0.130644 0.001153
0.443830 0.148682 0.001188
0.483641 0.166771 0.001226
0.524612 0.184025 0.001338
0.565422 0.196151 0.001460
0.605741 0.205381 0.001579
0.645634 0.215631 0.001704
0.685157 0.227535 0.001834
0.724146 0.241863 0.001972
0.762395 0.259517 0.002122
0.800053 0.281543 0.002283
0.837364 0.309143 0.020186
0.874430 0.349714 0.058650
0.911304 0.412038 0.123544
0.948062 0.489880 0.208965
0.984802 0.573899 0.306286
0.051444 0.365044 0.000000
0.067573 0.365701 0.000000
0.084058 0.367112 0.000000
0.100887 0.369237 0.006912
0.105418 0.368945 0.013383
0.107839 0.368221 0.017055
0.127027 0.365063 0.027266
0.306385 0.361914 0.086852
0.407365 0.282238 0.073569
0.406764 0.123258 0.001257
0.446683 0.141301 0.001296
0.486259 0.159431 0.001337
0.525628 0.177264 0.001379
0.565422 0.194876 0.001457
0.605739 0.212645 0.001595
0.645631 0.223116 0.001720
0.685154 0.234973 0.001849
0.724142 0.249228 0.001987
0.762390 0.266779 0.002136
0.800045 0.288668 0.003221
0.837353 0.316100 0.025999
0.874422 0.356438 0.063779
0.911295 0.418365 0.128187
0.948055 0.495367 0.213129
0.984796 0.578638 0.309965
0.053838 0.406103 0.000000
0.070017 0.406731 0.000000
0.086408 0.407695 0.000000
0.103220 0.409713 0.000000
0.111649 0.410176 0.007314
0.114123 0.409497 0.011043
0.116566 0.408804 0.014736
0.202190 0.406326 0.047371
0.383515 0.405537 0.104757
