Zoran/Skin Warm.cube
TITLE "Generated by 3D LUT Creator Pro (c) Oleg Sharonov"
LUT_3D_SIZE 9
#IMAGEPROFILE sRGB
#INPUTGAMMA sRGB
#OUTPUTGAMMA sRGB
0.000000 0.000000 0.000000
0.133587 0.000000 0.000000
0.267778 0.000000 0.000000
0.400553 0.000000 0.000000
0.530402 0.000000 0.000000
0.655200 0.000000 0.000000
0.773599 0.000000 0.000000
0.888140 0.000000 0.000000
1.000000 0.000000 0.000000
0.000000 0.125000 0.000000
0.136174 0.091594 0.003903
0.267985 0.102748 0.000000
0.400925 0.101756 0.000000
0.530684 0.100586 0.000000
0.655430 0.099053 0.000000
0.773782 0.097729 0.000000
0.888272 0.096604 0.000000
1.000000 0.097048 0.000000
0.000000 0.250000 0.000000
0.125000 0.250000 0.000000
0.274943 0.223172 0.003743
0.400639 0.232321 0.000000
0.530754 0.231433 0.000000
0.655542 0.230471 0.000000
0.773852 0.229650 0.000000
0.888325 0.228953 0.000000
1.000000 0.229305 0.000000
0.000000 0.375000 0.000000
0.125000 0.375000 0.000000
0.263588 0.371749 0.000000
0.411359 0.367225 0.003976
0.531980 0.369988 0.000000
0.655371 0.369644 0.000000
0.773820 0.368920 0.000000
0.888366 0.368286 0.000000
1.000000 0.368323 0.000000
0.000000 0.500000 0.000000
0.125000 0.500000 0.000000
0.250000 0.500000 0.000000
0.404317 0.510499 0.000000
0.543255 0.511778 0.001891
0.658937 0.509625 0.000000
0.773524 0.507993 0.000000
0.888293 0.507380 0.000000
1.000000 0.507121 0.000000
0.000000 0.625000 0.000000
0.125000 0.625000 0.000000
0.250000 0.625000 0.000000
0.386339 0.631781 0.000000
0.540596 0.644009 0.000000
0.667835 0.644413 0.000000
0.777556 0.641111 0.000000
0.888086 0.638072 0.000000
1.000000 0.637617 0.000000
0.000000 0.750000 0.000000
0.125000 0.750000 0.000000
0.250000 0.750000 0.000000
0.375000 0.750000 0.000000
0.522982 0.758939 0.000000
0.668581 0.766072 0.000000
0.783234 0.765197 0.000000
0.890778 0.762917 0.000000
1.000000 0.760594 0.000000
0.000000 0.875000 0.000000
0.125000 0.875000 0.000000
0.250000 0.875000 0.000000
0.375000 0.875000 0.000000
0.509370 0.877325 0.000000
0.654351 0.882055 0.000000
0.785375 0.885351 0.000000
0.893326 0.884315 0.000000
1.000000 0.882636 0.000000
0.000000 1.000000 0.000000
0.125000 1.000000 0.000000
0.250000 1.000000 0.000000
0.375000 1.000000 0.000000
0.500000 1.000000 0.000000
0.641660 1.000000 0.000000
0.775950 1.000000 0.000000
0.894605 1.000000 0.000000
1.000000 1.000000 0.000000
0.000000 0.000000 0.125000
0.132993 0.000000 0.101627
0.267905 0.000000 0.099968
0.400944 0.000000 0.099098
0.530743 0.000000 0.098107
0.655475 0.000000 0.096866
0.773798 0.000000 0.095646
0.888303 0.000000 0.094712
1.000000 0.000000 0.095051
0.000000 0.125000 0.125000
0.133193 0.104378 0.101612
0.267509 0.103262 0.100213
0.401133 0.101715 0.098950
0.530941 0.100161 0.097689
0.655674 0.098614 0.096442
0.773960 0.097080 0.095215
0.888434 0.095940 0.094275
1.000000 0.096587 0.094614
0.000000 0.250000 0.125000
0.125000 0.250000 0.125000
0.270304 0.218478 0.101586
0.400425 0.232555 0.099283
0.530848 0.231555 0.097086
0.655700 0.230481 0.095411
0.774006 0.229548 0.094021
0.888468 0.228845 0.092918
1.000000 0.229094 0.093267
0.000000 0.375000 0.125000
0.125000 0.375000 0.125000
0.263766 0.371589 0.104636
0.408261 0.363881 0.103067
0.531870 0.370192 0.096276
0.655416 0.369820 0.094592
0.773930 0.369018 0.092162
0.888473 0.368376 0.090721
1.000000 0.368348 0.091238
0.000000 0.500000 0.125000
0.125000 0.500000 0.125000
0.250000 0.500000 0.125000
0.404488 0.510406 0.093019
0.541989 0.510437 0.097889
0.658866 0.509832 0.091811
0.773571 0.508152 0.091009
0.888381 0.507525 0.088126
1.000000 0.507222 0.088197
0.000000 0.625000 0.125000
0.125000 0.625000 0.125000
0.250000 0.625000 0.125000
0.386401 0.631806 0.110725
0.540779 0.643933 0.085066
0.667720 0.644309 0.088950
0.777519 0.641204 0.085717
0.888122 0.638130 0.085800
1.000000 0.637671 0.084524
0.000000 0.750000 0.125000
0.125000 0.750000 0.125000
0.250000 0.750000 0.125000
0.375000 0.750000 0.125000
0.523074 0.758998 0.098073
0.668682 0.766059 0.076090
0.783197 0.765195 0.080321
0.890801 0.762990 0.074896
1.000000 0.760668 0.077925
0.000000 0.875000 0.125000
0.125000 0.875000 0.125000
0.250000 0.875000 0.125000
0.375000 0.875000 0.125000
0.509405 0.877366 0.112810
0.654403 0.882122 0.084951
0.785431 0.885422 0.061429
0.893348 0.884375 0.062094
1.000000 0.882735 0.063604
0.000000 1.000000 0.125000
0.125000 1.000000 0.125000
0.250000 1.000000 0.125000
0.375000 1.000000 0.125000
0.500000 1.000000 0.125000
0.641688 1.000000 0.101096
0.776007 1.000000 0.072604
0.894690 1.000000 0.046237
1.000000 1.000000 0.052588
0.000000 0.000000 0.250000
0.125000 0.000000 0.250000
0.266754 0.000000 0.208342
0.411044 0.000000 0.188234
0.530938 0.000000 0.205161
0.655753 0.000000 0.204322
0.774076 0.000000 0.203522
0.888556 0.000000 0.202896
1.000000 0.000000 0.202957
0.000000 0.125000 0.250000
0.125000 0.125000 0.250000
0.264629 0.112102 0.206678
0.410626 0.094063 0.188308
0.531014 0.099706 0.205215
0.655895 0.097564 0.204225
0.774196 0.095608 0.203349
0.888671 0.094240 0.202721
1.000000 0.094897 0.202780
0.000000 0.250000 0.250000
0.125000 0.250000 0.250000
0.266881 0.233663 0.208205
0.402612 0.232368 0.192920
0.530479 0.231970 0.205166
0.655755 0.230380 0.203874
0.774162 0.229133 0.202843
0.888673 0.228322 0.202136
1.000000 0.228569 0.202195
0.000000 0.375000 0.250000
0.125000 0.375000 0.250000
0.267537 0.366654 0.217789
0.406103 0.361568 0.199614
0.530016 0.370730 0.205440
0.655194 0.370133 0.203843
0.773966 0.369069 0.202123
0.888616 0.368228 0.201104
1.000000 0.368196 0.201086
0.000000 0.500000 0.250000
0.125000 0.500000 0.250000
0.250000 0.500000 0.250000
0.404991 0.508184 0.200426
0.536064 0.503958 0.212060
0.658288 0.509922 0.199115
0.773446 0.508333 0.201940
0.888430 0.507580 0.199911
1.000000 0.507230 0.199659
0.000000 0.625000 0.250000
0.125000 0.625000 0.250000
0.250000 0.625000 0.250000
0.386517 0.631705 0.228355
0.540826 0.643236 0.188802
0.664757 0.641280 0.201408
0.777219 0.641187 0.193963
0.888110 0.638215 0.199159
1.000000 0.637729 0.198040
0.000000 0.750000 0.250000
0.125000 0.750000 0.250000
0.250000 0.750000 0.250000
0.375000 0.750000 0.250000
0.523173 0.758918 0.211947
0.668646 0.765706 0.180247
0.782878 0.764900 0.183771
0.890709 0.763042 0.186699
1.000000 0.760767 0.193143
0.000000 0.875000 0.250000
0.125000 0.875000 0.250000
0.250000 0.875000 0.250000
0.375000 0.875000 0.250000
0.509409 0.877398 0.233454
0.654476 0.882154 0.198078
0.785440 0.885364 0.169701
0.893289 0.884378 0.173129
1.000000 0.882842 0.179793
0.000000 1.000000 0.250000
0.125000 1.000000 0.250000
0.250000 1.000000 0.250000
0.375000 1.000000 0.250000
0.500000 1.000000 0.250000
0.641714 1.000000 0.219332
0.776068 1.000000 0.186735
0.894746 1.000000 0.159942
1.000000 1.000000 0.167676
0.000000 0.000000 0.375000
0.125000 0.000000 0.375000
0.250000 0.000000 0.375000
0.399209 0.000000 0.327719
0.548608 0.000000 0.295050
0.663025 0.000000 0.312417
0.774176 0.000000 0.323796
0.888745 0.000000 0.323139
1.000000 0.000000 0.323040
0.000000 0.125000 0.375000
0.125000 0.125000 0.375000
0.250000 0.125000 0.375000
0.399039 0.105063 0.327533
0.548212 0.088992 0.295178
0.663026 0.090474 0.312512
0.774255 0.093595 0.323870
0.888844 0.091347 0.323155
1.000000 0.092021 0.323055
0.000000 0.250000 0.375000
0.125000 0.250000 0.375000
0.250000 0.250000 0.375000
0.395064 0.246863 0.323870
0.542831 0.233586 0.295999
0.662505 0.226429 0.312539
0.774077 0.228612 0.323671
0.888782 0.227159 0.322844
1.000000 0.227191 0.322687
0.000000 0.375000 0.375000
0.125000 0.375000 0.375000
0.250000 0.375000 0.375000
0.399124 0.370973 0.327514
0.533919 0.379372 0.304196
0.661216 0.370126 0.313179
0.773657 0.369146 0.323520
0.888610 0.367832 0.322355
1.000000 0.367527 0.322029
0.000000 0.500000 0.375000
0.125000 0.500000 0.375000
0.250000 0.500000 0.375000
0.405051 0.499146 0.332913
0.541103 0.506679 0.312422
0.654399 0.511940 0.324700
0.772872 0.508536 0.323928
0.888296 0.507474 0.321809
1.000000 0.506944 0.321143
0.000000 0.625000 0.375000
0.125000 0.625000 0.375000
0.250000 0.625000 0.375000
0.386898 0.631221 0.351651
0.541951 0.635609 0.319209
0.658622 0.634969 0.336411
0.776158 0.641007 0.316485
0.887832 0.638128 0.321659
1.000000 0.637557 0.320197
0.000000 0.750000 0.375000
0.125000 0.750000 0.375000
0.250000 0.750000 0.375000
0.375000 0.750000 0.375000
0.523283 0.758459 0.334567
0.668410 0.764340 0.302164
0.780129 0.761994 0.315472
0.890281 0.762841 0.309436
1.000000 0.760645 0.315820
0.000000 0.875000 0.375000
0.125000 0.875000 0.375000
0.250000 0.875000 0.375000
0.375000 0.875000 0.375000
0.509362 0.877366 0.357431
0.654377 0.881892 0.320528
0.785145 0.884847 0.291834
0.892874 0.883996 0.296142
1.000000 0.882767 0.302752
0.000000 1.000000 0.375000
0.125000 1.000000 0.375000
0.250000 1.000000 0.375000
0.375000 1.000000 0.375000
0.500000 1.000000 0.375000
0.641609 1.000000 0.342657
0.775899 1.000000 0.309154
0.894583 1.000000 0.282326
1.000000 1.000000 0.290196
0.000000 0.000000 0.500000
0.125000 0.000000 0.500000
0.250000 0.000000 0.500000
0.377650 0.000000 0.495140
0.528708 0.000000 0.455530
0.673901 0.000000 0.423536
0.783417 0.000000 0.433689
0.891114 0.000000 0.443753
1.000000 0.000000 0.451673
0.000000 0.125000 0.500000
0.125000 0.125000 0.500000
0.250000 0.125000 0.500000
0.377663 0.122509 0.495124
0.528624 0.102698 0.455459
0.673717 0.083711 0.423685
0.783412 0.080602 0.433867
0.891174 0.081684 0.443893
1.000000 0.087427 0.451748
0.000000 0.250000 0.500000
0.125000 0.250000 0.500000
0.250000 0.250000 0.500000
0.377715 0.248824 0.494782
0.526790 0.242089 0.453567
0.672159 0.225178 0.423496
0.782933 0.220815 0.433833
0.891006 0.221770 0.443772
1.000000 0.225305 0.451560
0.000000 0.375000 0.500000
0.125000 0.375000 0.500000
0.250000 0.375000 0.500000
0.378316 0.375287 0.494126
0.524259 0.384083 0.450951
0.660346 0.393452 0.425255
0.781912 0.368406 0.433944
0.890633 0.366135 0.443518
1.000000 0.366519 0.451172
0.000000 0.500000 0.500000
0.125000 0.500000 0.500000
0.250000 0.500000 0.500000
0.378953 0.500414 0.494593
0.528316 0.508331 0.455219
0.658999 0.524701 0.433324
0.779316 0.514519 0.436131
0.890056 0.508771 0.443362
1.000000 0.506412 0.450655
0.000000 0.625000 0.500000
0.125000 0.625000 0.500000
0.250000 0.625000 0.500000
0.379113 0.625586 0.495182
0.533781 0.629578 0.461023
0.666168 0.640335 0.441767
0.771740 0.644733 0.451407
0.889303 0.640346 0.443776
1.000000 0.637234 0.450109
0.000000 0.750000 0.500000
0.125000 0.750000 0.500000
0.250000 0.750000 0.500000
0.375000 0.750000 0.500000
0.524548 0.756817 0.463940
0.669482 0.754305 0.448186
0.773871 0.755314 0.465653
0.889394 0.762532 0.441765
1.000000 0.760407 0.446486
0.000000 0.875000 0.500000
0.125000 0.875000 0.500000
0.250000 0.875000 0.500000
0.375000 0.875000 0.500000
0.509347 0.877219 0.484041
0.654326 0.881239 0.451021
0.784718 0.883698 0.426123
0.892052 0.883175 0.430616
1.000000 0.882517 0.434935
0.000000 1.000000 0.500000
0.125000 1.000000 0.500000
0.250000 1.000000 0.500000
0.375000 1.000000 0.500000
0.500000 1.000000 0.500000
0.641415 1.000000 0.470550
0.775605 1.000000 0.440449
0.894209 1.000000 0.416534
1.000000 1.000000 0.423409
0.000000 0.000000 0.625000
0.125000 0.000000 0.625000
0.250000 0.000000 0.625000
0.375000 0.000000 0.625000
0.508205 0.000000 0.614666
0.653379 0.000000 0.588887
0.785440 0.000000 0.567141
0.895330 0.000000 0.566641
1.000000 0.000000 0.574245
0.000000 0.125000 0.625000
0.125000 0.125000 0.625000
0.250000 0.125000 0.625000
0.375000 0.125000 0.625000
0.508224 0.117556 0.614666
0.653350 0.098400 0.588919
0.785370 0.077464 0.567336
0.895358 0.066426 0.566867
1.000000 0.069381 0.574429
0.000000 0.250000 0.625000
0.125000 0.250000 0.625000
0.250000 0.250000 0.625000
0.375000 0.250000 0.625000
0.508187 0.245299 0.614467
0.652893 0.233657 0.588484
0.784631 0.220516 0.567159
0.894991 0.213151 0.566809
1.000000 0.214884 0.574342
0.000000 0.375000 0.625000
0.125000 0.375000 0.625000
0.250000 0.375000 0.625000
0.375000 0.375000 0.625000
0.508418 0.377629 0.612261
0.649691 0.385229 0.584757
0.782218 0.374557 0.566670
0.894263 0.364204 0.566684
1.000000 0.362499 0.574062
0.000000 0.500000 0.625000
0.125000 0.500000 0.625000
0.250000 0.500000 0.625000
0.375000 0.500000 0.625000
0.509663 0.504073 0.611834
0.648807 0.520128 0.583806
0.770688 0.537729 0.568570
0.893172 0.512448 0.566712
1.000000 0.507602 0.573646
0.000000 0.625000 0.625000
0.125000 0.625000 0.625000
0.250000 0.625000 0.625000
0.375000 0.625000 0.625000
0.511216 0.627502 0.613124
0.652587 0.637605 0.588465
0.771589 0.653106 0.576444
0.891658 0.645821 0.567903
1.000000 0.640453 0.573263
0.000000 0.750000 0.625000
0.125000 0.750000 0.625000
0.250000 0.750000 0.625000
0.375000 0.750000 0.625000
0.512135 0.750234 0.614783
0.657460 0.751482 0.594504
0.777746 0.759083 0.584982
0.887156 0.765600 0.577116
1.000000 0.762374 0.572862
0.000000 0.875000 0.625000
0.125000 0.875000 0.625000
0.250000 0.875000 0.625000
0.375000 0.875000 0.625000
0.507944 0.876602 0.614434
0.652952 0.879602 0.589108
0.783669 0.877501 0.577068
0.888533 0.879151 0.582488
1.000000 0.882294 0.572207
0.000000 1.000000 0.625000
0.125000 1.000000 0.625000
0.250000 1.000000 0.625000
0.375000 1.000000 0.625000
0.500000 1.000000 0.625000
0.641198 1.000000 0.601527
0.775216 1.000000 0.577721
0.893665 1.000000 0.558833
1.000000 1.000000 0.563917
0.000000 0.000000 0.750000
0.125000 0.000000 0.750000
0.250000 0.000000 0.750000
0.375000 0.000000 0.750000
0.500000 0.000000 0.750000
0.636415 0.000000 0.740193
0.771969 0.000000 0.725712
0.893713 0.000000 0.713052
1.000000 0.000000 0.708093
0.000000 0.125000 0.750000
0.125000 0.125000 0.750000
0.250000 0.125000 0.750000
0.375000 0.125000 0.750000
0.500000 0.125000 0.750000
0.636435 0.112089 0.740231
0.771984 0.090419 0.725825
0.893741 0.064410 0.713243
1.000000 0.048691 0.708283
0.000000 0.250000 0.750000
0.125000 0.250000 0.750000
0.250000 0.250000 0.750000
0.375000 0.250000 0.750000
0.500000 0.250000 0.750000
0.636358 0.241893 0.740100
0.771715 0.228667 0.725664
0.893394 0.213073 0.713211
1.000000 0.203350 0.708354
0.000000 0.375000 0.750000
0.125000 0.375000 0.750000
0.250000 0.375000 0.750000
0.375000 0.375000 0.750000
0.500000 0.375000 0.750000
0.636235 0.373661 0.739689
0.771136 0.370768 0.725094
0.892655 0.364414 0.712862
1.000000 0.357864 0.708098
0.000000 0.500000 0.750000
0.125000 0.500000 0.750000
0.250000 0.500000 0.750000
0.375000 0.500000 0.750000
0.500000 0.500000 0.750000
0.636523 0.508921 0.735902
0.768312 0.519333 0.721515
0.891295 0.513228 0.712471
1.000000 0.508477 0.707750
0.000000 0.625000 0.750000
0.125000 0.625000 0.750000
0.250000 0.625000 0.750000
0.375000 0.625000 0.750000
0.500000 0.625000 0.750000
0.638097 0.632059 0.735951
0.767176 0.647449 0.720163
0.883475 0.656367 0.713460
1.000000 0.643506 0.707453
0.000000 0.750000 0.750000
0.125000 0.750000 0.750000
0.250000 0.750000 0.750000
0.375000 0.750000 0.750000
0.500000 0.750000 0.750000
0.640091 0.752208 0.737855
0.770761 0.759359 0.725133
0.880268 0.771387 0.721708
1.000000 0.764814 0.707287
0.000000 0.875000 0.750000
0.125000 0.875000 0.750000
0.250000 0.875000 0.750000
0.375000 0.875000 0.750000
0.500000 0.875000 0.750000
0.639418 0.874734 0.740123
0.775146 0.872082 0.731213
0.885562 0.876541 0.730978
1.000000 0.883425 0.706871
0.000000 1.000000 0.750000
0.125000 1.000000 0.750000
0.250000 1.000000 0.750000
0.375000 1.000000 0.750000
0.500000 1.000000 0.750000
0.635520 1.000000 0.739682
0.770101 1.000000 0.724561
0.890910 1.000000 0.711312
1.000000 1.000000 0.705577
0.000000 0.000000 0.875000
0.125000 0.000000 0.875000
0.250000 0.000000 0.875000
0.375000 0.000000 0.875000
0.500000 0.000000 0.875000
0.625000 0.000000 0.875000
0.760592 0.000000 0.869585
0.886984 0.000000 0.863759
1.000000 0.000000 0.858157
0.000000 0.125000 0.875000
0.125000 0.125000 0.875000
0.250000 0.125000 0.875000
0.375000 0.125000 0.875000
0.500000 0.125000 0.875000
0.625000 0.125000 0.875000
0.760619 0.104853 0.869662
0.887032 0.079755 0.863904
1.000000 0.058290 0.858392
0.000000 0.250000 0.875000
0.125000 0.250000 0.875000
0.250000 0.250000 0.875000
0.375000 0.250000 0.875000
0.500000 0.250000 0.875000
0.625000 0.250000 0.875000
0.760536 0.237585 0.869641
0.886882 0.222567 0.863935
1.000000 0.209019 0.858469
0.000000 0.375000 0.875000
0.125000 0.375000 0.875000
0.250000 0.375000 0.875000
0.375000 0.375000 0.875000
0.500000 0.375000 0.875000
0.625000 0.375000 0.875000
0.760384 0.371092 0.869466
0.886591 0.365259 0.863770
1.000000 0.359073 0.858385
0.000000 0.500000 0.875000
0.125000 0.500000 0.875000
0.250000 0.500000 0.875000
0.375000 0.500000 0.875000
0.500000 0.500000 0.875000
0.625000 0.500000 0.875000
0.760215 0.503798 0.869060
0.886165 0.505948 0.863411
1.000000 0.505937 0.858174
0.000000 0.625000 0.875000
0.125000 0.625000 0.875000
0.250000 0.625000 0.875000
0.375000 0.625000 0.875000
0.500000 0.625000 0.875000
0.625000 0.625000 0.875000
0.760325 0.634206 0.866262
0.885508 0.637706 0.862706
1.000000 0.639938 0.857890
0.000000 0.750000 0.875000
0.125000 0.750000 0.875000
0.250000 0.750000 0.875000
0.375000 0.750000 0.875000
0.500000 0.750000 0.875000
0.625000 0.750000 0.875000
0.762322 0.756917 0.864060
0.882156 0.768286 0.858240
1.000000 0.762453 0.857683
0.000000 0.875000 0.875000
0.125000 0.875000 0.875000
0.250000 0.875000 0.875000
0.375000 0.875000 0.875000
0.500000 0.875000 0.875000
0.625000 0.875000 0.875000
0.764198 0.875575 0.866746
0.885471 0.879894 0.863018
1.000000 0.881980 0.857731
0.000000 1.000000 0.875000
0.125000 1.000000 0.875000
0.250000 1.000000 0.875000
0.375000 1.000000 0.875000
0.500000 1.000000 0.875000
0.625000 1.000000 0.875000
0.759777 1.000000 0.869071
0.885338 1.000000 0.863011
1.000000 1.000000 0.856890
0.000000 0.000000 1.000000
0.125000 0.000000 1.000000
0.250000 0.000000 1.000000
0.375000 0.000000 1.000000
0.500000 0.000000 1.000000
0.625000 0.000000 1.000000
0.752312 0.000000 0.999902
0.881321 0.000000 0.999589
1.000000 0.000000 0.999406
0.000000 0.125000 1.000000
0.125000 0.125000 1.000000
0.250000 0.125000 1.000000
0.375000 0.125000 1.000000
0.500000 0.125000 1.000000
0.625000 0.125000 1.000000
0.752317 0.120149 0.999920
0.881348 0.100427 0.999678
1.000000 0.089844 0.999582
0.000000 0.250000 1.000000
0.125000 0.250000 1.000000
0.250000 0.250000 1.000000
0.375000 0.250000 1.000000
0.500000 0.250000 1.000000
0.625000 0.250000 1.000000
0.752303 0.246973 0.999928
0.881281 0.234645 0.999720
1.000000 0.226442 0.999640
0.000000 0.375000 1.000000
0.125000 0.375000 1.000000
0.250000 0.375000 1.000000
0.375000 0.375000 1.000000
0.500000 0.375000 1.000000
0.625000 0.375000 1.000000
0.752274 0.373845 0.999928
0.881171 0.368981 0.999715
1.000000 0.366611 0.999630
0.000000 0.500000 1.000000
0.125000 0.500000 1.000000
0.250000 0.500000 1.000000
0.375000 0.500000 1.000000
0.500000 0.500000 1.000000
0.625000 0.500000 1.000000
0.752240 0.500516 0.999926
0.881028 0.502245 0.999709
1.000000 0.505256 0.999620
0.000000 0.625000 1.000000
0.125000 0.625000 1.000000
0.250000 0.625000 1.000000
0.375000 0.625000 1.000000
0.500000 0.625000 1.000000
0.625000 0.625000 1.000000
0.752217 0.626197 0.999931
0.880875 0.630594 0.999734
1.000000 0.635297 0.999666
0.000000 0.750000 1.000000
0.125000 0.750000 1.000000
0.250000 0.750000 1.000000
0.375000 0.750000 1.000000
0.500000 0.750000 1.000000
0.625000 0.750000 1.000000
0.752240 0.750990 0.999942
0.880734 0.754607 0.999788
1.000000 0.757819 0.999763
0.000000 0.875000 1.000000
0.125000 0.875000 1.000000
0.250000 0.875000 1.000000
0.375000 0.875000 1.000000
0.500000 0.875000 1.000000
0.625000 0.875000 1.000000
0.752161 0.875519 0.999954
0.881059 0.878020 0.999102
1.000000 0.879109 0.999868
0.000000 1.000000 1.000000
0.125000 1.000000 1.000000
0.250000 1.000000 1.000000
0.375000 1.000000 1.000000
0.500000 1.000000 1.000000
0.625000 1.000000 1.000000
0.752105 0.999989 0.999965
0.880345 0.999966 0.999906
0.999976 0.999976 0.999976
