Zoran/Skin Warm.cube
TITLE "Generated by 3D LUT Creator Pro (c) Oleg Sharonov"
LUT_3D_SIZE 5
#IMAGEPROFILE sRGB
#INPUTGAMMA sRGB
#OUTPUTGAMMA sRGB
0.000000 0.000000 0.000000
0.267778 0.000000 0.000000
0.530402 0.000000 0.000000
0.773599 0.000000 0.000000
1.000000 0.000000 0.000000
0.000000 0.250000 0.000000
0.274943 0.223172 0.003743
0.530754 0.231433 0.000000
0.773852 0.229650 0.000000
1.000000 0.229305 0.000000
0.000000 0.500000 0.000000
0.250000 0.500000 0.000000
0.543255 0.511778 0.001891
0.773524 0.507993 0.000000
1.000000 0.507121 0.000000
0.000000 0.750000 0.000000
0.250000 0.750000 0.000000
0.522982 0.758939 0.000000
0.783234 0.765197 0.000000
1.000000 0.760594 0.000000
0.000000 1.000000 0.000000
0.250000 1.000000 0.000000
0.500000 1.000000 0.000000
0.775950 1.000000 0.000000
1.000000 1.000000 0.000000
0.000000 0.000000 0.250000
0.266754 0.000000 0.208342
0.530938 0.000000 0.205161
0.774076 0.000000 0.203522
1.000000 0.000000 0.202957
0.000000 0.250000 0.250000
0.266881 0.233663 0.208205
0.530479 0.231970 0.205166
0.774162 0.229133 0.202843
1.000000 0.228569 0.202195
0.000000 0.500000 0.250000
0.250000 0.500000 0.250000
0.536064 0.503958 0.212060
0.773446 0.508333 0.201940
1.000000 0.507230 0.199659
0.000000 0.750000 0.250000
0.250000 0.750000 0.250000
0.523173 0.758918 0.211947
0.782878 0.764900 0.183771
1.000000 0.760767 0.193143
0.000000 1.000000 0.250000
0.250000 1.000000 0.250000
0.500000 1.000000 0.250000
0.776068 1.000000 0.186735
1.000000 1.000000 0.167676
0.000000 0.000000 0.500000
0.250000 0.000000 0.500000
0.528708 0.000000 0.455530
0.783417 0.000000 0.433689
1.000000 0.000000 0.451673
0.000000 0.250000 0.500000
0.250000 0.250000 0.500000
0.526790 0.242089 0.453567
0.782933 0.220815 0.433833
1.000000 0.225305 0.451560
0.000000 0.500000 0.500000
0.250000 0.500000 0.500000
0.528316 0.508331 0.455219
0.779316 0.514519 0.436131
1.000000 0.506412 0.450655
0.000000 0.750000 0.500000
0.250000 0.750000 0.500000
0.524548 0.756817 0.463940
0.773871 0.755314 0.465653
1.000000 0.760407 0.446486
0.000000 1.000000 0.500000
0.250000 1.000000 0.500000
0.500000 1.000000 0.500000
0.775605 1.000000 0.440449
1.000000 1.000000 0.423409
0.000000 0.000000 0.750000
0.250000 0.000000 0.750000
0.500000 0.000000 0.750000
0.771969 0.000000 0.725712
1.000000 0.000000 0.708093
0.000000 0.250000 0.750000
0.250000 0.250000 0.750000
0.500000 0.250000 0.750000
0.771715 0.228667 0.725664
1.000000 0.203350 0.708354
0.000000 0.500000 0.750000
0.250000 0.500000 0.750000
0.500000 0.500000 0.750000
0.768312 0.519333 0.721515
1.000000 0.508477 0.707750
0.000000 0.750000 0.750000
0.250000 0.750000 0.750000
0.500000 0.750000 0.750000
0.770761 0.759359 0.725133
1.000000 0.764814 0.707287
0.000000 1.000000 0.750000
0.250000 1.000000 0.750000
0.500000 1.000000 0.750000
0.770101 1.000000 0.724561
1.000000 1.000000 0.705577
0.000000 0.000000 1.000000
0.250000 0.000000 1.000000
0.500000 0.000000 1.000000
0.752312 0.000000 0.999902
1.000000 0.000000 0.999406
0.000000 0.250000 1.000000
0.250000 0.250000 1.000000
0.500000 0.250000 1.000000
0.752303 0.246973 0.999928
1.000000 0.226442 0.999640
0.000000 0.500000 1.000000
0.250000 0.500000 1.000000
0.500000 0.500000 1.000000
0.752240 0.500516 0.999926
1.000000 0.505256 0.999620
0.000000 0.750000 1.000000
0.250000 0.750000 1.000000
0.500000 0.750000 1.000000
0.752240 0.750990 0.999942
1.000000 0.757819 0.999763
0.000000 1.000000 1.000000
0.250000 1.000000 1.000000
0.500000 1.000000 1.000000
0.752105 0.999989 0.999965
0.999976 0.999976 0.999976
