Zoran/Skin Warm.cube
TITLE "Generated by 3D LUT Creator Pro (c) Oleg Sharonov"
LUT_3D_SIZE 25
#IMAGEPROFILE sRGB
#INPUTGAMMA sRGB
#OUTPUTGAMMA sRGB
0.000000 0.000000 0.000000
0.044271 0.000000 0.000000
0.088939 0.000000 0.000000
0.133587 0.000000 0.000000
0.178369 0.000000 0.000000
0.223087 0.000000 0.000000
0.267778 0.000000 0.000000
0.312269 0.000000 0.000000
0.356539 0.000000 0.000000
0.400553 0.000000 0.000000
0.444269 0.000000 0.000000
0.487546 0.000000 0.000000
0.530402 0.000000 0.000000
0.572676 0.000000 0.000000
0.614313 0.000000 0.000000
0.655200 0.000000 0.000000
0.695318 0.000000 0.000000
0.734724 0.000000 0.000000
0.773599 0.000000 0.000000
0.812069 0.000000 0.000000
0.850175 0.000000 0.000000
0.888140 0.000000 0.000000
0.926009 0.000000 0.000000
0.963890 0.000000 0.000000
1.000000 0.000000 0.000000
0.000000 0.041667 0.000000
0.042632 0.024004 0.003236
0.088730 0.030736 0.000000
0.133681 0.030378 0.000000
0.178461 0.030017 0.000000
0.223179 0.029925 0.000000
0.267866 0.029288 0.000000
0.312354 0.028926 0.000000
0.356691 0.028565 0.000000
0.400690 0.027936 0.000000
0.444394 0.027580 0.000000
0.487660 0.026960 0.000000
0.530504 0.026344 0.000000
0.572767 0.025734 0.000000
0.614393 0.024865 0.000000
0.655270 0.024268 0.000000
0.695379 0.023415 0.000000
0.734777 0.022831 0.000000
0.773645 0.021990 0.000000
0.812111 0.021414 0.000000
0.850213 0.020842 0.000000
0.888174 0.020270 0.000000
0.926042 0.020221 0.000000
0.963923 0.020431 0.000000
1.000000 0.020903 0.000000
0.000000 0.083333 0.000000
0.041667 0.083333 0.000000
0.089175 0.053263 0.004072
0.133337 0.064055 0.000000
0.178384 0.063783 0.000000
0.223258 0.063510 0.000000
0.267947 0.063236 0.000000
0.312519 0.062963 0.000000
0.356770 0.062474 0.000000
0.400830 0.062201 0.000000
0.444524 0.061712 0.000000
0.487781 0.061223 0.000000
0.530617 0.060734 0.000000
0.572872 0.060025 0.000000
0.614492 0.059538 0.000000
0.655360 0.059053 0.000000
0.695462 0.058345 0.000000
0.734854 0.057637 0.000000
0.773739 0.057153 0.000000
0.812180 0.056440 0.000000
0.850297 0.055954 0.000000
0.888240 0.055698 0.000000
0.926108 0.055673 0.000000
0.963988 0.055649 0.000000
1.000000 0.056324 0.000000
0.000000 0.125000 0.000000
0.041667 0.125000 0.000000
0.087691 0.107777 0.000000
0.136174 0.091594 0.003903
0.178797 0.101849 0.000000
0.223174 0.103139 0.000000
0.267985 0.102748 0.000000
0.312556 0.102539 0.000000
0.356877 0.102147 0.000000
0.400925 0.101756 0.000000
0.444608 0.101365 0.000000
0.487902 0.100975 0.000000
0.530684 0.100586 0.000000
0.572967 0.100199 0.000000
0.614574 0.099626 0.000000
0.655430 0.099053 0.000000
0.695521 0.098674 0.000000
0.734905 0.098105 0.000000
0.773782 0.097729 0.000000
0.812219 0.097159 0.000000
0.850332 0.096783 0.000000
0.888272 0.096604 0.000000
0.926153 0.096424 0.000000
0.964017 0.096639 0.000000
1.000000 0.097048 0.000000
0.000000 0.166667 0.000000
0.041667 0.166667 0.000000
0.083333 0.166667 0.000000
0.134892 0.140992 0.000000
0.182501 0.133261 0.003708
0.224779 0.141682 0.000000
0.267704 0.144683 0.000000
0.312409 0.144524 0.000000
0.356825 0.144219 0.000000
0.400941 0.143915 0.000000
0.444674 0.143613 0.000000
0.487958 0.143164 0.000000
0.530771 0.142866 0.000000
0.573006 0.142421 0.000000
0.614604 0.142129 0.000000
0.655478 0.141691 0.000000
0.695559 0.141256 0.000000
0.734933 0.140823 0.000000
0.773803 0.140545 0.000000
0.812252 0.140116 0.000000
0.850359 0.139840 0.000000
0.888295 0.139717 0.000000
0.926157 0.139594 0.000000
0.964036 0.139624 0.000000
1.000000 0.140112 0.000000
0.000000 0.208333 0.000000
0.041667 0.208333 0.000000
0.083333 0.208333 0.000000
0.128935 0.199026 0.000000
0.182449 0.180300 0.000000
0.228744 0.177231 0.003497
0.270794 0.183846 0.000000
0.312167 0.187944 0.000000
0.356691 0.187700 0.000000
0.400885 0.187457 0.000000
0.444677 0.187216 0.000000
0.487957 0.186855 0.000000
0.530767 0.186497 0.000000
0.573068 0.186141 0.000000
0.614654 0.185912 0.000000
0.655515 0.185564 0.000000
0.695584 0.185220 0.000000
0.734971 0.184880 0.000000
0.773832 0.184543 0.000000
0.812274 0.184207 0.000000
0.850375 0.183997 0.000000
0.888306 0.183787 0.000000
0.926181 0.183703 0.000000
0.964057 0.183869 0.000000
1.000000 0.184156 0.000000
0.000000 0.250000 0.000000
0.041667 0.250000 0.000000
0.083333 0.250000 0.000000
0.125000 0.250000 0.000000
0.175615 0.236406 0.000000
0.229819 0.223703 0.000000
0.274943 0.223172 0.003743
0.316596 0.228163 0.000000
0.357724 0.231354 0.000000
0.400639 0.232321 0.000000
0.444513 0.232022 0.000000
0.487902 0.231727 0.000000
0.530754 0.231433 0.000000
0.573051 0.231143 0.000000
0.614664 0.230857 0.000000
0.655542 0.230471 0.000000
0.695625 0.230194 0.000000
0.735001 0.229920 0.000000
0.773852 0.229650 0.000000
0.812286 0.229381 0.000000
0.850399 0.229114 0.000000
0.888325 0.228953 0.000000
0.926196 0.228896 0.000000
0.964070 0.229050 0.000000
1.000000 0.229305 0.000000
0.000000 0.291667 0.000000
0.041667 0.291667 0.000000
0.083333 0.291667 0.000000
0.125000 0.291667 0.000000
0.170343 0.287314 0.000000
0.222992 0.277939 0.000000
0.277232 0.269810 0.000000
0.320709 0.270321 0.003512
0.362122 0.274029 0.000000
0.403043 0.276420 0.000000
0.444290 0.277737 0.000000
0.487702 0.277579 0.000000
0.530653 0.277247 0.000000
0.572991 0.277007 0.000000
0.614635 0.276682 0.000000
0.655535 0.276451 0.000000
0.695610 0.276135 0.000000
0.735002 0.275824 0.000000
0.773865 0.275604 0.000000
0.812311 0.275298 0.000000
0.850399 0.275172 0.000000
0.888353 0.274957 0.000000
0.926204 0.274921 0.000000
0.964090 0.274975 0.000000
1.000000 0.275205 0.000000
0.000000 0.333333 0.000000
0.041667 0.333333 0.000000
0.083333 0.333333 0.000000
0.125000 0.333333 0.000000
0.166667 0.333333 0.000000
0.216647 0.328150 0.000000
0.270378 0.322533 0.000000
0.324370 0.317789 0.000000
0.366277 0.318560 0.003745
0.407229 0.320924 0.000000
0.447850 0.322560 0.000000
0.488092 0.323583 0.000000
0.530468 0.323664 0.000000
0.572856 0.323387 0.000000
0.614570 0.323113 0.000000
0.655468 0.322844 0.000000
0.695591 0.322580 0.000000
0.734975 0.322321 0.000000
0.773854 0.322064 0.000000
0.812312 0.321809 0.000000
0.850412 0.321634 0.000000
0.888360 0.321459 0.000000
0.926223 0.321362 0.000000
0.964106 0.321419 0.000000
1.000000 0.321549 0.000000
0.000000 0.375000 0.000000
0.041667 0.375000 0.000000
0.083333 0.375000 0.000000
0.125000 0.375000 0.000000
0.166667 0.375000 0.000000
0.211836 0.374024 0.000000
0.263588 0.371749 0.000000
0.317661 0.369281 0.000000
0.371030 0.366839 0.000000
0.411359 0.367225 0.003976
0.451944 0.368637 0.000000
0.492107 0.369491 0.000000
0.531980 0.369988 0.000000
0.572612 0.370104 0.000000
0.614377 0.369938 0.000000
0.655371 0.369644 0.000000
0.695519 0.369421 0.000000
0.734924 0.369136 0.000000
0.773820 0.368920 0.000000
0.812293 0.368640 0.000000
0.850405 0.368429 0.000000
0.888366 0.368286 0.000000
0.926240 0.368210 0.000000
0.964120 0.368201 0.000000
1.000000 0.368323 0.000000
0.000000 0.416667 0.000000
0.041667 0.416667 0.000000
0.083333 0.416667 0.000000
0.125000 0.416667 0.000000
0.166667 0.416667 0.000000
0.208333 0.416667 0.000000
0.257894 0.417077 0.000000
0.310665 0.417294 0.000000
0.364519 0.417034 0.000000
0.416517 0.416459 0.000000
0.456006 0.416020 0.003742
0.496002 0.416556 0.000000
0.535759 0.416737 0.000000
0.575180 0.416699 0.000000
0.614153 0.416613 0.000000
0.655191 0.416419 0.000000
0.695373 0.416171 0.000000
0.734851 0.415927 0.000000
0.773766 0.415687 0.000000
0.812254 0.415449 0.000000
0.850381 0.415271 0.000000
0.888355 0.415095 0.000000
0.926241 0.414976 0.000000
0.964134 0.414916 0.000000
1.000000 0.414969 0.000000
0.000000 0.458333 0.000000
0.041667 0.458333 0.000000
0.083333 0.458333 0.000000
0.125000 0.458333 0.000000
0.166667 0.458333 0.000000
0.208333 0.458333 0.000000
0.253376 0.459455 0.000000
0.304402 0.461753 0.000000
0.357630 0.463802 0.000000
0.410981 0.465071 0.000000
0.460956 0.465406 0.000000
0.499935 0.464281 0.003046
0.539486 0.464134 0.000000
0.578740 0.463838 0.000000
0.617518 0.463412 0.000000
0.655892 0.462890 0.000000
0.695180 0.462586 0.000000
0.734713 0.462376 0.000000
0.773673 0.462170 0.000000
0.812181 0.461915 0.000000
0.850342 0.461713 0.000000
0.888330 0.461511 0.000000
0.926230 0.461412 0.000000
0.964136 0.461313 0.000000
1.000000 0.461363 0.000000
0.000000 0.500000 0.000000
0.041667 0.500000 0.000000
0.083333 0.500000 0.000000
0.125000 0.500000 0.000000
0.166667 0.500000 0.000000
0.208333 0.500000 0.000000
0.250000 0.500000 0.000000
0.299192 0.503635 0.000000
0.351016 0.507286 0.000000
0.404317 0.510499 0.000000
0.456872 0.512736 0.000000
0.504647 0.513386 0.000000
0.543255 0.511778 0.001891
0.582214 0.511117 0.000000
0.620772 0.510399 0.000000
0.658937 0.509625 0.000000
0.696648 0.508858 0.000000
0.734513 0.508172 0.000000
0.773524 0.507993 0.000000
0.812094 0.507773 0.000000
0.850290 0.507598 0.000000
0.888293 0.507380 0.000000
0.926223 0.507251 0.000000
0.964142 0.507121 0.000000
1.000000 0.507121 0.000000
0.000000 0.541667 0.000000
0.041667 0.541667 0.000000
0.083333 0.541667 0.000000
0.125000 0.541667 0.000000
0.166667 0.541667 0.000000
0.208333 0.541667 0.000000
0.250000 0.541667 0.000000
0.294928 0.543790 0.000000
0.345308 0.548377 0.000000
0.397596 0.552772 0.000000
0.450413 0.556591 0.000000
0.502042 0.559394 0.000000
0.547716 0.559837 0.000000
0.585776 0.557950 0.000751
0.623995 0.556953 0.000000
0.661890 0.555954 0.000000
0.699335 0.554947 0.000000
0.736508 0.553979 0.000000
0.773674 0.553045 0.000000
0.811957 0.552702 0.000000
0.850193 0.552511 0.000000
0.888247 0.552320 0.000000
0.926192 0.552130 0.000000
0.964139 0.552016 0.000000
1.000000 0.551976 0.000000
0.000000 0.583333 0.000000
0.041667 0.583333 0.000000
0.083333 0.583333 0.000000
0.125000 0.583333 0.000000
0.166667 0.583333 0.000000
0.208333 0.583333 0.000000
0.250000 0.583333 0.000000
0.291667 0.583333 0.000000
0.340519 0.588030 0.000000
0.391562 0.592840 0.000000
0.443938 0.597477 0.000000
0.495908 0.601262 0.000000
0.546422 0.604149 0.000000
0.589960 0.604190 0.000000
0.627348 0.602280 0.000000
0.664786 0.601128 0.000000
0.701914 0.600000 0.000000
0.738789 0.598927 0.000000
0.775629 0.597828 0.000000
0.812578 0.596781 0.000000
0.850087 0.596118 0.000000
0.888177 0.595950 0.000000
0.926154 0.595782 0.000000
0.964117 0.595647 0.000000
1.000000 0.595542 0.000000
0.000000 0.625000 0.000000
0.041667 0.625000 0.000000
0.083333 0.625000 0.000000
0.125000 0.625000 0.000000
0.166667 0.625000 0.000000
0.208333 0.625000 0.000000
0.250000 0.625000 0.000000
0.291667 0.625000 0.000000
0.336460 0.627115 0.000000
0.386339 0.631781 0.000000
0.437653 0.636330 0.000000
0.489634 0.640581 0.000000
0.540596 0.644009 0.000000
0.589864 0.646689 0.000000
0.631222 0.646220 0.000000
0.667835 0.644413 0.000000
0.704513 0.643277 0.000000
0.741005 0.642165 0.000000
0.777556 0.641111 0.000000
0.814153 0.640041 0.000000
0.850961 0.639020 0.000000
0.888086 0.638072 0.000000
0.926097 0.637893 0.000000
0.964106 0.637742 0.000000
1.000000 0.637617 0.000000
0.000000 0.666667 0.000000
0.041667 0.666667 0.000000
0.083333 0.666667 0.000000
0.125000 0.666667 0.000000
0.166667 0.666667 0.000000
0.208333 0.666667 0.000000
0.250000 0.666667 0.000000
0.291667 0.666667 0.000000
0.333333 0.666667 0.000000
0.381876 0.670604 0.000000
0.432155 0.674691 0.000000
0.483413 0.678659 0.000000
0.534681 0.682251 0.000000
0.584392 0.685124 0.000000
0.632171 0.687357 0.000000
0.671353 0.686546 0.000000
0.707184 0.684919 0.000000
0.743240 0.683924 0.000000
0.779427 0.682973 0.000000
0.815703 0.681997 0.000000
0.852186 0.681002 0.000000
0.889013 0.680076 0.000000
0.926238 0.679184 0.000000
0.964058 0.678752 0.000000
1.000000 0.678612 0.000000
0.000000 0.708333 0.000000
0.041667 0.708333 0.000000
0.083333 0.708333 0.000000
0.125000 0.708333 0.000000
0.166667 0.708333 0.000000
0.208333 0.708333 0.000000
0.250000 0.708333 0.000000
0.291667 0.708333 0.000000
0.333333 0.708333 0.000000
0.377995 0.709937 0.000000
0.427375 0.713537 0.000000
0.477757 0.717064 0.000000
0.528677 0.720456 0.000000
0.578830 0.723403 0.000000
0.627146 0.725741 0.000000
0.673147 0.727595 0.000000
0.710297 0.726513 0.000000
0.745567 0.725140 0.000000
0.781288 0.724258 0.000000
0.817222 0.723438 0.000000
0.853366 0.722554 0.000000
0.889906 0.721673 0.000000
0.926871 0.720822 0.000000
0.964251 0.719996 0.000000
1.000000 0.719374 0.000000
0.000000 0.750000 0.000000
0.041667 0.750000 0.000000
0.083333 0.750000 0.000000
0.125000 0.750000 0.000000
0.166667 0.750000 0.000000
0.208333 0.750000 0.000000
0.250000 0.750000 0.000000
0.291667 0.750000 0.000000
0.333333 0.750000 0.000000
0.375000 0.750000 0.000000
0.423191 0.752906 0.000000
0.472788 0.755964 0.000000
0.522982 0.758939 0.000000
0.573217 0.761790 0.000000
0.621949 0.764143 0.000000
0.668581 0.766072 0.000000
0.712759 0.767623 0.000000
0.748226 0.766373 0.000000
0.783234 0.765197 0.000000
0.818735 0.764458 0.000000
0.854541 0.763706 0.000000
0.890778 0.762917 0.000000
0.927458 0.762097 0.000000
0.964587 0.761325 0.000000
1.000000 0.760594 0.000000
0.000000 0.791667 0.000000
0.041667 0.791667 0.000000
0.083333 0.791667 0.000000
0.125000 0.791667 0.000000
0.166667 0.791667 0.000000
0.208333 0.791667 0.000000
0.250000 0.791667 0.000000
0.291667 0.791667 0.000000
0.333333 0.791667 0.000000
0.375000 0.791667 0.000000
0.419511 0.792798 0.000000
0.468380 0.795373 0.000000
0.517904 0.797917 0.000000
0.567642 0.800381 0.000000
0.616711 0.802681 0.000000
0.663858 0.804540 0.000000
0.708666 0.806074 0.000000
0.750869 0.807267 0.000000
0.785481 0.806052 0.000000
0.820304 0.805064 0.000000
0.855715 0.804406 0.000000
0.891631 0.803758 0.000000
0.928010 0.803041 0.000000
0.964896 0.802314 0.000000
1.000000 0.801623 0.000000
0.000000 0.833333 0.000000
0.041667 0.833333 0.000000
0.083333 0.833333 0.000000
0.125000 0.833333 0.000000
0.166667 0.833333 0.000000
0.208333 0.833333 0.000000
0.250000 0.833333 0.000000
0.291667 0.833333 0.000000
0.333333 0.833333 0.000000
0.375000 0.833333 0.000000
0.416667 0.833333 0.000000
0.464486 0.835285 0.000000
0.513408 0.837367 0.000000
0.562586 0.839403 0.000000
0.611495 0.841391 0.000000
0.659097 0.843164 0.000000
0.704439 0.844608 0.000000
0.747498 0.845782 0.000000
0.787643 0.846512 0.000000
0.822089 0.845543 0.000000
0.856918 0.844733 0.000000
0.892465 0.844162 0.000000
0.928566 0.843567 0.000000
0.965193 0.842928 0.000000
1.000000 0.842273 0.000000
0.000000 0.875000 0.000000
0.041667 0.875000 0.000000
0.083333 0.875000 0.000000
0.125000 0.875000 0.000000
0.166667 0.875000 0.000000
0.208333 0.875000 0.000000
0.250000 0.875000 0.000000
0.291667 0.875000 0.000000
0.333333 0.875000 0.000000
0.375000 0.875000 0.000000
0.416667 0.875000 0.000000
0.461012 0.875699 0.000000
0.509370 0.877325 0.000000
0.558058 0.878943 0.000000
0.606579 0.880529 0.000000
0.654351 0.882055 0.000000
0.700212 0.883361 0.000000
0.743837 0.884442 0.000000
0.785375 0.885351 0.000000
0.823821 0.885738 0.000000
0.858267 0.884962 0.000000
0.893326 0.884315 0.000000
0.929105 0.883804 0.000000
0.965440 0.883242 0.000000
1.000000 0.882636 0.000000
0.000000 0.916667 0.000000
0.041667 0.916667 0.000000
0.083333 0.916667 0.000000
0.125000 0.916667 0.000000
0.166667 0.916667 0.000000
0.208333 0.916667 0.000000
0.250000 0.916667 0.000000
0.291667 0.916667 0.000000
0.333333 0.916667 0.000000
0.375000 0.916667 0.000000
0.416667 0.916667 0.000000
0.458333 0.916667 0.000000
0.505766 0.917767 0.000000
0.553987 0.918954 0.000000
0.602149 0.920135 0.000000
0.649701 0.921287 0.000000
0.695970 0.922384 0.000000
0.740146 0.923322 0.000000
0.782222 0.924084 0.000000
0.822397 0.924702 0.000000
0.859531 0.924850 0.000000
0.894248 0.924278 0.000000
0.929629 0.923760 0.000000
0.965671 0.923265 0.000000
1.000000 0.922720 0.000000
0.000000 0.958333 0.000000
0.041667 0.958333 0.000000
0.083333 0.958333 0.000000
0.125000 0.958333 0.000000
0.166667 0.958333 0.000000
0.208333 0.958333 0.000000
0.250000 0.958333 0.000000
0.291667 0.958333 0.000000
0.333333 0.958333 0.000000
0.375000 0.958333 0.000000
0.416667 0.958333 0.000000
0.458333 0.958333 0.000000
0.502506 0.958655 0.000000
0.550333 0.959424 0.000000
0.598160 0.960193 0.000000
0.645480 0.960968 0.000000
0.691784 0.961708 0.000000
0.736444 0.962405 0.000000
0.779078 0.962975 0.000000
0.819781 0.963443 0.000000
0.858728 0.963837 0.000000
0.895057 0.963786 0.000000
0.930114 0.963359 0.000000
0.965864 0.962946 0.000000
1.000000 0.962457 0.000000
0.000000 1.000000 0.000000
0.041667 1.000000 0.000000
0.083333 1.000000 0.000000
0.125000 1.000000 0.000000
0.166667 1.000000 0.000000
0.208333 1.000000 0.000000
0.250000 1.000000 0.000000
0.291667 1.000000 0.000000
0.333333 1.000000 0.000000
0.375000 1.000000 0.000000
0.416667 1.000000 0.000000
0.458333 1.000000 0.000000
0.500000 1.000000 0.000000
0.547024 1.000000 0.000000
0.594545 1.000000 0.000000
0.641660 1.000000 0.000000
0.687879 1.000000 0.000000
0.732816 1.000000 0.000000
0.775950 1.000000 0.000000
0.817177 1.000000 0.000000
0.856610 1.000000 0.000000
0.894605 1.000000 0.000000
0.930483 1.000000 0.000000
0.965927 1.000000 0.000000
1.000000 1.000000 0.000000
0.000000 0.000000 0.041667
0.043258 0.001170 0.033379
0.088407 0.000068 0.033496
0.133663 0.000000 0.033114
0.178443 0.000000 0.032728
0.223161 0.000000 0.032651
0.267848 0.000000 0.031948
0.312421 0.000000 0.031560
0.356674 0.000000 0.031172
0.400674 0.000000 0.030474
0.444379 0.000000 0.030091
0.487644 0.000000 0.029397
0.530489 0.000000 0.028707
0.572753 0.000000 0.028020
0.614380 0.000000 0.027023
0.655258 0.000000 0.026345
0.695367 0.000000 0.025359
0.734765 0.000000 0.024376
0.773635 0.000000 0.023710
0.812102 0.000000 0.023047
0.850205 0.000000 0.022386
0.888166 0.000000 0.021726
0.926035 0.000000 0.021696
0.963916 0.000000 0.021981
1.000000 0.000000 0.022581
0.000000 0.041667 0.041667
0.044307 0.031330 0.033974
0.086016 0.032027 0.034988
0.133337 0.030630 0.033435
0.178535 0.030002 0.032745
0.223250 0.029637 0.032355
0.267936 0.029273 0.031965
0.312506 0.028910 0.031575
0.356753 0.028279 0.030875
0.400811 0.027921 0.030489
0.444501 0.027297 0.029792
0.487754 0.026678 0.029098
0.530588 0.026064 0.028407
0.572842 0.025455 0.027719
0.614457 0.024588 0.026722
0.655325 0.023993 0.026043
0.695425 0.023141 0.025055
0.734817 0.022559 0.024385
0.773680 0.021720 0.023404
0.812142 0.021145 0.022741
0.850241 0.020573 0.022079
0.888200 0.020263 0.021733
0.926066 0.019953 0.021388
0.963948 0.020163 0.021673
1.000000 0.020634 0.022274
0.000000 0.083333 0.041667
0.041667 0.083333 0.041667
0.089286 0.053285 0.033420
0.131496 0.064293 0.035473
0.178302 0.064015 0.033053
0.223207 0.063526 0.032355
0.268017 0.063252 0.031965
0.312584 0.062762 0.031264
0.356904 0.062488 0.030876
0.400949 0.061996 0.030178
0.444630 0.061505 0.029482
0.487875 0.061014 0.028788
0.530701 0.060523 0.028098
0.572947 0.060033 0.027411
0.614556 0.059322 0.026415
0.655415 0.058835 0.025737
0.695509 0.058125 0.024750
0.734895 0.057413 0.024081
0.773774 0.056928 0.023101
0.812212 0.056443 0.022438
0.850326 0.055956 0.021777
0.888266 0.055466 0.021431
0.926147 0.055442 0.021086
0.964013 0.055417 0.021371
1.000000 0.056094 0.021971
0.000000 0.125000 0.041667
0.041667 0.125000 0.041667
0.087998 0.106514 0.036796
0.134068 0.089766 0.038621
0.178042 0.101906 0.034371
0.222999 0.103187 0.032627
0.267955 0.102793 0.031925
0.312539 0.102583 0.031223
0.356939 0.102189 0.030523
0.400982 0.101795 0.029825
0.444713 0.101402 0.029129
0.487950 0.101010 0.028435
0.530767 0.100432 0.027745
0.573004 0.100042 0.026745
0.614606 0.099465 0.026063
0.655483 0.099080 0.025071
0.695568 0.098506 0.024398
0.734944 0.097933 0.023416
0.773817 0.097554 0.022750
0.812249 0.096980 0.021773
0.850359 0.096601 0.021112
0.888297 0.096420 0.020766
0.926177 0.096240 0.020737
0.964055 0.096455 0.020706
1.000000 0.096868 0.021620
0.000000 0.166667 0.041667
0.041667 0.166667 0.041667
0.083333 0.166667 0.041667
0.134990 0.140210 0.033585
0.180502 0.131410 0.040195
0.224444 0.141590 0.032973
0.267675 0.144741 0.032181
0.312391 0.144578 0.031166
0.356885 0.144270 0.030152
0.400997 0.143963 0.029454
0.444726 0.143511 0.028758
0.488003 0.143207 0.027751
0.530812 0.142757 0.027061
0.573076 0.142458 0.026060
0.614666 0.142013 0.025377
0.655530 0.141571 0.024385
0.695603 0.141133 0.023712
0.734971 0.140849 0.022728
0.773835 0.140415 0.021748
0.812281 0.139982 0.021085
0.850385 0.139703 0.020423
0.888319 0.139579 0.020077
0.926196 0.139456 0.020048
0.964058 0.139640 0.020017
1.000000 0.139978 0.020932
0.000000 0.208333 0.041667
0.041667 0.208333 0.041667
0.083333 0.208333 0.041667
0.128969 0.198945 0.037451
0.182342 0.179903 0.031233
0.227214 0.175740 0.039977
0.270646 0.183789 0.032018
0.312068 0.188010 0.031724
0.356682 0.187760 0.030397
0.400881 0.187513 0.029386
0.444674 0.187146 0.028376
0.488001 0.186903 0.027369
0.530845 0.186541 0.026364
0.573101 0.186181 0.025363
0.614713 0.185826 0.024680
0.655564 0.185474 0.023687
0.695626 0.185126 0.022699
0.735007 0.184781 0.021715
0.773863 0.184441 0.021049
0.812301 0.184101 0.020070
0.850399 0.183888 0.019408
0.888329 0.183677 0.019062
0.926202 0.183718 0.019032
0.964078 0.183759 0.019317
1.000000 0.184051 0.020233
0.000000 0.250000 0.041667
0.041667 0.250000 0.041667
0.083333 0.250000 0.041667
0.125000 0.250000 0.041667
0.175672 0.236384 0.034174
0.229751 0.223518 0.029665
0.273729 0.221942 0.039396
0.316484 0.228137 0.031505
0.357719 0.231430 0.030632
0.400636 0.232282 0.029622
0.444510 0.232080 0.028299
0.487899 0.231779 0.026978
0.530789 0.231479 0.025660
0.573081 0.231185 0.024658
0.614720 0.230790 0.023660
0.655561 0.230504 0.022667
0.695640 0.230222 0.021678
0.735012 0.229839 0.020693
0.773881 0.229564 0.019710
0.812311 0.229293 0.019046
0.850404 0.229127 0.018383
0.888345 0.228965 0.018037
0.926215 0.228907 0.017691
0.964089 0.228958 0.018293
1.000000 0.229217 0.019210
0.000000 0.291667 0.041667
0.041667 0.291667 0.041667
0.083333 0.291667 0.041667
0.125000 0.291667 0.041667
0.170365 0.287309 0.038206
0.223064 0.277839 0.031520
0.277197 0.269670 0.028777
0.319972 0.269557 0.038805
0.362038 0.274028 0.031057
0.402978 0.276405 0.029624
0.444238 0.277802 0.028843
0.487699 0.277634 0.026895
0.530649 0.277296 0.025576
0.573020 0.277050 0.024260
0.614657 0.276719 0.022948
0.655552 0.276392 0.021639
0.695648 0.276072 0.020649
0.735011 0.275844 0.019663
0.773892 0.275531 0.018679
0.812315 0.275309 0.017698
0.850419 0.275090 0.017034
0.888355 0.274963 0.016940
0.926221 0.274836 0.016940
0.964108 0.274893 0.016945
1.000000 0.275128 0.017863
0.000000 0.333333 0.041667
0.041667 0.333333 0.041667
0.083333 0.333333 0.041667
0.125000 0.333333 0.041667
0.166667 0.333333 0.041667
0.216685 0.328149 0.035018
0.270458 0.322537 0.029384
0.324359 0.317688 0.028047
0.365564 0.317806 0.038208
0.407167 0.320943 0.030653
0.447798 0.322560 0.028677
0.488046 0.323647 0.027443
0.530424 0.323717 0.025803
0.572848 0.323430 0.023859
0.614559 0.323148 0.022231
0.655483 0.322872 0.020921
0.695601 0.322602 0.019615
0.735004 0.322335 0.018311
0.773878 0.322074 0.017327
0.812314 0.321814 0.016940
0.850430 0.321558 0.016940
0.888360 0.321459 0.016940
0.926238 0.321362 0.016940
0.964121 0.321341 0.016940
1.000000 0.321556 0.016940
0.000000 0.375000 0.041667
0.041667 0.375000 0.041667
0.083333 0.375000 0.041667
0.125000 0.375000 0.041667
0.166667 0.375000 0.041667
0.211851 0.374025 0.038553
0.263557 0.371753 0.032114
0.317638 0.369211 0.027588
0.371038 0.366770 0.027418
0.410940 0.366785 0.037607
0.451899 0.368671 0.030282
0.492064 0.369501 0.027776
0.531938 0.370052 0.026081
0.572607 0.370150 0.024398
0.614398 0.369906 0.022141
0.655357 0.369670 0.020516
0.695503 0.369372 0.018894
0.734929 0.369146 0.017273
0.773842 0.368857 0.016940
0.812293 0.368640 0.016940
0.850422 0.368429 0.016940
0.888366 0.368286 0.016940
0.926240 0.368143 0.016940
0.964135 0.368134 0.016940
1.000000 0.368255 0.016940
0.000000 0.416667 0.041667
0.041667 0.416667 0.041667
0.083333 0.416667 0.041667
0.125000 0.416667 0.041667
0.166667 0.416667 0.041667
0.208333 0.416667 0.041667
0.257920 0.417081 0.035385
0.310720 0.417248 0.029410
0.364509 0.416979 0.026008
