Zoran/wed 013.3dl
#25pt 3DLUT created by 3D LUT Creator Pro (c) Oleg Sharonov
#Copyright Oleg Sharonov
#INPUTGAMMA sRGB IEC61966-2.1 v.2.10
#IMAGEPROFILE sRGB IEC61966-2.1 v.2.10
#OUTPUTGAMMA sRGB IEC61966-2.1 v.2.10
0 256 512 768 1023
234 196 126
377 279 530
553 387 1343
784 574 2041
946 635 2708
701 1043 688
564 994 921
615 934 1511
812 971 2135
945 967 2741
1238 2440 1583
1098 2433 1667
807 2215 1997
873 2018 2508
912 1817 2941
1944 3266 2474
1869 3257 2531
1343 3224 2650
1127 3022 3006
865 2850 3318
2638 3606 3182
2579 3612 3198
2405 3618 3253
1811 3604 3377
1028 3541 3600
664 282 193
849 376 541
1024 442 1324
1166 586 2041
1258 628 2724
1106 1029 682
1423 1290 1155
1158 1006 1537
1219 1014 2161
1275 994 2773
1593 2382 1591
1553 2398 1702
1297 2227 2001
1325 2047 2508
1292 1860 2968
1963 3265 2469
1910 3254 2528
1478 3228 2646
1421 3025 3006
1240 2871 3339
2640 3605 3180
2582 3611 3195
2409 3618 3251
1817 3605 3374
1026 3548 3604
1766 429 334
1831 466 555
2074 643 1429
2071 660 2104
2082 718 2805
2025 902 406
2123 927 720
2281 1221 1660
2142 1117 2258
2094 1044 2871
2330 2323 1640
2397 2363 1787
2603 2538 2390
2343 2240 2652
2207 2039 3089
2587 3189 2546
2628 3183 2631
2677 3188 2856
2428 3083 3056
2288 2948 3377
2922 3585 3210
2917 3588 3240
2864 3592 3310
2587 3618 3404
2264 3573 3623
2877 617 523
2884 619 525
2954 819 1511
3014 1115 2472
2915 1027 3042
2919 1001 574
2946 985 579
3037 1153 1594
3082 1443 2588
2959 1108 3125
3143 2283 1028
3148 2305 1362
3189 2418 2137
3247 2652 3028
3054 2255 3292
3128 3202 2719
3149 3208 2795
3215 3239 3025
3306 3303 3314
3179 3152 3489
3290 3592 3338
3301 3591 3362
3337 3588 3434
3374 3595 3538
3179 3603 3651
3571 1129 1028
3572 1132 1032
3572 1257 1659
3567 1567 2701
3553 1878 3346
3572 1353 1058
3574 1370 1064
3587 1344 1665
3583 1600 2726
3568 1923 3375
3600 2422 1339
3600 2436 1483
3596 2515 2183
3592 2648 3007
3586 2642 3472
3600 3301 2372
3598 3303 2510
3595 3314 2896
3593 3342 3327
3595 3363 3611
3553 3636 3524
3556 3637 3537
3567 3642 3580
3585 3654 3646
3608 3673 3723
