Zoran/wed 01.3dl
#25pt 3DLUT created by 3D LUT Creator Pro (c) Oleg Sharonov
#Copyright Oleg Sharonov
#INPUTGAMMA sRGB IEC61966-2.1 v.2.10
#IMAGEPROFILE sRGB IEC61966-2.1 v.2.10
#OUTPUTGAMMA sRGB IEC61966-2.1 v.2.10
0 128 256 384 512 640 768 896 1023
208 175 109
225 180 191
298 213 441
366 233 746
417 246 1087
481 324 1422
548 363 1690
607 383 2005
638 350 2361
366 359 232
336 361 285
267 352 496
346 361 781
415 382 1095
483 412 1436
548 437 1698
608 452 2018
636 422 2369
530 813 497
505 835 543
423 779 705
403 727 945
438 705 1229
494 700 1521
552 701 1759
605 698 2080
618 655 2395
674 1425 844
650 1432 883
484 1436 972
452 1296 1207
443 1210 1447
499 1158 1661
555 1119 1909
591 1073 2216
587 1007 2496
854 2123 1245
832 2124 1274
728 2132 1363
509 2040 1481
481 1875 1669
468 1744 1869
518 1640 2137
551 1551 2406
508 1453 2645
1091 2618 1626
1071 2616 1643
989 2612 1696
749 2615 1765
553 2448 1912
502 2328 2168
432 2229 2398
399 2130 2608
220 2001 2807
1398 3071 2033
1381 3069 2052
1314 3065 2115
1147 3052 2196
665 2999 2245
556 2846 2439
401 2714 2647
222 2608 2854
223 2507 3052
1755 3356 2504
1738 3355 2515
1674 3350 2551
1541 3344 2606
1246 3341 2667
701 3295 2769
413 3216 2951
224 3149 3146
225 3064 3297
2222 3550 2920
2205 3552 2926
2132 3558 2947
2003 3564 2985
1795 3568 3040
1240 3584 3089
532 3545 3214
225 3509 3368
225 3466 3514
331 184 116
378 205 196
439 228 432
474 244 733
511 253 1070
561 320 1416
624 363 1689
681 382 2005
709 345 2366
406 331 155
514 427 343
450 353 492
470 361 779
512 383 1098
566 411 1433
625 438 1698
682 452 2020
707 420 2374
578 800 499
571 826 552
508 785 707
514 733 943
539 708 1224
582 701 1515
634 704 1756
682 700 2079
692 657 2401
678 1422 840
657 1430 879
507 1442 969
514 1296 1206
548 1211 1445
600 1161 1658
644 1120 1905
674 1075 2215
665 1009 2498
856 2122 1241
834 2124 1271
731 2131 1360
509 2040 1479
518 1875 1668
568 1745 1869
617 1641 2135
642 1553 2405
596 1455 2646
1092 2618 1624
1073 2616 1641
990 2611 1695
755 2614 1764
553 2449 1910
514 2328 2167
530 2229 2398
516 2130 2608
395 2004 2809
1399 3070 2031
1382 3069 2050
1315 3065 2113
1149 3052 2195
666 3000 2243
557 2846 2438
403 2714 2646
222 2616 2863
223 2510 3062
1756 3356 2503
1739 3355 2514
1676 3350 2550
1542 3344 2605
1249 3341 2666
702 3296 2768
414 3216 2950
224 3149 3145
225 3068 3301
2223 3550 2919
2206 3552 2925
2133 3558 2946
2004 3564 2985
1798 3568 3039
1246 3584 3089
535 3545 3213
225 3509 3367
225 3466 3513
576 218 141
592 228 195
697 276 418
731 272 692
777 280 1038
826 285 1410
869 357 1683
911 374 2008
928 318 2378
626 318 152
669 294 152
759 285 460
754 331 746
787 376 1082
834 414 1431
877 440 1700
915 450 2025
929 410 2388
855 789 478
900 829 555
1109 996 873
926 811 999
875 745 1248
878 726 1524
907 725 1776
929 711 2101
928 663 2433
999 1372 865
1035 1380 915
1107 1427 1077
962 1341 1223
933 1247 1452
934 1190 1664
935 1136 1904
936 1087 2221
911 1017 2511
1190 2059 1252
1186 2069 1290
1150 2088 1395
941 2069 1486
927 1890 1670
932 1760 1869
948 1665 2140
932 1564 2407
870 1463 2653
1275 2597 1629
1264 2595 1647
1219 2589 1704
1090 2586 1786
878 2452 1909
882 2330 2171
883 2236 2403
847 2138 2610
737 2014 2815
1421 3068 2024
1409 3067 2044
1361 3061 2110
1241 3047 2198
829 3011 2246
791 2853 2441
748 2721 2655
666 2625 2873
439 2533 3091
1760 3356 2498
1743 3354 2509
1681 3350 2546
1549 3343 2601
1259 3340 2663
756 3298 2765
587 3216 2949
242 3154 3152
225 3090 3329
2226 3549 2916
2209 3551 2922
2137 3557 2943
2008 3564 2982
1804 3568 3037
1269 3583 3088
545 3545 3210
225 3510 3366
225 3476 3521
946 250 165
950 250 166
1033 292 395
1149 338 721
1156 315 1024
1204 317 1392
1241 314 1691
1272 340 2042
1278 281 2400
962 328 171
970 330 171
1087 296 409
1195 342 755
1186 316 1067
1219 405 1424
1252 437 1708
1278 442 2059
1273 376 2418
1231 682 210
1272 688 285
1378 781 628
1555 958 1121
1316 759 1243
1295 746 1530
1303 744 1793
1303 723 2139
1288 661 2479
1410 1342 861
1442 1363 913
1565 1459 1115
1755 1605 1429
1588 1429 1567
1438 1269 1706
1387 1198 1964
1350 1133 2284
1302 1048 2574
1544 2022 1291
1568 2027 1328
1657 2048 1454
1786 2103 1625
1580 1998 1713
1496 1846 1904
1438 1728 2172
1373 1612 2441
1279 1486 2680
1762 2516 1644
1783 2515 1666
1856 2511 1744
1810 2538 1869
1565 2519 1953
1476 2357 2186
1417 2264 2424
1342 2169 2630
1228 2063 2860
1966 3005 2050
1963 3007 2076
1950 3016 2163
1886 3013 2268
1706 3001 2356
1422 2884 2469
1343 2751 2684
1250 2653 2894
1082 2573 3126
2097 3337 2523
2094 3338 2539
2064 3334 2579
1996 3328 2639
1847 3322 2709
1430 3318 2786
1273 3230 2963
1076 3168 3169
663 3115 3354
2313 3547 2922
2299 3549 2928
2247 3555 2950
2187 3557 2994
2076 3559 3053
1778 3571 3114
1216 3552 3218
723 3515 3372
225 3498 3542
1436 277 189
1438 277 189
1488 302 370
1603 352 708
1699 395 1102
1672 355 1412
1709 356 1718
1731 345 2096
1731 313 2462
1435 330 190
1439 335 192
1513 303 378
1636 354 725
1735 398 1129
1696 357 1441
1723 418 1741
1738 407 2126
1728 309 2488
1653 654 216
1667 652 216
1758 661 469
1867 767 908
1943 870 1349
1796 764 1550
1786 759 1828
1772 729 2204
1749 644 2553
1915 1233 398
1925 1244 487
1975 1299 778
2101 1443 1240
2246 1669 1715
1974 1322 1742
1897 1244 2019
1845 1173 2357
1789 1071 2657
2003 1991 1299
2021 2002 1336
2088 2051 1469
2199 2150 1664
2316 2241 1940
2221 2126 2153
2044 1888 2304
1935 1726 2542
1820 1562 2780
2109 2498 1692
2123 2500 1714
2168 2509 1796
2247 2529 1961
2360 2580 2234
2181 2479 2317
2064 2347 2495
1949 2244 2696
1819 2137 2935
2278 2981 2103
2288 2980 2127
2323 2976 2214
2384 2971 2354
2374 2990 2503
2164 2973 2542
2051 2833 2746
1930 2721 2947
1788 2637 3171
2454 3300 2560
2462 3298 2575
2491 3293 2629
2481 3302 2719
2425 3306 2807
2290 3312 2883
2034 3266 3007
1876 3201 3203
1603 3148 3383
2618 3530 2952
2616 3531 2962
2608 3534 2998
2587 3539 3052
2527 3542 3110
2409 3552 3173
2069 3571 3244
1737 3531 3388
1210 3516 3559
2027 293 201
2030 293 203
2042 303 317
2113 347 684
2196 419 1125
2247 469 1536
2224 414 1809
2214 389 2202
2209 346 2569
2024 306 203
2026 311 203
2045 304 334
2121 348 696
2212 421 1140
2267 472 1553
2238 414 1831
2224 388 2232
2213 344 2590
2138 644 221
2141 647 221
2206 601 336
2264 682 798
2325 795 1275
2369 888 1670
2286 782 1925
2268 730 2332
2236 586 2666
2320 1189 264
2338 1186 312
2356 1219 635
2405 1296 1058
2497 1443 1549
2534 1540 1937
2371 1296 2117
2327 1217 2465
2275 1074 2763
2462 1916 671
2466 1924 749
2486 1958 999
2529 2031 1380
2625 2173 1808
2726 2314 2391
2501 1997 2413
2407 1824 2648
2328 1634 2903
2476 2493 1716
2485 2499 1739
2520 2519 1826
2581 2564 2013
2673 2650 2311
2760 2728 2590
2687 2619 2767
2508 2393 2870
2401 2265 3086
2553 2988 2221
2561 2989 2245
2588 2993 2328
2636 3000 2454
2707 3013 2621
2811 3044 2833
2640 2976 2883
2537 2869 3060
2423 2754 3247
2703 3309 2644
2709 3309 2659
2731 3306 2711
2769 3303 2796
2824 3299 2912
2831 3313 3037
2674 3336 3096
2518 3257 3256
2361 3195 3422
2874 3530 3022
2879 3529 3031
2895 3527 3064
2924 3522 3117
2937 3525 3189
2891 3540 3262
2754 3558 3318
2496 3558 3422
2261 3538 3576
2557 300 209
2558 300 209
2564 300 209
2599 345 655
2651 412 1138
2712 517 1602
2740 569 2019
2710 478 2421
2670 381 2741
2555 300 209
2556 300 209
2562 300 222
2598 346 672
2654 413 1149
2723 519 1611
2754 572 2039
2722 478 2440
2678 377 2758
2607 646 227
2609 649 228
2635 625 227
2699 619 702
2745 713 1226
2798 840 1684
2820 898 2159
2769 727 2523
2710 419 2834
2739 1196 268
2741 1199 268
2777 1190 472
2802 1243 941
2851 1344 1454
2892 1454 1871
2910 1516 2383
2817 1289 2638
2750 1058 2921
2877 1911 504
2878 1916 597
2887 1939 875
2907 1988 1267
2950 2082 1683
3011 2200 2224
3041 2279 2688
2878 1946 2795
2810 1712 3054
2956 2499 1023
2958 2502 1089
2966 2514 1301
2983 2543 1596
3016 2599 1968
3079 2715 2529
3143 2845 2972
2961 2506 2998
2888 2359 3214
2914 3014 2298
2919 3016 2322
2940 3024 2398
2975 3039 2522
3028 3068 2697
3094 3116 2911
3158 3155 3111
3119 3105 3258
2966 2925 3363
2977 3335 2787
2982 3335 2801
2998 3336 2848
3028 3338 2927
3070 3342 3031
3125 3348 3153
3199 3361 3286
3071 3341 3338
2958 3279 3481
3118 3550 3130
3122 3549 3138
3135 3548 3166
3157 3547 3213
3188 3546 3276
3228 3545 3351
3243 3556 3433
3111 3589 3482
2916 3567 3604
3096 314 222
3098 314 222
3102 314 222
3111 341 582
3140 410 1151
3171 508 1646
3201 646 2172
3206 678 2647
3175 501 2972
3095 314 222
3096 314 222
3101 314 222
3110 342 603
3139 412 1165
3172 509 1653
3208 649 2184
3215 680 2660
3183 498 2985
3114 648 238
3116 652 239
3122 665 239
3175 521 551
3204 610 1182
3231 712 1686
3258 824 2251
3263 734 2724
3219 483 3042
3190 1230 278
3192 1233 278
3210 1216 276
3237 1227 813
3259 1303 1383
3279 1388 1837
3297 1482 2415
3299 1467 2842
3259 1092 3121
3282 1955 336
3289 1949 335
3295 1967 722
3302 2001 1165
3314 2058 1618
3334 2143 2126
3345 2204 2633
3347 2214 3012
3293 1853 3217
3343 2552 945
3344 2554 1014
3345 2563 1240
3349 2582 1557
3356 2615 1909
3370 2679 2442
3391 2769 2900
3396 2814 3211
3333 2474 3332
3372 3078 1528
3373 3079 1556
3375 3082 1680
3378 3089 1920
3382 3102 2318
3392 3128 2717
3411 3177 3100
3432 3240 3381
3364 3024 3441
3303 3372 2894
3306 3372 2906
3316 3374 2949
3332 3379 3020
3354 3387 3116
3380 3400 3229
3408 3423 3353
3441 3447 3474
3422 3411 3570
3347 3578 3273
3349 3578 3279
3356 3578 3302
3369 3579 3340
3386 3581 3391
3408 3584 3452
3434 3588 3519
3463 3594 3587
3403 3606 3635
3482 342 245
3482 342 245
3484 342 245
3487 353 432
3492 408 1132
3496 481 1677
3501 599 2262
3505 758 2786
3502 737 3153
3481 342 245
3482 342 245
3483 342 245
3486 354 458
3491 409 1148
3495 483 1686
3501 601 2271
3508 758 2793
3505 737 3161
3485 643 255
3486 647 255
3488 661 256
3509 438 250
3514 491 1116
3519 569 1687
3525 593 2291
3529 756 2827
3523 740 3196
3510 1277 286
3511 1280 288
3513 1292 288
3525 1247 667
3530 1299 1324
3537 1376 1833
3540 1433 2437
3545 1453 2915
3547 1211 3257
3543 2024 361
3543 2027 366
3544 2038 602
3547 2063 1096
3550 2103 1592
3554 2156 2096
3555 2191 2630
3558 2200 3043
3559 2079 3335
3564 2633 953
3564 2635 1018
3565 2643 1241
3565 2657 1561
3566 2678 1912
3565 2707 2424
3568 2751 2867
3569 2752 3191
3570 2688 3430
3575 3148 1618
3575 3148 1652
3575 3150 1774
3574 3154 2025
3573 3159 2391
3573 3169 2746
3574 3185 3081
3577 3206 3350
3580 3190 3531
3570 3448 2395
3570 3448 2416
3573 3448 2485
3576 3449 2601
3578 3450 2809
3579 3453 3052
3580 3458 3279
3584 3470 3475
3589 3483 3624
3525 3609 3392
3526 3610 3396
3530 3611 3413
3536 3613 3442
3545 3616 3481
3555 3622 3530
3567 3630 3583
3580 3643 3637
3596 3654 3694
