Zoran/wed 013.3dl
#25pt 3DLUT created by 3D LUT Creator Pro (c) Oleg Sharonov
#Copyright Oleg Sharonov
#INPUTGAMMA sRGB IEC61966-2.1 v.2.10
#IMAGEPROFILE sRGB IEC61966-2.1 v.2.10
#OUTPUTGAMMA sRGB IEC61966-2.1 v.2.10
0 43 86 128 171 214 256 299 341 384 427 469 512 555 597 640 682 725 768 810 853 896 938 981 1023 
234 196 126
234 196 126
249 205 161
270 218 230
302 236 317
339 257 415
377 279 530
410 299 653
440 320 786
469 340 925
497 355 1063
524 372 1202
553 387 1343
585 422 1476
626 464 1582
663 492 1673
704 521 1780
745 548 1904
784 574 2041
823 598 2179
855 616 2305
883 630 2411
910 640 2515
931 643 2614
946 635 2708
234 196 126
234 196 126
249 205 161
270 218 230
302 236 317
339 257 415
377 279 530
410 299 653
440 320 786
469 340 925
497 355 1063
524 372 1202
553 387 1343
585 422 1476
626 464 1582
663 492 1673
704 521 1780
745 548 1904
784 574 2041
823 598 2179
855 616 2305
883 630 2411
910 640 2515
931 643 2614
946 635 2708
299 261 171
299 261 171
278 252 186
270 256 249
283 271 324
306 296 426
327 307 539
378 298 668
419 320 804
450 339 945
479 354 1078
513 399 1213
551 435 1349
589 464 1478
628 491 1583
665 515 1676
706 543 1783
747 569 1907
786 593 2044
824 616 2182
856 634 2306
884 648 2413
911 657 2516
932 660 2616
947 653 2710
433 425 298
433 425 298
430 438 316
408 428 355
398 424 419
382 423 499
358 427 600
374 440 719
426 456 848
459 471 972
491 488 1099
525 507 1232
561 529 1365
598 551 1490
634 572 1591
672 593 1688
713 617 1795
753 641 1921
792 663 2057
828 684 2194
859 698 2314
887 709 2421
913 718 2524
934 720 2622
949 714 2716
520 591 410
520 591 410
516 605 430
486 615 460
473 595 525
465 590 609
458 585 697
458 584 797
470 590 913
489 597 1029
515 609 1153
544 622 1279
576 639 1405
609 655 1516
642 669 1607
679 689 1704
719 709 1811
758 729 1935
795 748 2071
829 764 2201
862 777 2323
891 787 2432
916 794 2534
936 795 2631
949 788 2723
610 805 542
610 805 542
604 818 564
580 840 599
535 813 639
524 792 722
513 773 804
507 763 896
511 760 1001
523 758 1107
542 761 1223
566 768 1340
594 777 1458
624 783 1551
657 794 1643
694 808 1738
731 823 1845
768 838 1970
803 851 2098
833 860 2218
862 867 2333
891 875 2440
915 880 2540
935 878 2636
947 872 2729
701 1043 688
701 1043 688
692 1052 709
666 1063 739
594 1071 761
576 1022 834
564 994 921
556 978 1013
551 960 1105
554 945 1201
570 938 1303
591 936 1413
615 934 1511
644 936 1600
676 942 1687
710 949 1782
746 957 1892
780 966 2017
812 971 2135
841 975 2251
870 980 2364
897 983 2465
918 983 2561
935 978 2653
945 967 2741
788 1292 837
788 1292 837
779 1297 856
757 1307 887
713 1324 923
629 1287 955
615 1242 1038
604 1208 1128
594 1177 1213
588 1153 1302
594 1135 1397
613 1124 1491
638 1116 1574
666 1111 1655
697 1109 1741
730 1109 1839
763 1109 1952
794 1110 2070
822 1107 2183
852 1107 2297
880 1108 2404
905 1106 2499
924 1101 2591
938 1093 2679
944 1077 2762
874 1543 991
874 1543 991
865 1547 1008
846 1556 1039
809 1568 1074
726 1576 1095
664 1503 1152
649 1453 1235
636 1406 1319
630 1378 1407
627 1356 1495
636 1332 1571
657 1314 1642
685 1300 1718
719 1292 1804
749 1284 1907
780 1277 2021
808 1266 2129
836 1260 2242
865 1256 2351
890 1249 2447
912 1243 2539
930 1233 2626
940 1220 2711
941 1198 2786
959 1827 1147
959 1827 1147
949 1827 1160
928 1830 1186
896 1836 1217
839 1845 1251
718 1822 1277
698 1735 1347
687 1674 1431
677 1625 1512
671 1588 1581
666 1552 1646
677 1523 1715
701 1500 1792
731 1482 1882
765 1468 1986
795 1452 2090
823 1439 2201
851 1427 2308
876 1415 2406
900 1403 2496
919 1390 2583
934 1375 2666
940 1355 2743
936 1328 2814
1047 2087 1302
1047 2087 1302
1038 2088 1315
1019 2090 1338
991 2093 1369
945 2098 1403
861 2108 1433
751 2037 1460
739 1973 1529
728 1916 1597
716 1855 1659
711 1807 1723
707 1765 1795
719 1728 1878
745 1697 1973
774 1669 2074
805 1646 2177
838 1625 2279
865 1606 2375
888 1585 2463
909 1566 2548
925 1546 2630
935 1524 2707
935 1497 2777
928 1466 2845
1140 2274 1454
1140 2274 1454
1132 2274 1466
1115 2275 1485
1090 2276 1509
1051 2279 1537
984 2278 1560
818 2275 1565
793 2206 1614
781 2157 1674
768 2105 1736
758 2055 1806
754 2015 1886
751 1978 1979
762 1942 2076
786 1904 2170
813 1870 2265
843 1841 2358
872 1813 2442
898 1787 2522
916 1758 2601
929 1729 2679
932 1693 2748
928 1655 2814
914 1615 2878
1238 2440 1583
1238 2440 1583
1230 2441 1592
1214 2440 1606
1189 2438 1624
1153 2435 1645
1098 2433 1667
1010 2433 1687
857 2396 1703
839 2338 1756
827 2293 1824
817 2252 1905
807 2215 1997
803 2184 2089
796 2149 2177
803 2114 2266
825 2081 2352
848 2048 2431
873 2018 2508
897 1989 2584
916 1958 2658
927 1923 2725
926 1881 2790
920 1844 2860
912 1817 2941
1339 2622 1699
1339 2622 1699
1332 2621 1706
1317 2620 1720
1295 2618 1738
1263 2616 1761
1219 2614 1787
1152 2614 1815
1029 2619 1832
907 2535 1857
893 2474 1930
881 2425 2016
870 2382 2107
857 2341 2195
848 2307 2278
837 2275 2357
840 2244 2432
855 2215 2503
874 2186 2574
893 2159 2646
905 2128 2711
914 2098 2779
924 2078 2857
923 2055 2934
906 2026 3009
1450 2799 1831
1450 2799 1831
1443 2798 1839
1430 2796 1854
1410 2795 1875
1383 2793 1901
1344 2791 1931
1289 2789 1964
1202 2788 1993
995 2761 1986
965 2677 2046
951 2619 2128
937 2565 2213
920 2510 2294
904 2461 2371
891 2422 2440
875 2387 2507
869 2354 2574
877 2323 2640
892 2301 2715
908 2282 2792
918 2263 2867
920 2243 2939
911 2222 3009
886 2198 3076
1567 2950 1991
1567 2950 1991
1560 2949 2000
1548 2947 2015
1531 2946 2037
1507 2944 2063
1473 2942 2093
1424 2937 2124
1352 2931 2150
1234 2927 2165
1051 2873 2170
1029 2810 2241
1008 2751 2313
988 2694 2384
967 2639 2451
947 2589 2518
933 2553 2589
914 2518 2660
905 2488 2733
914 2465 2812
919 2440 2883
919 2415 2951
910 2390 3017
886 2365 3081
838 2339 3142
1689 3074 2164
1689 3074 2164
1683 3074 2171
1672 3072 2186
1655 3070 2203
1631 3066 2224
1598 3062 2249
1554 3057 2275
1494 3051 2300
1406 3047 2322
1244 3045 2322
1120 2980 2356
1096 2929 2418
1075 2881 2484
1055 2835 2552
1033 2789 2621
1009 2746 2690
987 2710 2756
964 2681 2830
942 2653 2901
933 2624 2970
917 2591 3032
889 2558 3091
812 2523 3147
809 2493 3201
1813 3176 2328
1813 3176 2328
1808 3175 2334
1796 3174 2345
1780 3171 2359
1759 3169 2377
1730 3165 2397
1692 3162 2419
1641 3158 2441
1571 3154 2462
1463 3151 2477
1243 3135 2477
1213 3090 2536
1184 3047 2595
1156 3005 2656
1128 2965 2719
1096 2925 2783
1070 2893 2853
1042 2865 2921
1002 2837 2986
955 2808 3049
910 2775 3106
848 2738 3158
842 2705 3210
834 2672 3259
1944 3266 2474
1944 3266 2474
1939 3265 2479
1929 3264 2488
1915 3262 2500
1895 3259 2514
1869 3257 2531
1835 3253 2550
1790 3250 2570
1730 3246 2590
1645 3243 2608
1513 3244 2620
1343 3224 2650
1304 3184 2701
1268 3147 2755
1231 3110 2812
1198 3079 2875
1166 3050 2942
1127 3022 3006
1080 2997 3065
1017 2971 3123
892 2940 3174
882 2909 3222
872 2878 3269
865 2850 3318
2070 3344 2611
2070 3344 2611
2066 3343 2614
2057 3342 2622
2045 3340 2632
2028 3338 2644
2005 3335 2658
1976 3333 2675
1937 3330 2693
1885 3327 2711
1817 3325 2731
1727 3328 2754
1551 3337 2762
1440 3301 2806
1391 3266 2851
1345 3233 2902
1312 3208 2963
1271 3183 3023
1223 3158 3083
1165 3133 3139
1093 3110 3191
978 3086 3242
917 3056 3283
907 3031 3328
904 3010 3375
2185 3412 2739
2185 3412 2739
2182 3411 2743
2174 3410 2749
2164 3409 2757
2150 3407 2767
2131 3405 2779
2107 3403 2794
2075 3400 2809
2039 3400 2831
1990 3401 2853
1921 3403 2874
1811 3407 2892
1590 3402 2903
1528 3369 2943
1480 3342 2992
1437 3319 3046
1388 3297 3100
1331 3274 3153
1261 3252 3205
1174 3230 3255
1057 3210 3302
961 3186 3345
951 3164 3386
939 3143 3427
2289 3472 2860
2289 3472 2860
2286 3472 2863
2280 3471 2868
2271 3470 2875
2260 3469 2885
2248 3469 2898
2231 3468 2913
2210 3468 2930
2183 3468 2948
2145 3468 2967
2093 3469 2986
2015 3472 3004
1879 3477 3015
1686 3461 3034
1628 3437 3078
1572 3415 3123
1512 3395 3170
1442 3374 3216
1359 3354 3262
1255 3333 3307
1127 3316 3355
999 3298 3398
982 3278 3437
965 3258 3474
2395 3528 2979
2395 3528 2979
2393 3528 2982
2388 3527 2987
2381 3527 2993
2372 3526 3002
2360 3526 3012
2345 3525 3023
2325 3525 3037
2301 3525 3051
2269 3524 3066
2227 3525 3082
2170 3526 3097
2081 3529 3110
1874 3538 3110
1776 3517 3151
1706 3497 3190
1634 3478 3230
1553 3461 3272
1457 3443 3314
1345 3426 3357
1220 3414 3405
1039 3399 3449
1015 3380 3485
989 3362 3519
2493 3575 3081
2493 3575 3081
2491 3575 3083
2486 3574 3087
2480 3574 3093
2471 3574 3099
2459 3573 3107
2445 3573 3117
2427 3573 3128
2404 3572 3140
2376 3573 3152
2340 3573 3165
2293 3574 3178
2228 3577 3190
2124 3581 3200
1943 3586 3221
1856 3568 3254
1769 3552 3289
1675 3537 3325
1566 3522 3363
1463 3512 3408
1329 3502 3452
1088 3491 3495
1049 3473 3529
1012 3456 3561
2638 3606 3182
2638 3606 3182
2634 3606 3184
2626 3607 3186
2614 3608 3189
2599 3610 3193
2579 3612 3198
2554 3614 3203
2528 3616 3211
2507 3616 3221
2480 3616 3231
2447 3617 3242
2405 3618 3253
2351 3620 3264
2286 3626 3279
2181 3636 3293
2022 3632 3316
1921 3618 3345
1811 3604 3377
1708 3595 3415
1599 3587 3456
1456 3579 3497
1241 3572 3538
1087 3557 3570
1028 3541 3600
234 196 126
234 196 126
249 205 161
270 218 230
302 236 317
339 257 415
377 279 530
410 299 653
440 320 786
469 340 925
497 355 1063
524 372 1202
553 387 1343
585 422 1476
626 464 1582
663 492 1673
704 521 1780
745 548 1904
784 574 2041
823 598 2179
855 616 2305
883 630 2411
910 640 2515
931 643 2614
946 635 2708
234 196 126
234 196 126
249 205 161
270 218 230
302 236 317
339 257 415
377 279 530
410 299 653
440 320 786
469 340 925
497 355 1063
524 372 1202
553 387 1343
585 422 1476
626 464 1582
663 492 1673
704 521 1780
745 548 1904
784 574 2041
823 598 2179
855 616 2305
883 630 2411
910 640 2515
931 643 2614
946 635 2708
299 261 171
299 261 171
278 252 186
270 256 249
283 271 324
306 296 426
327 307 539
378 298 668
419 320 804
450 339 945
479 354 1078
513 399 1213
551 435 1349
589 464 1478
628 491 1583
665 515 1676
706 543 1783
747 569 1907
786 593 2044
824 616 2182
856 634 2306
884 648 2413
911 657 2516
932 660 2616
947 653 2710
433 425 298
433 425 298
430 438 316
408 428 355
398 424 419
382 423 499
358 427 600
374 440 719
426 456 848
459 471 972
491 488 1099
525 507 1232
561 529 1365
598 551 1490
634 572 1591
672 593 1688
713 617 1795
753 641 1921
792 663 2057
828 684 2194
859 698 2314
887 709 2421
913 718 2524
934 720 2622
949 714 2716
520 591 410
520 591 410
516 605 430
486 615 460
473 595 525
465 590 609
458 585 697
458 584 797
470 590 913
489 597 1029
515 609 1153
544 622 1279
576 639 1405
609 655 1516
642 669 1607
679 689 1704
719 709 1811
758 729 1935
795 748 2071
829 764 2201
862 777 2323
891 787 2432
916 794 2534
936 795 2631
949 788 2723
610 805 542
610 805 542
604 818 564
580 840 599
535 813 639
524 792 722
513 773 804
507 763 896
511 760 1001
523 758 1107
542 761 1223
566 768 1340
594 777 1458
624 783 1551
657 794 1643
694 808 1738
731 823 1845
768 838 1970
803 851 2098
833 860 2218
862 867 2333
891 875 2440
915 880 2540
935 878 2636
947 872 2729
701 1043 688
701 1043 688
692 1052 709
666 1063 739
594 1071 761
576 1022 834
564 994 921
556 978 1013
551 960 1105
554 945 1201
570 938 1303
591 936 1413
615 934 1511
644 936 1600
676 942 1687
710 949 1782
746 957 1892
780 966 2017
812 971 2135
841 975 2251
870 980 2364
897 983 2465
918 983 2561
935 978 2653
945 967 2741
788 1292 837
788 1292 837
779 1297 856
757 1307 887
713 1324 923
629 1287 955
615 1242 1038
604 1208 1128
594 1177 1213
588 1153 1302
594 1135 1397
613 1124 1491
638 1116 1574
666 1111 1655
697 1109 1741
730 1109 1839
763 1109 1952
794 1110 2070
822 1107 2183
852 1107 2297
880 1108 2404
905 1106 2499
924 1101 2591
938 1093 2679
944 1077 2762
874 1543 991
874 1543 991
865 1547 1008
846 1556 1039
809 1568 1074
726 1576 1095
664 1503 1152
649 1453 1235
636 1406 1319
630 1378 1407
627 1356 1495
636 1332 1571
657 1314 1642
685 1300 1718
719 1292 1804
749 1284 1907
780 1277 2021
808 1266 2129
836 1260 2242
865 1256 2351
890 1249 2447
912 1243 2539
930 1233 2626
940 1220 2711
941 1198 2786
959 1827 1147
959 1827 1147
949 1827 1160
928 1830 1186
896 1836 1217
839 1845 1251
718 1822 1277
698 1735 1347
687 1674 1431
677 1625 1512
671 1588 1581
666 1552 1646
677 1523 1715
701 1500 1792
731 1482 1882
765 1468 1986
795 1452 2090
823 1439 2201
851 1427 2308
876 1415 2406
900 1403 2496
919 1390 2583
934 1375 2666
940 1355 2743
936 1328 2814
1047 2087 1302
1047 2087 1302
1038 2088 1315
1019 2090 1338
991 2093 1369
945 2098 1403
861 2108 1433
751 2037 1460
739 1973 1529
728 1916 1597
716 1855 1659
711 1807 1723
707 1765 1795
719 1728 1878
745 1697 1973
774 1669 2074
805 1646 2177
838 1625 2279
865 1606 2375
888 1585 2463
909 1566 2548
925 1546 2630
935 1524 2707
935 1497 2777
928 1466 2845
