Zoran/wed 013.3dl
#25pt 3DLUT created by 3D LUT Creator Pro (c) Oleg Sharonov
#Copyright Oleg Sharonov
#INPUTGAMMA sRGB IEC61966-2.1 v.2.10
#IMAGEPROFILE sRGB IEC61966-2.1 v.2.10
#OUTPUTGAMMA sRGB IEC61966-2.1 v.2.10
0 128 256 384 512 640 768 896 1023
234 196 126
270 218 230
377 279 530
469 340 925
553 387 1343
663 492 1673
784 574 2041
883 630 2411
946 635 2708
433 425 298
408 428 355
358 427 600
459 471 972
561 529 1365
672 593 1688
792 663 2057
887 709 2421
949 714 2716
701 1043 688
666 1063 739
564 994 921
554 945 1201
615 934 1511
710 949 1782
812 971 2135
897 983 2465
945 967 2741
959 1827 1147
928 1830 1186
718 1822 1277
677 1625 1512
677 1523 1715
765 1468 1986
851 1427 2308
919 1390 2583
936 1328 2814
1238 2440 1583
1214 2440 1606
1098 2433 1667
839 2338 1756
807 2215 1997
803 2114 2266
873 2018 2508
927 1923 2725
912 1817 2941
1567 2950 1991
1548 2947 2015
1473 2942 2093
1234 2927 2165
1008 2751 2313
947 2589 2518
905 2488 2733
919 2415 2951
838 2339 3142
1944 3266 2474
1929 3264 2488
1869 3257 2531
1730 3246 2590
1343 3224 2650
1231 3110 2812
1127 3022 3006
892 2940 3174
865 2850 3318
2289 3472 2860
2280 3471 2868
2248 3469 2898
2183 3468 2948
2015 3472 3004
1628 3437 3078
1442 3374 3216
1127 3316 3355
965 3258 3474
2638 3606 3182
2626 3607 3186
2579 3612 3198
2507 3616 3221
2405 3618 3253
2181 3636 3293
1811 3604 3377
1456 3579 3497
1028 3541 3600
375 222 145
432 257 246
511 303 520
591 355 915
674 400 1334
771 494 1673
879 577 2039
967 633 2414
1022 635 2712
470 394 212
602 511 429
547 446 622
597 479 979
684 536 1370
783 600 1690
887 669 2057
972 715 2425
1025 716 2720
768 1031 692
760 1062 756
675 1008 927
699 963 1207
746 943 1509
823 956 1778
911 979 2136
983 990 2468
1025 974 2746
964 1824 1142
937 1827 1182
748 1831 1274
755 1627 1511
811 1531 1715
887 1474 1980
955 1432 2306
1009 1394 2581
1019 1334 2816
1239 2440 1580
1216 2440 1604
1101 2432 1665
839 2338 1754
850 2216 1995
917 2119 2267
983 2021 2506
1023 1927 2725
1007 1827 2946
1567 2949 1988
1549 2947 2013
1475 2941 2091
1238 2926 2165
1009 2752 2311
958 2589 2517
1000 2490 2733
1031 2420 2955
972 2346 3147
1945 3266 2473
1930 3264 2486
1870 3256 2529
1731 3246 2589
1343 3224 2648
1231 3111 2811
1128 3022 3005
1035 2946 3179
866 2853 3325
2290 3472 2859
2280 3471 2867
2248 3469 2897
2183 3468 2947
2017 3471 3003
1629 3438 3077
1443 3374 3215
1129 3315 3354
964 3260 3477
2639 3606 3182
2626 3607 3185
2580 3612 3197
2508 3616 3220
2406 3618 3253
2183 3636 3293
1812 3605 3376
1458 3579 3496
1028 3541 3599
664 282 193
680 298 258
849 376 541
930 400 895
1024 442 1324
1090 476 1670
1166 586 2041
1228 643 2423
1258 628 2724
726 389 218
780 369 221
936 395 605
970 468 970
1042 551 1377
1108 619 1695
1176 684 2062
1234 729 2437
1262 720 2732
1106 1029 682
1165 1080 777
1423 1290 1155
1214 1078 1285
1158 1006 1537
1183 1006 1806
1219 1014 2161
1261 1021 2497
1275 994 2773
1337 1757 1175
1380 1769 1233
1468 1828 1411
1294 1701 1536
1265 1586 1728
1259 1509 1985
1275 1462 2313
1285 1414 2583
1273 1353 2828
1593 2382 1591
1591 2389 1621
1553 2398 1702
1325 2369 1772
1297 2227 2001
1309 2138 2276
1325 2047 2508
1316 1945 2726
1292 1860 2968
1742 2931 1999
1733 2928 2024
1692 2921 2107
1563 2905 2204
1329 2759 2316
1323 2601 2527
1347 2503 2739
1362 2437 2964
1310 2367 3160
1963 3265 2469
1952 3262 2483
1910 3254 2528
1810 3242 2593
1478 3228 2646
1437 3115 2814
1421 3025 3006
1387 2954 3183
1240 2871 3339
2292 3472 2856
2282 3471 2864
2250 3468 2893
2185 3467 2944
2024 3471 3001
1664 3438 3074
1557 3375 3214
1391 3316 3353
1063 3273 3492
2640 3605 3180
2628 3606 3183
2582 3611 3195
2510 3615 3218
2409 3618 3251
2191 3635 3292
1817 3605 3374
1515 3579 3495
1026 3548 3604
1146 356 261
1151 357 263
1277 419 547
1449 501 961
1479 501 1323
1538 535 1671
1586 573 2065
1616 639 2453
1631 633 2751
1175 436 274
1185 438 275
1346 428 571
1506 512 1006
1510 508 1369
1556 638 1700
1598 710 2088
1626 750 2468
1627 719 2766
1546 909 366
1595 921 455
1722 1048 884
1923 1275 1442
1674 1054 1554
1651 1050 1821
1653 1057 2193
1666 1062 2539
1646 1017 2809
1789 1718 1182
1823 1745 1243
1953 1867 1460
2129 2036 1728
1971 1827 1870
1813 1627 2073
1759 1547 2379
1723 1486 2643
1671 1403 2880
1954 2348 1624
1978 2351 1654
2062 2364 1762
2171 2404 1982
1980 2313 2089
1888 2205 2316
1823 2111 2537
1758 2006 2756
1718 1928 3011
2171 2853 2027
2188 2850 2059
2243 2843 2172
2214 2864 2324
1992 2819 2366
1907 2649 2559
1865 2546 2766
1833 2470 2976
1779 2408 3187
2350 3213 2499
2349 3214 2519
2344 3220 2587
2300 3212 2658
2183 3202 2720
1988 3134 2838
1927 3036 3017
1882 2973 3192
1768 2903 3356
2490 3455 2882
2489 3455 2894
2469 3451 2923
2436 3448 2974
2368 3449 3037
2123 3444 3081
2036 3380 3220
1901 3322 3358
1706 3287 3501
2702 3603 3185
2693 3604 3189
2657 3608 3202
2617 3609 3229
2549 3610 3265
2414 3620 3307
2171 3608 3381
1992 3582 3497
1581 3562 3614
1766 429 334
1769 429 334
1831 466 555
1969 551 973
2074 643 1429
2057 624 1710
2071 660 2104
2082 694 2499
2082 718 2805
1767 482 338
1772 486 339
1860 470 569
2004 559 995
2106 653 1458
2081 633 1739
2083 732 2138
2088 761 2523
2078 718 2826
2025 902 406
2038 902 407
2123 927 720
2215 1075 1227
2281 1221 1660
2159 1106 1863
2142 1117 2258
2126 1107 2591
2094 1044 2871
2265 1592 690
2273 1607 794
2312 1678 1117
2415 1869 1586
2546 2120 2132
2295 1720 2143
2232 1631 2438
2185 1558 2707
2138 1469 2960
2330 2323 1640
2345 2330 1670
2397 2363 1787
2494 2442 2052
2603 2538 2390
2506 2415 2549
2343 2240 2652
2268 2143 2867
2207 2039 3089
2425 2828 2105
2437 2829 2137
2476 2835 2248
2547 2848 2418
2651 2887 2635
2473 2779 2671
2399 2665 2848
2327 2557 3026
2262 2471 3228
2587 3189 2546
2596 3188 2566
2628 3183 2631
2683 3177 2737
2677 3188 2856
2508 3183 2893
2428 3083 3056
2369 3017 3222
2288 2948 3377
2764 3420 2916
2770 3418 2928
2795 3412 2969
2790 3418 3035
2754 3423 3103
2654 3429 3158
2480 3396 3245
2386 3339 3376
2278 3305 3513
2922 3585 3210
2921 3586 3217
2917 3588 3240
2906 3591 3275
2864 3592 3310
2779 3598 3348
2587 3618 3404
2447 3588 3506
2264 3573 3623
2351 506 412
2353 507 412
2365 523 546
2433 600 984
2515 730 1474
2562 840 1860
2523 809 2245
2504 827 2603
2481 836 2897
2348 519 412
2350 524 413
2368 526 567
2441 604 998
2531 738 1488
2582 850 1885
2537 815 2273
2512 831 2624
2483 836 2913
2460 932 466
2463 936 467
2529 895 608
2583 1014 1135
2641 1171 1613
2678 1308 2069
2587 1207 2380
2544 1170 2694
2513 1083 2987
2642 1555 588
2659 1553 643
2674 1599 997
2716 1706 1443
2796 1911 1897
2822 2040 2406
2660 1747 2539
2597 1653 2804
2566 1561 3080
2762 2280 1095
2765 2285 1172
2779 2308 1420
2815 2360 1732
2895 2487 2283
2980 2657 2782
2759 2332 2758
2683 2240 2969
2633 2153 3194
2753 2817 2154
2761 2821 2186
2790 2838 2296
2842 2874 2470
2917 2941 2701
2992 2999 2926
2923 2913 3049
2797 2741 3153
2710 2607 3315
2826 3188 2644
2832 3188 2662
2855 3190 2724
2894 3193 2824
2953 3200 2957
3043 3221 3115
2916 3183 3162
2834 3108 3283
2744 3029 3418
2960 3421 2986
2965 3420 2997
2984 3418 3035
3016 3414 3097
3063 3409 3177
3073 3418 3263
2942 3431 3292
2840 3377 3412
2734 3334 3534
3118 3581 3261
3121 3580 3267
3135 3578 3288
3157 3573 3323
3170 3575 3371
3137 3585 3417
3050 3602 3459
2878 3602 3527
2748 3586 3636
2877 617 523
2879 617 524
2884 619 525
2912 697 1012
2954 819 1511
3002 998 1968
3014 1115 2472
2964 1064 2781
2915 1027 3042
2875 616 523
2877 617 523
2882 620 537
2911 699 1030
2956 823 1521
3011 1005 1982
3027 1124 2489
2974 1070 2797
2922 1031 3056
2919 1001 574
2922 1005 575
2946 985 579
3003 1013 1087
3037 1153 1594
3075 1334 2099
3082 1443 2588
3012 1305 2866
2959 1108 3125
3036 1597 695
3038 1600 696
3070 1600 908
3086 1680 1368
3122 1830 1802
3149 1990 2354
3153 2084 2770
3052 1848 2962
3001 1674 3199
3143 2283 1028
3144 2288 1111
3148 2305 1362
3160 2341 1674
3189 2418 2137
3231 2547 2664
3247 2652 3028
3097 2346 3081
3054 2255 3292
3185 2825 1551
3186 2828 1595
3190 2839 1741
3199 2865 2042
3220 2916 2473
3267 3013 2910
3312 3113 3238
3174 2863 3240
3108 2726 3388
3128 3202 2719
3132 3203 2737
3149 3208 2795
3176 3219 2892
3215 3239 3025
3262 3273 3178
3306 3303 3314
3279 3266 3408
3179 3152 3489
3182 3435 3098
3186 3435 3107
3198 3435 3140
3220 3436 3193
3250 3438 3264
3289 3442 3345
3339 3451 3435
3262 3439 3472
3180 3391 3565
3290 3592 3338
3293 3592 3343
3301 3591 3362
3316 3589 3392
3337 3588 3434
3362 3586 3483
3374 3595 3538
3302 3621 3571
3179 3603 3651
3333 813 719
3334 814 720
3337 816 723
3341 864 1057
3354 988 1572
3365 1153 2060
3375 1362 2606
3368 1465 2982
3335 1388 3217
3332 812 719
3333 813 719
3336 815 722
3340 867 1076
3353 991 1582
3365 1156 2071
3379 1368 2615
3374 1473 2992
3340 1392 3226
3343 1130 761
3344 1134 763
3348 1148 767
3381 1053 1060
3392 1194 1608
3400 1354 2130
3408 1532 2671
3403 1547 3042
3365 1428 3270
3385 1710 878
3386 1714 878
3397 1700 885
3409 1743 1350
3419 1868 1788
3422 2003 2345
3427 2135 2807
3420 2166 3132
3392 1936 3332
3431 2329 1055
3436 2326 1058
3437 2343 1356
3437 2373 1669
3440 2426 2100
3447 2519 2611
3449 2604 2991
3444 2639 3256
3406 2401 3392
3454 2877 1603
3454 2879 1643
3454 2889 1785
3453 2907 2081
3453 2939 2475
3461 2998 2863
3470 3073 3194
3471 3113 3398
3421 2868 3462
3457 3248 2125
3457 3248 2156
3457 3250 2304
3457 3255 2522
3459 3267 2790
3464 3289 3071
3476 3331 3327
3493 3386 3515
3439 3223 3536
3401 3459 3186
3403 3459 3194
3410 3461 3222
3420 3464 3268
3434 3470 3330
3451 3480 3404
3470 3498 3486
3493 3517 3567
3484 3496 3630
3433 3611 3438
3435 3611 3442
3439 3611 3457
3448 3612 3481
3459 3613 3515
3474 3616 3555
3492 3620 3599
3512 3625 3644
3475 3633 3676
3571 1129 1028
3571 1129 1029
3572 1132 1032
3573 1154 1168
3572 1257 1659
3569 1389 2182
3567 1567 2701
3563 1796 3096
3553 1878 3346
3570 1128 1027
3571 1129 1028
3572 1132 1031
3573 1156 1187
3571 1259 1669
3568 1391 2193
3566 1569 2707
3565 1802 3101
3556 1886 3351
3572 1353 1058
3572 1357 1059
3574 1370 1064
3589 1233 1076
3587 1344 1665
3584 1479 2210
3583 1600 2726
3579 1838 3125
3568 1923 3375
3584 1917 1163
3585 1921 1165
3586 1933 1169
3593 1921 1432
3592 2011 1847
3590 2125 2410
3589 2211 2850
3586 2274 3191
3583 2212 3417
3600 2422 1339
3600 2424 1343
3600 2436 1483
3598 2465 1749
3596 2515 2183
3594 2587 2642
3592 2648 3007
3589 2693 3282
3586 2642 3472
3603 2957 1755
3603 2960 1791
3603 2967 1940
3600 2981 2224
3597 3003 2555
3595 3034 2887
3594 3077 3183
3591 3093 3386
3590 3074 3539
3600 3301 2372
3599 3301 2404
3598 3303 2510
3596 3307 2681
3595 3314 2896
3594 3325 3122
3593 3342 3327
3594 3366 3496
3595 3363 3611
3588 3516 2931
3589 3516 2944
3590 3517 2986
3593 3517 3056
3593 3518 3177
3592 3522 3318
3593 3528 3454
3596 3542 3579
3602 3556 3676
3553 3636 3524
3554 3636 3526
3556 3637 3537
3561 3639 3555
3567 3642 3580
3576 3646 3611
3585 3654 3646
3595 3664 3683
3608 3673 3723
