Zoran/wed 01.3dl
#25pt 3DLUT created by 3D LUT Creator Pro (c) Oleg Sharonov
#Copyright Oleg Sharonov
#INPUTGAMMA sRGB IEC61966-2.1 v.2.10
#IMAGEPROFILE sRGB IEC61966-2.1 v.2.10
#OUTPUTGAMMA sRGB IEC61966-2.1 v.2.10
0 256 512 768 1023
208 175 109
298 213 441
417 246 1087
548 363 1690
638 350 2361
530 813 497
423 779 705
438 705 1229
552 701 1759
618 655 2395
854 2123 1245
728 2132 1363
481 1875 1669
518 1640 2137
508 1453 2645
1398 3071 2033
1314 3065 2115
665 2999 2245
401 2714 2647
223 2507 3052
2222 3550 2920
2132 3558 2947
1795 3568 3040
532 3545 3214
225 3466 3514
576 218 141
697 276 418
777 280 1038
869 357 1683
928 318 2378
855 789 478
1109 996 873
875 745 1248
907 725 1776
928 663 2433
1190 2059 1252
1150 2088 1395
927 1890 1670
948 1665 2140
870 1463 2653
1421 3068 2024
1361 3061 2110
829 3011 2246
748 2721 2655
439 2533 3091
2226 3549 2916
2137 3557 2943
1804 3568 3037
545 3545 3210
225 3476 3521
1436 277 189
1488 302 370
1699 395 1102
1709 356 1718
1731 313 2462
1653 654 216
1758 661 469
1943 870 1349
1786 759 1828
1749 644 2553
2003 1991 1299
2088 2051 1469
2316 2241 1940
2044 1888 2304
1820 1562 2780
2278 2981 2103
2323 2976 2214
2374 2990 2503
2051 2833 2746
1788 2637 3171
2618 3530 2952
2608 3534 2998
2527 3542 3110
2069 3571 3244
1210 3516 3559
2557 300 209
2564 300 209
2651 412 1138
2740 569 2019
2670 381 2741
2607 646 227
2635 625 227
2745 713 1226
2820 898 2159
2710 419 2834
2877 1911 504
2887 1939 875
2950 2082 1683
3041 2279 2688
2810 1712 3054
2914 3014 2298
2940 3024 2398
3028 3068 2697
3158 3155 3111
2966 2925 3363
3118 3550 3130
3135 3548 3166
3188 3546 3276
3243 3556 3433
2916 3567 3604
3482 342 245
3484 342 245
3492 408 1132
3501 599 2262
3502 737 3153
3485 643 255
3488 661 256
3514 491 1116
3525 593 2291
3523 740 3196
3543 2024 361
3544 2038 602
3550 2103 1592
3555 2191 2630
3559 2079 3335
3575 3148 1618
3575 3150 1774
3573 3159 2391
3574 3185 3081
3580 3190 3531
3525 3609 3392
3530 3611 3413
3545 3616 3481
3567 3630 3583
3596 3654 3694
