Zoran/wed 01.3dl
#25pt 3DLUT created by 3D LUT Creator Pro (c) Oleg Sharonov
#Copyright Oleg Sharonov
#INPUTGAMMA sRGB IEC61966-2.1 v.2.10
#IMAGEPROFILE sRGB IEC61966-2.1 v.2.10
#OUTPUTGAMMA sRGB IEC61966-2.1 v.2.10
0 43 86 128 171 214 256 299 341 384 427 469 512 555 597 640 682 725 768 810 853 896 938 981 1023 
208 175 109
208 175 109
214 176 137
225 180 191
244 190 263
268 199 342
298 213 441
328 222 544
347 227 641
366 233 746
384 238 857
401 242 973
417 246 1087
434 272 1196
457 305 1309
481 324 1422
503 340 1523
527 353 1611
548 363 1690
568 373 1779
589 380 1885
607 383 2005
623 381 2128
634 371 2251
638 350 2361
208 175 109
208 175 109
214 176 137
225 180 191
244 190 263
268 199 342
298 213 441
328 222 544
347 227 641
366 233 746
384 238 857
401 242 973
417 246 1087
434 272 1196
457 305 1309
481 324 1422
503 340 1523
527 353 1611
548 363 1690
568 373 1779
589 380 1885
607 383 2005
623 381 2128
634 371 2251
638 350 2361
254 222 140
254 222 140
233 213 153
221 212 203
225 220 266
238 232 352
251 240 454
290 221 560
320 227 656
344 233 763
365 239 873
389 274 984
412 298 1088
435 315 1197
458 331 1312
482 345 1425
505 359 1525
527 371 1612
548 381 1692
568 389 1781
589 395 1888
607 398 2007
623 397 2131
634 387 2254
638 367 2362
366 359 232
366 359 232
362 371 249
336 361 285
323 358 347
298 353 413
267 352 496
269 352 582
314 355 679
346 361 781
372 367 887
395 374 992
415 382 1095
438 390 1208
461 401 1324
483 412 1436
506 421 1535
528 430 1619
548 437 1698
570 445 1791
590 450 1899
608 452 2018
623 450 2141
633 441 2263
636 422 2369
434 491 318
434 491 318
430 502 336
398 506 360
383 487 413
369 475 475
358 468 551
349 462 631
354 459 722
367 459 821
385 462 924
404 463 1022
422 467 1127
442 473 1236
464 480 1346
486 488 1454
508 495 1546
528 501 1625
548 506 1706
570 513 1801
591 518 1912
608 519 2033
622 516 2155
632 507 2274
633 489 2377
484 639 402
484 639 402
476 648 418
456 663 443
420 645 482
407 624 550
396 611 627
386 595 701
382 585 783
388 579 874
398 575 972
414 573 1069
430 573 1172
449 576 1278
469 579 1384
490 584 1485
509 586 1568
529 589 1644
550 593 1728
570 598 1821
589 600 1930
605 599 2048
619 594 2168
626 583 2278
627 565 2382
530 813 497
530 813 497
523 820 513
505 835 543
449 846 563
434 804 629
423 779 705
411 757 778
404 739 858
403 727 945
411 718 1035
425 710 1130
438 705 1229
456 702 1330
475 701 1432
494 700 1521
512 699 1597
532 699 1674
552 701 1759
572 702 1854
589 702 1964
605 698 2080
615 690 2192
620 676 2298
618 655 2395
575 1005 605
575 1005 605
568 1012 621
551 1022 649
516 1033 676
456 1011 712
444 971 784
432 940 863
424 920 945
418 903 1031
418 883 1114
429 867 1201
445 857 1293
461 849 1390
479 843 1483
496 835 1560
515 830 1635
535 828 1713
555 826 1799
573 822 1898
590 818 2008
603 812 2120
611 799 2225
614 781 2327
610 760 2420
624 1211 721
624 1211 721
615 1214 735
598 1220 761
568 1230 792
509 1251 819
464 1192 873
454 1153 954
444 1121 1039
435 1094 1118
428 1066 1198
431 1043 1282
444 1025 1368
462 1011 1455
482 999 1533
500 989 1607
518 980 1681
537 972 1760
556 965 1849
573 958 1951
587 950 2061
598 936 2165
604 920 2266
605 899 2362
599 878 2455
674 1425 844
674 1425 844
667 1427 858
650 1432 883
622 1440 914
578 1453 949
484 1436 972
473 1380 1045
463 1341 1129
452 1296 1207
443 1263 1284
437 1235 1365
443 1210 1447
459 1191 1525
477 1172 1592
499 1158 1661
521 1144 1733
538 1132 1815
555 1119 1909
571 1107 2013
583 1092 2116
591 1073 2216
595 1053 2313
594 1032 2407
587 1007 2496
730 1653 974
730 1653 974
722 1655 987
707 1660 1011
682 1668 1041
640 1671 1072
567 1680 1098
489 1623 1139
479 1564 1216
469 1512 1293
460 1471 1374
455 1441 1454
449 1414 1528
455 1385 1593
471 1359 1655
491 1336 1721
512 1318 1796
534 1302 1881
552 1285 1978
566 1266 2080
575 1243 2176
582 1222 2274
584 1200 2370
581 1176 2457
568 1147 2542
789 1905 1108
789 1905 1108
781 1905 1118
764 1906 1138
740 1907 1165
704 1911 1196
647 1918 1229
513 1934 1248
497 1837 1311
489 1773 1388
480 1717 1467
471 1669 1538
465 1628 1600
457 1589 1659
464 1555 1721
480 1526 1791
499 1500 1869
520 1478 1960
539 1456 2057
554 1431 2147
564 1407 2245
569 1383 2340
568 1356 2427
560 1328 2510
544 1297 2592
854 2123 1245
854 2123 1245
847 2124 1255
832 2124 1274
810 2126 1299
777 2128 1329
728 2132 1363
648 2140 1395
520 2104 1416
509 2040 1481
501 1985 1548
492 1932 1611
481 1875 1669
474 1828 1729
464 1785 1794
468 1744 1869
483 1707 1954
501 1672 2044
518 1640 2137
533 1609 2230
544 1580 2321
551 1551 2406
546 1521 2486
532 1488 2566
508 1453 2645
926 2287 1385
926 2287 1385
919 2287 1394
905 2288 1412
884 2289 1435
855 2290 1462
813 2293 1491
746 2294 1517
626 2296 1532
531 2241 1563
524 2198 1621
513 2152 1678
502 2105 1739
491 2058 1805
481 2016 1877
470 1977 1960
469 1940 2051
481 1898 2137
492 1857 2225
504 1819 2313
513 1781 2396
514 1744 2473
509 1706 2548
492 1666 2623
458 1622 2700
1005 2445 1516
1005 2445 1516
999 2445 1524
986 2445 1537
966 2445 1555
938 2444 1574
897 2442 1595
841 2440 1617
751 2440 1638
562 2428 1646
548 2365 1694
536 2320 1751
525 2280 1817
512 2242 1893
499 2206 1978
487 2176 2065
469 2140 2149
460 2103 2232
464 2065 2314
469 2027 2393
471 1989 2467
466 1949 2540
454 1908 2614
427 1865 2686
373 1813 2752
1091 2618 1626
1091 2618 1626
1084 2618 1632
1071 2616 1643
1052 2615 1657
1025 2613 1675
989 2612 1696
939 2611 1720
867 2611 1745
749 2615 1765
581 2564 1782
566 2499 1839
553 2448 1912
538 2405 1995
522 2365 2082
502 2328 2168
481 2294 2247
455 2261 2325
432 2229 2398
423 2196 2466
415 2164 2537
399 2130 2608
366 2094 2678
292 2051 2743
220 2001 2807
1185 2791 1740
1185 2791 1740
1179 2791 1746
1167 2790 1757
1149 2788 1772
1124 2786 1791
1090 2785 1814
1045 2783 1841
983 2783 1871
892 2784 1900
719 2786 1907
600 2700 1942
584 2642 2018
566 2590 2100
546 2540 2185
521 2488 2265
492 2443 2341
460 2405 2410
418 2370 2476
366 2336 2541
321 2304 2607
267 2274 2675
220 2239 2737
220 2201 2797
221 2172 2868
1288 2943 1873
1288 2943 1873
1282 2943 1880
1270 2942 1892
1253 2940 1909
1231 2939 1930
1199 2937 1956
1158 2935 1987
1103 2934 2020
1022 2931 2049
900 2927 2070
650 2899 2066
619 2831 2129
597 2779 2208
571 2724 2283
540 2671 2355
504 2618 2424
461 2569 2490
410 2526 2552
319 2484 2615
221 2446 2678
221 2416 2751
221 2386 2820
221 2359 2891
222 2334 2961
1398 3071 2033
1398 3071 2033
1392 3070 2039
1381 3069 2052
1365 3068 2069
1343 3067 2090
1314 3065 2115
1272 3061 2140
1218 3056 2168
1147 3052 2196
1047 3049 2221
883 3047 2234
665 2999 2245
629 2945 2310
593 2894 2374
556 2846 2439
516 2801 2509
466 2756 2578
401 2714 2647
291 2675 2713
221 2644 2786
222 2608 2854
222 2573 2920
222 2539 2986
223 2507 3052
1510 3177 2199
1510 3177 2199
1505 3177 2204
1493 3175 2214
1476 3173 2228
1453 3171 2245
1424 3168 2266
1386 3165 2290
1336 3162 2315
1272 3159 2342
1186 3157 2366
1061 3154 2386
817 3156 2383
685 3105 2431
640 3061 2489
593 3021 2551
542 2982 2616
481 2944 2682
399 2904 2748
258 2872 2820
222 2844 2891
222 2814 2960
222 2775 3018
223 2740 3078
223 2706 3137
1629 3272 2360
1629 3272 2360
1624 3271 2365
1612 3270 2374
1597 3269 2385
1576 3267 2399
1548 3265 2416
1511 3262 2435
1465 3260 2455
1406 3257 2477
1328 3255 2499
1222 3253 2519
1060 3252 2533
765 3244 2548
704 3205 2604
640 3168 2661
573 3134 2721
496 3101 2782
402 3072 2850
228 3046 2922
223 3020 2992
223 2995 3056
223 2962 3112
223 2929 3165
223 2897 3219
1755 3356 2504
1755 3356 2504
1749 3356 2508
1738 3355 2515
1722 3353 2524
1702 3352 2536
1674 3350 2551
1640 3348 2567
1596 3346 2586
1541 3344 2606
1469 3342 2626
1374 3340 2646
1246 3341 2667
1044 3349 2686
789 3330 2720
701 3295 2769
612 3264 2823
520 3238 2883
413 3216 2951
224 3194 3018
224 3171 3084
224 3149 3146
224 3122 3200
224 3093 3249
225 3064 3297
1886 3432 2642
1886 3432 2642
1880 3432 2645
1870 3431 2651
1855 3430 2659
1834 3429 2670
1808 3428 2682
1774 3426 2696
1731 3424 2713
1678 3423 2730
1612 3421 2750
1534 3423 2775
1429 3426 2799
1275 3430 2822
947 3443 2831
785 3408 2875
668 3380 2923
564 3360 2984
435 3341 3047
224 3323 3109
224 3304 3169
224 3284 3228
224 3262 3281
225 3238 3329
225 3218 3380
2017 3500 2774
2017 3500 2774
2012 3500 2777
2002 3499 2782
1988 3499 2789
1970 3498 2798
1945 3497 2808
1915 3497 2822
1880 3497 2840
1836 3497 2860
1780 3498 2881
1707 3500 2903
1613 3502 2925
1485 3505 2947
1285 3512 2966
909 3510 2981
769 3486 3027
636 3468 3081
482 3452 3137
224 3437 3193
224 3420 3247
225 3404 3301
225 3388 3356
225 3368 3405
225 3349 3450
2222 3550 2920
2222 3550 2920
2216 3551 2922
2205 3552 2926
2188 3553 2932
2164 3556 2939
2132 3558 2947
2089 3561 2957
2043 3564 2970
2003 3564 2985
1950 3565 3003
1883 3567 3021
1795 3568 3040
1679 3571 3059
1515 3575 3077
1240 3584 3089
900 3576 3120
727 3559 3166
532 3545 3214
224 3533 3264
225 3520 3314
225 3509 3368
225 3502 3425
225 3484 3470
225 3466 3514
208 175 109
208 175 109
214 176 137
225 180 191
244 190 263
268 199 342
298 213 441
328 222 544
347 227 641
366 233 746
384 238 857
401 242 973
417 246 1087
434 272 1196
457 305 1309
481 324 1422
503 340 1523
527 353 1611
548 363 1690
568 373 1779
589 380 1885
607 383 2005
623 381 2128
634 371 2251
638 350 2361
208 175 109
208 175 109
214 176 137
225 180 191
244 190 263
268 199 342
298 213 441
328 222 544
347 227 641
366 233 746
384 238 857
401 242 973
417 246 1087
434 272 1196
457 305 1309
481 324 1422
503 340 1523
527 353 1611
548 363 1690
568 373 1779
589 380 1885
607 383 2005
623 381 2128
634 371 2251
638 350 2361
254 222 140
254 222 140
233 213 153
221 212 203
225 220 266
238 232 352
251 240 454
290 221 560
320 227 656
344 233 763
365 239 873
389 274 984
412 298 1088
435 315 1197
458 331 1312
482 345 1425
505 359 1525
527 371 1612
548 381 1692
568 389 1781
589 395 1888
607 398 2007
623 397 2131
634 387 2254
638 367 2362
366 359 232
366 359 232
362 371 249
336 361 285
323 358 347
298 353 413
267 352 496
269 352 582
314 355 679
346 361 781
372 367 887
395 374 992
415 382 1095
438 390 1208
461 401 1324
483 412 1436
506 421 1535
528 430 1619
548 437 1698
570 445 1791
590 450 1899
608 452 2018
623 450 2141
633 441 2263
636 422 2369
434 491 318
434 491 318
430 502 336
398 506 360
383 487 413
369 475 475
358 468 551
349 462 631
354 459 722
367 459 821
385 462 924
404 463 1022
422 467 1127
442 473 1236
464 480 1346
486 488 1454
508 495 1546
528 501 1625
548 506 1706
570 513 1801
591 518 1912
608 519 2033
622 516 2155
632 507 2274
633 489 2377
484 639 402
484 639 402
476 648 418
456 663 443
420 645 482
407 624 550
396 611 627
386 595 701
382 585 783
388 579 874
398 575 972
414 573 1069
430 573 1172
449 576 1278
469 579 1384
490 584 1485
509 586 1568
529 589 1644
550 593 1728
570 598 1821
589 600 1930
605 599 2048
619 594 2168
626 583 2278
627 565 2382
530 813 497
530 813 497
523 820 513
505 835 543
449 846 563
434 804 629
423 779 705
411 757 778
404 739 858
403 727 945
411 718 1035
425 710 1130
438 705 1229
456 702 1330
475 701 1432
494 700 1521
512 699 1597
532 699 1674
552 701 1759
572 702 1854
589 702 1964
605 698 2080
615 690 2192
620 676 2298
618 655 2395
575 1005 605
575 1005 605
568 1012 621
551 1022 649
516 1033 676
456 1011 712
444 971 784
432 940 863
424 920 945
418 903 1031
418 883 1114
429 867 1201
445 857 1293
461 849 1390
479 843 1483
496 835 1560
515 830 1635
535 828 1713
555 826 1799
573 822 1898
590 818 2008
603 812 2120
611 799 2225
614 781 2327
610 760 2420
624 1211 721
624 1211 721
615 1214 735
598 1220 761
568 1230 792
509 1251 819
464 1192 873
454 1153 954
444 1121 1039
435 1094 1118
428 1066 1198
431 1043 1282
444 1025 1368
462 1011 1455
482 999 1533
500 989 1607
518 980 1681
537 972 1760
556 965 1849
573 958 1951
587 950 2061
598 936 2165
604 920 2266
605 899 2362
599 878 2455
674 1425 844
674 1425 844
667 1427 858
650 1432 883
622 1440 914
578 1453 949
484 1436 972
473 1380 1045
463 1341 1129
452 1296 1207
443 1263 1284
437 1235 1365
443 1210 1447
459 1191 1525
477 1172 1592
499 1158 1661
521 1144 1733
538 1132 1815
555 1119 1909
571 1107 2013
583 1092 2116
591 1073 2216
595 1053 2313
594 1032 2407
587 1007 2496
730 1653 974
730 1653 974
722 1655 987
707 1660 1011
682 1668 1041
640 1671 1072
567 1680 1098
489 1623 1139
479 1564 1216
469 1512 1293
460 1471 1374
455 1441 1454
449 1414 1528
455 1385 1593
471 1359 1655
491 1336 1721
512 1318 1796
534 1302 1881
552 1285 1978
566 1266 2080
575 1243 2176
582 1222 2274
584 1200 2370
581 1176 2457
568 1147 2542
