Toning/Saturation & Contrast - Channels & Volume.3dl
#25pt 3DLUT created by 3D LUT Creator Pro (c) Oleg Sharonov
#Copyright Oleg Sharonov
#IMAGEPROFILE sRGB IEC61966-2.1 v.2.10
#INPUTGAMMA sRGB IEC61966-2.1 v.2.10
#OUTPUTGAMMA sRGB IEC61966-2.1 v.2.10
0 128 256 384 512 640 768 896 1023
0 0 0
0 87 542
0 278 1070
0 474 1585
0 662 2075
0 833 2515
0 977 2879
0 1080 3128
0 1234 3163
217 542 217
155 557 613
0 602 1122
0 706 1620
0 833 2098
0 963 2532
0 1076 2890
0 1155 3133
0 1297 3167
343 1129 343
308 1122 685
198 1103 1201
0 1117 1692
0 1168 2152
0 1234 2569
0 1294 2913
0 1326 3145
0 1444 3176
391 1724 391
370 1712 728
304 1667 1264
177 1627 1766
0 1610 2220
0 1609 2621
0 1606 2946
0 1580 3160
0 1668 3185
419 2301 419
408 2288 748
367 2237 1298
289 2168 1816
0 2103 2278
0 2041 2669
0 1974 2975
0 1885 3169
0 1944 3187
475 2843 475
470 2831 772
445 2780 1313
384 2699 1838
129 2604 2305
0 2491 2694
0 2363 2985
0 2212 3160
0 2244 3172
583 3337 583
578 3325 822
554 3276 1322
481 3191 1834
0 3079 2298
0 2923 2683
0 2742 2963
0 2535 3125
0 2544 3133
703 3768 703
695 3758 885
649 3712 1321
505 3628 1802
0 3498 2253
0 3309 2631
0 3086 2903
0 2836 3061
0 2827 3067
921 4095 921
865 4095 999
562 4090 1255
0 4005 1716
0 3840 2173
0 3628 2542
0 3357 2816
0 3058 2990
0 3009 3009
481 0 0
454 0 454
262 19 1051
0 451 1563
0 647 2060
0 822 2506
0 969 2873
0 1074 3125
0 1229 3163
564 475 68
512 512 512
316 572 1090
0 689 1597
0 820 2083
0 953 2522
0 1070 2884
0 1150 3131
0 1292 3167
649 1084 302
593 1095 593
401 1090 1163
0 1107 1672
0 1160 2138
0 1227 2560
0 1289 2908
0 1323 3142
0 1440 3175
696 1691 370
643 1693 643
464 1660 1225
183 1623 1746
0 1605 2208
0 1605 2613
0 1603 2942
0 1578 3158
0 1665 3184
719 2277 409
668 2275 668
508 2233 1259
291 2167 1796
0 2101 2265
0 2039 2661
0 1973 2971
0 1884 3167
0 1941 3187
745 2826 471
699 2823 699
560 2779 1275
388 2699 1818
155 2604 2293
0 2491 2686
0 2364 2981
0 2212 3159
0 2242 3172
801 3325 582
761 3321 761
643 3276 1286
485 3193 1815
119 3081 2286
0 2925 2676
0 2744 2960
0 2537 3125
0 2543 3133
873 3761 705
838 3755 838
721 3713 1290
516 3631 1783
0 3502 2241
0 3312 2625
0 3089 2900
0 2838 3060
0 2826 3068
1022 4095 909
969 4095 969
651 4092 1229
0 4010 1696
0 3845 2162
0 3632 2535
0 3362 2813
0 3062 2988
0 3009 3009
962 0 0
943 0 177
916 0 916
807 295 1512
563 553 2039
0 793 2481
0 948 2858
0 1060 3118
0 1214 3162
999 360 0
999 384 0
954 478 954
827 617 1540
575 760 2060
0 928 2498
0 1052 2870
0 1138 3123
0 1279 3166
1123 971 136
1106 995 245
1024 1024 1024
870 1068 1601
602 1129 2110
0 1210 2538
0 1275 2895
0 1313 3136
0 1428 3174
1206 1594 299
1185 1611 356
1091 1603 1091
921 1592 1673
636 1590 2175
0 1595 2592
0 1595 2929
0 1572 3152
0 1655 3185
1249 2201 374
1227 2212 419
1135 2189 1135
963 2144 1726
670 2093 2230
0 2035 2642
0 1969 2960
0 1882 3163
0 1933 3187
1271 2770 458
1248 2778 492
1162 2747 1162
995 2684 1753
696 2601 2258
0 2491 2667
0 2364 2971
0 2213 3155
0 2236 3173
1290 3286 584
1268 3291 607
1187 3257 1187
1023 3185 1756
696 3082 2253
0 2930 2658
0 2749 2950
0 2541 3121
0 2538 3134
1310 3736 714
1288 3739 731
1206 3705 1206
1025 3630 1732
580 3521 2207
0 3321 2608
0 3096 2891
0 2844 3057
0 2823 3069
1346 4095 877
1332 4095 895
1156 4093 1157
887 4025 1639
0 3891 2112
0 3643 2519
0 3374 2803
0 3073 2984
0 3009 3009
1472 0 0
1458 0 0
1435 0 723
1393 0 1393
1288 449 1975
1088 668 2482
673 779 2906
0 1009 3122
0 1188 3161
1477 198 0
1468 262 0
1472 306 715
1416 510 1416
1301 691 1994
1095 838 2496
671 915 2917
0 1094 3128
0 1254 3164
1582 856 0
1574 880 0
1550 929 771
1469 1000 1469
1332 1083 2038
1111 1158 2530
662 1186 2941
0 1282 3141
0 1407 3174
1697 1478 192
1686 1495 198
1642 1519 835
1536 1536 1536
1375 1556 2099
1133 1571 2578
635 1547 2975
0 1554 3157
0 1637 3184
1773 2098 326
1760 2109 328
1710 2117 888
1592 2097 1592
1416 2069 2154
1149 2030 2624
558 1956 3009
0 1876 3168
0 1919 3187
1813 2687 446
1799 2696 448
1748 2694 935
1629 2650 1629
1444 2587 2187
1148 2505 2650
245 2386 3027
0 2218 3161
0 2225 3174
1828 3226 599
1814 3232 599
1764 3223 992
1646 3166 1646
1449 3081 2189
1098 2968 2643
0 2800 2992
0 2554 3126
0 2530 3136
1829 3698 748
1815 3702 747
1764 3690 1050
1638 3628 1638
1408 3533 2152
908 3407 2591
0 3169 2919
0 2864 3061
0 2816 3070
1808 4095 848
1797 4095 859
1722 4095 1036
1561 4039 1561
1225 3950 2042
0 3804 2478
0 3467 2819
0 3101 2984
0 3009 3009
2030 0 0
2020 0 0
1993 0 201
1958 0 1243
1896 201 1896
1768 557 2459
1544 696 2937
1094 565 3322
0 749 3401
2030 0 0
2020 0 0
1997 0 161
1979 320 1246
1909 578 1909
1776 762 2470
1547 857 2945
1087 747 3329
0 891 3401
2089 755 0
2083 779 0
2073 829 0
2032 917 1282
1944 1023 1944
1797 1118 2499
1554 1161 2965
1066 1055 3344
0 1160 3402
2202 1386 55
2194 1400 74
2175 1437 235
2108 1476 1336
1996 1520 1996
1827 1554 2541
1562 1547 2996
1016 1426 3366
0 1499 3398
2294 2008 304
2286 2019 306
2263 2045 365
2180 2050 1391
2048 2048 2048
1857 2031 2582
1559 1976 3025
898 1827 3390
0 1867 3384
2352 2611 470
2343 2619 471
2318 2637 506
2228 2618 1438
2084 2580 2084
1874 2521 2608
1529 2424 3041
556 2246 3405
0 2237 3352
2377 3169 658
2367 3174 658
2342 3188 680
2250 3152 1478
2098 3089 2098
1861 3000 2605
1431 2873 3031
0 2670 3352
0 2590 3295
2376 3663 842
2366 3667 840
2339 3676 851
2244 3633 1505
2077 3558 2077
1788 3455 2560
1152 3320 2981
0 3047 3252
0 2915 3214
2344 4094 922
2333 4095 925
2310 4095 959
2195 4062 1465
1983 3992 1983
1561 3902 2442
0 3748 2869
0 3337 3147
0 3140 3140
2665 0 0
2656 0 0
2633 0 0
2595 0 976
2532 0 1796
2437 339 2437
2270 564 2982
1980 264 3443
1628 152 3611
2665 0 0
2656 0 0
2633 0 0
2595 0 976
2546 377 1800
2445 650 2445
2275 779 2989
1980 617 3448
1622 576 3615
2688 615 0
2682 646 0
2665 717 0
2640 819 984
2578 950 1825
2467 1073 2467
2286 1135 3005
1977 1016 3459
1603 972 3626
2774 1321 180
2767 1335 183
2751 1372 189
2712 1429 1027
2629 1492 1865
2500 1548 2500
2301 1560 3028
1967 1440 3475
1559 1381 3643
2859 1958 388
2852 1968 388
2835 1992 389
2786 2023 1084
2684 2043 1911
2534 2051 2534
2314 2018 3050
1938 1878 3492
1467 1803 3662
2921 2570 595
2914 2577 595
2895 2594 594
2841 2607 1160
2726 2593 1954
2559 2559 2559
2311 2487 3060
1866 2327 3501
1259 2237 3679
2950 3140 832
2942 3145 831
2922 3157 827
2866 3158 1262
2745 3118 1989
2563 3054 2563
2276 2955 3048
1696 2784 3496
562 2692 3691
2951 3648 1068
2943 3651 1066
2923 3660 1058
2865 3652 1375
2737 3600 2003
2532 3524 2532
2169 3420 2998
1232 3271 3469
0 3139 3565
2927 4090 1231
2919 4093 1225
2898 4095 1231
2836 4090 1438
2689 4043 1955
2427 3982 2427
1879 3913 2879
0 3711 3360
0 3444 3444
3387 367 367
3379 362 362
3359 349 349
3322 324 324
3263 334 1638
3167 273 2404
3029 548 3029
2813 203 3562
2545 0 3816
3387 367 367
3379 362 362
3359 349 349
3322 324 324
3263 334 1638
3172 587 2409
3033 787 3033
2814 637 3564
2538 0 3841
3390 458 372
3383 492 369
3366 579 363
3336 715 356
3283 894 1654
3189 1067 2424
3043 1174 3043
2817 1073 3570
2527 799 3860
3440 1293 496
3433 1308 494
3418 1345 492
3389 1408 486
3323 1495 1691
3216 1584 2450
3058 1629 3058
2818 1526 3578
2510 1333 3870
3499 1964 684
3493 1972 683
3477 1995 679
3448 2035 673
3367 2078 1747
3244 2113 2483
3073 2110 3073
2813 1989 3584
2472 1815 3881
3541 2586 931
3535 2593 928
3518 2608 924
3488 2635 914
3398 2645 1823
3265 2640 2517
3080 2596 3080
2789 2455 3582
2391 2288 3891
3555 3159 1224
3549 3163 1222
3532 3174 1214
3502 3193 1200
3410 3179 1921
3272 3142 2546
3071 3071 3071
2727 2923 3566
2209 2772 3898
3546 3661 1535
3539 3664 1530
3523 3672 1519
3494 3686 1499
3403 3658 2032
3260 3608 2558
3031 3534 3031
2575 3411 3524
1725 3309 3905
3525 4087 1806
3518 4089 1798
3502 4095 1783
3470 4095 1796
3380 4082 2111
3219 4047 2516
2921 4012 2921
2165 3978 3428
0 3842 3842
4095 1165 1165
4095 1140 1140
4095 1073 1073
4093 948 948
4038 956 1464
3939 1057 2379
3807 1133 3067
3639 1173 3639
3429 640 4059
4095 1165 1165
4095 1140 1140
4095 1073 1073
4093 948 948
4038 956 1464
3939 1057 2379
3808 1240 3070
3640 1287 3640
3429 852 4059
4095 1165 1165
4095 1140 1140
4095 1073 1073
4093 959 950
4041 1082 1476
3944 1319 2393
3811 1514 3079
3641 1541 3641
3427 1202 4059
4095 1577 1283
4095 1576 1265
4095 1575 1217
4095 1574 1124
4057 1642 1550
3952 1791 2430
3815 1913 3094
3643 1900 3642
3421 1612 4060
4095 2185 1513
4095 2186 1497
4095 2189 1455
4095 2195 1373
4068 2225 1683
3956 2309 2491
3816 2366 3116
3642 2310 3642
3408 2042 4059
4095 2752 1775
4095 2754 1759
4095 2758 1718
4095 2767 1639
4062 2790 1879
3949 2823 2577
3812 2828 3143
3636 2737 3636
3379 2477 4057
4095 3270 2042
4095 3272 2026
4095 3279 1982
4086 3292 1924
4034 3305 2136
3931 3302 2692
3802 3271 3172
3620 3160 3620
3313 2919 4054
4074 3724 2355
4070 3726 2349
4060 3731 2334
4040 3740 2306
3996 3743 2433
3908 3721 2827
3788 3678 3196
3583 3583 3583
3144 3404 4051
4030 4070 2746
4027 4072 2739
4018 4076 2720
4001 4086 2685
3965 4088 2736
3891 4074 2962
3767 4060 3190
3483 4059 3483
2572 4045 4045
4095 2082 2082
4095 2082 2082
4095 2082 2082
4095 2082 2082
4095 2082 2082
4095 2220 2603
4095 2392 3161
4095 2538 3649
4095 2573 4095
4095 2082 2082
4095 2082 2082
4095 2082 2082
4095 2082 2082
4095 2082 2082
4095 2220 2603
4095 2392 3161
4095 2574 3652
4095 2610 4095
4095 2082 2082
4095 2082 2082
4095 2082 2082
4095 2082 2082
4095 2082 2082
4095 2246 2611
4095 2483 3177
4095 2675 3661
4095 2702 4095
4095 2187 2125
4095 2194 2128
4095 2214 2136
4095 2250 2152
4095 2303 2175
4095 2483 2683
4095 2690 3219
4095 2851 3678
4095 2857 4095
4095 2573 2304
4095 2580 2307
4095 2597 2316
4095 2627 2331
4095 2672 2355
4095 2810 2800
4095 2969 3284
4095 3088 3703
4095 3067 4095
4095 2997 2540
4095 3002 2543
4095 3015 2551
4095 3038 2565
4095 3072 2587
4095 3170 2958
4095 3281 3373
4095 3359 3739
4095 3312 4095
4095 3402 2816
4095 3406 2819
4095 3415 2826
4095 3432 2838
4095 3456 2858
4095 3520 3150
4095 3591 3486
4095 3636 3786
4095 3573 4095
4095 3754 3121
4095 3756 3123
4095 3763 3130
4095 3774 3141
4095 3790 3158
4095 3827 3375
4095 3867 3627
4095 3892 3852
4095 3836 4095
4095 4019 3458
4095 4020 3460
4095 4023 3466
4095 4029 3477
4095 4038 3494
4095 4053 3645
4095 4069 3821
4095 4083 3973
4095 4095 4095
