Toning/Saturation-CMYK2Warmer-Desaturated.3dl
#25pt 3DLUT created by 3D LUT Creator Pro (c) Oleg Sharonov
#Copyright Oleg Sharonov
#IMAGEPROFILE sRGB IEC61966-2.1 v.2.10
#INPUTGAMMA sRGB IEC61966-2.1 v.2.10
#OUTPUTGAMMA sRGB IEC61966-2.1 v.2.10
0 256 512 768 1023
0 0 0
0 0 950
0 0 1775
0 0 2579
0 0 3587
0 1076 0
0 1032 912
0 599 1727
0 385 2579
0 320 3587
0 1945 0
0 1944 389
0 1864 1703
0 1499 2475
0 1408 3463
0 2740 0
0 2740 124
0 2630 1305
0 2627 2474
0 2476 3441
0 3595 0
0 3595 49
0 3516 1209
0 3445 2308
0 3446 3441
949 0 0
1045 0 1001
564 0 1824
358 0 2646
343 0 3632
999 1071 0
1100 1064 983
582 613 1784
366 391 2614
349 326 3631
522 1960 0
543 1923 396
619 1923 1773
386 1533 2534
368 1440 3514
324 2792 0
329 2793 127
369 2685 1337
408 2695 2541
387 2538 3491
298 3632 0
298 3632 49
332 3544 1227
361 3499 2361
429 3518 3498
1734 0 0
1806 0 449
2059 0 1993
1728 0 2807
1843 0 3726
1788 665 0
1861 656 442
2123 687 1994
1762 427 2803
1874 357 3732
1901 2029 0
1978 2031 448
2262 2171 2050
1869 1738 2851
1984 1635 3794
1543 2795 0
1564 2792 138
1768 2914 1506
1975 3049 2894
2094 2904 3840
1546 3639 0
1556 3640 55
1757 3720 1361
1968 3818 2675
2335 3891 3841
2394 0 0
2425 0 151
2729 0 1592
3036 0 3044
3376 0 3929
2442 445 0
2474 447 150
2783 447 1595
3098 472 3057
3423 411 3946
2576 1693 0
2609 1692 151
2947 1803 1645
3288 1943 3152
3594 1913 4044
2715 2967 0
2750 2971 153
3111 3155 1686
3483 3424 3284
3773 3442 4062
2799 3764 0
2813 3766 59
3220 3927 1526
3621 4055 3051
4010 4095 4076
3046 0 0
3057 0 66
3335 0 1640
3613 0 3205
3747 0 3979
3096 382 0
3107 383 67
3382 393 1645
3653 423 3218
3784 419 3997
3260 1661 0
3272 1662 67
3544 1772 1692
3801 1955 3309
3914 1911 4095
3422 2907 0
3434 2909 67
3706 3140 1744
3952 3502 3477
4044 3403 4095
3705 3891 0
3717 3894 64
3961 4037 1732
4064 4095 3341
4095 4095 4095
