Toning/Saturation-CMYK2Warmer-Desaturated.3dl
#25pt 3DLUT created by 3D LUT Creator Pro (c) Oleg Sharonov
#Copyright Oleg Sharonov
#IMAGEPROFILE sRGB IEC61966-2.1 v.2.10
#INPUTGAMMA sRGB IEC61966-2.1 v.2.10
#OUTPUTGAMMA sRGB IEC61966-2.1 v.2.10
0 128 256 384 512 640 768 896 1023
0 0 0
0 0 472
0 0 950
0 0 1382
0 0 1775
0 0 2165
0 0 2579
0 0 3045
0 0 3587
0 545 0
0 522 453
0 289 930
0 90 1382
0 0 1775
0 0 2165
0 0 2579
0 0 3044
0 0 3587
0 1076 0
0 1076 131
0 1032 912
0 781 1327
0 599 1727
0 472 2149
0 385 2579
0 335 3044
0 320 3587
0 1538 0
0 1538 0
0 1492 613
0 1475 1326
0 1226 1704
0 1049 2078
0 948 2499
0 893 2983
0 879 3542
0 1945 0
0 1945 0
0 1944 389
0 1865 1041
0 1864 1703
0 1642 2077
0 1499 2475
0 1420 2921
0 1408 3463
0 2334 0
0 2334 0
0 2334 227
0 2272 855
0 2236 1457
0 2237 2077
0 2063 2475
0 1965 2921
0 1934 3442
0 2740 0
0 2740 0
0 2740 124
0 2709 734
0 2630 1305
0 2628 1887
0 2627 2474
0 2513 2921
0 2476 3441
0 3192 0
0 3192 0
0 3192 67
0 3187 663
0 3101 1230
0 3061 1779
0 3060 2349
0 3061 2921
0 3018 3441
0 3595 0
0 3595 0
0 3595 49
0 3595 639
0 3516 1209
0 3446 1751
0 3445 2308
0 3445 2874
0 3446 3441
475 0 0
499 0 476
239 0 959
82 0 1391
0 0 1775
0 0 2165
0 0 2579
0 0 3045
0 0 3587
488 527 0
512 500 455
242 284 931
83 91 1391
0 0 1775
0 0 2165
0 0 2579
0 0 3044
0 0 3587
231 1082 0
233 1059 131
252 1028 916
86 780 1328
0 599 1727
0 472 2149
0 385 2579
0 335 3044
0 319 3587
78 1546 0
78 1546 0
84 1494 615
89 1479 1331
0 1226 1704
0 1049 2078
0 948 2499
0 893 2983
0 878 3543
0 1945 0
0 1945 0
0 1944 389
0 1865 1041
0 1864 1704
0 1642 2077
0 1499 2475
0 1420 2921
0 1408 3463
0 2334 0
0 2334 0
0 2334 227
0 2272 855
0 2236 1457
0 2237 2077
0 2063 2475
0 1965 2921
0 1934 3442
0 2740 0
0 2740 0
0 2740 124
0 2709 734
0 2630 1305
0 2628 1887
0 2627 2474
0 2513 2921
0 2476 3441
0 3192 0
0 3192 0
0 3192 67
0 3187 663
0 3101 1230
0 3061 1779
0 3060 2349
0 3061 2921
0 3018 3441
0 3595 0
0 3595 0
0 3595 49
0 3595 639
0 3516 1209
0 3446 1751
0 3445 2308
0 3445 2874
0 3446 3441
949 0 0
962 0 143
1045 0 1001
764 0 1422
564 0 1824
436 0 2229
358 0 2646
326 0 3108
343 0 3632
963 303 0
976 297 140
1061 294 989
769 91 1416
565 0 1825
437 0 2230
358 0 2646
326 0 3108
343 0 3632
999 1071 0
1012 1061 140
1100 1064 983
796 810 1396
582 613 1784
448 479 2183
366 391 2614
332 342 3095
349 326 3631
721 1505 0
721 1505 0
765 1501 641
824 1527 1401
600 1260 1765
461 1080 2140
377 966 2560
342 905 3032
359 890 3564
522 1960 0
522 1960 0
543 1923 396
579 1903 1084
619 1923 1773
474 1687 2138
386 1533 2534
350 1455 2986
368 1440 3514
399 2387 0
399 2387 0
409 2354 233
433 2299 874
463 2286 1501
487 2300 2143
397 2114 2538
360 2012 2983
378 1982 3489
324 2792 0
324 2792 0
329 2793 127
347 2726 743
369 2685 1337
388 2685 1935
408 2695 2541
369 2573 2986
387 2538 3491
297 3235 0
297 3235 0
299 3236 68
313 3194 672
329 3142 1251
343 3113 1818
359 3122 2404
385 3132 2989
401 3095 3495
298 3632 0
298 3632 0
298 3632 49
315 3604 650
332 3544 1227
344 3499 1791
361 3499 2361
384 3509 2940
429 3518 3498
1368 0 0
1368 0 0
1457 0 685
1564 0 1503
1304 0 1893
1120 0 2273
1007 0 2707
969 0 3186
1046 0 3685
1375 98 0
1375 98 0
1464 96 684
1572 98 1499
1304 0 1893
1121 0 2274
1007 0 2707
969 0 3186
1046 0 3685
1422 829 0
1422 829 0
1514 834 681
1628 864 1496
1344 648 1879
1148 498 2264
1028 403 2693
986 351 3168
1063 336 3666
1470 1569 0
1470 1569 0
1565 1569 689
1685 1620 1512
1388 1341 1888
1182 1144 2265
1058 1018 2685
1014 949 3152
1092 934 3651
1207 1953 0
1207 1953 0
1254 1941 419
1341 1986 1162
1431 2039 1904
1217 1784 2269
1088 1624 2679
1042 1537 3141
1123 1521 3641
1018 2332 0
1018 2332 0
1042 2333 243
1112 2360 924
1180 2392 1601
1252 2434 2282
1119 2236 2688
1072 2127 3142
1154 2110 3639
905 2788 0
905 2788 0
918 2780 133
974 2775 777
1032 2792 1413
1088 2816 2049
1149 2851 2698
1100 2723 3152
1183 2699 3645
864 3273 0
864 3273 0
869 3264 72
914 3235 696
967 3240 1311
1018 3250 1923
1077 3277 2542
1146 3304 3160
1227 3284 3656
894 3682 0
894 3682 0
896 3673 51
943 3625 671
996 3621 1281
1046 3626 1887
1103 3643 2495
1170 3669 3108
1310 3697 3662
1734 0 0
1734 0 0
1806 0 449
1932 0 1212
2059 0 1993
1856 0 2386
1728 0 2807
1694 0 3278
1843 0 3726
1734 0 0
1734 0 0
1806 0 449
1932 0 1212
2058 0 1992
1856 0 2386
1727 0 2807
1693 0 3277
1844 0 3726
1788 665 0
1788 665 0
1861 656 442
1990 665 1211
2123 687 1994
1902 529 2384
1762 427 2803
1722 372 3276
1874 357 3732
1841 1332 0
1841 1332 0
1917 1328 443
2053 1374 1226
2192 1430 2020
1960 1219 2403
1814 1081 2821
1772 1008 3300
1929 995 3762
1901 2029 0
1901 2029 0
1978 2031 448
2118 2088 1243
2262 2171 2050
2023 1911 2435
1869 1738 2851
1824 1646 3327
1984 1635 3794
1687 2402 0
1687 2402 0
1726 2399 256
1842 2444 984
1963 2526 1719
2081 2603 2460
1923 2394 2875
1876 2286 3352
2041 2276 3826
1543 2795 0
1543 2795 0
1564 2792 138
1663 2838 821
1768 2914 1506
1873 2986 2199
1975 3049 2894
1926 2917 3372
2094 2904 3840
1484 3251 0
1484 3251 0
1496 3255 75
1589 3304 735
1695 3360 1395
1803 3413 2058
1907 3464 2727
2024 3502 3379
2189 3491 3841
1546 3639 0
1546 3639 0
1556 3640 55
1652 3670 708
1757 3720 1361
1864 3770 2017
1968 3818 2675
2086 3859 3324
2335 3891 3841
2077 0 0
2077 0 0
2126 0 270
2263 0 1012
2404 0 1745
2542 0 2489
2438 0 2930
2425 0 3414
2647 0 3832
2077 0 0
2077 0 0
2126 0 270
2263 0 1012
2404 0 1745
2542 0 2489
2438 0 2930
2425 0 3414
2647 0 3832
2127 536 0
2127 536 0
2177 528 267
2316 528 1011
2462 542 1747
2605 558 2497
2487 453 2938
2468 396 3422
2692 382 3844
2187 1174 0
2187 1174 0
2239 1175 268
2385 1202 1021
2537 1243 1770
2687 1286 2532
2563 1148 2972
2541 1075 3459
2771 1064 3887
2252 1823 0
2252 1823 0
2304 1822 270
2456 1868 1034
2616 1946 1802
2773 2022 2580
2642 1851 3020
2617 1761 3510
2853 1755 3945
2314 2480 0
2314 2480 0
2368 2485 272
2525 2549 1045
2692 2648 1826
2856 2755 2623
2718 2554 3067
2693 2446 3560
2936 2449 3961
2178 2890 0
2178 2890 0
2205 2890 146
2348 2947 872
2496 3043 1604
2646 3154 2353
2798 3253 3104
2767 3136 3605
3017 3143 4017
2121 3337 0
2121 3337 0
2135 3338 78
2272 3394 778
2428 3481 1482
2594 3572 2202
2756 3654 2924
2913 3672 3588
3161 3678 3977
2203 3678 0
2203 3678 0
2214 3679 57
2361 3732 748
2526 3825 1445
2695 3914 2157
2845 3955 2871
3002 3975 3522
3353 4021 3973
2394 0 0
2394 0 0
2425 0 151
2577 0 886
2729 0 1592
2884 0 2318
3036 0 3044
3075 0 3537
3376 0 3929
2394 0 0
2394 0 0
2425 0 151
2576 0 885
2729 0 1592
2884 0 2318
3036 0 3044
3075 0 3537
3376 0 3929
2442 445 0
2442 445 0
2474 447 150
2626 440 881
2783 447 1595
2941 458 2324
3098 472 3057
3129 414 3552
3423 411 3946
2511 1087 0
2510 1087 0
2543 1085 150
2701 1093 887
2865 1125 1618
3030 1164 2357
3191 1203 3103
3222 1131 3602
3506 1155 4004
2576 1693 0
2576 1693 0
2609 1692 151
2775 1734 897
2947 1803 1645
3121 1873 2403
3288 1943 3152
3317 1861 3647
3594 1913 4044
2647 2329 0
2647 2329 0
2681 2331 152
2852 2382 907
3030 2475 1669
3210 2582 2447
3384 2689 3229
3413 2598 3685
3680 2679 4047
2715 2967 0
2715 2967 0
2750 2971 153
2926 3040 914
3111 3155 1686
3299 3288 2479
3483 3424 3284
3510 3337 3813
3773 3442 4062
2687 3429 0
2687 3429 0
2706 3431 82
2881 3502 816
3083 3600 1562
3301 3701 2328
3520 3812 3104
3733 3892 3848
3859 3877 4089
2799 3764 0
2799 3764 0
2813 3766 59
3008 3829 786
3220 3927 1526
3443 4033 2283
3621 4055 3051
3799 4076 3797
4010 4095 4076
2706 0 0
2706 0 0
2723 0 88
2877 0 841
3027 0 1563
3177 0 2295
3334 0 3032
3479 0 3705
3747 0 3979
2706 0 0
2706 0 0
2723 0 88
2877 0 841
3027 0 1563
3177 0 2295
3334 0 3032
3479 0 3705
3747 0 3979
2753 394 0
2753 394 0
2770 394 88
2925 391 836
3079 398 1569
3232 409 2302
3384 426 3044
3525 437 3722
3786 431 3998
2830 1041 0
2830 1041 0
2847 1039 87
3006 1041 839
3164 1069 1588
3321 1107 2334
3469 1161 3090
3605 1196 3779
3851 1207 4059
2900 1638 0
2900 1638 0
2918 1639 88
3086 1674 848
3251 1738 1613
3415 1809 2380
3556 1906 3135
3688 1967 3817
3922 1994 4095
2977 2258 0
2977 2258 0
2996 2259 88
3168 2306 859
3338 2404 1639
3507 2512 2424
3644 2653 3205
3770 2748 3837
3991 2791 4095
3052 2886 0
3052 2886 0
3071 2888 89
3249 2953 866
3424 3074 1658
3599 3212 2464
3737 3401 3281
3858 3534 3919
4062 3594 4095
3144 3504 0
3144 3504 0
3163 3508 89
3350 3586 871
3553 3685 1668
3746 3776 2472
3823 3839 3229
3927 3942 3903
4095 4034 4095
3287 3834 0
3286 3834 0
3303 3837 68
3514 3906 839
3731 4005 1627
3937 4092 2426
3993 4095 3188
4027 4095 3870
4095 4095 4095
3046 0 0
3046 0 0
3057 0 66
3196 0 871
3335 0 1640
3475 0 2419
3613 0 3205
3740 0 3936
3747 0 3979
3046 0 0
3046 0 0
3057 0 67
3196 0 871
3336 0 1640
3475 0 2420
3613 0 3205
3740 0 3937
3747 0 3979
3096 382 0
3096 382 0
3107 383 67
3247 386 866
3382 393 1645
3517 406 2427
3653 423 3218
3779 433 3956
3784 419 3997
3181 1048 0
3181 1048 0
3192 1046 67
3331 1049 869
3461 1084 1665
3593 1132 2462
3725 1184 3267
3846 1219 4017
3847 1165 4055
3260 1661 0
3260 1661 0
3272 1662 67
3416 1697 878
3544 1772 1692
3673 1859 2507
3801 1955 3309
3918 2018 4052
3914 1911 4095
3341 2271 0
3341 2271 0
3353 2272 66
3501 2334 890
3626 2458 1720
3751 2589 2560
3875 2728 3359
3988 2830 4055
3980 2657 4095
3422 2907 0
3422 2907 0
3434 2909 67
3583 2985 897
3706 3140 1744
3830 3309 2604
3952 3502 3477
4061 3647 4066
4044 3403 4095
3510 3522 0
3510 3522 0
3522 3525 67
3672 3614 902
3780 3744 1744
3881 3834 2580
3990 3933 3414
4089 4042 4080
4095 3986 4095
3705 3891 0
3705 3891 0
3717 3894 64
3873 3955 900
3961 4037 1732
4033 4095 2549
4064 4095 3341
4093 4095 4054
4095 4095 4095
