Toning/Saturation-CMYK2Warmer.3dl
#25pt 3DLUT created by 3D LUT Creator Pro (c) Oleg Sharonov
#Copyright Oleg Sharonov
#IMAGEPROFILE sRGB IEC61966-2.1 v.2.10
#INPUTGAMMA sRGB IEC61966-2.1 v.2.10
#OUTPUTGAMMA sRGB IEC61966-2.1 v.2.10
0 43 86 128 171 214 256 299 341 384 427 469 512 555 597 640 682 725 768 810 853 896 938 981 1023 
0 0 0
0 0 180
0 0 354
0 0 538
0 0 724
0 0 904
0 0 1083
0 0 1258
0 0 1418
0 0 1577
0 0 1729
0 0 1880
0 0 2027
0 0 2174
0 0 2322
0 0 2472
0 0 2627
0 0 2783
0 0 2946
0 0 3116
0 0 3292
0 0 3477
0 0 3671
0 0 3877
0 0 4095
0 203 0
0 203 173
0 98 354
0 0 540
0 0 725
0 0 906
0 0 1085
0 0 1259
0 0 1419
0 0 1578
0 0 1730
0 0 1880
0 0 2027
0 0 2174
0 0 2322
0 0 2472
0 0 2625
0 0 2783
0 0 2946
0 0 3116
0 0 3292
0 0 3477
0 0 3672
0 0 3877
0 0 4095
0 408 0
0 411 27
0 408 352
0 310 537
0 212 722
0 118 908
0 33 1087
0 0 1256
0 0 1421
0 0 1579
0 0 1731
0 0 1879
0 0 2028
0 0 2175
0 0 2323
0 0 2473
0 0 2626
0 0 2782
0 0 2945
0 0 3115
0 0 3291
0 0 3476
0 0 3671
0 0 3877
0 0 4094
0 621 0
0 621 0
0 621 213
0 621 538
0 520 723
0 423 906
0 332 1084
0 247 1257
0 170 1421
0 102 1577
0 40 1732
0 0 1879
0 0 2027
0 0 2174
0 0 2322
0 0 2472
0 0 2626
0 0 2783
0 0 2945
0 0 3115
0 0 3291
0 0 3476
0 0 3671
0 0 3877
0 0 4095
0 828 0
0 829 0
0 828 79
0 828 401
0 828 723
0 728 908
0 630 1085
0 540 1257
0 455 1421
0 377 1577
0 309 1731
0 246 1879
0 193 2027
0 145 2174
0 104 2322
0 68 2472
0 39 2626
0 11 2783
0 0 2945
0 0 3115
0 0 3291
0 0 3476
0 0 3671
0 0 3877
0 0 4094
0 1032 0
0 1032 0
0 1032 0
0 1032 271
0 1032 590
0 1031 906
0 929 1085
0 830 1257
0 736 1420
0 652 1578
0 574 1730
0 507 1880
0 446 2027
0 392 2174
0 345 2322
0 305 2472
0 269 2626
0 239 2783
0 214 2946
0 193 3115
0 176 3292
0 164 3477
0 155 3671
0 149 3877
0 148 4095
0 1226 0
0 1227 0
0 1226 0
0 1226 151
0 1226 463
0 1226 773
0 1226 1085
0 1121 1257
0 1021 1421
0 927 1578
0 842 1731
0 766 1879
0 698 2027
0 638 2174
0 585 2322
0 539 2472
0 500 2626
0 466 2783
0 437 2945
0 414 3115
0 395 3291
0 380 3476
0 370 3671
0 365 3877
0 363 4095
0 1413 0
0 1413 0
0 1413 0
0 1413 40
0 1413 345
0 1413 649
0 1413 953
0 1413 1257
0 1303 1421
0 1202 1578
0 1109 1730
0 1026 1880
0 951 2027
0 885 2175
0 827 2322
0 776 2472
0 731 2625
0 694 2783
0 662 2946
0 635 3115
0 614 3292
0 598 3477
0 587 3672
0 580 3877
0 578 4095
0 1587 0
0 1587 0
0 1587 0
0 1587 0
0 1587 237
0 1587 533
0 1587 830
0 1587 1125
0 1587 1421
0 1477 1578
0 1377 1731
0 1285 1879
0 1204 2028
0 1131 2175
0 1067 2323
0 1011 2473
0 962 2626
0 920 2783
0 885 2945
0 856 3115
0 832 3291
0 815 3476
0 802 3671
0 794 3877
0 792 4094
0 1752 0
0 1752 0
0 1752 0
0 1752 0
0 1752 141
0 1752 429
0 1752 717
0 1752 1003
0 1752 1290
0 1752 1578
0 1643 1731
0 1544 1879
0 1456 2028
0 1377 2175
0 1307 2323
0 1246 2473
0 1193 2626
0 1147 2783
0 1109 2946
0 1077 3115
0 1051 3291
0 1031 3476
0 1018 3671
0 1010 3877
0 1007 4094
0 1911 0
0 1910 0
0 1911 0
0 1910 0
0 1910 56
0 1911 336
0 1911 615
0 1910 893
0 1911 1172
0 1911 1451
0 1911 1731
0 1804 1879
0 1709 2027
0 1624 2175
0 1548 2322
0 1482 2473
0 1424 2626
0 1375 2783
0 1333 2946
0 1298 3115
0 1270 3291
0 1249 3477
0 1234 3671
0 1225 3877
0 1222 4094
0 2064 0
0 2064 0
0 2064 0
0 2064 0
0 2064 0
0 2064 254
0 2064 525
0 2064 795
0 2064 1066
0 2064 1338
0 2064 1609
0 2064 1879
0 1961 2027
0 1869 2175
0 1788 2322
0 1717 2473
0 1655 2626
0 1601 2783
0 1556 2946
0 1519 3115
0 1489 3291
0 1466 3476
0 1449 3671
0 1440 3877
0 1436 4094
0 2214 0
0 2214 0
0 2214 0
0 2214 0
0 2214 0
0 2214 181
0 2214 444
0 2214 709
0 2214 972
0 2214 1236
0 2214 1500
0 2214 1764
0 2214 2027
0 2115 2174
0 2029 2322
0 1952 2472
0 1886 2626
0 1829 2783
0 1780 2946
0 1740 3115
0 1708 3291
0 1683 3477
0 1665 3671
0 1655 3877
0 1652 4095
0 2362 0
0 2362 0
0 2362 0
0 2362 0
0 2362 0
0 2362 117
0 2362 374
0 2362 632
0 2362 888
0 2362 1146
0 2362 1403
0 2362 1660
0 2362 1917
0 2362 2174
0 2269 2322
0 2188 2472
0 2117 2626
0 2056 2783
0 2004 2946
0 1961 3115
0 1926 3291
0 1900 3476
0 1881 3671
0 1870 3877
0 1866 4095
0 2510 0
0 2510 0
0 2510 0
0 2510 0
0 2510 0
0 2510 62
0 2510 313
0 2510 565
0 2510 815
0 2510 1067
0 2510 1318
0 2510 1569
0 2510 1820
0 2510 2072
0 2510 2322
0 2423 2472
0 2348 2626
0 2283 2783
0 2228 2946
0 2182 3115
0 2145 3291
0 2117 3477
0 2097 3671
0 2085 3877
0 2081 4094
0 2659 0
0 2659 0
0 2659 0
0 2659 0
0 2659 0
0 2659 14
0 2659 260
0 2659 506
0 2659 751
0 2659 997
0 2659 1243
0 2659 1489
0 2659 1735
0 2659 1981
0 2659 2227
0 2659 2472
0 2579 2626
0 2510 2783
0 2451 2946
0 2403 3115
0 2364 3291
0 2334 3477
0 2313 3671
0 2300 3877
0 2296 4095
0 2810 0
0 2810 0
0 2810 0
0 2810 0
0 2810 0
0 2810 0
0 2810 214
0 2810 455
0 2810 696
0 2810 937
0 2810 1178
0 2810 1420
0 2810 1661
0 2810 1902
0 2810 2143
0 2810 2384
0 2810 2626
0 2737 2783
0 2675 2946
0 2624 3115
0 2583 3291
0 2551 3477
0 2529 3672
0 2515 3877
0 2511 4095
0 2964 0
0 2964 0
0 2964 0
0 2964 0
0 2964 0
0 2964 0
0 2964 174
0 2964 412
0 2964 649
0 2964 886
0 2964 1124
0 2964 1360
0 2964 1598
0 2964 1835
0 2964 2071
0 2964 2309
0 2964 2546
0 2964 2783
0 2899 2946
0 2845 3115
0 2801 3291
0 2768 3477
0 2744 3671
0 2730 3877
0 2726 4095
0 3123 0
0 3123 0
0 3123 0
0 3123 0
0 3123 0
0 3123 0
0 3123 142
0 3123 376
0 3123 609
0 3123 843
0 3123 1076
0 3123 1310
0 3123 1544
0 3123 1778
0 3123 2011
0 3123 2245
0 3123 2478
0 3123 2712
0 3123 2946
0 3066 3115
0 3020 3291
0 2985 3477
0 2960 3671
0 2946 3877
0 2941 4095
0 3287 0
0 3287 0
0 3287 0
0 3287 0
0 3287 0
0 3287 0
0 3287 115
0 3287 346
0 3287 576
0 3287 807
0 3287 1038
0 3287 1268
0 3287 1499
0 3287 1730
0 3287 1961
0 3287 2192
0 3287 2423
0 3287 2653
0 3287 2884
0 3287 3115
0 3239 3291
0 3202 3477
0 3176 3671
0 3161 3877
0 3156 4095
0 3458 0
0 3458 0
0 3458 0
0 3458 0
0 3458 0
0 3458 0
0 3458 93
0 3458 322
0 3458 550
0 3458 779
0 3458 1007
0 3458 1235
0 3458 1464
0 3458 1693
0 3458 1921
0 3458 2149
0 3458 2378
0 3458 2606
0 3458 2835
0 3458 3063
0 3458 3291
0 3419 3477
0 3392 3671
0 3376 3877
0 3370 4095
0 3636 0
0 3636 0
0 3636 0
0 3636 0
0 3636 0
0 3636 0
0 3636 77
0 3636 304
0 3636 530
0 3636 757
0 3636 983
0 3636 1210
0 3636 1437
0 3636 1663
0 3636 1890
0 3636 2117
0 3636 2343
0 3636 2570
0 3636 2797
0 3636 3023
0 3636 3250
0 3636 3477
0 3608 3671
0 3591 3877
0 3586 4095
0 3824 0
0 3824 0
0 3824 0
0 3824 0
0 3824 0
0 3824 0
0 3824 65
0 3824 291
0 3824 515
0 3824 741
0 3824 967
0 3824 1191
0 3824 1417
0 3824 1643
0 3824 1868
0 3824 2093
0 3824 2319
0 3824 2544
0 3824 2770
0 3824 2995
0 3824 3220
0 3824 3446
0 3824 3671
0 3806 3877
0 3800 4095
0 4021 0
0 4021 0
0 4021 0
0 4021 0
0 4021 0
0 4021 0
0 4021 58
0 4021 283
0 4021 507
0 4021 732
0 4021 957
0 4021 1181
0 4021 1406
0 4021 1630
0 4021 1855
0 4021 2080
0 4021 2305
0 4021 2529
0 4021 2754
0 4021 2978
0 4021 3203
0 4021 3428
0 4021 3652
0 4021 3877
0 4015 4095
0 4095 0
0 4095 0
0 4095 0
0 4095 0
0 4095 0
0 4095 0
0 4095 56
0 4095 281
0 4095 504
0 4095 729
0 4095 953
0 4095 1178
0 4095 1402
0 4095 1627
0 4095 1851
0 4095 2075
0 4095 2300
0 4095 2524
0 4095 2748
0 4095 2973
0 4095 3197
0 4095 3422
0 4095 3646
0 4095 3870
0 4095 4095
203 0 0
207 0 173
82 0 350
4 0 535
0 0 721
0 0 911
0 0 1082
0 0 1256
0 0 1422
0 0 1576
0 0 1732
0 0 1879
0 0 2026
0 0 2176
0 0 2321
0 0 2474
0 0 2626
0 0 2782
0 0 2945
0 0 3115
0 0 3291
0 0 3476
0 0 3671
0 0 3877
0 0 4094
207 203 0
207 203 173
85 98 354
7 0 538
0 0 723
0 0 904
0 0 1084
0 0 1257
0 0 1423
0 0 1577
0 0 1729
0 0 1879
0 0 2027
0 0 2174
0 0 2322
0 0 2472
0 0 2626
0 0 2783
0 0 2945
0 0 3115
0 0 3291
0 0 3476
0 0 3671
0 0 3877
0 0 4095
85 411 0
86 408 29
85 411 354
7 308 540
0 210 725
0 119 907
0 33 1086
0 0 1256
0 0 1421
0 0 1578
0 0 1731
0 0 1881
0 0 2028
0 0 2175
0 0 2323
0 0 2473
0 0 2625
0 0 2784
0 0 2946
0 0 3114
0 0 3292
0 0 3477
0 0 3672
0 0 3876
0 0 4095
7 621 0
7 621 0
7 621 213
7 621 538
0 520 723
0 422 908
0 333 1086
0 247 1257
0 170 1421
0 102 1579
0 41 1731
0 0 1879
0 0 2028
0 0 2175
0 0 2323
0 0 2473
0 0 2626
0 0 2782
0 0 2947
0 0 3115
0 0 3291
0 0 3476
0 0 3671
0 0 3876
0 0 4095
0 828 0
0 828 0
0 828 79
0 828 401
0 828 723
0 728 907
0 631 1085
0 538 1257
0 455 1421
0 378 1578
0 309 1731
0 247 1879
0 194 2028
0 146 2175
0 105 2323
0 69 2473
0 39 2626
0 13 2784
0 0 2946
0 0 3115
0 0 3291
0 0 3476
0 0 3671
0 0 3876
0 0 4095
0 1032 0
0 1032 0
0 1031 0
0 1032 271
0 1032 588
0 1032 907
0 928 1085
0 830 1257
0 737 1421
0 651 1577
0 575 1731
0 507 1879
0 445 2027
0 391 2174
0 345 2322
0 304 2472
0 269 2626
0 239 2783
0 214 2945
0 193 3115
0 176 3291
0 164 3476
0 155 3671
0 149 3877
0 148 4095
0 1226 0
0 1226 0
0 1226 0
0 1226 151
0 1226 461
0 1227 774
0 1227 1085
0 1121 1257
0 1021 1421
0 927 1578
0 843 1731
0 766 1879
0 699 2028
0 639 2175
0 586 2323
0 540 2473
0 500 2626
0 466 2782
0 438 2946
0 414 3115
0 395 3291
0 380 3476
0 370 3671
0 364 3877
0 362 4095
0 1413 0
0 1413 0
0 1413 0
0 1413 40
0 1413 345
0 1412 649
0 1412 952
0 1413 1257
0 1303 1420
0 1202 1578
0 1109 1730
0 1026 1880
0 951 2027
0 884 2174
0 826 2322
0 775 2472
0 731 2626
0 694 2783
0 662 2946
0 635 3115
0 614 3291
0 598 3477
0 587 3671
0 580 3877
0 578 4095
0 1587 0
0 1587 0
0 1587 0
0 1587 0
0 1587 238
0 1587 534
0 1587 830
0 1587 1125
0 1587 1421
0 1477 1578
0 1376 1731
0 1285 1880
0 1203 2027
0 1130 2175
0 1066 2322
0 1010 2473
0 962 2626
0 921 2783
0 885 2946
0 856 3115
0 832 3291
0 814 3477
0 802 3672
0 794 3876
0 792 4095
0 1752 0
0 1752 0
0 1752 0
0 1752 0
0 1752 143
0 1752 429
0 1752 717
0 1752 1004
0 1752 1290
0 1752 1578
0 1643 1730
0 1545 1880
0 1456 2027
0 1377 2175
0 1307 2322
0 1246 2472
0 1193 2626
0 1147 2783
0 1109 2946
0 1077 3115
0 1051 3292
0 1032 3477
0 1018 3672
0 1010 3877
0 1007 4095
0 1911 0
0 1911 0
0 1911 0
0 1911 0
0 1911 58
0 1910 336
0 1911 615
0 1911 894
0 1910 1172
0 1910 1452
0 1910 1730
0 1805 1880
0 1709 2027
0 1623 2175
0 1548 2322
0 1481 2472
0 1424 2626
0 1375 2783
0 1333 2946
0 1298 3115
0 1270 3292
0 1249 3477
0 1234 3672
0 1225 3877
0 1222 4095
