Toning/Saturation & Contrast - Channels & Volume.3dl
#25pt 3DLUT created by 3D LUT Creator Pro (c) Oleg Sharonov
#Copyright Oleg Sharonov
#IMAGEPROFILE sRGB IEC61966-2.1 v.2.10
#INPUTGAMMA sRGB IEC61966-2.1 v.2.10
#OUTPUTGAMMA sRGB IEC61966-2.1 v.2.10
0 43 86 128 171 214 256 299 341 384 427 469 512 555 597 640 682 725 768 810 853 896 938 981 1023 
0 0 0
0 19 201
0 45 365
0 87 542
0 145 720
0 212 894
0 278 1070
0 343 1243
0 409 1415
0 474 1585
0 538 1752
0 601 1914
0 662 2075
0 721 2227
0 778 2374
0 833 2515
0 885 2647
0 933 2769
0 977 2879
0 1017 2977
0 1050 3060
0 1080 3128
0 1120 3157
0 1177 3160
0 1234 3163
78 174 78
61 189 217
0 203 393
0 230 560
0 271 734
0 316 907
0 369 1081
0 422 1253
0 477 1425
0 533 1592
0 591 1758
0 648 1921
0 704 2080
0 758 2232
0 812 2379
0 864 2519
0 913 2650
0 958 2771
0 1000 2881
0 1038 2978
0 1070 3061
0 1097 3129
0 1137 3157
0 1193 3161
0 1249 3165
152 354 152
145 365 248
116 372 414
0 381 590
0 403 757
0 433 928
0 470 1097
0 513 1268
0 558 1437
0 606 1604
0 656 1769
0 707 1930
0 758 2087
0 807 2238
0 856 2385
0 904 2524
0 949 2654
0 992 2776
0 1031 2885
0 1066 2982
0 1096 3064
0 1120 3131
0 1159 3159
0 1213 3163
0 1268 3166
217 542 217
214 550 291
195 552 442
155 557 613
74 564 787
0 578 955
0 602 1122
0 632 1289
0 666 1454
0 706 1620
0 746 1782
0 789 1943
0 833 2098
0 877 2249
0 920 2393
0 963 2532
0 1003 2661
0 1041 2781
0 1076 2890
0 1107 2986
0 1134 3067
0 1155 3133
0 1191 3161
0 1244 3164
0 1297 3167
271 734 271
269 739 332
252 739 471
225 738 639
180 739 810
113 744 981
0 755 1150
0 773 1314
0 798 1479
0 826 1641
0 858 1801
0 893 1959
0 928 2113
0 965 2262
0 1002 2405
0 1038 2542
0 1073 2670
0 1106 2788
0 1136 2896
0 1162 2991
0 1184 3071
0 1201 3136
0 1234 3163
0 1286 3167
0 1337 3170
312 931 312
310 933 365
295 932 499
273 928 663
238 924 835
192 921 1006
129 924 1176
0 932 1342
0 946 1505
0 964 1665
0 988 1824
0 1013 1979
0 1041 2130
0 1070 2278
0 1100 2420
0 1129 2554
0 1158 2681
0 1185 2798
0 1209 2904
0 1230 2997
0 1247 3076
0 1258 3140
0 1287 3166
0 1336 3169
0 1386 3172
343 1129 343
339 1131 393
328 1128 522
308 1122 685
280 1114 858
243 1107 1031
198 1103 1201
136 1102 1368
0 1107 1533
0 1117 1692
0 1131 1848
0 1148 2002
0 1168 2152
0 1189 2297
0 1212 2437
0 1234 2569
0 1256 2694
0 1276 2810
0 1294 2913
0 1309 3005
0 1319 3082
0 1326 3145
0 1351 3170
0 1397 3173
0 1444 3176
363 1329 363
362 1330 412
352 1326 540
336 1318 703
312 1308 877
280 1297 1053
243 1287 1225
198 1281 1394
132 1278 1558
0 1279 1718
0 1285 1874
0 1295 2026
0 1306 2174
0 1320 2317
0 1335 2455
0 1351 2586
0 1365 2709
0 1378 2821
0 1390 2924
0 1398 3014
0 1403 3089
0 1403 3150
0 1424 3174
0 1467 3177
0 1512 3179
379 1527 379
377 1528 427
370 1524 552
356 1516 717
336 1504 894
308 1490 1071
276 1476 1246
238 1465 1416
189 1456 1582
116 1451 1743
0 1449 1899
0 1450 2051
0 1454 2198
0 1461 2339
0 1468 2475
0 1476 2604
0 1483 2724
0 1490 2835
0 1494 2935
0 1496 3023
0 1494 3097
0 1488 3155
0 1504 3179
0 1545 3180
0 1587 3182
391 1724 391
389 1725 437
383 1721 563
370 1712 728
354 1699 907
330 1683 1086
304 1667 1264
269 1651 1436
230 1638 1603
177 1627 1766
68 1619 1923
0 1612 2075
0 1610 2220
0 1608 2361
0 1608 2495
0 1609 2621
0 1610 2740
0 1609 2849
0 1606 2946
0 1601 3032
0 1593 3104
0 1580 3160
0 1592 3182
0 1629 3183
0 1668 3185
399 1919 399
399 1920 446
393 1916 570
383 1906 736
369 1893 916
349 1877 1098
326 1858 1278
297 1839 1452
264 1822 1622
220 1806 1785
155 1792 1944
0 1781 2096
0 1770 2242
0 1762 2381
0 1755 2514
0 1749 2639
0 1742 2755
0 1734 2862
0 1724 2957
0 1712 3040
0 1696 3109
0 1677 3164
0 1685 3185
0 1720 3186
0 1756 3187
409 2112 409
408 2112 454
403 2108 577
394 2099 743
383 2086 924
367 2068 1107
345 2048 1289
322 2028 1466
293 2007 1637
255 1987 1802
203 1968 1961
94 1952 2115
0 1936 2261
0 1921 2400
0 1907 2532
0 1893 2655
0 1880 2770
0 1865 2874
0 1847 2967
0 1828 3048
0 1805 3115
0 1780 3167
0 1782 3187
0 1814 3187
0 1848 3188
419 2301 419
419 2301 462
414 2297 584
408 2288 748
398 2275 930
384 2257 1114
367 2237 1298
345 2215 1476
320 2191 1649
289 2168 1816
243 2146 1976
165 2124 2130
0 2103 2278
0 2082 2416
0 2062 2547
0 2041 2669
0 2020 2782
0 1998 2885
0 1974 2975
0 1948 3054
0 1918 3119
0 1885 3169
0 1883 3187
0 1913 3187
0 1944 3187
433 2486 433
431 2486 474
430 2482 593
423 2474 755
416 2460 935
403 2443 1120
389 2422 1304
370 2398 1484
349 2373 1658
320 2348 1826
278 2322 1988
212 2296 2143
0 2271 2290
0 2244 2429
0 2218 2559
0 2191 2681
0 2163 2792
0 2134 2893
0 2103 2982
0 2070 3058
0 2033 3120
0 1993 3168
0 1986 3186
0 2014 3185
0 2042 3184
451 2667 451
449 2667 490
448 2663 604
443 2655 762
436 2642 940
427 2625 1125
414 2603 1309
399 2579 1489
379 2553 1665
351 2525 1834
314 2496 1996
250 2467 2151
65 2438 2300
0 2406 2439
0 2374 2569
0 2341 2689
0 2307 2799
0 2271 2898
0 2233 2985
0 2193 3059
0 2149 3120
0 2102 3166
0 2091 3182
0 2117 3181
0 2143 3179
475 2843 475
474 2843 512
472 2839 618
470 2831 772
462 2818 947
455 2802 1129
445 2780 1313
430 2756 1493
411 2728 1668
384 2699 1838
347 2668 2001
282 2636 2156
129 2604 2305
0 2567 2445
0 2529 2574
0 2491 2694
0 2451 2803
0 2408 2900
0 2363 2985
0 2316 3058
0 2265 3116
0 2212 3160
0 2196 3176
0 2220 3174
0 2244 3172
505 3014 505
505 3014 538
504 3010 639
500 3002 786
496 2990 955
488 2973 1134
478 2952 1316
464 2927 1495
445 2899 1670
419 2868 1840
377 2835 2002
310 2802 2158
152 2766 2307
0 2726 2446
0 2683 2575
0 2638 2694
0 2592 2802
0 2543 2898
0 2492 2982
0 2438 3053
0 2381 3109
0 2321 3152
0 2302 3167
0 2323 3164
0 2346 3162
542 3179 542
541 3178 572
540 3175 663
537 3167 802
532 3155 966
525 3139 1141
514 3117 1319
501 3092 1496
481 3064 1670
451 3032 1838
406 2998 2001
332 2963 2156
145 2925 2304
0 2880 2444
0 2833 2573
0 2783 2691
0 2731 2798
0 2676 2892
0 2619 2975
0 2559 3043
0 2495 3099
0 2429 3141
0 2406 3155
0 2425 3152
0 2446 3149
583 3337 583
583 3336 610
580 3333 693
578 3325 822
572 3314 979
565 3297 1148
554 3276 1322
537 3251 1496
514 3223 1668
481 3191 1834
428 3156 1995
339 3118 2150
0 3079 2298
0 3030 2437
0 2978 2565
0 2923 2683
0 2866 2789
0 2806 2882
0 2742 2963
0 2676 3031
0 2607 3085
0 2535 3125
0 2509 3139
0 2526 3136
0 2544 3133
626 3488 626
625 3488 649
624 3484 725
619 3477 844
614 3465 992
605 3449 1155
592 3429 1324
572 3404 1495
545 3375 1663
504 3343 1828
440 3307 1987
326 3269 2140
0 3226 2287
0 3173 2426
0 3117 2553
0 3058 2670
0 2996 2775
0 2931 2868
0 2862 2947
0 2790 3014
0 2716 3067
0 2638 3107
0 2609 3121
0 2625 3117
0 2642 3114
667 3632 667
666 3631 688
664 3628 756
660 3621 866
653 3609 1005
642 3594 1161
625 3574 1324
601 3549 1490
566 3521 1655
516 3489 1817
433 3453 1974
269 3414 2125
0 3366 2272
0 3310 2410
0 3251 2537
0 3187 2653
0 3121 2757
0 3050 2848
0 2977 2927
0 2900 2993
0 2821 3046
0 2739 3086
0 2706 3099
0 2720 3095
0 2736 3092
703 3768 703
702 3768 722
700 3764 783
695 3758 885
684 3746 1016
670 3731 1164
649 3712 1321
618 3688 1482
573 3660 1643
505 3628 1802
389 3593 1956
0 3553 2105
0 3498 2253
0 3439 2390
0 3376 2516
0 3309 2631
0 3238 2734
0 3164 2825
0 3086 2903
0 3005 2968
0 2921 3021
0 2836 3061
0 2800 3075
0 2813 3071
0 2827 3067
728 3898 728
727 3897 745
724 3894 802
716 3887 896
703 3877 1020
684 3862 1161
656 3843 1312
615 3820 1468
554 3793 1625
457 3762 1780
250 3727 1930
0 3679 2084
0 3622 2230
0 3560 2366
0 3494 2492
0 3424 2605
0 3349 2707
0 3271 2797
0 3189 2875
0 3105 2940
0 3017 2992
0 2928 3034
0 2891 3048
0 2904 3044
0 2916 3040
735 4021 735
733 4020 751
728 4017 803
717 4011 893
700 4001 1010
673 3987 1146
634 3969 1292
577 3947 1444
485 3920 1596
310 3890 1748
0 3849 1904
0 3795 2058
0 3736 2204
0 3672 2338
0 3603 2462
0 3530 2575
0 3453 2677
0 3371 2766
0 3287 2843
0 3199 2908
0 3109 2962
0 3018 3004
0 2979 3020
0 2991 3016
0 3002 3012
921 4095 921
918 4095 930
899 4095 953
865 4095 999
803 4095 1064
698 4095 1145
562 4090 1255
467 4069 1404
271 4044 1553
0 4005 1716
0 3956 1877
0 3901 2030
0 3840 2173
0 3775 2307
0 3704 2430
0 3628 2542
0 3543 2644
0 3452 2736
0 3357 2816
0 3259 2885
0 3159 2943
0 3058 2990
0 3009 3009
0 3009 3009
0 3009 3009
168 0 0
149 0 149
119 0 347
0 45 533
0 132 706
0 201 888
0 269 1061
0 337 1239
0 404 1411
0 468 1579
0 533 1749
0 597 1912
0 658 2070
0 718 2224
0 776 2372
0 831 2512
0 883 2645
0 931 2767
0 975 2877
0 1015 2976
0 1049 3059
0 1078 3127
0 1119 3156
0 1176 3160
0 1233 3164
195 149 0
171 171 171
103 183 372
0 220 548
0 264 725
0 310 900
0 362 1073
0 416 1249
0 471 1418
0 528 1588
0 586 1755
0 644 1917
0 700 2075
0 756 2230
0 810 2376
0 862 2516
0 911 2648
0 957 2770
0 998 2880
0 1036 2978
0 1068 3061
0 1096 3128
0 1135 3157
0 1191 3160
0 1248 3164
228 341 136
209 356 209
165 363 389
48 374 573
0 396 744
0 427 918
0 465 1091
0 508 1261
0 553 1430
0 602 1599
0 652 1764
0 703 1925
0 754 2083
0 805 2236
0 854 2382
0 902 2522
0 948 2653
0 990 2773
0 1029 2883
0 1064 2981
0 1095 3063
0 1119 3130
0 1157 3158
0 1212 3162
0 1267 3165
276 532 209
260 541 260
225 546 417
168 552 596
81 558 773
0 573 944
0 597 1114
0 628 1282
0 663 1450
0 702 1615
0 744 1779
0 786 1938
0 830 2095
0 874 2247
0 918 2391
0 961 2529
0 1002 2660
0 1039 2779
0 1074 2888
0 1106 2985
0 1132 3066
0 1154 3132
0 1189 3161
0 1243 3164
0 1296 3167
318 725 264
304 733 304
276 735 449
233 735 622
183 736 798
116 741 973
0 751 1142
0 770 1308
0 794 1473
0 823 1636
0 855 1796
0 890 1955
0 926 2109
0 963 2259
0 1000 2402
0 1036 2539
0 1071 2668
0 1105 2787
0 1134 2895
0 1161 2990
0 1183 3071
0 1201 3136
0 1233 3164
0 1284 3167
0 1336 3169
354 923 306
341 929 341
316 928 477
280 926 648
240 921 823
195 919 997
132 921 1169
0 929 1336
0 943 1499
0 961 1660
0 985 1820
0 1011 1976
0 1039 2128
0 1068 2276
0 1098 2418
0 1128 2552
0 1156 2679
0 1183 2796
0 1208 2903
0 1229 2996
0 1246 3076
0 1258 3140
0 1287 3167
0 1336 3170
0 1385 3173
383 1123 339
370 1127 370
347 1126 501
316 1120 669
282 1113 846
245 1105 1022
201 1101 1194
136 1101 1363
0 1105 1527
0 1115 1687
0 1128 1844
0 1146 1998
0 1166 2148
0 1188 2294
0 1210 2435
0 1233 2567
0 1254 2693
0 1274 2808
0 1293 2912
0 1308 3004
0 1319 3082
0 1326 3145
0 1351 3171
0 1396 3173
0 1444 3176
403 1323 362
391 1326 391
370 1325 518
341 1318 688
314 1307 866
282 1296 1043
245 1286 1217
198 1279 1387
132 1276 1553
0 1278 1714
0 1283 1870
0 1293 2023
0 1305 2172
0 1318 2315
0 1334 2453
0 1349 2584
0 1364 2707
0 1377 2820
0 1389 2923
0 1397 3013
0 1402 3089
0 1403 3150
0 1423 3174
0 1466 3177
0 1511 3179
419 1523 377
406 1525 406
386 1523 532
362 1515 701
336 1503 882
310 1489 1062
278 1475 1238
240 1463 1410
192 1455 1576
116 1449 1739
0 1447 1896
0 1449 2048
0 1453 2194
0 1459 2337
0 1467 2473
0 1475 2602
0 1482 2723
0 1489 2834
0 1493 2934
0 1495 3022
0 1493 3096
0 1487 3154
0 1503 3179
0 1544 3181
0 1586 3182
430 1720 389
417 1722 417
399 1720 542
376 1711 712
354 1699 894
332 1683 1077
304 1667 1256
271 1651 1430
233 1637 1598
180 1626 1761
74 1618 1919
0 1612 2071
0 1608 2217
0 1608 2359
0 1608 2493
0 1608 2620
0 1608 2738
0 1608 2847
0 1605 2945
0 1600 3031
0 1592 3102
0 1579 3159
0 1591 3182
0 1629 3183
0 1667 3185
437 1916 399
427 1917 427
409 1914 550
388 1906 720
370 1893 904
351 1876 1089
326 1858 1270
297 1839 1446
264 1821 1616
222 1805 1780
158 1792 1940
0 1780 2093
0 1770 2239
0 1761 2379
0 1755 2512
0 1748 2637
0 1741 2754
0 1734 2861
0 1724 2956
0 1712 3040
0 1696 3109
0 1677 3164
0 1683 3185
0 1719 3186
0 1755 3187
