Toning/Saturation-CMYK2Warmer.3dl
#25pt 3DLUT created by 3D LUT Creator Pro (c) Oleg Sharonov
#Copyright Oleg Sharonov
#IMAGEPROFILE sRGB IEC61966-2.1 v.2.10
#INPUTGAMMA sRGB IEC61966-2.1 v.2.10
#OUTPUTGAMMA sRGB IEC61966-2.1 v.2.10
0 128 256 384 512 640 768 896 1023
0 0 0
0 0 538
0 0 1083
0 0 1577
0 0 2027
0 0 2472
0 0 2946
0 0 3477
0 0 4095
0 621 0
0 621 538
0 332 1084
0 102 1577
0 0 2027
0 0 2472
0 0 2945
0 0 3476
0 0 4095
0 1226 0
0 1226 151
0 1226 1085
0 927 1578
0 698 2027
0 539 2472
0 437 2945
0 380 3476
0 363 4095
0 1752 0
0 1752 0
0 1752 717
0 1752 1578
0 1456 2028
0 1246 2473
0 1109 2946
0 1031 3476
0 1007 4094
0 2214 0
0 2214 0
0 2214 444
0 2214 1236
0 2214 2027
0 1952 2472
0 1780 2946
0 1683 3477
0 1652 4095
0 2659 0
0 2659 0
0 2659 260
0 2659 997
0 2659 1735
0 2659 2472
0 2451 2946
0 2334 3477
0 2296 4095
0 3123 0
0 3123 0
0 3123 142
0 3123 843
0 3123 1544
0 3123 2245
0 3123 2946
0 2985 3477
0 2941 4095
0 3636 0
0 3636 0
0 3636 77
0 3636 757
0 3636 1437
0 3636 2117
0 3636 2797
0 3636 3477
0 3586 4095
0 4095 0
0 4095 0
0 4095 56
0 4095 729
0 4095 1402
0 4095 2075
0 4095 2748
0 4095 3422
0 4095 4095
639 0 0
639 0 538
293 0 1084
96 0 1577
0 0 2027
0 0 2472
0 0 2946
0 0 3477
0 0 4095
639 621 0
639 621 538
293 332 1085
96 102 1577
0 0 2027
0 0 2472
0 0 2945
0 0 3476
0 0 4095
293 1226 0
293 1226 151
293 1226 1085
96 927 1578
0 698 2027
0 539 2472
0 437 2945
0 380 3476
0 362 4095
96 1752 0
96 1752 0
96 1752 717
96 1752 1578
0 1456 2028
0 1246 2473
0 1109 2946
0 1031 3476
0 1007 4095
0 2214 0
0 2214 0
0 2214 444
0 2214 1236
0 2214 2027
0 1952 2472
0 1780 2946
0 1683 3477
0 1652 4095
0 2659 0
0 2659 0
0 2659 260
0 2659 997
0 2659 1735
0 2659 2472
0 2451 2946
0 2334 3477
0 2296 4095
0 3123 0
0 3123 0
0 3123 142
0 3123 843
0 3123 1544
0 3123 2245
0 3123 2946
0 2985 3477
0 2941 4095
0 3636 0
0 3636 0
0 3636 77
0 3636 757
0 3636 1437
0 3636 2117
0 3636 2797
0 3636 3477
0 3586 4095
0 4095 0
0 4095 0
0 4095 56
0 4095 729
0 4095 1402
0 4095 2075
0 4095 2748
0 4095 3422
0 4095 4095
1277 0 0
1277 0 151
1276 0 1084
896 0 1577
639 0 2027
478 0 2472
381 0 2945
330 0 3476
314 0 4094
1277 332 0
1277 332 151
1277 332 1085
898 102 1578
639 0 2028
478 0 2473
381 0 2945
330 0 3476
314 0 4095
1277 1226 0
1277 1226 151
1277 1227 1085
898 927 1578
639 699 2028
478 540 2473
381 437 2945
330 380 3476
314 362 4095
898 1752 0
898 1752 0
898 1752 717
898 1752 1578
639 1456 2027
478 1246 2472
382 1109 2946
331 1032 3477
315 1007 4095
639 2214 0
639 2214 0
639 2214 444
639 2214 1236
639 2214 2027
478 1952 2473
381 1780 2946
330 1683 3476
314 1652 4095
478 2659 0
478 2659 0
478 2659 260
478 2659 997
478 2659 1735
478 2659 2472
382 2451 2946
331 2334 3477
315 2296 4095
382 3123 0
382 3123 0
382 3123 142
382 3123 843
382 3123 1544
382 3123 2245
382 3123 2946
331 2985 3477
315 2941 4095
331 3636 0
331 3636 0
331 3636 77
331 3636 757
331 3636 1437
331 3636 2117
331 3636 2797
331 3636 3477
315 3585 4095
315 4095 0
314 4095 0
314 4095 55
314 4095 728
314 4095 1402
313 4095 2075
314 4095 2748
314 4095 3422
315 4095 4095
1839 0 0
1839 0 0
1839 0 716
1839 0 1578
1479 0 2027
1226 0 2472
1066 0 2945
979 0 3476
951 0 4095
1839 102 0
1839 102 0
1838 102 716
1838 102 1577
1479 0 2027
1226 0 2473
1066 0 2945
978 0 3476
951 0 4095
1839 927 0
1839 927 0
1839 927 716
1840 927 1578
1479 698 2027
1226 540 2473
1066 437 2945
979 380 3476
951 362 4095
1839 1752 0
1839 1752 0
1839 1752 717
1839 1752 1578
1480 1456 2027
1226 1246 2472
1066 1109 2946
979 1032 3477
951 1007 4095
1480 2214 0
1480 2214 0
1480 2214 444
1480 2214 1236
1480 2214 2027
1226 1952 2472
1066 1780 2946
979 1683 3477
951 1652 4095
1226 2659 0
1226 2659 0
1226 2659 260
1226 2659 997
1226 2659 1735
1226 2659 2472
1066 2451 2946
979 2334 3477
951 2296 4095
1066 3123 0
1066 3123 0
1066 3123 142
1066 3123 843
1066 3123 1544
1066 3123 2245
1066 3123 2946
979 2985 3477
951 2941 4095
979 3636 0
979 3636 0
979 3636 77
979 3636 757
979 3636 1437
979 3636 2117
979 3636 2797
979 3636 3477
952 3585 4095
951 4095 0
951 4095 0
951 4095 55
951 4095 728
951 4095 1402
951 4095 2075
951 4095 2748
951 4095 3422
951 4095 4095
2333 0 0
2333 0 0
2333 0 445
2333 0 1236
2333 0 2028
2037 0 2473
1833 0 2946
1716 0 3477
1678 0 4094
2333 0 0
2333 0 0
2333 0 445
2333 0 1236
2333 0 2027
2037 0 2472
1832 0 2946
1716 0 3477
1678 0 4095
2333 699 0
2333 699 0
2333 699 445
2333 699 1236
2333 699 2027
2037 540 2472
1832 438 2946
1716 381 3477
1678 363 4095
2333 1456 0
2333 1456 0
2333 1456 444
2332 1456 1236
2333 1456 2027
2037 1246 2472
1832 1109 2946
1716 1032 3477
1678 1007 4095
2333 2214 0
2333 2214 0
2333 2214 445
2333 2214 1236
2333 2214 2027
2037 1952 2472
1832 1780 2946
1716 1683 3477
1678 1652 4095
2037 2659 0
2037 2659 0
2037 2659 260
2037 2659 997
2037 2659 1735
2037 2659 2472
1832 2451 2946
1716 2334 3477
1678 2296 4095
1832 3123 0
1832 3123 0
1832 3123 142
1832 3123 843
1832 3123 1544
1832 3123 2245
1832 3122 2946
1716 2985 3477
1678 2941 4095
1716 3636 0
1716 3636 0
1716 3636 77
1716 3636 757
1716 3636 1437
1716 3636 2117
1716 3636 2797
1716 3636 3477
1678 3585 4095
1678 4095 0
1678 4095 0
1679 4095 57
1679 4095 729
1679 4095 1402
1679 4095 2075
1677 4095 2748
1677 4095 3422
1677 4095 4095
2790 0 0
2790 0 0
2790 0 259
2790 0 997
2790 0 1735
2790 0 2472
2583 0 2946
2455 0 3477
2413 0 4095
2790 0 0
2790 0 0
2790 0 259
2790 0 997
2790 0 1735
2790 0 2472
2583 0 2946
2455 0 3477
2413 0 4095
2790 540 0
2790 540 0
2790 539 259
2790 539 997
2790 539 1735
2790 539 2472
2583 437 2946
2455 381 3477
2413 363 4095
2790 1246 0
2790 1246 0
2790 1246 260
2790 1246 997
2790 1246 1735
2790 1246 2473
2583 1109 2946
2455 1032 3476
2413 1007 4095
2790 1952 0
2790 1952 0
2790 1952 260
2790 1952 997
2790 1952 1735
2790 1952 2472
2583 1780 2946
2455 1683 3477
2413 1652 4095
2790 2659 0
2790 2659 0
2790 2659 260
2790 2659 997
2790 2659 1735
2790 2659 2472
2583 2451 2946
2455 2334 3477
2413 2296 4095
2583 3123 0
2583 3123 0
2583 3123 142
2583 3123 843
2583 3123 1544
2583 3123 2245
2583 3123 2946
2455 2985 3477
2413 2941 4095
2455 3636 0
2455 3636 0
2455 3636 77
2455 3636 757
2455 3636 1437
2455 3636 2117
2456 3636 2797
2456 3636 3477
2414 3586 4095
2414 4095 0
2414 4095 0
2413 4095 56
2413 4095 729
2413 4095 1402
2413 4095 2075
2413 4095 2748
2414 4095 3422
2414 4095 4095
3221 0 0
3221 0 0
3221 0 141
3221 0 843
3221 0 1544
3221 0 2245
3221 0 2946
3112 0 3477
3074 0 4095
3221 0 0
3221 0 0
3220 0 141
3220 0 842
3220 0 1544
3220 0 2245
3221 0 2946
3112 0 3476
3074 0 4095
3221 437 0
3221 437 0
3221 437 141
3220 437 842
3221 437 1544
3221 437 2245
3221 437 2946
3112 380 3476
3074 362 4095
3221 1109 0
3221 1109 0
3221 1109 142
3221 1109 843
3221 1109 1544
3221 1109 2245
3221 1109 2946
3113 1032 3477
3074 1007 4095
3221 1780 0
3221 1780 0
3221 1780 141
3221 1780 843
3221 1780 1544
3221 1780 2245
3221 1780 2946
3112 1683 3477
3074 1652 4095
3221 2451 0
3221 2451 0
3221 2451 142
3221 2451 843
3221 2451 1544
3221 2451 2245
3221 2451 2946
3112 2334 3477
3074 2296 4095
3221 3123 0
3221 3123 0
3221 3123 142
3221 3123 843
3221 3123 1544
3221 3123 2245
3221 3123 2946
3112 2985 3477
3074 2941 4095
3112 3636 0
3112 3636 0
3112 3636 77
3112 3636 757
3112 3636 1437
3112 3636 2117
3112 3636 2797
3112 3636 3477
3074 3586 4095
3074 4095 0
3074 4095 0
3074 4095 55
3074 4095 728
3074 4095 1402
3074 4095 2075
3074 4095 2748
3074 4095 3422
3074 4095 4095
3640 0 0
3640 0 0
3640 0 77
3640 0 757
3640 0 1437
3640 0 2117
3640 0 2797
3640 0 3477
3605 0 4094
3640 0 0
3640 0 0
3640 0 77
3640 0 757
3640 0 1437
3640 0 2117
3640 0 2797
3640 0 3477
3605 0 4095
3640 381 0
3640 381 0
3640 381 77
3640 381 757
3640 381 1437
3640 381 2117
3640 381 2797
3640 381 3477
3605 363 4095
3640 1032 0
3640 1032 0
3640 1032 77
3640 1032 757
3640 1032 1437
3640 1032 2117
3640 1032 2797
3640 1032 3477
3605 1007 4095
3640 1683 0
3640 1683 0
3640 1683 77
3640 1683 757
3640 1683 1437
3640 1683 2117
3640 1683 2797
3640 1683 3477
3605 1652 4095
3640 2334 0
3640 2334 0
3640 2334 77
3640 2334 757
3640 2334 1437
3640 2334 2117
3640 2334 2797
3640 2334 3477
3605 2296 4095
3640 2985 0
3640 2985 0
3640 2985 77
3640 2985 757
3640 2985 1437
3640 2985 2117
3640 2985 2796
3640 2985 3477
3605 2941 4095
3640 3636 0
3640 3636 0
3640 3636 77
3640 3636 757
3640 3636 1437
3640 3636 2116
3640 3636 2796
3640 3636 3477
3605 3585 4095
3605 4095 0
3605 4095 0
3605 4095 58
3605 4095 730
3605 4095 1403
3605 4095 2076
3605 4095 2749
3605 4095 3421
3605 4095 4095
4095 0 0
4095 0 0
4095 0 55
4095 0 729
4095 0 1402
4095 0 2075
4095 0 2748
4095 0 3422
4095 0 4095
4095 0 0
4095 0 0
4095 0 56
4095 0 729
4095 0 1402
4095 0 2075
4095 0 2748
4095 0 3422
4095 0 4095
4095 362 0
4095 362 0
4095 363 56
4095 363 729
4095 363 1402
4095 363 2075
4095 363 2748
4095 362 3422
4095 362 4095
4095 1007 0
4095 1007 0
4095 1007 56
4095 1007 729
4095 1007 1402
4095 1007 2075
4095 1007 2748
4095 1007 3422
4095 1007 4095
4095 1652 0
4095 1651 0
4095 1652 56
4095 1652 729
4095 1652 1402
4095 1652 2075
4095 1651 2748
4095 1651 3422
4095 1651 4095
4095 2296 0
4095 2296 0
4095 2296 55
4095 2296 728
4095 2296 1402
4095 2296 2075
4095 2296 2748
4095 2296 3422
4095 2296 4095
4095 2941 0
4095 2941 0
4095 2941 55
4095 2941 728
4095 2941 1402
4095 2941 2075
4095 2941 2748
4095 2941 3422
4095 2941 4095
4095 3585 0
4095 3585 0
4095 3585 55
4095 3585 728
4095 3585 1402
4095 3585 2075
4095 3585 2748
4095 3585 3422
4095 3585 4095
4095 4095 0
4095 4095 0
4095 4095 53
4095 4095 726
4095 4095 1401
4095 4095 2074
4095 4095 2748
4095 4095 3421
4095 4095 4095
