Toning/Saturation-CMYK2Warmer-Desaturated.3dl
#25pt 3DLUT created by 3D LUT Creator Pro (c) Oleg Sharonov
#Copyright Oleg Sharonov
#IMAGEPROFILE sRGB IEC61966-2.1 v.2.10
#INPUTGAMMA sRGB IEC61966-2.1 v.2.10
#OUTPUTGAMMA sRGB IEC61966-2.1 v.2.10
0 43 86 128 171 214 256 299 341 384 427 469 512 555 597 640 682 725 768 810 853 896 938 981 1023 
0 0 0
0 0 157
0 0 309
0 0 472
0 0 635
0 0 791
0 0 950
0 0 1104
0 0 1243
0 0 1382
0 0 1514
0 0 1646
0 0 1775
0 0 1905
0 0 2035
0 0 2165
0 0 2300
0 0 2436
0 0 2579
0 0 2730
0 0 2883
0 0 3045
0 0 3217
0 0 3397
0 0 3587
0 179 0
0 172 145
0 86 304
0 0 473
0 0 636
0 0 793
0 0 951
0 0 1105
0 0 1244
0 0 1382
0 0 1515
0 0 1646
0 0 1776
0 0 1906
0 0 2035
0 0 2166
0 0 2299
0 0 2436
0 0 2580
0 0 2730
0 0 2884
0 0 3045
0 0 3217
0 0 3398
0 0 3587
0 360 0
0 362 24
0 345 295
0 262 452
0 184 621
0 105 795
0 29 952
0 0 1102
0 0 1246
0 0 1383
0 0 1516
0 0 1645
0 0 1777
0 0 1907
0 0 2036
0 0 2166
0 0 2299
0 0 2436
0 0 2579
0 0 2729
0 0 2883
0 0 3044
0 0 3216
0 0 3397
0 0 3586
0 545 0
0 545 0
0 532 182
0 522 453
0 438 608
0 359 762
0 289 930
0 219 1099
0 151 1246
0 90 1382
0 36 1516
0 0 1645
0 0 1775
0 0 1905
0 0 2034
0 0 2165
0 0 2300
0 0 2436
0 0 2579
0 0 2729
0 0 2883
0 0 3044
0 0 3217
0 0 3397
0 0 3587
0 728 0
0 729 0
0 728 69
0 699 339
0 698 608
0 612 762
0 530 912
0 459 1061
0 393 1217
0 330 1367
0 273 1515
0 218 1645
0 170 1775
0 128 1905
0 92 2035
0 60 2165
0 34 2300
0 10 2436
0 0 2579
0 0 2729
0 0 2883
0 0 3044
0 0 3217
0 0 3397
0 0 3587
0 907 0
0 907 0
0 907 0
0 897 235
0 870 496
0 869 761
0 783 913
0 700 1059
0 620 1195
0 555 1332
0 494 1477
0 440 1619
0 391 1761
0 346 1904
0 305 2035
0 269 2165
0 238 2300
0 211 2436
0 189 2579
0 171 2730
0 156 2883
0 145 3045
0 137 3217
0 132 3397
0 130 3587
0 1076 0
0 1077 0
0 1076 0
0 1076 131
0 1048 397
0 1032 649
0 1032 912
0 945 1059
0 861 1196
0 781 1327
0 711 1455
0 652 1588
0 599 1727
0 551 1868
0 510 2007
0 472 2149
0 440 2293
0 410 2436
0 385 2579
0 365 2729
0 349 2883
0 335 3044
0 326 3217
0 322 3397
0 320 3587
0 1240 0
0 1240 0
0 1240 0
0 1240 35
0 1231 300
0 1195 551
0 1189 800
0 1189 1058
0 1097 1195
0 1012 1326
0 934 1454
0 865 1579
0 805 1704
0 754 1840
0 709 1977
0 669 2117
0 634 2259
0 604 2405
0 578 2556
0 557 2714
0 539 2877
0 525 3045
0 515 3217
0 509 3398
0 507 3587
0 1394 0
0 1394 0
0 1394 0
0 1394 0
0 1394 206
0 1365 460
0 1337 699
0 1337 946
0 1337 1195
0 1244 1326
0 1158 1454
0 1081 1578
0 1013 1704
0 953 1829
0 904 1953
0 862 2090
0 825 2231
0 793 2375
0 766 2526
0 743 2683
0 725 2844
0 712 3012
0 703 3191
0 698 3378
0 696 3574
0 1538 0
0 1538 0
0 1538 0
0 1538 0
0 1538 123
0 1527 374
0 1492 613
0 1475 843
0 1476 1086
0 1475 1326
0 1384 1454
0 1300 1579
0 1226 1704
0 1159 1828
0 1100 1952
0 1049 2078
0 1010 2206
0 976 2350
0 948 2499
0 925 2655
0 906 2815
0 893 2983
0 883 3161
0 879 3347
0 879 3542
0 1677 0
0 1676 0
0 1677 0
0 1676 0
0 1676 49
0 1677 293
0 1645 532
0 1613 757
0 1608 986
0 1608 1221
0 1607 1454
0 1518 1578
0 1439 1704
0 1368 1829
0 1304 1953
0 1248 2078
0 1198 2206
0 1157 2337
0 1128 2475
0 1103 2630
0 1084 2789
0 1070 2956
0 1060 3133
0 1056 3318
0 1056 3513
0 1812 0
0 1812 0
0 1812 0
0 1812 0
0 1812 0
0 1812 221
0 1796 458
0 1761 681
0 1737 899
0 1737 1126
0 1737 1352
0 1736 1578
0 1650 1703
0 1574 1828
0 1506 1952
0 1446 2078
0 1394 2206
0 1349 2338
0 1311 2475
0 1281 2618
0 1260 2767
0 1246 2932
0 1236 3109
0 1232 3293
0 1232 3487
0 1945 0
0 1945 0
0 1945 0
0 1945 0
0 1945 0
0 1944 158
0 1944 389
0 1908 613
0 1877 827
0 1865 1041
0 1864 1261
0 1864 1482
0 1864 1703
0 1781 1828
0 1707 1952
0 1642 2077
0 1587 2206
0 1539 2337
0 1499 2475
0 1465 2618
0 1438 2766
0 1420 2921
0 1411 3087
0 1407 3271
0 1408 3463
0 2074 0
0 2074 0
0 2074 0
0 2074 0
0 2074 0
0 2074 102
0 2074 326
0 2051 551
0 2019 762
0 1993 971
0 1989 1181
0 1989 1395
0 1988 1610
0 1989 1828
0 1911 1952
0 1842 2078
0 1781 2206
0 1729 2337
0 1686 2474
0 1650 2618
0 1621 2766
0 1599 2920
0 1583 3086
0 1577 3259
0 1579 3441
0 2202 0
0 2202 0
0 2202 0
0 2202 0
0 2202 0
0 2202 54
0 2202 273
0 2193 495
0 2160 704
0 2131 909
0 2113 1112
0 2112 1318
0 2112 1529
0 2112 1741
0 2112 1952
0 2040 2078
0 1976 2206
0 1922 2338
0 1875 2475
0 1837 2618
0 1805 2766
0 1782 2921
0 1765 3086
0 1755 3259
0 1751 3441
0 2334 0
0 2334 0
0 2334 0
0 2334 0
0 2334 0
0 2334 12
0 2334 227
0 2334 443
0 2303 653
0 2272 855
0 2246 1055
0 2237 1252
0 2236 1457
0 2236 1664
0 2237 1872
0 2237 2077
0 2169 2205
0 2112 2337
0 2063 2475
0 2023 2618
0 1990 2766
0 1965 2921
0 1948 3086
0 1937 3260
0 1934 3442
0 2467 0
0 2467 0
0 2467 0
0 2467 0
0 2467 0
0 2467 0
0 2467 187
0 2467 398
0 2448 608
0 2416 808
0 2389 1006
0 2365 1199
0 2365 1396
0 2364 1597
0 2365 1802
0 2365 2004
0 2364 2206
0 2303 2337
0 2251 2474
0 2207 2618
0 2173 2766
0 2147 2921
0 2128 3086
0 2117 3259
0 2113 3441
0 2602 0
0 2602 0
0 2602 0
0 2602 0
0 2602 0
0 2602 0
0 2602 152
0 2602 360
0 2594 569
0 2561 768
0 2533 964
0 2508 1156
0 2495 1344
0 2495 1541
0 2495 1741
0 2496 1941
0 2495 2139
0 2495 2337
0 2440 2475
0 2394 2618
0 2358 2766
0 2329 2921
0 2310 3086
0 2298 3259
0 2294 3441
0 2740 0
0 2740 0
0 2740 0
0 2740 0
0 2740 0
0 2740 0
0 2740 124
0 2740 328
0 2740 534
0 2709 734
0 2680 927
0 2654 1119
0 2630 1305
0 2627 1493
0 2628 1690
0 2628 1887
0 2628 2083
0 2627 2278
0 2627 2474
0 2581 2618
0 2542 2766
0 2513 2921
0 2493 3086
0 2480 3259
0 2476 3441
0 2885 0
0 2885 0
0 2885 0
0 2885 0
0 2885 0
0 2885 0
0 2885 100
0 2885 302
0 2885 505
0 2863 705
0 2832 897
0 2805 1088
0 2780 1273
0 2765 1457
0 2765 1647
0 2766 1843
0 2765 2036
0 2765 2229
0 2765 2422
0 2765 2618
0 2725 2765
0 2694 2921
0 2673 3086
0 2660 3259
0 2655 3441
0 3036 0
0 3036 0
0 3036 0
0 3036 0
0 3036 0
0 3036 0
0 3036 81
0 3036 280
0 3036 482
0 3023 682
0 2991 874
0 2964 1063
0 2938 1249
0 2913 1431
0 2909 1613
0 2910 1807
0 2910 1999
0 2909 2189
0 2909 2380
0 2910 2574
0 2910 2766
0 2877 2921
0 2854 3086
0 2841 3259
0 2836 3441
0 3192 0
0 3192 0
0 3192 0
0 3192 0
0 3192 0
0 3192 0
0 3192 67
0 3192 264
0 3192 464
0 3187 663
0 3155 855
0 3127 1045
0 3101 1230
0 3076 1412
0 3060 1592
0 3061 1779
0 3061 1970
0 3061 2159
0 3060 2349
0 3061 2540
0 3061 2731
0 3061 2921
0 3037 3086
0 3023 3259
0 3018 3441
0 3356 0
0 3356 0
0 3356 0
0 3356 0
0 3356 0
0 3356 0
0 3356 57
0 3356 253
0 3356 452
0 3356 650
0 3326 843
0 3297 1032
0 3270 1217
0 3245 1399
0 3221 1579
0 3218 1759
0 3218 1949
0 3217 2137
0 3217 2326
0 3217 2516
0 3218 2706
0 3217 2895
0 3218 3086
0 3203 3259
0 3198 3441
0 3530 0
0 3530 0
0 3530 0
0 3530 0
0 3530 0
0 3530 0
0 3530 51
0 3530 246
0 3530 444
0 3530 642
0 3508 836
0 3477 1026
0 3449 1211
0 3423 1393
0 3398 1573
0 3383 1753
0 3384 1937
0 3383 2125
0 3383 2312
0 3383 2502
0 3383 2692
0 3383 2879
0 3383 3069
0 3384 3259
0 3378 3441
0 3595 0
0 3595 0
0 3595 0
0 3595 0
0 3595 0
0 3595 0
0 3595 49
0 3595 245
0 3595 442
0 3595 639
0 3575 834
0 3545 1023
0 3516 1209
0 3490 1391
0 3465 1571
0 3446 1751
0 3446 1933
0 3445 2121
0 3445 2308
0 3445 2498
0 3446 2687
0 3445 2874
0 3446 3064
0 3446 3253
0 3446 3441
151 0 0
156 0 149
63 0 306
3 0 469
0 0 632
0 0 797
0 0 948
0 0 1102
0 0 1247
0 0 1381
0 0 1517
0 0 1645
0 0 1775
0 0 1907
0 0 2034
0 0 2167
0 0 2300
0 0 2436
0 0 2579
0 0 2729
0 0 2883
0 0 3044
0 0 3216
0 0 3397
0 0 3587
157 171 0
159 157 140
67 84 300
6 0 472
0 0 634
0 0 792
0 0 950
0 0 1103
0 0 1247
0 0 1382
0 0 1514
0 0 1645
0 0 1775
0 0 1905
0 0 2034
0 0 2165
0 0 2300
0 0 2436
0 0 2579
0 0 2729
0 0 2883
0 0 3044
0 0 3217
0 0 3397
0 0 3587
65 364 0
67 357 25
67 340 294
5 261 454
0 183 624
0 105 794
0 29 952
0 0 1102
0 0 1245
0 0 1383
0 0 1516
0 0 1646
0 0 1776
0 0 1906
0 0 2035
0 0 2166
0 0 2299
0 0 2437
0 0 2580
0 0 2729
0 0 2884
0 0 3045
0 0 3218
0 0 3397
0 0 3587
6 545 0
6 545 0
6 532 182
6 522 452
0 438 608
0 358 763
0 290 932
0 219 1098
0 151 1246
0 90 1383
0 36 1516
0 0 1645
0 0 1776
0 0 1907
0 0 2036
0 0 2166
0 0 2299
0 0 2436
0 0 2580
0 0 2729
0 0 2883
0 0 3044
0 0 3216
0 0 3397
0 0 3587
0 728 0
0 728 0
0 728 69
0 699 339
0 698 608
0 613 762
0 531 913
0 457 1062
0 393 1217
0 331 1368
0 273 1515
0 218 1645
0 171 1776
0 129 1906
0 93 2035
0 61 2166
0 34 2299
0 11 2437
0 0 2580
0 0 2729
0 0 2883
0 0 3044
0 0 3216
0 0 3397
0 0 3587
0 907 0
0 907 0
0 906 0
0 897 235
0 870 495
0 870 762
0 782 913
0 700 1058
0 621 1195
0 554 1332
0 495 1477
0 440 1619
0 390 1761
0 345 1904
0 305 2035
0 268 2165
0 238 2299
0 212 2436
0 189 2579
0 171 2729
0 156 2883
0 145 3044
0 137 3217
0 132 3397
0 130 3587
0 1076 0
0 1076 0
0 1076 0
0 1076 131
0 1048 395
0 1033 650
0 1033 913
0 944 1058
0 861 1195
0 782 1327
0 711 1454
0 652 1587
0 600 1728
0 552 1868
0 510 2008
0 473 2149
0 440 2293
0 410 2436
0 385 2580
0 364 2729
0 348 2883
0 335 3044
0 326 3216
0 321 3397
0 319 3587
0 1240 0
0 1240 0
0 1240 0
0 1240 35
0 1231 300
0 1195 552
0 1188 800
0 1189 1058
0 1097 1194
0 1012 1326
0 934 1454
0 865 1579
0 804 1704
0 754 1840
0 709 1977
0 669 2117
0 634 2259
0 604 2404
0 578 2556
0 557 2715
0 539 2877
0 525 3045
0 515 3217
0 509 3397
0 507 3587
0 1395 0
0 1394 0
0 1395 0
0 1395 0
0 1395 208
0 1365 460
0 1336 699
0 1337 946
0 1337 1195
0 1243 1326
0 1158 1454
0 1081 1579
0 1013 1704
0 952 1829
0 903 1953
0 861 2090
0 825 2231
0 793 2376
0 766 2526
0 743 2683
0 725 2844
0 712 3013
0 703 3192
0 698 3378
0 696 3575
0 1538 0
0 1538 0
0 1538 0
0 1538 0
0 1538 124
0 1527 374
0 1492 613
0 1475 844
0 1476 1086
0 1475 1326
0 1384 1454
0 1301 1579
0 1226 1704
0 1159 1828
0 1100 1952
0 1049 2078
0 1010 2206
0 976 2349
0 948 2499
0 925 2655
0 907 2816
0 893 2983
0 884 3161
0 879 3348
0 879 3543
0 1677 0
0 1677 0
0 1677 0
0 1677 0
0 1677 50
0 1676 293
0 1645 532
0 1613 758
0 1608 986
0 1608 1221
0 1607 1454
0 1519 1579
0 1439 1704
0 1368 1829
0 1304 1953
0 1247 2078
0 1198 2206
0 1157 2337
0 1128 2475
0 1103 2629
0 1084 2789
0 1070 2956
0 1060 3133
0 1056 3319
0 1056 3513
