Toning/Saturation-CMYK2Warmer.3dl
#25pt 3DLUT created by 3D LUT Creator Pro (c) Oleg Sharonov
#Copyright Oleg Sharonov
#IMAGEPROFILE sRGB IEC61966-2.1 v.2.10
#INPUTGAMMA sRGB IEC61966-2.1 v.2.10
#OUTPUTGAMMA sRGB IEC61966-2.1 v.2.10
0 256 512 768 1023
0 0 0
0 0 1083
0 0 2027
0 0 2946
0 0 4095
0 1226 0
0 1226 1085
0 698 2027
0 437 2945
0 363 4095
0 2214 0
0 2214 444
0 2214 2027
0 1780 2946
0 1652 4095
0 3123 0
0 3123 142
0 3123 1544
0 3123 2946
0 2941 4095
0 4095 0
0 4095 56
0 4095 1402
0 4095 2748
0 4095 4095
1277 0 0
1276 0 1084
639 0 2027
381 0 2945
314 0 4094
1277 1226 0
1277 1227 1085
639 699 2028
381 437 2945
314 362 4095
639 2214 0
639 2214 444
639 2214 2027
381 1780 2946
314 1652 4095
382 3123 0
382 3123 142
382 3123 1544
382 3123 2946
315 2941 4095
315 4095 0
314 4095 55
314 4095 1402
314 4095 2748
315 4095 4095
2333 0 0
2333 0 445
2333 0 2028
1833 0 2946
1678 0 4094
2333 699 0
2333 699 445
2333 699 2027
1832 438 2946
1678 363 4095
2333 2214 0
2333 2214 445
2333 2214 2027
1832 1780 2946
1678 1652 4095
1832 3123 0
1832 3123 142
1832 3123 1544
1832 3122 2946
1678 2941 4095
1678 4095 0
1679 4095 57
1679 4095 1402
1677 4095 2748
1677 4095 4095
3221 0 0
3221 0 141
3221 0 1544
3221 0 2946
3074 0 4095
3221 437 0
3221 437 141
3221 437 1544
3221 437 2946
3074 362 4095
3221 1780 0
3221 1780 141
3221 1780 1544
3221 1780 2946
3074 1652 4095
3221 3123 0
3221 3123 142
3221 3123 1544
3221 3123 2946
3074 2941 4095
3074 4095 0
3074 4095 55
3074 4095 1402
3074 4095 2748
3074 4095 4095
4095 0 0
4095 0 55
4095 0 1402
4095 0 2748
4095 0 4095
4095 362 0
4095 363 56
4095 363 1402
4095 363 2748
4095 362 4095
4095 1652 0
4095 1652 56
4095 1652 1402
4095 1651 2748
4095 1651 4095
4095 2941 0
4095 2941 55
4095 2941 1402
4095 2941 2748
4095 2941 4095
4095 4095 0
4095 4095 53
4095 4095 1401
4095 4095 2748
4095 4095 4095
