Toning/Saturation & Contrast - Channels & Volume.3dl
#25pt 3DLUT created by 3D LUT Creator Pro (c) Oleg Sharonov
#Copyright Oleg Sharonov
#IMAGEPROFILE sRGB IEC61966-2.1 v.2.10
#INPUTGAMMA sRGB IEC61966-2.1 v.2.10
#OUTPUTGAMMA sRGB IEC61966-2.1 v.2.10
0 256 512 768 1023
0 0 0
0 278 1070
0 662 2075
0 977 2879
0 1234 3163
343 1129 343
198 1103 1201
0 1168 2152
0 1294 2913
0 1444 3176
419 2301 419
367 2237 1298
0 2103 2278
0 1974 2975
0 1944 3187
583 3337 583
554 3276 1322
0 3079 2298
0 2742 2963
0 2544 3133
921 4095 921
562 4090 1255
0 3840 2173
0 3357 2816
0 3009 3009
962 0 0
916 0 916
563 553 2039
0 948 2858
0 1214 3162
1123 971 136
1024 1024 1024
602 1129 2110
0 1275 2895
0 1428 3174
1249 2201 374
1135 2189 1135
670 2093 2230
0 1969 2960
0 1933 3187
1290 3286 584
1187 3257 1187
696 3082 2253
0 2749 2950
0 2538 3134
1346 4095 877
1156 4093 1157
0 3891 2112
0 3374 2803
0 3009 3009
2030 0 0
1993 0 201
1896 201 1896
1544 696 2937
0 749 3401
2089 755 0
2073 829 0
1944 1023 1944
1554 1161 2965
0 1160 3402
2294 2008 304
2263 2045 365
2048 2048 2048
1559 1976 3025
0 1867 3384
2377 3169 658
2342 3188 680
2098 3089 2098
1431 2873 3031
0 2590 3295
2344 4094 922
2310 4095 959
1983 3992 1983
0 3748 2869
0 3140 3140
3387 367 367
3359 349 349
3263 334 1638
3029 548 3029
2545 0 3816
3390 458 372
3366 579 363
3283 894 1654
3043 1174 3043
2527 799 3860
3499 1964 684
3477 1995 679
3367 2078 1747
3073 2110 3073
2472 1815 3881
3555 3159 1224
3532 3174 1214
3410 3179 1921
3071 3071 3071
2209 2772 3898
3525 4087 1806
3502 4095 1783
3380 4082 2111
2921 4012 2921
0 3842 3842
4095 2082 2082
4095 2082 2082
4095 2082 2082
4095 2392 3161
4095 2573 4095
4095 2082 2082
4095 2082 2082
4095 2082 2082
4095 2483 3177
4095 2702 4095
4095 2573 2304
4095 2597 2316
4095 2672 2355
4095 2969 3284
4095 3067 4095
4095 3402 2816
4095 3415 2826
4095 3456 2858
4095 3591 3486
4095 3573 4095
4095 4019 3458
4095 4023 3466
4095 4038 3494
4095 4069 3821
4095 4095 4095
