Toning/Toning-Grey and Orange.3dl
#25pt 3DLUT created by 3D LUT Creator Pro (c) Oleg Sharonov
#Copyright Oleg Sharonov
#IMAGEPROFILE sRGB IEC61966-2.1 v.2.10
#INPUTGAMMA sRGB IEC61966-2.1 v.2.10
#OUTPUTGAMMA sRGB IEC61966-2.1 v.2.10
0 128 256 384 512 640 768 896 1023
0 0 0
37 14 53
242 78 207
537 209 390
779 352 629
940 500 912
1095 649 1238
1242 799 1593
1383 951 1960
259 358 46
273 368 227
580 382 427
775 442 624
908 534 852
1041 643 1118
1174 766 1426
1305 898 1757
1436 1036 2100
738 832 193
743 836 324
751 847 598
934 851 907
1075 884 1198
1198 944 1487
1315 1026 1782
1430 1123 2085
1545 1233 2382
1015 1322 365
1016 1325 474
1020 1331 719
1026 1342 1096
1200 1340 1496
1341 1360 1852
1464 1400 2172
1577 1458 2460
1687 1531 2747
1269 1811 579
1270 1813 671
1272 1818 888
1276 1825 1235
1281 1836 1688
1448 1831 2120
1590 1843 2480
1716 1873 2807
1832 1920 3111
1514 2333 836
1514 2334 915
1516 2338 1106
1519 2343 1420
1523 2352 1829
1528 2363 2292
1692 2356 2711
1837 2363 3086
1968 2385 3420
1758 2879 1141
1759 2880 1211
1760 2882 1378
1763 2887 1650
1766 2895 2011
1772 2904 2419
1778 2916 2874
1943 2907 3294
2093 2910 3660
2015 3425 1498
2015 3426 1555
2017 3428 1694
2019 3432 1926
2023 3438 2230
2028 3446 2587
2034 3456 3000
2043 3468 3446
2212 3457 3842
2291 3943 1892
2291 3944 1939
2292 3945 2052
2295 3948 2236
2299 3953 2486
2304 3959 2801
2311 3967 3167
2320 3976 3567
2330 3988 3983
566 37 21
636 45 156
641 144 297
762 261 474
887 393 703
1020 532 978
1155 674 1298
1290 820 1644
1423 969 2004
810 379 49
538 538 538
822 389 611
888 451 819
988 544 1018
1102 655 1263
1222 778 1548
1344 908 1860
1468 1046 2183
960 844 197
845 874 253
847 875 623
996 870 1006
1128 897 1318
1243 954 1600
1353 1035 1882
1463 1132 2169
1574 1241 2452
1154 1329 368
1055 1352 396
1059 1356 689
1063 1362 1119
1235 1355 1556
1375 1370 1923
1495 1409 2239
1605 1466 2522
1712 1538 2804
1364 1817 581
1298 1833 607
1300 1836 847
1304 1842 1223
1308 1850 1705
1475 1842 2155
1616 1852 2521
1740 1881 2851
1854 1927 3153
1582 2337 838
1539 2349 866
1541 2351 1068
1543 2357 1398
1547 2364 1825
1553 2374 2303
1715 2365 2733
1858 2371 3113
1989 2392 3447
1811 2882 1144
1782 2891 1173
1784 2893 1348
1786 2898 1629
1789 2904 2001
1795 2913 2419
1801 2924 2882
1965 2914 3308
2113 2917 3677
2056 3428 1500
2037 3434 1529
2038 3436 1672
2041 3440 1909
2044 3445 2220
2049 3453 2583
2056 3462 3001
2064 3473 3452
2232 3462 3852
2324 3945 1895
2311 3949 1922
2313 3951 2037
2316 3954 2225
2319 3958 2477
2325 3964 2797
2332 3972 3166
2340 3981 3568
2351 3992 3987
1029 199 113
1052 211 217
1099 233 433
1082 353 633
1126 474 861
1203 599 1128
1300 732 1435
1407 870 1765
1519 1013 2107
1179 443 162
1303 394 242
1306 398 615
1237 494 899
1237 598 1132
1288 708 1385
1367 826 1662
1461 952 1964
1565 1085 2272
1308 869 204
1316 877 255
1081 1081 1081
1226 960 1317
1338 901 1603
1394 963 1889
1470 1047 2136
1557 1147 2378
1653 1257 2633
1419 1347 375
1385 1363 402
1251 1469 833
1254 1470 1325
1393 1378 1678
1491 1389 2090
1589 1425 2403
1685 1481 2680
1782 1553 2948
1566 1830 588
1528 1843 613
1440 1870 754
1443 1873 1192
1447 1876 1736
1572 1866 2231
1695 1871 2620
1809 1897 2956
1916 1943 3256
1739 2347 845
1708 2358 872
1632 2381 977
1634 2384 1346
1638 2389 1814
1643 2395 2327
1788 2384 2782
1922 2387 3176
2046 2407 3514
1936 2891 1151
1912 2899 1180
1855 2917 1273
1857 2921 1578
1861 2926 1976
1866 2933 2417
1873 2942 2901
2026 2930 3341
2169 2931 3717
2158 3435 1508
2141 3440 1536
2100 3454 1619
2103 3457 1868
2106 3462 2196
2112 3469 2572
2118 3477 3004
2127 3487 3466
2287 3474 3873
2408 3950 1902
2397 3954 1929
2369 3963 2003
2371 3966 2198
2376 3970 2458
2381 3976 2785
2388 3982 3163
2397 3991 3572
2409 4001 3997
1405 397 244
1419 404 320
1449 421 504
1494 447 813
1466 572 1069
1482 692 1345
1529 817 1640
1598 947 1952
1681 1082 2266
1510 568 282
1609 519 327
1622 528 589
1642 541 986
1577 664 1281
1567 781 1555
1596 898 1834
1653 1020 2124
1727 1148 2411
1651 916 338
1697 905 372
1694 965 812
1694 968 1317
1727 923 1632
1702 1003 1966
1715 1096 2234
1757 1198 2483
1820 1307 2741
1754 1372 385
1760 1378 411
1704 1474 842
1614 1614 1614
1671 1547 1936
1755 1435 2298
1805 1433 2655
1858 1493 2940
1924 1568 3190
1848 1850 598
1834 1860 624
1803 1878 764
1733 2037 1538
1739 2042 1996
1811 1921 2337
1883 1893 2758
1961 1918 3122
2045 1963 3423
1976 2364 856
1958 2373 884
1915 2391 988
1868 2437 1383
1871 2440 1866
1877 2444 2387
1965 2407 2844
2061 2411 3271
2164 2430 3620
2135 2905 1163
2119 2912 1193
2079 2928 1286
2035 2946 1525
2039 2950 1951
2044 2955 2418
2051 2961 2921
2161 2952 3386
2281 2953 3779
2326 3446 1520
2313 3452 1549
2281 3464 1632
2241 3479 1821
2246 3483 2168
2251 3488 2562
2259 3495 3009
2268 3503 3482
2402 3492 3903
2549 3960 1914
2539 3963 1942
2517 3972 2016
2492 3982 2173
2496 3985 2442
2502 3990 2778
2510 3996 3163
2520 4004 3579
2531 4012 4009
1758 600 389
1766 606 456
1787 618 618
1821 638 890
1865 663 1281
1829 792 1581
1829 917 1880
1858 1042 2176
1907 1170 2464
1833 727 424
1905 689 460
1919 698 662
1941 713 984
1971 731 1429
1912 861 1742
1896 984 2035
1912 1106 2314
1953 1229 2592
1965 1009 488
2013 991 519
2127 936 679
2132 942 1118
2138 950 1666
2063 1049 2053
2025 1155 2350
2024 1263 2616
2051 1373 2880
2093 1410 555
2116 1408 582
2164 1398 726
2101 1563 1486
2107 1570 1955
2154 1455 2310
2150 1463 2693
2149 1532 3005
2172 1615 3272
2188 1877 612
2191 1881 638
2197 1888 780
2153 2052 1559
2136 2136 2136
2168 2076 2428
2216 1914 2792
2235 1939 3253
2271 1983 3615
2276 2387 872
2269 2393 900
2254 2406 1005
2236 2447 1401
2266 2547 2145
2275 2556 2536
2288 2422 2854
2322 2433 3330
2376 2455 3726
2399 2925 1180
2390 2931 1210
2367 2944 1304
2343 2958 1545
2359 2957 1987
2365 2962 2438
2372 2968 2928
2418 2970 3411
2489 2976 3829
2555 3463 1538
2546 3468 1567
2524 3478 1650
2499 3491 1842
2497 3497 2178
2502 3501 2574
2509 3507 3021
2518 3515 3495
2608 3509 3925
2744 3973 1933
2737 3976 1960
2720 3984 2035
2702 3993 2193
2700 3998 2451
2705 4003 2788
2712 4008 3174
2722 4015 3591
2733 4023 4020
2103 806 560
2109 810 619
2125 820 764
2152 835 1008
2189 857 1360
2233 883 1802
2191 1017 2115
2180 1144 2403
2195 1270 2688
2162 905 592
2216 877 624
2229 885 790
2250 898 1064
2279 916 1449
2314 938 1917
2257 1072 2231
2235 1198 2514
2241 1321 2795
2280 1136 657
2323 1118 687
2430 1065 804
2440 1073 1153
2453 1085 1613
2470 1099 2136
2393 1219 2469
2351 1335 2762
2342 1449 3036
2418 1482 738
2445 1475 766
2510 1455 875
2572 1468 1273
2574 1473 1782
2578 1481 2327
2536 1499 2735
2492 1580 3079
2475 1672 3366
2537 1912 818
2550 1912 845
2579 1909 950
2601 1944 1342
2545 2101 2062
2555 2113 2464
2591 1942 2812
2588 1972 3278
2590 2024 3653
2627 2415 891
2629 2418 920
2634 2424 1027
2637 2460 1424
2637 2574 2175
2646 2646 2646
2659 2563 2871
2664 2465 3290
2680 2486 3759
2713 2951 1203
2710 2955 1234
2702 2964 1328
2694 2973 1572
2703 2973 2014
2782 3027 2673
2794 3040 3021
2763 2986 3389
2781 3002 3843
2834 3485 1562
2829 3489 1591
2816 3497 1675
2803 3507 1870
2804 3511 2203
2855 3498 2657
2863 3506 3062
2873 3516 3496
2895 3526 3932
2993 3991 1957
2988 3994 1985
2976 4000 2060
2965 4007 2219
2965 4012 2476
2993 4009 2840
3001 4015 3212
3011 4022 3613
3023 4031 4028
2454 1016 756
2460 1019 808
2472 1027 938
2494 1040 1161
2524 1058 1479
2563 1082 1876
2607 1109 2321
2560 1244 2623
2540 1373 2915
2503 1096 784
2544 1075 814
2555 1081 955
2573 1093 1198
2599 1110 1536
2632 1131 1951
2670 1156 2405
2613 1290 2712
2585 1418 3002
2605 1287 848
2640 1271 876
2729 1227 971
2740 1236 1261
2757 1248 1647
2778 1264 2103
2802 1284 2582
2728 1411 2906
2685 1529 3197
2738 1582 936
2764 1573 963
2828 1551 1056
2927 1510 1298
2932 1517 1752
2940 1527 2257
2949 1540 2778
2874 1634 3155
2822 1738 3465
2870 1977 1033
2886 1974 1061
2926 1965 1153
2980 1951 1387
2984 1957 1833
2988 1965 2324
2993 1976 2836
2972 2014 3308
2945 2074 3697
2983 2448 1132
2991 2448 1161
3010 2449 1254
3032 2449 1490
3030 2454 1932
2984 2595 2566
2997 2612 2920
3015 2504 3322
3026 2527 3786
3074 2979 1231
3076 2982 1262
3080 2986 1357
3084 2991 1605
3084 2993 2047
3108 3065 2715
3143 3143 3143
3122 3056 3335
3124 3043 3766
3166 3510 1592
3165 3513 1622
3160 3519 1706
3157 3526 1904
3159 3529 2234
3185 3522 2692
3272 3518 3202
3287 3534 3519
3262 3544 3895
3301 4012 1988
3298 4014 2016
3292 4019 2093
3287 4025 2252
3288 4029 2508
3310 4027 2873
3388 4009 3319
3400 4019 3664
3415 4031 4028
2807 1229 973
2811 1231 1020
2822 1238 1139
2840 1248 1343
2866 1264 1628
2899 1285 1985
2940 1310 2383
2986 1338 2825
2932 1472 3130
2847 1295 1000
2880 1278 1027
2889 1284 1154
2906 1295 1369
2929 1309 1667
2959 1328 2035
2996 1352 2440
3037 1379 2892
2976 1511 3198
2937 1454 1061
2967 1441 1089
3041 1407 1173
3053 1415 1416
3071 1427 1746
3094 1443 2141
3122 1462 2567
3154 1485 3040
3077 1612 3352
3066 1711 1154
3090 1702 1182
3150 1679 1265
3252 1637 1454
3262 1646 1832
3276 1658 2265
3292 1674 2729
3311 1692 3229
3222 1809 3563
3209 2071 1265
3227 2066 1293
3270 2055 1374
3342 2034 1556
3387 2024 1912
3393 2034 2357
3401 2046 2836
3410 2061 3343
3355 2131 3743
3347 2508 1383
3358 2507 1410
3386 2503 1492
3427 2497 1672
3446 2498 2022
3405 2523 2463
3413 2536 2896
3424 2552 3359
3430 2575 3817
3468 3012 1502
3473 3012 1532
3487 3014 1614
3504 3016 1802
3510 3020 2143
3487 3032 2591
3426 3097 3069
3444 3116 3394
3481 3094 3806
3568 3539 1627
3569 3540 1657
3572 3544 1744
3576 3548 1945
3579 3551 2271
3578 3550 2732
3587 3565 3253
3627 3627 3627
3615 3590 3844
3670 4036 2025
3669 4038 2053
3668 4041 2132
3667 4046 2292
3670 4049 2547
3682 4048 2912
3720 4039 3360
3786 4027 3760
3804 4045 4043
3172 1442 1215
3176 1444 1258
3185 1450 1365
3201 1459 1546
3225 1472 1801
3257 1490 2118
3296 1512 2474
3342 1538 2879
3393 1567 3322
3208 1497 1240
3236 1485 1267
3245 1490 1378
3261 1498 1566
3283 1511 1829
3313 1528 2154
3349 1549 2515
3391 1573 2927
3439 1602 3375
3293 1630 1300
3319 1620 1326
3386 1593 1401
3399 1601 1605
3417 1612 1889
3441 1628 2229
3471 1647 2609
3506 1671 3036
3544 1698 3493
3422 1864 1392
3444 1856 1418
3500 1836 1491
3595 1799 1647
3607 1809 1962
3623 1822 2328
3643 1839 2737
3666 1859 3186
3692 1883 3656
3572 2190 1507
3589 2186 1533
3632 2174 1606
3701 2152 1758
3771 2131 2036
3779 2142 2421
3789 2156 2853
3801 2174 3316
3815 2194 3790
3720 2596 1636
3732 2593 1663
3761 2588 1735
3807 2578 1884
3843 2573 2157
3845 2584 2527
3852 2597 2946
3861 2612 3394
3871 2631 3852
3853 3069 1774
3860 3068 1801
3877 3067 1874
3902 3066 2024
3918 3068 2290
3914 3078 2654
3846 3116 3083
3858 3132 3459
3872 3151 3853
3968 3569 1918
3971 3570 1945
3979 3571 2019
3989 3574 2176
3995 3578 2435
3991 3584 2798
3957 3601 3240
3903 3634 3617
3923 3655 3908
4065 4063 2068
4066 4064 2097
4068 4067 2178
4071 4069 2339
4074 4072 2592
4075 4074 2959
4075 4074 3408
4079 4078 3816
4095 4095 4095
