Toning/Toning-CyanHighlights.3dl
#25pt 3DLUT created by 3D LUT Creator Pro (c) Oleg Sharonov
#Copyright Oleg Sharonov
#IMAGEPROFILE sRGB IEC61966-2.1 v.2.10
#INPUTGAMMA sRGB IEC61966-2.1 v.2.10
#OUTPUTGAMMA sRGB IEC61966-2.1 v.2.10
0 128 256 384 512 640 768 896 1023
0 0 0
0 0 513
0 0 1024
0 0 1538
0 0 2047
0 0 2555
0 0 3069
0 0 3582
0 0 4095
0 513 0
0 573 569
0 610 1118
0 648 1669
0 690 2220
0 728 2767
0 665 3219
0 587 3652
0 513 4095
0 1025 0
0 1123 606
0 1220 1211
0 1295 1799
0 1378 2389
0 1454 2972
0 1341 3377
0 1174 3728
0 1026 4095
0 1538 0
0 1673 644
0 1808 1290
0 1947 1931
0 2066 2558
0 2178 3175
0 2027 3545
0 1772 3809
0 1539 4095
0 2048 0
0 2227 686
0 2400 1369
0 2575 2050
0 2754 2729
0 2899 3378
0 2706 3709
0 2360 3888
0 2048 4095
0 2556 0
0 2776 724
0 2989 1445
0 3197 2159
0 3404 2869
0 3622 3586
0 3377 3866
0 2954 3969
0 2557 4095
0 3069 0
0 3223 663
0 3388 1334
0 3558 2013
0 3726 2687
0 3887 3354
0 4021 4004
0 3529 4036
0 3070 4095
0 3582 0
0 3652 583
0 3728 1169
0 3814 1765
0 3895 2353
0 3975 2943
0 4042 3524
0 4095 4095
2 3583 4095
2 4095 3
2 4095 514
0 4095 1026
0 4095 1539
0 4095 2048
0 4095 2557
0 4095 3070
2 4095 3582
2 4095 4095
503 0 0
503 0 564
508 0 1093
511 0 1572
514 0 2047
520 0 2556
524 0 3069
527 0 3582
529 0 4095
462 471 0
505 503 605
502 585 1174
495 635 1724
491 684 2270
491 722 2806
487 656 3246
486 580 3670
485 512 4095
433 941 0
469 1031 610
489 1149 1224
492 1252 1826
484 1350 2415
481 1430 2993
464 1318 3391
454 1158 3741
448 1020 4095
403 1475 0
427 1579 641
459 1714 1283
469 1876 1925
474 2015 2557
480 2133 3173
455 1991 3541
434 1751 3808
421 1527 4095
370 2015 0
387 2138 677
418 2302 1351
435 2487 2025
443 2681 2702
451 2845 3356
432 2671 3695
408 2338 3880
389 2034 4089
335 2556 0
349 2699 721
376 2896 1431
400 3103 2135
408 3331 2842
418 3557 3549
401 3347 3850
377 2940 3959
358 2551 4085
302 3069 0
309 3171 672
326 3334 1352
344 3514 2035
353 3698 2706
360 3874 3366
363 4001 3992
341 3524 4030
323 3074 4087
271 3582 0
276 3613 591
286 3681 1189
294 3772 1789
302 3866 2379
305 3961 2959
307 4035 3529
308 4095 4092
292 3597 4095
247 4095 3
247 4061 514
250 4041 1034
252 4046 1552
254 4057 2062
257 4073 2569
259 4086 3074
261 4095 3580
261 4095 4080
965 0 0
969 0 555
974 0 1109
978 0 1664
983 0 2157
988 0 2643
995 0 3126
997 0 3594
1004 0 4095
905 471 0
977 511 607
995 568 1203
985 617 1763
977 669 2311
968 708 2847
949 640 3282
937 564 3706
938 508 4095
851 941 0
939 991 616
998 1077 1236
990 1210 1842
978 1318 2430
963 1400 3005
921 1290 3400
888 1136 3755
877 1011 4095
793 1413 0
867 1495 636
933 1636 1274
954 1792 1908
965 1951 2542
952 2085 3156
896 1958 3531
843 1726 3804
816 1511 4095
742 1883 0
792 2042 668
852 2212 1331
895 2387 1993
909 2593 2662
917 2777 3321
869 2632 3675
800 2319 3867
759 2024 4077
681 2406 0
719 2593 710
771 2795 1406
823 3001 2094
843 3225 2786
856 3467 3492
814 3307 3825
751 2921 3944
706 2545 4069
618 2943 0
642 3091 688
677 3273 1369
715 3470 2053
743 3665 2725
749 3855 3378
748 3975 3978
689 3515 4022
646 3079 4078
558 3484 0
571 3522 602
587 3618 1205
604 3721 1802
622 3831 2390
628 3937 2971
631 4028 3538
630 4095 4094
591 3612 4095
497 4028 0
505 3958 511
512 3967 1042
517 3994 1565
523 4019 2073
526 4045 2580
527 4075 3080
527 4095 3582
528 4095 4063
1337 0 0
1344 0 535
1350 0 1078
1359 0 1616
1365 0 2148
1371 0 2671
1378 0 3131
1384 0 3605
1390 0 4095
1257 492 0
1341 524 583
1377 560 1161
1380 608 1725
1383 657 2284
1371 694 2825
1334 631 3268
1310 564 3676
1308 503 4095
1190 941 0
1305 987 601
1392 1077 1204
1412 1179 1801
1394 1277 2384
1376 1372 2964
1308 1279 3372
1256 1132 3731
1228 1000 4095
1120 1413 0
1228 1486 625
1337 1590 1243
1393 1710 1858
1391 1891 2485
1377 2044 3106
1290 1945 3500
1207 1724 3780
1156 1507 4068
1049 1883 0
1144 1995 655
1234 2132 1298
1310 2307 1937
1335 2499 2589
1349 2696 3242
1271 2621 3647
1160 2323 3846
1088 2029 4050
978 2346 0
1053 2495 689
1129 2701 1370
1205 2908 2038
1248 3113 2705
1267 3362 3397
1207 3287 3796
1103 2922 3921
1020 2558 4046
912 2817 0
955 3011 695
1011 3215 1376
1073 3427 2053
1125 3633 2715
1136 3828 3366
1130 3961 3962
1030 3522 4010
953 3097 4065
828 3347 0
846 3424 598
873 3550 1208
902 3672 1800
929 3794 2383
944 3905 2960
944 4014 3526
942 4086 4069
877 3637 4092
749 3881 0
759 3867 521
767 3894 1045
779 3946 1571
787 3983 2075
794 4020 2570
796 4063 3078
793 4086 3563
790 4095 4039
1692 0 0
1700 0 521
1706 0 1060
1716 0 1589
1726 0 2114
1734 0 2619
1742 0 3111
1748 0 3600
1758 0 4095
1596 504 0
1684 535 572
1740 563 1137
1744 598 1691
1753 647 2247
1755 687 2795
1695 625 3237
1662 557 3658
1661 496 4095
1516 941 0
1641 1007 592
1739 1085 1182
1783 1159 1765
1794 1256 2343
1783 1349 2923
1690 1265 3342
1607 1125 3705
1569 990 4074
1427 1411 0
1560 1480 617
1694 1573 1218
1793 1696 1819
1799 1840 2430
1784 1985 3044
1678 1927 3468
1558 1717 3751
1484 1501 4035
1347 1881 0
1473 1986 648
1604 2109 1275
1707 2245 1889
1762 2399 2517
1774 2618 3169
1672 2599 3620
1514 2313 3821
1411 2027 4024
1259 2343 0
1369 2480 678
1478 2642 1338
1579 2810 1981
1652 3012 2624
1681 3245 3298
1618 3256 3764
1457 2910 3893
1335 2560 4024
1175 2813 0
1253 2960 686
1338 3134 1356
1418 3343 2016
1496 3561 2671
1529 3766 3326
1525 3942 3943
1373 3520 3994
1259 3111 4052
1090 3283 0
1127 3345 606
1163 3484 1209
1205 3623 1804
1244 3755 2380
1270 3875 2942
1275 4001 3521
1265 4073 4049
1169 3651 4084
1004 3753 0
1014 3780 528
1027 3829 1057
1042 3894 1578
1056 3949 2082
1066 3995 2567
1072 4050 3081
1063 4077 3552
1059 4095 4021
2024 0 0
2030 0 516
2037 0 1049
2046 0 1574
2053 0 2091
2061 0 2589
2067 0 3091
2073 0 3593
2080 0 4095
1913 513 0
1999 541 568
2061 563 1121
2079 586 1670
2086 632 2221
2078 668 2765
2007 610 3213
1978 538 3647
1974 476 4095
1816 962 0
1946 1017 589
2055 1083 1169
2120 1145 1742
2129 1223 2313
2138 1310 2888
2035 1238 3314
1913 1093 3681
1872 956 4051
1724 1405 0
1873 1466 611
2019 1568 1208
2125 1675 1798
2164 1792 2393
2161 1922 2992
2040 1879 3436
1888 1665 3725
1782 1456 4014
1620 1873 0
1766 1967 642
1921 2075 1258
2066 2193 1855
2149 2349 2466
2147 2521 3101
2034 2527 3578
1835 2250 3786
1701 1982 4001
1527 2333 0
1663 2456 671
1813 2599 1319
1933 2747 1938
2037 2908 2552
2081 3084 3199
2013 3174 3724
1788 2839 3864
1625 2506 4005
1428 2801 0
1534 2935 681
1645 3093 1336
1755 3266 1984
1857 3460 2629
1911 3657 3265
1909 3837 3886
1709 3447 3959
1547 3065 4039
1328 3270 0
1379 3320 601
1441 3429 1207
1511 3567 1818
1557 3705 2392
1600 3839 2953
1612 3978 3548
1587 4037 4049
1444 3610 4070
1227 3737 3
1251 3719 534
1284 3758 1073
1303 3834 1593
1321 3907 2104
1334 3962 2587
1341 4028 3094
1333 4068 3580
1318 4095 4044
2357 0 0
2360 0 514
2366 0 1040
2370 0 1564
2375 0 2070
2381 0 2573
2385 0 3080
2390 0 3588
2395 0 4095
2230 513 0
2309 545 565
2373 563 1112
2404 582 1655
2410 618 2201
2365 653 2742
2304 592 3195
2281 521 3636
2277 458 4088
2113 980 0
2246 1025 587
2362 1086 1163
2444 1136 1726
2455 1195 2289
2463 1276 2859
2308 1207 3290
2207 1067 3657
2167 928 4027
2014 1401 0
2174 1479 608
2321 1571 1202
2433 1662 1785
2496 1766 2369
2509 1873 2959
2399 1841 3410
2185 1627 3698
2071 1416 3993
1902 1868 0
2065 1952 638
2235 2050 1246
2387 2176 1841
2503 2315 2438
2518 2456 3053
2403 2478 3545
2157 2190 3753
1995 1922 3977
1783 2327 0
1934 2436 665
2108 2569 1303
2268 2698 1912
2390 2842 2502
2456 3021 3134
2379 3088 3671
2109 2769 3834
1910 2451 3985
1676 2794 0
1809 2916 677
1952 3065 1327
2081 3221 1960
2202 3400 2585
2292 3569 3204
2294 3694 3802
2041 3364 3924
1835 3003 4018
1561 3261 0
1619 3303 600
1710 3405 1200
1797 3537 1805
1871 3663 2388
1946 3805 2970
1968 3954 3564
1922 3970 4029
1731 3558 4055
1447 3727 3
1474 3701 530
1515 3735 1063
1557 3792 1596
1594 3864 2123
1611 3930 2608
1624 4006 3111
1622 4060 3618
1597 4095 4078
2692 0 0
2693 0 513
2696 0 1034
2699 0 1553
2699 0 2059
2701 0 2565
2705 0 3075
2705 0 3585
2709 0 4095
2551 513 0
2623 551 565
2689 563 1108
2738 579 1646
2707 607 2189
2657 638 2727
2609 576 3180
2587 507 3622
2584 444 4073
2418 995 0
2551 1039 587
2671 1088 1161
2758 1133 1720
2786 1186 2276
2716 1247 2840
2582 1179 3274
2497 1042 3645
2465 904 4010
2299 1427 0
2473 1500 609
2618 1574 1200
2738 1657 1779
2822 1751 2351
2834 1830 2933
2664 1804 3393
2457 1593 3678
2357 1389 3973
2180 1865 0
2361 1948 635
2543 2055 1242
2703 2169 1837
2822 2298 2427
2869 2421 3029
2775 2430 3521
2484 2151 3727
2274 1887 3956
2055 2323 0
2225 2430 662
2416 2544 1294
2593 2665 1897
2746 2823 2493
2846 2979 3102
2755 3023 3625
2444 2726 3810
2211 2402 3970
1927 2789 0
2051 2909 674
2245 3042 1321
2415 3190 1948
2552 3358 2562
2672 3508 3149
2675 3645 3752
2382 3305 3895
2126 2944 3999
1796 3255 0
1858 3295 598
1974 3389 1200
2094 3518 1803
2181 3638 2373
2278 3783 2958
2341 3932 3559
2280 3895 4006
2026 3499 4040
1671 3721 0
1701 3691 523
1748 3720 1064
1811 3774 1587
1857 3843 2111
1898 3907 2616
1936 3985 3129
1931 4052 3644
1899 4071 4095
3025 0 0
3025 0 513
3026 0 1030
3026 0 1546
3025 0 2053
3025 0 2560
3025 0 3072
3025 0 3583
3025 0 4095
2865 513 0
2930 555 565
2998 566 1105
3046 578 1640
2987 600 2178
2948 626 2714
2910 559 3165
2894 493 3609
2890 424 4059
2714 1006 0
2848 1048 588
2973 1093 1161
3064 1129 1717
3077 1171 2264
2962 1221 2824
2855 1152 3260
2791 1014 3634
2766 871 4001
2581 1448 0
2762 1515 612
2914 1583 1201
3042 1654 1777
3148 1733 2342
3088 1809 2917
2891 1768 3380
2726 1554 3666
2648 1347 3966
2458 1862 0
2647 1967 633
2846 2066 1242
3000 2167 1835
3128 2278 2420
3198 2396 3009
3046 2382 3502
2733 2105 3712
2550 1842 3937
2313 2319 0
2479 2420 658
2710 2527 1286
2898 2662 1890
3071 2804 2486
3194 2951 3080
3121 2986 3603
2779 2682 3787
2509 2360 3950
2178 2784 0
2295 2900 672
2498 3027 1316
2732 3165 1941
2920 3320 2552
3049 3490 3148
3073 3606 3720
2733 3265 3874
2431 2901 3984
2036 3249 0
2095 3287 599
2209 3377 1198
2391 3502 1804
2503 3623 2381
2613 3767 2953
2708 3911 3534
2629 3893 3996
2329 3451 4027
1893 3715 0
1924 3683 525
1971 3708 1059
2048 3760 1587
2122 3825 2104
2173 3893 2602
2225 3971 3117
2248 4042 3646
2216 4016 4094
