Toning/Toning-Green&Red.3dl
#25pt 3DLUT created by 3D LUT Creator Pro (c) Oleg Sharonov
#Copyright Oleg Sharonov
#IMAGEPROFILE sRGB IEC61966-2.1 v.2.10
#INPUTGAMMA sRGB IEC61966-2.1 v.2.10
#OUTPUTGAMMA sRGB IEC61966-2.1 v.2.10
0 43 86 128 171 214 256 299 341 384 427 469 512 555 597 640 682 725 768 810 853 896 938 981 1023 
0 0 4
1 15 7
3 32 11
6 58 18
11 95 28
18 138 43
25 196 59
76 257 78
135 312 97
193 375 119
252 436 142
312 499 166
368 563 190
425 626 217
478 694 246
523 766 275
569 840 305
631 899 335
693 958 366
754 1017 400
816 1078 436
878 1138 472
940 1198 512
1002 1257 553
1065 1317 595
0 171 4
9 176 25
14 180 35
18 197 45
24 223 57
44 260 70
93 301 85
143 346 102
192 396 120
246 447 141
299 500 162
353 559 185
406 616 209
457 677 235
501 745 262
545 813 291
596 876 319
656 933 349
716 990 380
776 1047 414
837 1106 449
899 1164 486
959 1223 525
1020 1281 566
1081 1339 608
0 340 4
11 344 29
22 346 57
28 352 70
42 364 83
109 388 98
159 418 113
206 451 129
254 491 147
303 533 166
352 581 187
400 631 208
447 686 232
488 747 257
529 810 284
574 872 311
631 924 338
688 977 367
745 1031 399
805 1087 432
864 1143 467
923 1198 503
983 1255 542
1042 1312 583
1102 1369 625
0 513 4
10 515 29
26 517 66
39 522 98
46 527 114
125 541 129
208 560 146
270 584 163
320 615 181
367 649 199
409 694 220
447 741 241
486 792 264
526 846 288
569 899 313
622 946 339
678 994 366
733 1042 395
788 1094 426
846 1145 459
903 1197 493
960 1250 530
1018 1304 569
1076 1358 609
1133 1412 651
0 683 4
9 687 28
23 690 65
40 696 111
52 703 145
74 711 166
198 727 182
291 745 200
359 774 219
407 805 238
450 841 259
490 880 280
530 923 302
576 963 325
628 1001 349
680 1041 374
734 1084 402
787 1128 431
842 1174 462
897 1221 495
951 1269 529
1007 1318 566
1063 1369 604
1117 1419 644
1173 1470 685
0 855 4
9 858 27
22 862 65
39 867 111
59 874 165
72 882 198
130 899 221
256 924 240
348 947 259
422 975 280
483 1005 302
528 1038 323
583 1063 345
638 1091 368
692 1122 392
744 1156 419
797 1194 447
850 1232 476
902 1272 507
954 1315 540
1008 1358 574
1061 1403 610
1114 1448 648
1167 1495 687
1223 1542 728
0 1026 4
7 1030 27
19 1036 64
34 1043 110
51 1052 164
71 1062 223
81 1070 254
175 1095 282
296 1132 302
391 1161 323
470 1189 345
554 1205 368
636 1215 392
695 1236 417
751 1261 442
806 1288 469
860 1319 498
912 1351 528
964 1386 559
1016 1423 592
1067 1461 626
1119 1501 662
1171 1543 700
1225 1585 739
1279 1628 781
0 1197 4
7 1201 26
19 1207 64
34 1214 110
51 1222 164
69 1234 222
88 1244 284
97 1252 312
212 1300 345
332 1342 367
427 1381 391
531 1394 416
637 1394 441
732 1399 469
805 1413 498
863 1433 526
917 1457 555
971 1484 586
1024 1513 618
1076 1544 651
1128 1578 686
1180 1613 722
1233 1649 761
1286 1687 801
1339 1726 843
0 1368 4
6 1373 25
16 1380 63
28 1390 109
42 1400 163
58 1413 222
75 1426 283
94 1435 345
107 1446 373
244 1512 411
355 1564 439
468 1593 465
601 1585 492
712 1582 523
812 1585 554
900 1592 586
967 1607 617
1025 1628 649
1080 1651 682
1135 1678 716
1190 1706 752
1242 1735 790
1296 1767 829
1349 1800 870
1402 1835 912
0 1538 4
6 1543 25
15 1551 62
28 1560 109
42 1571 162
58 1583 222
74 1597 283
90 1609 347
106 1622 409
143 1652 442
272 1728 484
375 1789 518
527 1788 548
668 1777 578
784 1772 612
888 1772 646
983 1776 680
1071 1783 716
1132 1802 752
1190 1821 788
1247 1843 825
1303 1868 864
1358 1895 904
1412 1923 946
1465 1953 990
0 1710 4
4 1715 24
12 1725 62
22 1737 108
33 1750 162
45 1765 221
58 1781 282
72 1796 346
90 1809 416
106 1824 480
165 1870 520
286 1959 565
416 1998 604
587 1980 637
733 1968 673
856 1961 709
965 1959 745
1063 1961 785
1156 1965 825
1239 1973 865
1300 1990 904
1359 2009 945
1416 2031 986
1471 2054 1030
1526 2079 1077
0 1881 4
4 1886 24
12 1896 61
22 1907 108
33 1921 162
45 1935 221
57 1950 282
70 1967 346
85 1984 415
101 2003 493
114 2022 558
186 2093 604
304 2188 654
475 2190 697
646 2172 736
796 2158 775
925 2149 814
1039 2145 855
1144 2142 897
1243 2143 941
1334 2147 985
1411 2156 1031
1471 2173 1076
1530 2192 1122
1587 2213 1170
0 2048 4
3 2054 23
9 2066 61
16 2080 107
24 2096 161
34 2114 220
43 2132 281
53 2152 345
65 2171 415
81 2190 493
99 2212 579
111 2233 642
195 2333 695
332 2407 752
528 2385 800
702 2366 843
858 2351 887
994 2340 929
1117 2330 973
1229 2323 1020
1331 2321 1067
1425 2323 1117
1514 2327 1168
1586 2339 1218
1647 2356 1267
0 2214 4
2 2222 22
7 2234 60
14 2249 107
22 2265 161
32 2284 220
41 2302 281
51 2322 345
61 2344 415
73 2368 493
86 2395 578
100 2424 671
109 2446 733
209 2570 794
389 2602 856
582 2580 911
759 2561 960
921 2545 1008
1064 2530 1056
1192 2516 1106
1310 2507 1155
1417 2502 1206
1516 2500 1259
1608 2502 1314
1695 2506 1370
0 2385 4
2 2392 21
6 2406 60
11 2423 107
16 2442 160
22 2463 219
29 2484 281
35 2505 345
42 2531 414
53 2556 492
66 2583 578
80 2612 671
96 2640 771
105 2663 830
209 2821 900
446 2796 970
639 2775 1032
817 2757 1089
984 2738 1141
1136 2716 1193
1270 2699 1246
1391 2688 1300
1500 2681 1356
1602 2677 1413
1698 2676 1470
0 2556 4
1 2564 21
3 2580 59
6 2599 106
11 2618 160
17 2638 219
23 2660 280
30 2682 344
37 2706 414
45 2734 492
53 2766 578
63 2799 671
74 2832 771
88 2864 879
110 2912 941
259 3023 1018
505 2993 1096
699 2972 1164
882 2952 1225
1051 2925 1284
1206 2901 1342
1346 2882 1398
1470 2868 1456
1584 2859 1515
1690 2853 1576
0 2728 4
1 2735 20
3 2751 58
5 2770 106
8 2792 159
11 2816 218
14 2840 280
18 2865 344
21 2893 414
25 2925 492
33 2956 578
43 2990 671
54 3023 771
67 3057 879
81 3099 997
107 3179 1061
320 3219 1146
567 3189 1229
759 3166 1305
946 3140 1372
1120 3110 1435
1280 3084 1498
1422 3064 1560
1549 3047 1623
1667 3036 1686
0 2898 4
0 2906 19
0 2924 58
0 2945 105
0 2970 159
3 2994 218
6 3018 280
9 3044 344
13 3071 414
17 3103 492
21 3139 577
25 3178 671
32 3215 770
40 3254 878
53 3296 997
67 3339 1119
103 3447 1189
384 3413 1281
627 3382 1372
823 3358 1453
1019 3323 1527
1191 3293 1598
1357 3265 1665
1502 3243 1731
1633 3225 1799
0 3069 4
0 3077 19
0 3095 57
0 3116 104
0 3141 159
0 3168 218
0 3195 279
0 3224 343
0 3255 413
0 3291 491
1 3330 577
5 3368 671
12 3406 770
20 3445 878
28 3491 997
38 3540 1125
46 3585 1246
168 3643 1326
449 3606 1426
692 3574 1524
897 3542 1612
1095 3505 1692
1267 3475 1769
1433 3447 1844
1578 3423 1919
0 3240 4
1 3246 18
4 3262 57
7 3280 104
12 3301 158
16 3323 217
16 3350 279
16 3378 343
16 3409 413
17 3444 491
17 3484 577
17 3527 670
17 3571 770
17 3617 878
20 3669 997
30 3718 1125
40 3767 1262
49 3812 1381
244 3829 1473
561 3755 1580
802 3722 1688
1014 3684 1785
1208 3647 1874
1382 3618 1956
1547 3588 2036
0 3411 4
1 3417 18
4 3432 56
7 3450 103
12 3471 158
16 3494 217
20 3517 278
25 3540 342
30 3566 413
36 3595 491
43 3629 577
46 3669 670
46 3713 770
46 3759 878
46 3813 997
47 3871 1125
46 3929 1262
51 3988 1407
90 4003 1522
328 4010 1629
673 3905 1747
948 3839 1863
1156 3803 1968
1340 3772 2068
1519 3742 2159
0 3582 4
6 3583 17
23 3584 56
44 3585 103
68 3586 157
94 3586 216
121 3587 278
128 3609 342
133 3634 412
139 3663 490
147 3695 576
156 3730 670
163 3766 770
171 3805 878
181 3849 997
183 3904 1125
182 3963 1262
181 4027 1408
226 4051 1562
270 4059 1676
555 4049 1800
898 3945 1925
1144 3909 2053
1352 3877 2172
1523 3855 2287
0 3753 4
6 3754 16
23 3755 55
44 3756 102
68 3756 156
94 3757 216
121 3758 278
149 3758 342
179 3759 412
214 3759 490
252 3760 576
294 3762 670
305 3794 770
312 3833 878
322 3877 997
332 3925 1125
341 3973 1262
351 4027 1408
396 4051 1563
454 4063 1730
530 4078 1849
833 4044 1982
1128 3987 2124
1358 3963 2271
1554 3943 2406
0 3924 4
5 3925 16
22 3926 55
43 3927 102
68 3927 156
94 3928 216
121 3928 277
149 3929 341
179 3930 412
214 3930 490
252 3931 576
293 3931 670
337 3932 770
384 3931 878
437 3932 997
472 3953 1125
482 4002 1263
492 4055 1408
549 4067 1563
620 4067 1731
691 4077 1913
802 4095 2045
1099 4060 2194
1350 4044 2355
1567 4030 2515
0 4095 4
5 4095 16
22 4095 54
43 4095 102
67 4095 156
94 4095 215
121 4095 277
149 4095 341
179 4095 411
213 4095 490
252 4095 576
293 4095 670
337 4095 770
384 4095 878
437 4095 997
493 4095 1125
552 4095 1263
616 4095 1408
686 4095 1563
757 4095 1731
838 4095 1914
929 4095 2120
1509 4093 2397
1911 4082 2614
2230 4064 2813
8 1 4
8 26 19
9 53 22
13 83 30
19 119 43
27 169 60
69 220 74
121 277 91
174 332 110
226 391 130
282 451 153
337 513 175
390 575 200
446 639 227
493 706 254
539 779 283
587 847 312
647 904 342
707 964 373
768 1023 407
829 1083 442
891 1142 479
952 1202 518
1013 1262 559
1074 1321 601
11 173 4
23 176 30
29 192 44
47 214 56
72 244 67
103 278 80
143 317 95
186 363 111
231 413 129
279 461 148
327 515 169
378 571 192
427 628 216
475 688 242
517 756 269
559 824 296
615 883 325
674 938 354
732 995 386
791 1053 419
851 1110 454
911 1168 491
971 1226 530
1031 1285 571
1091 1344 614
11 344 4
22 344 29
45 352 61
74 363 76
128 379 91
167 400 106
205 431 121
245 463 137
290 503 155
333 546 173
378 593 193
424 644 216
466 699 239
505 759 264
545 821 290
593 878 316
648 930 344
706 983 373
762 1037 404
819 1092 437
878 1147 472
937 1204 509
995 1260 548
1054 1315 588
1113 1373 632
11 515 4
22 517 29
38 519 66
70 526 102
121 538 119
198 553 136
264 570 153
309 595 169
353 626 187
396 662 206
433 705 226
469 752 247
506 804 270
544 856 294
589 906 319
642 951 344
696 999 371
749 1047 400
804 1098 432
861 1149 464
917 1201 499
972 1254 535
1030 1307 574
1087 1362 614
1143 1416 657
9 687 4
19 690 28
33 694 65
51 700 112
97 709 149
166 723 170
262 737 187
334 758 205
392 784 224
434 815 244
472 851 265
510 889 286
549 932 308
598 969 331
649 1006 354
700 1046 380
751 1088 408
804 1133 437
858 1178 468
911 1225 500
964 1273 535
1019 1322 571
1074 1372 609
1128 1423 648
1183 1473 691
9 857 4
18 861 28
33 865 65
51 870 111
71 878 165
127 896 201
207 918 225
307 935 244
386 959 264
452 984 285
506 1015 307
552 1042 328
606 1066 350
659 1094 373
711 1126 397
761 1160 424
813 1196 452
865 1235 481
916 1276 512
968 1318 545
1020 1362 579
1072 1406 615
1125 1452 653
1178 1498 692
1232 1545 734
8 1030 4
16 1034 27
28 1041 64
43 1048 111
61 1058 164
83 1067 223
153 1087 259
245 1113 285
338 1147 305
425 1171 327
497 1198 349
588 1205 373
661 1218 397
717 1239 422
771 1263 447
824 1291 474
876 1321 503
927 1354 533
978 1389 564
1029 1426 597
1079 1464 631
1130 1504 667
1182 1545 705
1235 1587 744
1288 1631 787
8 1202 4
16 1206 26
28 1212 64
43 1220 110
61 1228 164
80 1239 223
99 1249 285
174 1286 319
270 1319 348
369 1357 371
457 1391 395
567 1392 420
668 1393 445
758 1399 473
824 1414 502
880 1435 530
934 1459 560
986 1486 590
1038 1515 622
1089 1547 656
1140 1580 690
1192 1615 727
1244 1651 765
1297 1690 806
1348 1729 849
7 1374 4
13 1378 26
23 1387 63
36 1397 110
51 1408 164
67 1421 222
86 1431 284
105 1441 348
198 1486 382
288 1538 416
389 1578 442
510 1590 469
634 1583 496
740 1581 527
836 1584 558
922 1591 590
984 1609 621
1040 1630 653
1095 1654 686
1148 1679 720
1201 1708 756
1254 1738 794
1307 1769 834
1359 1802 874
1411 1837 919
7 1545 4
13 1550 25
23 1558 63
36 1567 109
51 1578 163
67 1591 222
83 1604 284
99 1617 348
123 1635 412
216 1695 450
313 1752 489
409 1800 522
565 1784 551
697 1775 583
810 1771 616
911 1771 650
1004 1776 684
1087 1784 721
1146 1803 755
1204 1822 792
1260 1845 830
1315 1870 869
1369 1897 909
1422 1925 951
1472 1956 996
5 1717 4
10 1723 25
18 1733 62
28 1745 109
40 1759 163
52 1774 222
65 1790 284
81 1804 347
100 1817 417
131 1842 485
226 1917 527
324 1982 571
462 1993 609
623 1977 641
761 1966 677
880 1960 713
986 1958 749
1082 1961 789
1173 1964 829
1252 1973 869
1313 1991 909
1371 2010 948
1427 2032 991
1481 2056 1035
1534 2081 1083
