Toning/Toning-Supersaturate.3dl
#25pt 3DLUT created by 3D LUT Creator Pro (c) Oleg Sharonov
#Copyright Oleg Sharonov
#INPUTGAMMA sRGB IEC61966-2.1 v.2.10
#IMAGEPROFILE sRGB IEC61966-2.1 v.2.10
#OUTPUTGAMMA sRGB IEC61966-2.1 v.2.10
0 43 86 128 171 214 256 299 341 384 427 469 512 555 597 640 682 725 768 810 853 896 938 981 1023 
0 0 0
19 29 58
36 58 142
58 94 293
78 136 478
110 206 668
139 297 862
180 381 1061
238 464 1266
291 557 1478
345 671 1694
417 795 1909
528 933 2121
658 1083 2329
810 1245 2528
980 1422 2719
1177 1617 2899
1406 1834 3072
1668 2068 3236
1954 2318 3393
2258 2580 3535
2564 2841 3669
2807 3053 3791
2816 3061 3800
2824 3069 3808
48 84 58
13 74 68
42 103 155
61 139 302
84 174 486
116 220 674
149 306 870
192 388 1069
250 472 1274
304 564 1487
358 677 1701
428 801 1916
537 937 2127
665 1087 2334
816 1250 2533
985 1426 2724
1182 1621 2904
1411 1837 3076
1672 2071 3240
1957 2322 3396
2261 2582 3538
2567 2844 3672
2811 3056 3794
2819 3064 3803
2827 3072 3811
103 201 126
23 186 116
29 168 158
65 225 310
78 287 499
100 352 691
136 408 885
192 440 1083
267 481 1285
320 572 1496
370 685 1710
440 807 1924
547 944 2135
675 1093 2341
824 1255 2540
992 1432 2730
1188 1625 2909
1415 1842 3082
1676 2075 3245
1961 2325 3401
2265 2586 3542
2570 2847 3676
2815 3060 3799
2822 3068 3807
2830 3075 3815
165 393 222
68 374 214
32 351 235
52 314 304
78 398 503
90 474 699
119 538 901
158 601 1102
225 660 1304
297 710 1511
374 742 1722
457 817 1935
562 953 2145
688 1101 2351
835 1263 2549
1002 1439 2739
1196 1632 2918
1423 1848 3089
1683 2081 3252
1967 2331 3408
2270 2592 3549
2575 2853 3682
2821 3066 3805
2828 3073 3813
2835 3081 3820
243 601 360
116 596 351
16 575 328
26 551 412
45 499 486
81 586 696
110 663 902
142 741 1107
198 813 1316
264 882 1526
328 952 1738
394 1023 1954
526 1097 2162
692 1141 2363
849 1272 2560
1013 1448 2749
1207 1641 2927
1432 1856 3099
1691 2089 3261
1975 2338 3416
2277 2599 3557
2582 2859 3690
2828 3074 3813
2835 3081 3820
2843 3088 3828
354 801 513
217 807 512
58 802 492
10 783 512
29 756 611
42 696 679
87 787 894
132 868 1106
180 948 1318
243 1023 1531
304 1100 1750
369 1184 1968
474 1280 2179
617 1382 2382
786 1483 2578
982 1579 2763
1218 1650 2939
1443 1865 3110
1700 2098 3271
1983 2347 3427
2285 2607 3567
2590 2867 3699
2838 3083 3823
2844 3090 3830
2851 3096 3837
467 1003 671
393 1008 670
119 1031 658
19 1022 636
19 999 714
39 971 813
52 904 877
97 995 1097
165 1077 1316
225 1155 1533
284 1236 1753
351 1323 1973
440 1419 2190
578 1530 2397
741 1647 2594
926 1770 2780
1140 1905 2957
1390 2052 3127
1679 2197 3286
1993 2356 3438
2294 2616 3578
2599 2877 3710
2849 3094 3834
2855 3100 3841
2861 3106 3847
573 1209 835
572 1207 833
240 1247 828
55 1261 809
6 1249 821
26 1222 923
45 1192 1022
58 1117 1080
110 1210 1306
209 1283 1532
271 1366 1754
336 1454 1976
411 1548 2195
548 1662 2405
709 1781 2606
891 1909 2794
1102 2049 2972
1350 2208 3130
1631 2376 3284
1938 2558 3433
2263 2749 3577
2593 2932 3718
2861 3107 3847
2867 3112 3853
2873 3118 3859
696 1426 1004
696 1423 1002
419 1451 1003
123 1494 989
13 1499 968
6 1478 1038
26 1449 1138
48 1417 1238
68 1335 1290
119 1426 1523
243 1496 1752
322 1579 1976
386 1670 2199
522 1784 2411
681 1904 2614
863 2033 2803
1074 2173 2967
1322 2329 3128
1603 2495 3284
1910 2676 3434
2236 2868 3579
2562 3066 3719
2836 3237 3850
2852 3211 3859
2879 3150 3870
833 1644 1177
832 1642 1175
626 1651 1180
276 1700 1173
48 1737 1156
0 1737 1159
3 1710 1261
26 1678 1361
45 1642 1459
74 1555 1507
145 1642 1742
278 1710 1973
367 1788 2201
497 1901 2416
656 2021 2621
838 2149 2795
1050 2287 2963
1298 2438 3127
1580 2598 3285
1890 2773 3438
2218 2957 3584
2548 3150 3725
2828 3312 3860
2838 3301 3866
2850 3287 3873
978 1862 1357
977 1860 1355
898 1863 1357
446 1898 1364
165 1954 1351
0 1987 1331
0 1971 1391
0 1941 1491
23 1909 1590
52 1866 1681
84 1779 1729
183 1857 1966
308 1922 2198
475 2016 2419
633 2135 2613
815 2259 2789
1027 2393 2960
1276 2538 3126
1561 2693 3287
1873 2860 3442
2203 3036 3590
2537 3222 3733
2825 3374 3871
2834 3367 3876
2843 3359 3882
1132 2082 1543
1131 2080 1541
1130 2078 1540
665 2108 1556
336 2149 1551
65 2207 1535
0 2233 1528
0 2203 1628
0 2169 1727
26 2132 1823
61 2078 1901
100 1999 1954
222 2066 2189
356 2140 2404
604 2246 2603
793 2366 2784
1005 2495 2957
1255 2634 3126
1541 2782 3290
1857 2942 3446
2190 3110 3597
2528 3289 3741
2825 3430 3883
2832 3426 3888
2840 3420 3893
1296 2298 1735
1296 2297 1734
1295 2295 1733
935 2319 1748
535 2347 1755
248 2393 1745
0 2454 1728
0 2454 1772
0 2421 1863
13 2387 1953
55 2349 2040
90 2287 2105
136 2213 2164
269 2279 2376
471 2369 2583
742 2474 2776
983 2594 2955
1235 2726 3127
1523 2868 3293
1841 3020 3452
2177 3180 3604
2520 3352 3750
2826 3484 3896
2833 3480 3901
2840 3476 3905
1472 2510 1934
1472 2509 1933
1470 2507 1931
1259 2519 1940
793 2556 1957
454 2581 1959
177 2634 1928
0 2696 1892
0 2663 1982
19 2628 2068
61 2591 2152
103 2554 2235
136 2488 2287
186 2422 2349
337 2490 2562
614 2591 2762
912 2698 2949
1214 2817 3127
1504 2951 3296
1825 3095 3457
2164 3248 3611
2511 3410 3758
2826 3531 3906
2835 3531 3914
2841 3528 3918
1660 2717 2135
1659 2716 2134
1658 2715 2133
1630 2715 2132
1076 2759 2159
725 2788 2157
409 2815 2126
113 2864 2093
6 2883 2115
52 2851 2198
90 2818 2280
129 2783 2359
165 2748 2437
195 2679 2477
248 2621 2541
488 2706 2746
790 2809 2940
1125 2916 3123
1485 3033 3298
1808 3168 3462
2151 3313 3618
2502 3457 3768
2825 3574 3917
2837 3578 3928
2843 3576 3932
1860 2918 2339
1859 2917 2338
1858 2916 2336
1856 2914 2334
1390 2953 2360
1018 2988 2351
709 3016 2326
409 3041 2300
94 3080 2272
113 3056 2344
152 3026 2421
189 2996 2496
235 2966 2569
280 2936 2639
284 2863 2668
360 2819 2731
668 2917 2930
1010 3019 3118
1384 3125 3297
1779 3241 3466
2137 3376 3625
2492 3504 3777
2825 3617 3927
2840 3623 3942
2845 3622 3946
2072 3109 2544
2071 3108 2543
2070 3107 2542
2068 3106 2541
1741 3133 2560
1338 3174 2549
1032 3207 2529
750 3234 2508
468 3257 2486
291 3263 2501
336 3239 2572
376 3214 2641
414 3188 2707
448 3161 2773
479 3133 2836
465 3058 2855
548 3022 2919
895 3121 3112
1277 3217 3296
1683 3324 3469
2097 3440 3631
2482 3549 3786
2825 3658 3937
2844 3668 3957
2849 3667 3960
2300 3290 2750
2299 3289 2749
2298 3288 2748
2296 3287 2746
2152 3298 2755
1689 3346 2750
1384 3379 2734
1115 3406 2718
858 3433 2700
601 3455 2682
586 3440 2734
615 3418 2796
643 3395 2856
667 3371 2915
691 3346 2973
713 3321 3030
683 3246 3040
782 3218 3105
1170 3307 3294
1586 3405 3471
2014 3509 3637
2439 3592 3795
2825 3699 3947
2848 3712 3971
2852 3711 3974
2536 3460 2957
2535 3460 2956
2534 3459 2955
2532 3458 2954
2530 3457 2951
2060 3498 2953
1759 3525 2941
1504 3547 2930
1268 3568 2917
1037 3587 2903
885 3596 2909
906 3579 2965
926 3562 3019
944 3543 3071
961 3526 3122
976 3509 3173
990 3486 3223
946 3419 3224
1063 3398 3291
1489 3481 3472
1930 3578 3641
2371 3640 3803
2787 3740 3957
2827 3756 3986
2837 3755 3989
2774 3586 3159
2773 3585 3158
2772 3585 3157
2770 3584 3156
2767 3583 3154
2441 3615 3156
2147 3648 3150
1911 3675 3142
1693 3694 3133
1485 3710 3123
1281 3725 3111
1245 3719 3145
1259 3706 3192
1272 3692 3237
1283 3678 3282
1293 3663 3326
1301 3645 3369
1308 3625 3412
1254 3563 3407
1390 3555 3473
1843 3646 3646
2301 3692 3811
2734 3777 3968
2789 3799 4002
2798 3799 4005
3019 3707 3357
3018 3706 3357
3017 3706 3356
3015 3705 3354
3013 3704 3353
2825 3712 3352
2539 3729 3353
2327 3745 3351
2138 3751 3346
1954 3770 3340
1774 3781 3333
1635 3797 3335
1644 3790 3375
1652 3783 3413
1658 3777 3451
1662 3770 3488
1664 3762 3524
1665 3753 3560
1658 3742 3591
1599 3709 3583
1755 3705 3649
2230 3734 3818
2679 3816 3977
2752 3837 4018
2760 3837 4021
3272 3847 3555
3272 3846 3555
3271 3846 3554
3269 3845 3553
3267 3844 3551
3224 3844 3550
2917 3849 3554
2732 3849 3554
2570 3854 3553
2416 3854 3550
2263 3859 3546
2111 3861 3541
2064 3859 3562
2068 3852 3594
2070 3846 3625
2070 3839 3656
2068 3831 3686
2065 3824 3716
2060 3817 3745
2044 3806 3767
1986 3780 3759
2157 3776 3825
2623 3854 3986
2715 3879 4034
2723 3878 4037
3491 3989 3743
3491 3989 3743
3491 3989 3743
3491 3989 3743
3492 3989 3744
3492 3989 3744
3256 3986 3751
3090 3979 3753
2955 3977 3754
2832 3971 3753
2714 3969 3752
2599 3965 3751
2495 3959 3752
2495 3953 3778
2494 3948 3803
2491 3942 3828
2486 3936 3852
2480 3929 3876
2472 3921 3899
2462 3914 3923
2439 3899 3937
2385 3871 3929
2563 3891 3995
2678 3920 4050
2685 3920 4052
3509 4007 3761
3509 4007 3761
3509 4007 3762
3509 4007 3762
3509 4008 3762
3510 4008 3762
3328 4007 3768
3142 4002 3773
3002 4002 3778
2879 3999 3782
2764 3998 3785
2653 3999 3789
2543 3997 3792
2554 3996 3824
2572 3996 3857
2590 3997 3890
2607 3997 3921
2624 3997 3953
2641 3998 3984
2658 3997 4016
2674 3997 4047
2668 3983 4059
2652 3964 4064
2647 3957 4066
2649 3959 4068
3527 4025 3779
3527 4026 3780
3527 4026 3780
3527 4026 3780
3527 4026 3780
3528 4026 3780
3423 4026 3783
3194 4021 3791
3044 4020 3795
2916 4017 3799
2798 4015 3803
2684 4017 3806
2573 4015 3810
2570 4015 3839
2588 4014 3872
2606 4015 3905
2623 4015 3937
2640 4015 3969
2658 4015 4000
2674 4015 4032
2691 4014 4063
2687 4001 4077
2670 3982 4081
2664 3975 4084
2666 3976 4085
55 3 3
52 3 52
71 16 132
97 45 280
123 74 467
165 113 656
214 165 849
271 252 1044
326 339 1251
374 423 1465
427 521 1684
522 648 1897
629 787 2109
756 940 2317
902 1107 2518
1068 1291 2710
1259 1493 2891
1481 1718 3065
1734 1964 3229
2011 2227 3388
2305 2500 3538
2603 2776 3674
2842 2998 3797
2850 3007 3805
2858 3015 3814
78 68 29
78 78 68
94 94 152
119 107 295
139 113 475
174 129 662
220 180 856
282 260 1052
337 347 1259
386 430 1473
437 526 1691
531 653 1904
636 792 2116
763 944 2323
908 1112 2523
1073 1295 2715
1264 1497 2896
1485 1721 3069
1738 1967 3233
2015 2230 3391
2308 2503 3541
2605 2778 3677
2845 3002 3800
2853 3009 3808
2861 3017 3816
192 168 100
149 189 145
87 174 165
123 225 312
142 284 497
183 347 686
238 394 877
295 354 1068
351 356 1268
398 437 1482
451 533 1700
542 660 1912
647 798 2123
771 950 2330
916 1117 2529
1080 1300 2721
1269 1501 2902
1490 1726 3074
1742 1971 3238
2018 2234 3396
2312 2507 3546
2609 2782 3681
2849 3006 3804
2857 3013 3812
2864 3021 3820
377 330 206
252 379 250
90 360 238
107 324 312
136 403 505
165 472 700
206 532 896
273 585 1093
337 642 1295
401 690 1503
465 640 1713
556 668 1922
659 807 2132
783 958 2339
926 1124 2539
1089 1307 2729
1277 1508 2909
1497 1732 3081
1749 1977 3245
2024 2240 3403
2317 2512 3552
2614 2787 3687
2855 3011 3810
2862 3019 3818
2870 3026 3826
552 557 384
398 576 391
129 579 383
71 556 412
90 508 494
152 588 701
186 658 902
248 728 1104
310 796 1309
369 865 1518
431 935 1730
535 1011 1940
663 1080 2147
798 1019 2350
939 1133 2549
1100 1316 2739
1287 1516 2919
1506 1740 3091
1757 1984 3254
2032 2247 3411
2324 2519 3560
2621 2794 3695
2863 3019 3818
2870 3026 3826
2877 3033 3833
656 755 540
553 765 543
222 791 543
68 787 522
81 759 612
97 704 688
168 785 899
228 859 1106
289 931 1314
347 1004 1528
408 1083 1744
493 1173 1957
612 1270 2165
751 1370 2368
917 1472 2563
1106 1564 2750
1299 1525 2930
1516 1749 3102
1766 1992 3265
2040 2255 3421
2333 2527 3570
2629 2801 3704
2872 3029 3828
2879 3035 3835
2885 3042 3842
771 964 696
732 964 696
376 995 703
129 1015 690
65 1000 713
84 971 813
103 909 884
183 990 1102
271 1061 1315
330 1137 1531
389 1218 1750
462 1308 1968
578 1410 2180
713 1521 2383
871 1637 2579
1051 1760 2766
1258 1895 2943
1498 2041 3114
1777 2185 3274
2050 2264 3432
2342 2536 3581
2637 2810 3715
2883 3039 3840
2889 3045 3846
2895 3051 3852
891 1178 856
891 1175 855
536 1198 868
238 1234 860
68 1245 840
71 1221 921
97 1190 1022
113 1120 1087
206 1198 1311
314 1264 1531
372 1348 1753
436 1436 1973
550 1539 2187
683 1652 2394
840 1771 2594
1017 1900 2781
1220 2041 2959
1457 2198 3130
1728 2366 3285
2022 2549 3434
2335 2740 3577
2652 2923 3717
2895 3052 3853
2901 3057 3858
2907 3063 3864
1017 1394 1023
1016 1392 1021
735 1409 1034
388 1442 1035
136 1478 1020
52 1475 1035
74 1444 1138
103 1410 1237
129 1335 1297
235 1407 1526
358 1473 1752
417 1559 1975
525 1661 2192
657 1774 2402
812 1895 2603
988 2023 2792
1192 2163 2971
1429 2320 3131
1700 2485 3285
1995 2668 3434
2308 2862 3578
2620 3060 3718
2887 3232 3850
2903 3206 3859
2922 3118 3873
1148 1614 1196
1147 1611 1194
981 1621 1201
541 1644 1215
276 1688 1205
61 1721 1186
55 1701 1258
87 1668 1359
116 1629 1459
142 1548 1513
264 1618 1746
389 1685 1975
501 1779 2196
632 1893 2408
788 2012 2611
964 2138 2802
1168 2276 2967
1406 2428 3129
1678 2588 3287
1976 2764 3438
2290 2951 3583
2606 3145 3724
2879 3307 3860
2889 3296 3866
2901 3282 3873
1288 1830 1374
1286 1829 1373
1250 1829 1373
750 1861 1396
425 1890 1395
174 1938 1381
32 1960 1387
61 1926 1489
97 1890 1589
139 1850 1686
171 1763 1734
299 1828 1968
431 1900 2198
609 2007 2412
764 2125 2618
940 2248 2796
1145 2383 2964
1385 2529 3129
1659 2683 3289
1959 2852 3442
2276 3029 3590
2596 3216 3732
2876 3369 3871
2885 3362 3876
2894 3354 3882
