Toning/Toning-Pale greens.3dl
#25pt 3DLUT created by 3D LUT Creator Pro (c) Oleg Sharonov
#Copyright Oleg Sharonov
#IMAGEPROFILE sRGB IEC61966-2.1 v.2.10
#INPUTGAMMA sRGB IEC61966-2.1 v.2.10
#OUTPUTGAMMA sRGB IEC61966-2.1 v.2.10
0 43 86 128 171 214 256 299 341 384 427 469 512 555 597 640 682 725 768 810 853 896 938 981 1023 
0 0 0
0 9 92
3 18 184
15 31 276
27 51 369
43 76 461
62 103 553
84 132 645
107 160 737
129 188 829
148 217 921
158 248 1014
166 279 1106
172 310 1198
178 341 1290
187 372 1382
191 403 1474
200 433 1566
207 464 1658
217 494 1751
227 524 1843
235 554 1935
263 582 2030
297 608 2161
330 635 2300
37 144 132
0 171 175
0 187 214
7 200 276
40 210 369
65 226 461
88 245 553
109 266 645
130 288 737
145 313 829
154 340 921
161 368 1014
168 396 1106
174 425 1198
178 454 1290
184 484 1382
192 513 1474
199 542 1566
207 571 1658
215 600 1751
225 630 1843
241 658 1935
274 684 2048
306 710 2180
339 736 2319
76 300 255
0 328 311
0 343 332
0 356 365
0 374 369
59 379 461
101 390 553
126 406 645
140 425 737
146 448 829
153 471 921
160 495 1014
165 521 1106
172 547 1198
177 574 1290
184 600 1382
189 628 1474
198 655 1566
205 683 1658
216 711 1751
226 739 1843
257 764 1947
288 789 2075
320 815 2210
351 840 2343
95 457 400
33 480 445
0 500 467
0 514 497
19 525 527
45 537 557
65 550 578
88 565 645
113 579 737
129 596 829
140 615 921
149 635 1014
155 657 1106
163 680 1198
168 704 1290
179 728 1382
186 753 1474
193 778 1566
202 804 1658
218 830 1751
248 853 1862
279 877 1988
309 901 2119
339 926 2248
369 950 2377
161 604 548
87 633 579
0 656 608
0 672 626
0 685 657
46 695 688
74 706 727
90 719 772
96 734 816
100 751 863
102 768 921
112 786 1014
125 804 1106
141 823 1198
148 844 1290
161 865 1382
172 888 1474
196 909 1568
222 930 1681
251 952 1800
279 974 1923
307 997 2048
335 1020 2171
363 1042 2295
392 1065 2419
225 756 674
148 785 709
52 810 742
0 830 761
0 844 786
13 856 818
76 865 849
112 875 889
130 888 936
137 902 991
142 917 1050
146 933 1115
153 950 1186
165 967 1263
178 985 1349
196 1003 1443
215 1022 1544
238 1042 1651
263 1061 1763
288 1081 1878
314 1102 1994
340 1122 2112
366 1144 2230
393 1165 2348
420 1187 2468
269 914 792
203 940 835
122 963 874
0 986 903
0 1002 915
0 1015 948
36 1026 979
112 1035 1013
149 1045 1054
170 1057 1104
181 1070 1161
190 1084 1224
201 1098 1295
213 1114 1372
227 1129 1455
243 1146 1546
262 1163 1641
282 1180 1742
305 1198 1847
328 1216 1957
352 1234 2067
377 1254 2180
401 1273 2293
426 1293 2408
452 1313 2524
312 1073 909
256 1095 959
186 1117 1002
76 1140 1034
0 1160 1057
0 1174 1073
0 1187 1110
71 1196 1141
150 1204 1177
188 1214 1222
211 1225 1274
227 1237 1334
242 1250 1401
257 1263 1476
273 1277 1556
289 1292 1642
307 1307 1734
327 1322 1831
348 1338 1932
370 1355 2037
393 1372 2144
416 1389 2253
439 1407 2363
463 1426 2474
487 1444 2587
356 1232 1025
306 1251 1080
245 1271 1128
155 1294 1163
4 1316 1193
0 1333 1207
0 1346 1233
0 1358 1273
118 1366 1305
190 1373 1344
229 1383 1392
256 1393 1447
276 1404 1511
296 1416 1581
314 1428 1658
332 1441 1740
351 1454 1829
371 1468 1922
392 1483 2019
413 1497 2120
435 1513 2224
457 1529 2330
479 1545 2437
501 1562 2546
525 1580 2655
399 1391 1138
356 1408 1197
301 1427 1249
222 1449 1289
105 1471 1321
0 1491 1347
0 1505 1360
0 1517 1396
16 1528 1436
165 1535 1470
233 1542 1513
273 1551 1564
303 1561 1623
329 1571 1690
351 1582 1763
372 1593 1842
392 1605 1926
414 1617 2016
435 1630 2111
456 1643 2208
477 1657 2309
499 1672 2412
520 1687 2516
542 1702 2622
565 1718 2728
443 1551 1250
404 1566 1312
355 1583 1368
285 1604 1411
189 1626 1446
22 1647 1477
0 1664 1494
0 1677 1517
0 1689 1560
88 1698 1598
215 1704 1637
279 1711 1684
322 1719 1739
356 1727 1801
384 1737 1871
408 1747 1946
432 1757 2027
454 1768 2114
476 1780 2205
498 1792 2300
520 1804 2397
541 1817 2497
562 1831 2599
583 1845 2701
605 1860 2805
487 1711 1359
452 1725 1424
408 1740 1483
345 1760 1529
262 1781 1567
142 1802 1600
0 1822 1631
0 1837 1646
0 1849 1676
0 1860 1724
163 1866 1762
268 1872 1805
330 1878 1856
375 1886 1915
410 1894 1981
440 1902 2053
467 1911 2131
492 1921 2214
516 1931 2302
539 1942 2394
561 1953 2488
582 1965 2586
603 1978 2684
625 1991 2784
647 2005 2885
530 1872 1464
500 1884 1533
459 1898 1594
403 1917 1644
328 1937 1684
231 1958 1720
71 1978 1752
0 1996 1778
0 2009 1800
0 2020 1839
9 2030 1888
234 2034 1927
325 2039 1975
385 2045 2030
431 2052 2092
467 2059 2161
499 2067 2236
527 2076 2316
554 2085 2401
578 2095 2489
601 2105 2581
623 2116 2676
645 2127 2772
666 2139 2869
688 2152 2967
575 2033 1567
547 2044 1638
511 2057 1701
459 2075 1754
391 2094 1797
306 2115 1835
193 2135 1870
0 2154 1903
0 2169 1926
0 2181 1955
0 2191 2003
147 2198 2049
303 2202 2093
386 2206 2145
444 2212 2204
490 2218 2269
527 2225 2341
560 2232 2418
589 2240 2500
616 2249 2586
640 2258 2675
663 2268 2767
685 2278 2861
707 2289 2956
730 2300 3051
620 2196 1666
594 2205 1738
561 2217 1805
513 2233 1859
452 2252 1906
377 2272 1946
283 2291 1982
151 2311 2017
0 2329 2053
0 2341 2077
0 2353 2112
0 2362 2167
251 2365 2211
372 2368 2259
449 2373 2315
505 2378 2377
551 2383 2445
589 2390 2519
622 2397 2599
651 2404 2682
678 2412 2769
702 2421 2859
725 2431 2950
748 2441 3043
772 2451 3137
665 2359 1762
642 2367 1835
611 2378 1903
568 2393 1961
512 2411 2010
443 2430 2052
362 2449 2090
259 2468 2126
102 2486 2163
0 2502 2197
0 2514 2228
0 2524 2272
126 2531 2326
341 2532 2371
444 2535 2424
515 2539 2483
570 2543 2549
615 2549 2620
652 2554 2697
685 2561 2778
713 2568 2863
740 2576 2951
764 2585 3041
788 2594 3132
813 2603 3223
711 2522 1853
689 2530 1927
662 2540 1996
622 2554 2056
570 2571 2107
508 2589 2152
435 2608 2192
349 2626 2229
240 2644 2267
53 2661 2306
0 2675 2341
0 2686 2379
0 2696 2433
274 2698 2481
425 2699 2531
516 2701 2587
584 2705 2651
636 2709 2720
679 2714 2795
716 2719 2874
748 2725 2957
776 2732 3043
802 2740 3131
828 2748 3220
853 2757 3310
796 2687 1884
759 2694 1976
713 2703 2068
675 2716 2146
628 2732 2200
571 2749 2246
504 2767 2288
428 2785 2327
339 2803 2366
227 2820 2406
28 2835 2449
0 2848 2488
0 2858 2532
116 2865 2590
386 2864 2636
508 2865 2691
591 2867 2752
653 2870 2819
703 2874 2892
744 2878 2969
779 2884 3050
810 2890 3134
839 2897 3221
866 2904 3309
893 2912 3396
916 2853 1884
891 2859 1976
855 2866 2068
800 2877 2160
716 2892 2252
632 2910 2336
571 2927 2380
503 2945 2421
425 2962 2461
337 2979 2502
226 2994 2545
36 3009 2592
0 3020 2636
0 3030 2689
309 3031 2741
485 3030 2792
590 3031 2851
665 3032 2917
723 3035 2988
770 3039 3063
809 3043 3143
843 3048 3226
874 3054 3311
903 3061 3397
932 3067 3483
1025 3018 1884
1004 3023 1976
978 3029 2068
941 3039 2160
882 3051 2252
797 3067 2344
680 3086 2437
574 3105 2511
505 3122 2553
429 3138 2594
344 3153 2639
241 3168 2686
80 3182 2737
0 3193 2788
135 3200 2844
441 3197 2893
578 3195 2950
670 3196 3014
738 3197 3083
792 3200 3157
836 3203 3235
874 3208 3317
908 3213 3401
939 3218 3485
971 3224 3570
1129 3183 1884
1115 3187 1976
1095 3192 2068
1063 3200 2160
1019 3211 2252
961 3224 2344
878 3240 2437
764 3259 2529
606 3281 2621
513 3298 2684
441 3313 2729
362 3327 2777
270 3341 2828
146 3353 2883
0 3365 2941
357 3365 2993
553 3361 3048
667 3360 3110
748 3361 3178
810 3362 3251
860 3365 3327
902 3368 3408
939 3372 3490
974 3377 3574
1008 3382 3657
1228 3347 1884
1217 3351 1976
1201 3355 2068
1177 3362 2160
1143 3370 2252
1101 3381 2344
1041 3395 2437
962 3411 2529
868 3429 2621
721 3451 2713
528 3473 2805
461 3487 2865
389 3500 2917
310 3513 2972
216 3525 3032
194 3534 3094
502 3529 3147
652 3526 3207
751 3525 3273
823 3525 3344
880 3527 3420
928 3529 3498
969 3533 3580
1007 3537 3658
1044 3542 3734
1325 3511 1884
1317 3514 1976
1304 3517 2068
1286 3523 2160
1263 3530 2252
1229 3539 2344
1185 3550 2437
1129 3563 2529
1064 3578 2621
977 3596 2713
873 3615 2805
732 3636 2897
503 3659 2989
425 3672 3061
359 3684 3120
289 3695 3184
407 3698 3246
619 3693 3303
742 3691 3367
830 3690 3431
897 3691 3500
951 3693 3573
996 3696 3648
1039 3699 3724
1079 3703 3800
1421 3674 1884
1414 3676 1976
1405 3679 2068
1391 3683 2160
1372 3689 2252
1350 3696 2344
1318 3705 2437
1278 3716 2529
1234 3728 2621
1175 3742 2713
1109 3758 2805
1022 3775 2897
924 3794 2989
802 3813 3081
568 3839 3174
416 3855 3262
365 3866 3325
553 3864 3381
719 3860 3438
826 3858 3502
905 3857 3570
967 3858 3641
1020 3860 3716
1066 3863 3791
1111 3866 3866
1516 3836 1884
1511 3838 1976
1505 3840 2068
1495 3843 2160
1481 3848 2252
1462 3854 2344
1441 3861 2437
1412 3870 2529
1377 3880 2621
1339 3891 2713
1286 3905 2805
1234 3919 2897
1161 3936 2989
1073 3955 3081
965 3975 3174
818 3997 3266
605 4021 3358
446 4037 3450
662 4032 3512
804 4028 3574
900 4026 3640
974 4025 3711
1034 4026 3785
1087 4027 3859
1138 4029 3933
159 4 0
119 24 92
119 34 184
128 48 276
138 68 369
153 92 461
172 117 553
193 143 645
213 170 737
233 197 829
247 226 921
256 256 1014
262 286 1106
270 316 1198
275 347 1290
283 377 1382
290 407 1474
294 438 1566
303 468 1658
313 498 1751
323 527 1843
335 557 1935
361 584 2030
394 611 2162
427 637 2302
179 155 124
135 182 162
117 201 184
146 207 276
163 220 369
182 236 461
200 254 553
218 274 645
233 297 737
246 321 829
252 348 921
259 375 1014
265 403 1106
270 431 1198
277 459 1290
282 488 1382
288 517 1474
296 546 1566
304 575 1658
315 603 1751
321 633 1843
339 661 1935
372 687 2049
404 713 2182
436 738 2321
187 313 252
149 332 302
110 352 330
116 366 333
144 377 369
189 385 461
215 397 553
232 413 645
241 433 737
247 454 829
253 478 921
258 502 1014
264 526 1106
270 552 1198
277 578 1290
279 605 1382
286 632 1474
295 659 1566
302 687 1658
312 714 1751
323 742 1843
354 767 1947
385 792 2076
416 817 2211
448 842 2345
194 468 403
138 489 443
129 505 467
147 517 492
165 528 524
178 541 554
188 555 577
203 570 645
222 584 737
233 601 829
243 620 921
249 640 1014
258 662 1106
262 684 1198
269 708 1290
274 732 1382
283 757 1474
290 782 1566
299 808 1658
316 833 1751
347 856 1864
376 880 1990
406 904 2121
435 928 2250
466 952 2378
258 613 547
183 641 578
103 663 607
113 677 629
155 687 653
188 697 686
204 709 725
209 723 771
212 738 816
212 754 863
210 772 921
216 790 1014
230 808 1106
240 827 1198
252 848 1290
259 869 1382
272 891 1474
295 912 1569
321 933 1682
349 955 1800
377 977 1924
404 999 2050
432 1022 2173
460 1045 2296
488 1068 2419
317 764 671
241 793 707
147 816 742
92 835 764
104 848 789
169 857 814
213 867 848
235 878 888
245 891 935
248 905 990
250 920 1050
253 936 1115
258 953 1186
268 970 1265
281 988 1351
297 1006 1444
315 1025 1544
337 1044 1652
361 1064 1764
386 1084 1879
411 1104 1995
437 1125 2113
463 1146 2231
489 1167 2349
516 1189 2469
361 920 791
296 945 834
216 968 872
95 991 902
92 1007 920
103 1019 950
191 1027 976
240 1036 1011
267 1047 1053
281 1059 1104
289 1072 1161
297 1086 1224
305 1101 1295
315 1116 1372
328 1132 1456
343 1148 1546
361 1165 1641
381 1182 1743
403 1200 1848
426 1218 1957
449 1237 2068
473 1256 2181
498 1275 2295
522 1295 2409
548 1315 2525
404 1078 907
349 1100 958
280 1121 1002
169 1144 1034
92 1164 1056
92 1178 1077
113 1189 1110
219 1197 1139
272 1206 1176
302 1216 1221
320 1227 1274
333 1239 1334
346 1252 1401
359 1266 1476
374 1279 1556
389 1294 1643
406 1309 1735
425 1324 1831
446 1340 1933
468 1357 2038
490 1374 2144
512 1391 2253
536 1409 2363
559 1427 2475
583 1446 2588
448 1236 1023
399 1255 1078
338 1275 1127
248 1298 1163
98 1320 1193
92 1336 1207
92 1348 1237
140 1359 1271
253 1366 1303
307 1374 1343
339 1384 1391
362 1395 1447
381 1406 1511
398 1418 1581
415 1430 1658
432 1443 1741
450 1456 1829
469 1470 1922
490 1484 2020
510 1499 2121
532 1514 2225
553 1530 2331
575 1547 2438
598 1564 2546
621 1581 2656
491 1395 1137
448 1412 1197
393 1430 1248
316 1452 1288
199 1474 1321
92 1494 1348
92 1508 1362
92 1520 1399
184 1529 1433
291 1535 1469
345 1543 1512
381 1552 1564
409 1562 1623
431 1572 1690
452 1583 1763
472 1594 1842
492 1606 1927
511 1619 2017
532 1631 2111
553 1645 2209
574 1659 2309
595 1673 2412
616 1688 2517
638 1704 2622
660 1720 2729
535 1555 1248
496 1569 1311
447 1586 1367
378 1607 1410
283 1629 1446
117 1650 1477
92 1667 1496
92 1679 1519
92 1691 1562
237 1698 1597
334 1704 1636
389 1711 1683
428 1720 1738
459 1729 1801
485 1738 1871
508 1748 1946
530 1758 2028
552 1769 2114
574 1781 2205
595 1793 2300
616 1806 2398
637 1819 2498
658 1833 2600
679 1847 2702
701 1862 2806
