Toning/Toning-Art.3dl
#25pt 3DLUT created by 3D LUT Creator Pro (c) Oleg Sharonov
#Copyright Oleg Sharonov
#IMAGEPROFILE sRGB IEC61966-2.1 v.2.10
#INPUTGAMMA sRGB IEC61966-2.1 v.2.10
#OUTPUTGAMMA sRGB IEC61966-2.1 v.2.10
0 128 256 384 512 640 768 896 1023
99 106 94
0 46 509
0 106 1164
0 168 1843
0 225 2513
216 616 3086
961 1682 3426
1486 2283 3538
1873 2686 3585
0 509 0
0 644 530
0 812 1151
0 964 1796
0 1111 2428
266 1338 3013
970 1928 3349
1487 2394 3501
1873 2746 3565
0 1166 0
0 1336 547
0 1542 1142
0 1738 1756
0 1931 2349
359 2139 2877
998 2418 3213
1492 2679 3411
1874 2918 3507
0 1844 0
0 2030 550
0 2237 1135
0 2435 1721
0 2625 2279
509 2767 2750
1083 2879 3087
1527 3001 3304
1890 3136 3424
0 2514 0
0 2686 554
0 2871 1129
0 3032 1695
187 3154 2222
777 3197 2650
1223 3238 2976
1607 3280 3200
1937 3341 3334
220 3176 189
258 3263 605
351 3360 1165
501 3434 1710
771 3471 2187
1091 3488 2583
1416 3490 2888
1730 3497 3105
2019 3515 3246
897 3640 767
910 3654 938
953 3672 1336
1044 3684 1771
1197 3689 2186
1401 3678 2542
1640 3664 2824
1890 3655 3027
2133 3652 3164
1374 3875 1182
1383 3874 1281
1408 3868 1544
1463 3849 1878
1559 3832 2225
1701 3809 2536
1877 3786 2786
2070 3764 2975
2272 3748 3099
1755 3995 1523
1761 3993 1587
1779 3978 1764
1817 3954 2019
1881 3925 2297
1978 3894 2556
2109 3864 2771
2263 3837 2944
2433 3817 3054
509 0 0
561 49 544
595 108 1187
608 169 1859
621 226 2522
719 655 3085
1192 1698 3468
1609 2293 3549
1950 2693 3584
544 544 0
574 660 548
560 768 1201
516 835 1868
503 933 2504
742 1341 3041
1197 1939 3392
1609 2402 3508
1950 2753 3563
603 1252 0
573 1427 530
554 1600 1195
515 1755 1831
519 1911 2432
775 2137 2915
1208 2415 3229
1609 2679 3413
1948 2919 3504
623 1933 0
522 2100 466
506 2285 1144
489 2450 1757
545 2602 2313
841 2741 2761
1259 2867 3092
1632 2997 3304
1958 3134 3421
634 2578 0
505 2722 441
510 2889 1115
542 3021 1708
693 3114 2231
1011 3173 2654
1364 3222 2978
1697 3271 3198
1998 3340 3330
708 3202 222
717 3272 618
748 3351 1176
821 3414 1718
1000 3451 2191
1249 3473 2585
1524 3478 2887
1805 3491 3103
2072 3512 3243
1099 3636 782
1110 3646 952
1141 3666 1346
1211 3676 1778
1331 3677 2190
1508 3669 2543
1721 3658 2824
1949 3650 3026
2179 3648 3161
1488 3869 1193
1496 3866 1292
1517 3861 1553
1563 3841 1884
1647 3825 2228
1775 3803 2537
1936 3779 2785
2117 3761 2973
2310 3748 3097
1828 3992 1531
1835 3989 1596
1849 3973 1772
1882 3948 2024
1940 3919 2300
2030 3889 2558
2154 3859 2772
2300 3833 2943
2464 3815 3052
1166 0 0
1222 53 578
1252 110 1215
1280 171 1878
1307 226 2530
1532 768 3142
1717 1755 3517
1931 2333 3614
2162 2714 3585
1352 574 0
1425 627 565
1455 722 1292
1456 786 1987
1454 905 2623
1519 1371 3136
1701 1981 3470
1927 2432 3552
2159 2772 3561
1333 1352 0
1358 1488 534
1357 1640 1273
1350 1780 1941
1359 1921 2544
1466 2139 3016
1674 2414 3302
1913 2685 3429
2150 2929 3498
1352 2027 0
1335 2163 472
1319 2311 1187
1306 2447 1826
1324 2573 2391
1456 2703 2821
1668 2841 3116
1908 2988 3306
2146 3131 3413
1347 2645 0
1310 2762 457
1298 2883 1140
1299 2984 1751
1360 3060 2271
1507 3123 2673
1708 3185 2984
1937 3257 3194
2166 3333 3321
1382 3223 307
1380 3271 656
1381 3327 1204
1407 3375 1742
1484 3409 2208
1620 3429 2592
1800 3448 2886
2007 3471 3097
2221 3507 3234
1565 3620 829
1567 3631 992
1575 3640 1371
1602 3647 1797
1668 3647 2200
1782 3644 2546
1935 3636 2821
2114 3637 3020
2306 3645 3153
1790 3849 1225
1795 3847 1322
1804 3840 1574
1829 3825 1899
1884 3804 2237
1973 3782 2539
2099 3764 2783
2250 3749 2969
2415 3747 3090
2028 3971 1554
2033 3967 1617
2041 3951 1789
2063 3929 2036
2106 3902 2307
2177 3872 2560
2279 3848 2771
2404 3826 2941
2548 3809 3047
1844 0 0
1885 54 599
1936 113 1243
1956 173 1899
1968 227 2532
2247 1069 3099
2256 1916 3439
2338 2430 3640
2462 2777 3623
2088 726 0
2134 695 516
2174 792 1309
2186 873 2021
2205 1047 2688
2211 1537 3156
2231 2106 3485
2327 2517 3665
2455 2823 3591
2084 1510 0
2117 1603 505
2104 1731 1295
2090 1853 2009
2086 1984 2625
2113 2212 3069
2181 2476 3368
2294 2730 3505
2437 2966 3509
2058 2176 0
2063 2273 466
2035 2388 1221
2009 2494 1894
2009 2592 2461
2049 2711 2892
2139 2856 3200
2266 3003 3330
2421 3154 3412
2040 2742 0
2022 2830 499
1992 2913 1179
1970 2984 1794
1975 3041 2316
2027 3103 2733
2124 3172 3014
2258 3249 3199
2416 3331 3315
2030 3255 450
2018 3281 738
1997 3318 1257
1983 3348 1773
1998 3372 2240
2056 3398 2619
2153 3427 2894
2288 3463 3094
2441 3502 3225
2072 3606 923
2069 3612 1070
2059 3618 1418
2056 3618 1825
2078 3617 2225
2133 3614 2560
2229 3618 2824
2353 3629 3016
2493 3642 3144
2172 3816 1289
2173 3813 1378
2170 3809 1614
2175 3791 1925
2200 3776 2257
2252 3756 2548
2336 3745 2784
2445 3742 2966
2570 3739 3082
2314 3940 1600
2316 3935 1658
2317 3922 1822
2325 3901 2061
2349 3879 2325
2394 3853 2569
2465 3833 2775
2560 3815 2940
2675 3802 3042
2514 0 0
2537 56 618
2608 115 1270
2593 174 1921
2634 566 2527
2769 1553 3024
2738 2178 3341
2740 2589 3508
2784 2881 3588
2707 905 0
2727 802 491
2758 915 1285
2771 1060 2012
2768 1359 2609
2752 1888 3069
2714 2317 3357
2728 2661 3518
2776 2924 3601
2789 1783 0
2815 1837 510
2787 1938 1313
2745 2043 2052
2696 2184 2652
2661 2395 3102
2658 2627 3399
2690 2846 3570
2749 3039 3584
2744 2418 0
2741 2486 530
2690 2562 1273
2630 2638 1953
2585 2711 2519
2570 2806 2935
2589 2926 3231
2638 3058 3421
2715 3191 3448
2672 2904 173
2645 2952 647
2595 2998 1266
2542 3044 1858
2507 3082 2371
2505 3139 2775
2541 3207 3084
2603 3282 3244
2689 3361 3328
2585 3314 701
2569 3324 910
2532 3341 1355
2493 3358 1833
2473 3369 2278
2480 3396 2654
2522 3422 2944
2593 3464 3114
2685 3510 3228
2548 3610 1075
2540 3610 1197
2518 3614 1504
2495 3611 1880
2486 3604 2260
2499 3606 2593
2545 3606 2850
2615 3616 3025
2704 3636 3141
2563 3794 1393
2560 3794 1472
2548 3787 1685
2537 3773 1974
2538 3757 2289
2555 3746 2575
2598 3736 2801
2665 3732 2971
2750 3730 3078
2623 3911 1673
2622 3907 1727
2616 3895 1880
2612 3881 2104
2618 3858 2355
2638 3840 2593
2678 3822 2790
2740 3801 2946
2828 3780 3041
3162 414 212
3185 534 687
3211 762 1349
3208 1089 2006
3222 1573 2551
3201 2086 2975
3134 2466 3247
3086 2768 3410
3071 2994 3495
3265 1196 247
3276 1272 705
3278 1400 1382
3264 1591 2086
3241 1915 2610
3179 2253 2995
3114 2567 3257
3073 2825 3414
3061 3024 3496
3381 2109 347
3360 2157 754
3313 2230 1418
3244 2324 2090
3171 2455 2657
3108 2618 3070
3054 2795 3293
3031 2964 3433
3031 3123 3516
3293 2710 495
3266 2728 822
3205 2771 1419
3128 2814 2016
3057 2870 2545
3006 2932 2950
2976 3033 3237
2971 3144 3418
2990 3256 3519
3156 3083 734
3135 3095 957
3081 3115 1429
3016 3139 1946
2953 3166 2419
2909 3199 2808
2902 3257 3092
2915 3320 3280
2947 3386 3393
3034 3378 1004
3021 3385 1150
2980 3389 1501
2928 3399 1922
2879 3409 2334
2853 3422 2694
2852 3450 2964
2876 3483 3161
2920 3522 3261
2952 3619 1275
2943 3620 1373
2914 3619 1629
2875 3611 1962
2844 3608 2312
2830 3604 2625
2836 3610 2877
2864 3621 3063
2915 3640 3158
2909 3773 1534
2903 3772 1602
2883 3763 1786
2859 3751 2048
2841 3740 2335
2836 3730 2600
2847 3725 2826
2880 3724 2995
2937 3729 3088
2907 3878 1778
2903 3874 1827
2892 3864 1963
2879 3851 2165
2870 3832 2397
2870 3812 2617
2886 3794 2813
2926 3782 2968
2991 3775 3054
3646 1652 889
3644 1696 1097
3629 1801 1589
3622 2007 2166
3585 2262 2605
3512 2518 2941
3424 2756 3181
3350 2961 3333
3293 3120 3421
3691 1952 910
3688 1991 1119
3675 2083 1614
3639 2236 2187
3572 2419 2636
3489 2616 2954
3406 2823 3187
3335 3004 3335
3283 3146 3421
3723 2533 969
3708 2552 1167
3664 2586 1632
3588 2647 2165
3502 2738 2667
3422 2849 2999
3351 2975 3205
3290 3098 3341
3254 3214 3425
3633 2948 1054
3613 2955 1222
3559 2972 1631
3481 2996 2110
3401 3032 2568
3326 3078 2942
3269 3146 3207
3230 3229 3372
3211 3325 3458
3497 3218 1165
3479 3221 1299
3430 3227 1637
3364 3233 2057
3293 3247 2467
3227 3278 2818
3189 3323 3087
3167 3381 3267
3164 3439 3370
3373 3448 1321
3359 3449 1423
3318 3451 1690
3263 3448 2040
3204 3449 2403
3153 3460 2725
3119 3477 2975
3111 3506 3154
3123 3542 3260
3267 3625 1507
3257 3625 1583
3226 3620 1787
3183 3614 2071
3139 3608 2380
3101 3609 2662
3081 3612 2895
3080 3625 3065
3101 3647 3166
3192 3770 1711
3185 3767 1767
3163 3760 1921
3132 3752 2149
3099 3740 2405
3076 3734 2642
3067 3726 2850
3073 3725 3009
3103 3730 3095
3147 3854 1912
3143 3851 1955
3129 3845 2075
3109 3832 2253
3090 3818 2460
3079 3804 2659
3079 3788 2843
3095 3776 2985
3133 3768 3057
3861 2399 1395
3852 2418 1517
3827 2482 1849
3784 2588 2280
3724 2716 2670
3652 2862 2942
3588 2999 3141
3521 3132 3276
3452 3246 3360
3861 2544 1409
3852 2564 1530
3823 2617 1856
3769 2694 2278
3705 2805 2691
3638 2920 2952
3575 3041 3144
3508 3159 3277
3442 3266 3360
3821 2870 1433
3809 2881 1550
3771 2906 1858
3720 2939 2259
3661 2985 2668
3595 3058 2976
3535 3140 3153
3467 3229 3281
3414 3317 3361
3759 3128 1469
3745 3132 1572
3709 3141 1854
3655 3150 2219
3594 3173 2598
3525 3212 2932
3467 3268 3171
3411 3326 3295
3372 3398 3375
3669 3323 1532
3657 3326 1621
3621 3331 1861
3567 3334 2186
3505 3347 2528
3446 3365 2833
3391 3396 3070
3348 3440 3235
3323 3494 3324
3577 3497 1626
3565 3499 1699
3531 3500 1897
3483 3500 2180
3427 3506 2484
3370 3513 2759
3319 3528 2981
3288 3551 3143
3273 3585 3228
3475 3653 1753
3466 3652 1810
3440 3648 1971
3402 3644 2206
3354 3635 2466
3308 3632 2708
3268 3634 2914
3243 3642 3064
3238 3663 3140
3397 3762 1904
3390 3761 1949
3368 3757 2077
3336 3749 2267
3299 3738 2483
3263 3732 2690
3235 3725 2877
3220 3725 3015
3223 3732 3081
3336 3843 2071
3331 3841 2106
3315 3834 2207
3292 3821 2361
3265 3808 2537
3240 3794 2716
3223 3778 2881
3218 3766 3000
3232 3760 3053
3909 2900 1791
3898 2912 1868
3867 2940 2088
3820 2990 2403
3764 3042 2738
3708 3108 2963
3647 3184 3124
3581 3263 3243
3517 3350 3320
3895 2975 1795
3885 2985 1872
3854 3005 2088
3811 3042 2400
3754 3081 2728
3697 3144 2970
3639 3205 3125
3569 3283 3244
3508 3365 3320
3865 3128 1802
3855 3134 1877
3823 3142 2083
3780 3159 2380
3725 3181 2695
3667 3216 2979
3605 3268 3130
3542 3334 3247
3484 3408 3323
3819 3271 1814
3810 3273 1883
3778 3276 2074
3732 3279 2348
3678 3293 2644
3613 3321 2913
3553 3361 3126
3496 3412 3261
3452 3466 3333
3749 3416 1844
3739 3418 1906
3709 3419 2076
3663 3418 2324
3607 3426 2595
3548 3441 2845
3497 3462 3053
3448 3497 3200
3401 3549 3267
3677 3543 1902
3668 3543 1955
3642 3540 2104
3601 3536 2322
3548 3540 2563
3491 3550 2792
3434 3569 2986
3383 3595 3125
3348 3629 3187
3588 3667 1988
3580 3667 2033
3557 3663 2158
3519 3660 2344
3472 3658 2553
3424 3659 2758
3375 3664 2937
3333 3676 3064
3303 3693 3115
3506 3763 2102
3499 3763 2138
3479 3759 2240
3448 3751 2395
3410 3744 2571
3368 3738 2752
3328 3734 2913
3293 3732 3025
3273 3743 3067
3450 3818 2243
3444 3817 2273
3427 3811 2355
3400 3803 2481
3365 3794 2631
3328 3784 2789
3295 3771 2928
3271 3761 3022
3262 3757 3050
