Toning/Toning-Warm-2DCurves.3dl
#25pt 3DLUT created by 3D LUT Creator Pro (c) Oleg Sharonov
#Copyright Oleg Sharonov
#IMAGEPROFILE 
#INPUTGAMMA 
#OUTPUTGAMMA 
0 43 86 128 171 214 256 299 341 384 427 469 512 555 597 640 682 725 768 810 853 896 938 981 1023 
0 0 0
0 0 178
0 0 342
0 0 513
0 0 684
0 0 852
0 0 1024
0 0 1198
0 0 1365
0 0 1538
0 0 1708
0 0 1881
0 0 2047
0 0 2214
0 0 2385
0 0 2555
0 0 2729
0 0 2898
0 0 3069
0 0 3241
0 0 3411
0 0 3582
0 0 3753
0 0 3924
0 0 4095
0 171 0
0 171 171
0 171 342
0 171 514
0 171 685
0 171 854
0 171 1025
0 171 1199
0 171 1366
0 171 1538
0 171 1709
0 171 1881
0 171 2047
0 171 2214
0 171 2385
0 171 2556
0 171 2727
0 171 2898
0 171 3069
0 171 3241
0 171 3412
0 171 3582
0 171 3753
0 171 3924
0 171 4095
0 340 0
0 342 171
0 340 340
0 342 512
0 342 683
0 342 856
0 342 1028
0 342 1196
0 342 1369
0 342 1540
0 342 1711
0 342 1880
0 342 2049
0 342 2216
0 342 2386
0 342 2557
0 342 2728
0 342 2897
0 342 3068
0 342 3240
0 342 3411
0 342 3582
0 342 3753
0 342 3924
0 342 4095
0 513 0
0 513 171
0 513 342
0 513 513
0 513 684
0 513 854
0 513 1026
0 513 1200
0 513 1370
0 513 1538
0 513 1711
0 513 1881
0 513 2047
0 513 2214
0 513 2384
0 513 2555
0 513 2728
0 513 2898
0 513 3069
0 513 3240
0 513 3411
0 513 3582
0 513 3753
0 513 3924
0 513 4095
0 683 0
0 684 171
0 684 342
0 684 513
0 684 684
0 685 856
0 684 1027
0 685 1200
0 685 1371
0 684 1539
0 684 1711
0 683 1881
0 683 2047
0 683 2214
0 683 2385
0 683 2556
0 684 2728
0 683 2898
0 683 3069
0 684 3240
0 684 3411
0 684 3582
0 684 3753
0 684 3924
0 684 4095
0 855 0
0 855 171
0 855 342
0 855 513
0 855 685
0 854 854
0 855 1027
0 855 1201
0 854 1370
0 855 1539
0 854 1710
0 855 1881
0 855 2048
0 855 2215
0 855 2386
0 855 2556
0 855 2728
0 855 2898
0 855 3069
0 855 3241
0 855 3411
0 855 3582
0 855 3753
0 855 3924
0 855 4095
0 1025 0
0 1026 171
0 1026 342
0 1027 513
0 1027 685
0 1027 854
0 1027 1027
0 1027 1201
0 1026 1371
0 1026 1539
0 1026 1711
0 1026 1881
0 1025 2048
0 1025 2215
0 1025 2386
0 1026 2557
0 1027 2728
0 1026 2899
0 1026 3070
0 1027 3241
0 1027 3411
0 1025 3582
0 1025 3753
0 1026 3924
0 1026 4095
0 1197 0
0 1197 171
0 1198 342
0 1200 513
0 1201 685
0 1201 855
0 1201 1027
0 1201 1201
0 1199 1371
0 1197 1540
0 1197 1710
0 1197 1881
0 1197 2048
0 1197 2215
0 1197 2386
0 1197 2557
0 1199 2728
0 1200 2900
0 1200 3073
0 1200 3242
0 1200 3412
0 1199 3583
0 1197 3754
0 1197 3924
0 1197 4095
0 1368 0
0 1368 171
0 1368 342
0 1369 513
0 1371 684
0 1371 855
0 1371 1026
0 1371 1199
0 1371 1371
0 1369 1540
0 1368 1710
0 1368 1881
0 1368 2048
0 1368 2216
0 1368 2386
0 1368 2558
0 1369 2728
0 1370 2900
0 1370 3073
0 1370 3245
0 1370 3413
0 1370 3582
0 1368 3753
0 1368 3924
0 1368 4095
0 1538 0
0 1538 171
0 1538 342
0 1539 513
0 1539 684
0 1540 855
0 1540 1026
0 1539 1197
0 1540 1369
0 1540 1540
0 1539 1710
0 1539 1881
0 1539 2048
0 1538 2215
0 1538 2386
0 1538 2557
0 1539 2728
0 1539 2900
0 1539 3073
0 1539 3245
0 1539 3415
0 1539 3584
0 1539 3753
0 1539 3924
0 1539 4095
0 1710 0
0 1710 171
0 1710 342
0 1710 513
0 1710 684
0 1710 855
0 1710 1026
0 1710 1197
0 1710 1368
0 1710 1539
0 1710 1710
0 1710 1881
0 1710 2048
0 1709 2215
0 1710 2386
0 1710 2557
0 1709 2728
0 1710 2900
0 1710 3073
0 1709 3245
0 1709 3415
0 1710 3585
0 1710 3753
0 1710 3924
0 1710 4095
0 1881 0
0 1880 171
0 1881 342
0 1881 513
0 1881 684
0 1881 855
0 1881 1026
0 1881 1197
0 1881 1368
0 1881 1539
0 1881 1710
0 1881 1881
0 1881 2048
0 1880 2215
0 1880 2386
0 1880 2557
0 1880 2728
0 1880 2900
0 1880 3073
0 1880 3245
0 1880 3415
0 1880 3585
0 1880 3753
0 1880 3924
0 1880 4095
0 2048 0
0 2048 171
0 2048 342
0 2048 513
0 2048 684
0 2048 855
0 2048 1025
0 2048 1197
0 2048 1368
0 2048 1539
0 2048 1710
0 2048 1881
0 2047 2047
0 2047 2214
0 2047 2385
0 2047 2556
0 2047 2727
0 2047 2899
0 2047 3072
0 2047 3244
0 2047 3415
0 2047 3585
0 2047 3753
0 2048 3924
0 2048 4095
0 2214 0
0 2215 171
0 2214 342
0 2214 513
0 2215 684
0 2215 855
0 2215 1025
0 2215 1197
0 2215 1367
0 2215 1538
0 2215 1709
0 2215 1880
0 2214 2047
0 2214 2214
0 2214 2384
0 2214 2555
0 2214 2727
0 2214 2898
0 2214 3071
0 2214 3243
0 2214 3414
0 2214 3584
0 2214 3752
0 2215 3923
0 2214 4094
0 2385 0
0 2385 171
0 2385 342
0 2385 513
0 2385 684
0 2386 855
0 2386 1026
0 2386 1197
0 2386 1367
0 2386 1538
0 2386 1710
0 2386 1880
0 2385 2047
0 2385 2214
0 2385 2385
0 2385 2556
0 2385 2727
0 2385 2898
0 2385 3072
0 2385 3243
0 2385 3414
0 2385 3584
0 2385 3752
0 2385 3923
0 2385 4094
0 2556 0
0 2557 171
0 2556 342
0 2556 513
0 2557 684
0 2557 855
0 2557 1026
0 2557 1197
0 2557 1367
0 2557 1538
0 2557 1709
0 2557 1880
0 2556 2047
0 2556 2214
0 2556 2385
0 2556 2556
0 2556 2727
0 2556 2899
0 2556 3072
0 2556 3244
0 2556 3415
0 2556 3584
0 2556 3753
0 2556 3923
0 2556 4094
0 2727 0
0 2727 171
0 2727 342
0 2727 513
0 2728 684
0 2728 855
0 2728 1027
0 2728 1199
0 2728 1369
0 2728 1539
0 2728 1709
0 2728 1880
0 2727 2047
0 2727 2214
0 2727 2385
0 2727 2556
0 2727 2727
0 2727 2899
0 2727 3072
0 2727 3244
0 2727 3415
0 2727 3584
0 2727 3753
0 2727 3923
2 2729 4095
0 2898 0
0 2898 171
0 2898 342
0 2898 513
0 2898 684
0 2899 855
0 2899 1026
0 2900 1200
0 2900 1370
0 2900 1539
0 2900 1710
0 2899 1880
0 2899 2047
0 2898 2214
0 2898 2385
0 2899 2556
0 2899 2727
0 2899 2899
0 2899 3072
0 2898 3244
0 2898 3415
0 2898 3584
0 2898 3753
0 2898 3923
0 2898 4094
0 3069 0
0 3069 171
0 3069 342
0 3069 513
0 3069 684
0 3070 855
0 3071 1027
0 3073 1200
0 3073 1370
0 3073 1539
0 3073 1709
0 3073 1880
0 3072 2047
0 3071 2214
0 3072 2385
0 3072 2556
0 3072 2727
0 3072 2899
0 3072 3072
0 3071 3244
0 3069 3415
0 3069 3584
0 3069 3753
0 3069 3924
0 3069 4095
0 3240 0
0 3240 171
0 3240 342
0 3240 513
0 3240 684
0 3241 855
0 3241 1027
0 3243 1200
0 3245 1370
0 3245 1539
0 3245 1709
0 3245 1880
0 3244 2047
0 3243 2214
0 3244 2385
0 3244 2556
0 3244 2727
0 3244 2898
0 3244 3071
0 3244 3244
0 3242 3415
0 3240 3584
0 3240 3753
0 3240 3923
0 3240 4095
0 3411 0
0 3411 171
0 3411 342
0 3411 513
0 3411 684
0 3411 855
0 3411 1027
0 3411 1200
0 3414 1370
0 3416 1539
0 3416 1710
0 3415 1880
0 3415 2047
0 3414 2214
0 3414 2385
0 3415 2556
0 3415 2727
0 3415 2898
0 3415 3069
0 3415 3242
0 3415 3415
0 3413 3584
0 3411 3753
0 3411 3924
0 3411 4095
0 3582 0
0 3582 171
0 3582 342
0 3582 513
0 3582 684
0 3582 855
0 3582 1026
0 3582 1199
0 3582 1370
0 3584 1539
0 3585 1710
0 3585 1881
0 3585 2047
0 3584 2214
0 3584 2385
0 3584 2556
0 3584 2727
0 3584 2898
0 3584 3069
0 3584 3240
0 3585 3413
0 3585 3585
0 3582 3753
0 3582 3924
3 3582 4095
0 3753 0
0 3753 171
0 3753 342
0 3753 513
0 3753 684
0 3753 855
0 3753 1026
0 3753 1197
0 3753 1368
0 3753 1539
0 3754 1710
0 3754 1880
0 3754 2047
0 3752 2214
0 3753 2385
0 3753 2556
0 3753 2727
0 3753 2898
0 3753 3069
0 3753 3240
0 3753 3411
0 3753 3582
0 3753 3753
0 3753 3924
0 3753 4095
0 3924 0
0 3924 171
0 3924 342
0 3924 513
0 3924 684
0 3924 855
0 3924 1026
0 3924 1197
0 3924 1368
0 3924 1539
0 3924 1710
0 3924 1881
0 3924 2048
0 3923 2214
0 3923 2385
0 3923 2556
0 3923 2727
0 3923 2898
0 3924 3069
0 3924 3240
0 3924 3411
0 3924 3582
0 3924 3753
0 3924 3924
0 3924 4095
4 4095 2
4 4095 173
4 4095 341
4 4095 513
4 4095 684
0 4095 855
0 4095 1026
4 4095 1197
0 4095 1368
0 4095 1539
0 4095 1710
5 4095 1880
0 4095 2048
0 4094 2215
0 4094 2385
0 4094 2556
0 4094 2727
0 4094 2898
0 4095 3069
10 4095 3242
5 4095 3412
3 4095 3582
3 4095 3753
6 4095 3924
3 4095 4095
177 0 0
211 0 109
208 0 277
208 0 449
215 0 626
225 0 819
227 0 985
229 0 1160
236 0 1343
240 0 1516
246 0 1699
247 0 1869
255 0 2045
257 0 2217
265 0 2397
266 0 2573
269 0 2750
274 0 2926
283 0 3108
272 0 3277
263 0 3444
200 0 3592
171 0 3753
171 0 3924
171 0 4095
144 100 0
178 92 83
177 95 210
176 96 367
180 98 538
189 98 722
191 98 900
194 98 1081
201 98 1270
205 98 1452
210 98 1639
211 98 1823
220 98 2010
221 98 2184
229 98 2368
230 98 2542
234 98 2724
239 98 2902
247 98 3087
236 98 3258
227 98 3428
164 98 3579
136 98 3744
136 98 3919
136 98 4095
143 271 0
168 235 88
168 241 213
168 244 356
171 248 519
178 248 692
180 247 862
182 246 1032
187 243 1213
190 241 1392
194 238 1574
196 237 1755
202 234 1938
203 233 2116
210 229 2307
211 228 2493
213 227 2684
217 225 2876
224 221 3073
215 226 3245
208 230 3420
158 257 3578
136 269 3745
136 269 3918
136 269 4095
143 442 0
168 409 96
168 410 237
168 414 380
171 419 534
178 423 697
180 423 863
182 421 1031
187 419 1207
190 417 1381
195 414 1558
196 413 1733
202 409 1914
203 408 2088
210 404 2273
211 403 2455
213 401 2642
217 399 2828
224 395 3021
215 399 3207
208 403 3394
158 430 3577
136 441 3743
136 441 3919
136 441 4095
141 623 0
167 589 101
167 588 251
167 592 397
170 599 557
177 609 725
178 608 883
180 607 1042
186 607 1218
189 606 1390
193 603 1562
194 600 1734
201 598 1912
202 596 2083
208 593 2265
209 591 2444
212 589 2627
216 586 2811
222 582 2999
214 586 3182
207 588 3365
157 612 3549
134 624 3728
134 625 3908
132 625 4090
138 820 0
162 800 104
162 797 263
162 798 419
165 807 583
172 817 757
174 817 919
176 817 1084
181 819 1256
184 818 1420
188 817 1593
190 814 1763
196 810 1937
197 808 2106
204 806 2286
205 803 2462
207 801 2643
211 799 2823
218 795 3007
209 797 3187
202 800 3367
153 817 3546
131 821 3720
131 821 3898
131 821 4075
137 993 0
161 976 105
161 972 267
161 972 425
164 980 588
171 993 764
173 994 928
175 993 1094
180 997 1267
183 997 1433
187 997 1600
188 996 1766
194 996 1942
195 993 2111
202 992 2291
202 990 2466
205 989 2646
209 987 2825
215 986 3010
207 985 3186
200 984 3363
152 991 3538
130 995 3712
130 995 3889
130 995 4066
136 1169 0
159 1156 106
159 1151 269
159 1151 430
163 1159 596
170 1173 770
171 1173 935
173 1174 1103
178 1177 1275
181 1176 1443
185 1176 1611
186 1176 1778
192 1176 1948
193 1175 2113
199 1175 2292
200 1172 2467
203 1173 2646
207 1172 2825
213 1171 3010
205 1168 3187
198 1165 3361
150 1169 3535
129 1170 3709
129 1170 3884
129 1170 4060
133 1358 0
157 1345 106
157 1338 271
157 1337 434
160 1346 604
167 1364 780
168 1364 946
170 1365 1114
175 1370 1290
178 1370 1460
182 1370 1630
183 1370 1798
189 1371 1970
190 1369 2134
196 1372 2311
197 1370 2482
200 1369 2660
203 1370 2838
210 1366 3023
202 1360 3198
195 1356 3371
147 1359 3543
126 1359 3715
126 1359 3889
126 1359 4065
131 1541 0
154 1538 107
154 1531 273
154 1528 438
157 1535 610
164 1552 788
165 1553 956
167 1554 1124
172 1560 1299
175 1562 1472
179 1564 1645
180 1563 1814
186 1567 1988
187 1565 2154
193 1569 2332
193 1567 2503
196 1568 2679
200 1566 2856
206 1562 3041
198 1555 3215
191 1551 3389
145 1543 3553
125 1541 3720
125 1541 3894
125 1541 4068
129 1724 0
152 1725 107
152 1714 273
152 1711 440
155 1717 613
162 1735 792
163 1738 960
165 1739 1129
170 1746 1305
173 1749 1478
177 1751 1652
178 1751 1823
184 1755 1997
185 1752 2164
191 1757 2343
191 1755 2515
194 1753 2691
198 1749 2867
204 1747 3050
196 1740 3222
189 1735 3396
143 1726 3559
123 1724 3727
123 1724 3900
123 1724 4074
