Toning/Toning-Grey and Orange.3dl
#25pt 3DLUT created by 3D LUT Creator Pro (c) Oleg Sharonov
#Copyright Oleg Sharonov
#IMAGEPROFILE sRGB IEC61966-2.1 v.2.10
#INPUTGAMMA sRGB IEC61966-2.1 v.2.10
#OUTPUTGAMMA sRGB IEC61966-2.1 v.2.10
0 43 86 128 171 214 256 299 341 384 427 469 512 555 597 640 682 725 768 810 853 896 938 981 1023 
0 0 0
7 3 9
17 7 23
37 14 53
80 27 99
148 46 152
242 78 207
343 121 265
441 164 323
537 209 390
628 255 464
712 304 545
779 352 629
835 401 719
888 451 813
940 500 912
994 550 1017
1044 598 1124
1095 649 1238
1145 698 1355
1194 748 1473
1242 799 1593
1290 849 1715
1337 900 1837
1383 951 1960
30 76 8
31 81 46
75 81 95
131 90 143
207 108 187
282 132 232
367 161 280
453 194 332
534 228 389
620 267 456
696 309 527
761 352 604
814 396 686
866 442 774
916 488 866
966 534 963
1016 581 1064
1066 628 1172
1114 676 1284
1163 724 1398
1210 773 1514
1257 822 1632
1304 871 1752
1350 921 1873
1396 971 1993
107 211 20
108 214 64
115 218 128
214 218 191
309 224 246
395 237 298
477 256 350
554 280 405
631 309 466
700 342 532
760 377 602
808 414 676
857 454 758
904 495 843
952 537 933
999 579 1028
1046 623 1128
1092 667 1233
1139 712 1342
1186 758 1454
1232 805 1567
1277 852 1682
1322 900 1800
1367 948 1918
1412 997 2036
259 358 46
265 360 94
266 363 153
273 368 227
391 368 297
493 372 362
580 382 427
657 398 491
723 418 557
775 442 624
820 471 697
864 501 772
908 534 852
952 568 935
996 605 1024
1041 643 1118
1086 683 1218
1129 724 1320
1174 766 1426
1218 809 1534
1262 853 1644
1305 898 1757
1349 943 1871
1393 989 1985
1436 1036 2100
436 515 89
441 517 135
442 519 187
447 522 254
452 527 335
569 526 418
660 528 496
734 536 573
790 549 649
835 564 724
880 585 802
923 607 880
965 633 962
1007 662 1047
1049 693 1136
1091 727 1231
1133 762 1329
1174 799 1428
1216 837 1530
1258 876 1635
1300 917 1742
1341 958 1851
1383 1001 1961
1425 1044 2071
1467 1088 2180
602 672 141
602 673 179
606 675 225
609 678 286
613 681 364
617 685 459
716 683 554
787 686 645
840 692 734
889 701 821
936 714 906
979 732 993
1022 751 1080
1063 774 1170
1104 800 1263
1144 828 1357
1184 858 1454
1224 890 1551
1264 924 1651
1304 959 1754
1344 996 1857
1384 1034 1962
1424 1073 2068
1464 1113 2172
1504 1154 2275
738 832 193
740 833 227
741 834 267
743 836 324
745 839 400
747 843 491
751 847 598
821 845 705
880 847 808
934 851 907
984 859 1006
1030 870 1102
1075 884 1198
1117 901 1295
1158 922 1391
1198 944 1487
1237 970 1585
1276 997 1683
1315 1026 1782
1353 1057 1883
1391 1089 1983
1430 1123 2085
1468 1159 2184
1507 1195 2283
1545 1233 2382
838 995 248
838 996 276
839 997 314
839 999 369
842 1001 441
843 1004 529
844 1008 633
847 1012 752
912 1010 868
972 1010 982
1026 1013 1093
1075 1020 1203
1122 1029 1310
1167 1041 1414
1209 1056 1516
1249 1074 1616
1289 1094 1716
1328 1116 1817
1366 1140 1916
1403 1167 2015
1441 1195 2114
1478 1225 2211
1516 1256 2306
1553 1289 2402
1591 1323 2498
927 1158 304
927 1159 330
928 1160 366
929 1161 419
930 1163 488
932 1166 573
934 1169 673
935 1173 788
938 1177 918
1002 1175 1045
1060 1174 1170
1113 1177 1292
1164 1182 1410
1211 1190 1522
1255 1200 1632
1297 1213 1739
1338 1228 1844
1377 1245 1946
1416 1265 2047
1454 1288 2146
1491 1311 2242
1528 1337 2336
1564 1364 2430
1601 1393 2524
1638 1424 2621
1015 1322 365
1016 1322 391
1016 1323 425
1016 1325 474
1017 1326 540
1019 1329 621
1020 1331 719
1022 1334 831
1023 1338 956
1026 1342 1096
1088 1339 1235
1146 1338 1368
1200 1340 1496
1250 1344 1619
1297 1351 1738
1341 1360 1852
1383 1370 1962
1424 1384 2069
1464 1400 2172
1502 1417 2270
1540 1437 2365
1577 1458 2460
1614 1481 2555
1650 1505 2651
1687 1531 2747
1102 1485 433
1102 1485 456
1102 1486 488
1102 1487 534
1103 1488 597
1105 1490 676
1105 1492 770
1107 1495 878
1109 1498 1000
1110 1501 1137
1112 1505 1288
1173 1502 1432
1231 1501 1571
1284 1502 1704
1334 1505 1832
1380 1510 1953
1425 1517 2070
1468 1527 2180
1509 1538 2284
1548 1552 2385
1587 1567 2483
1625 1585 2582
1662 1604 2679
1699 1626 2776
1735 1649 2872
1185 1644 503
1186 1644 526
1186 1645 555
1187 1646 600
1187 1647 660
1189 1649 736
1189 1651 826
1190 1653 931
1192 1656 1049
1194 1659 1184
1195 1662 1330
1197 1666 1486
1258 1663 1635
1314 1662 1777
1366 1662 1913
1416 1665 2043
1463 1669 2164
1508 1676 2278
1551 1685 2387
1592 1696 2492
1632 1709 2596
1671 1724 2698
1709 1741 2798
1747 1759 2897
1784 1780 2994
1269 1811 579
1269 1812 600
1269 1812 628
1270 1813 671
1270 1814 729
1271 1816 801
1272 1818 888
1273 1820 989
1274 1823 1105
1276 1825 1235
1277 1828 1377
1279 1832 1528
1281 1836 1688
1340 1833 1840
1396 1831 1984
1448 1831 2120
1498 1834 2247
1545 1837 2366
1590 1843 2480
1633 1851 2592
1675 1861 2701
1716 1873 2807
1755 1887 2911
1794 1903 3012
1832 1920 3111
1351 1983 659
1351 1983 680
1351 1984 706
1352 1984 747
1352 1986 802
1353 1987 871
1354 1989 955
1355 1991 1053
1356 1993 1165
1357 1996 1292
1358 1999 1429
1360 2002 1575
1362 2006 1730
1363 2010 1893
1422 2006 2044
1477 2004 2186
1530 2004 2319
1579 2006 2444
1626 2009 2565
1672 2014 2684
1715 2021 2798
1758 2030 2909
1799 2042 3016
1839 2054 3120
1878 2069 3221
1432 2157 745
1432 2157 764
1433 2158 790
1433 2158 829
1434 2159 880
1434 2161 947
1435 2163 1027
1435 2164 1122
1437 2167 1232
1438 2169 1353
1439 2172 1485
1441 2175 1627
1442 2178 1777
1444 2182 1935
1446 2186 2096
1504 2182 2243
1558 2180 2381
1611 2180 2513
1660 2181 2642
1708 2183 2766
1754 2188 2886
1798 2194 3002
1841 2203 3113
1883 2212 3220
1923 2224 3324
1514 2333 836
1514 2333 854
1514 2333 878
1514 2334 915
1515 2335 965
1515 2336 1028
1516 2338 1106
1517 2339 1198
1518 2341 1303
1519 2343 1420
1520 2346 1547
1521 2349 1683
1523 2352 1829
1524 2356 1981
1526 2359 2136
1528 2363 2292
1585 2359 2436
1640 2357 2575
1692 2356 2711
1742 2357 2841
1790 2359 2966
1837 2363 3086
1881 2369 3202
1925 2376 3313
1968 2385 3420
1594 2511 931
1595 2511 949
1595 2511 972
1595 2512 1007
1596 2513 1055
1596 2514 1116
1597 2515 1192
1597 2517 1280
1598 2519 1380
1599 2521 1491
1600 2523 1613
1602 2526 1745
1603 2529 1885
1605 2532 2031
1606 2536 2180
1609 2540 2330
1610 2544 2484
1667 2540 2630
1722 2537 2772
1774 2536 2907
1825 2536 3038
1873 2538 3163
1920 2542 3282
1966 2547 3397
2011 2554 3507
1676 2694 1033
1676 2694 1049
1676 2694 1071
1677 2695 1105
1677 2696 1151
1677 2697 1210
1678 2698 1282
1679 2700 1366
1679 2701 1461
1681 2703 1568
1682 2706 1685
1683 2708 1811
1684 2711 1946
1686 2715 2086
1687 2718 2228
1689 2722 2372
1692 2726 2522
1694 2730 2679
1751 2726 2826
1805 2723 2967
1858 2721 3102
1909 2721 3231
1958 2723 3355
2006 2726 3474
2052 2730 3587
1758 2879 1141
1759 2879 1157
1759 2879 1178
1759 2880 1211
1759 2880 1254
1760 2881 1310
1760 2882 1378
1761 2884 1458
1762 2885 1548
1763 2887 1650
1764 2889 1762
1765 2892 1883
1766 2895 2011
1768 2898 2144
1770 2901 2279
1772 2904 2419
1774 2908 2565
1776 2912 2717
1778 2916 2874
1835 2912 3020
1890 2909 3160
1943 2907 3294
1995 2907 3422
2045 2908 3544
2093 2910 3660
1842 3062 1256
1842 3062 1271
1842 3063 1291
1843 3063 1321
1843 3064 1362
1843 3065 1415
1844 3066 1478
1845 3067 1553
1845 3069 1640
1847 3071 1737
1847 3073 1844
1849 3075 1958
1850 3077 2080
1852 3080 2206
1853 3083 2336
1855 3086 2470
1857 3090 2612
1859 3094 2760
1862 3098 2912
1864 3102 3067
1921 3097 3212
1977 3094 3350
2031 3092 3482
2083 3091 3607
2133 3092 3726
1927 3244 1375
1928 3245 1388
1927 3245 1407
1928 3245 1436
1928 3246 1474
1929 3247 1523
1929 3248 1584
1930 3249 1655
1931 3250 1737
1932 3252 1829
1933 3254 1930
1934 3256 2039
1935 3258 2153
1937 3261 2272
1939 3264 2396
1940 3267 2526
1942 3270 2664
1944 3273 2806
1947 3277 2954
1949 3281 3105
1952 3285 3258
2010 3281 3400
2066 3277 3535
2120 3275 3664
2173 3274 3787
2015 3425 1498
2015 3425 1511
2015 3425 1528
2015 3426 1555
2016 3426 1591
2016 3427 1638
2017 3428 1694
2017 3429 1762
2018 3430 1839
2019 3432 1926
2020 3434 2021
2021 3436 2123
2023 3438 2230
2024 3440 2343
2026 3443 2461
2028 3446 2587
2030 3449 2720
2032 3452 2858
2034 3456 3000
2037 3459 3146
2040 3464 3295
2043 3468 3446
2101 3463 3585
2157 3459 3717
2212 3457 3842
2104 3603 1625
2104 3603 1637
2104 3603 1654
2105 3603 1679
2105 3604 1713
2105 3605 1756
2106 3606 1810
2107 3607 1873
2107 3608 1945
2108 3609 2026
2109 3611 2115
2111 3613 2210
2112 3615 2311
2114 3617 2418
2115 3620 2532
2117 3622 2654
2119 3625 2781
2121 3628 2914
2124 3632 3051
2127 3635 3192
2129 3639 3336
2132 3643 3482
2135 3647 3630
2194 3642 3764
2251 3638 3893
2196 3776 1757
2196 3776 1768
2196 3776 1784
2196 3776 1807
2197 3777 1838
2197 3778 1879
2198 3778 1929
2198 3779 1988
2199 3780 2055
2200 3782 2130
2201 3783 2212
2203 3785 2300
2204 3787 2395
2206 3789 2498
2207 3791 2608
2209 3793 2725
2211 3796 2847
2214 3799 2975
2216 3802 3107
2219 3805 3243
2222 3808 3381
2224 3812 3522
2228 3816 3665
2231 3820 3808
2291 3815 3940
2291 3943 1892
2290 3943 1903
2291 3943 1917
2291 3944 1939
2291 3944 1968
2292 3944 2006
2292 3945 2052
2293 3946 2105
2294 3947 2167
2295 3948 2236
2296 3950 2312
2297 3951 2395
2299 3953 2486
2301 3955 2584
2302 3957 2689
2304 3959 2801
2306 3962 2919
2309 3964 3041
2311 3967 3167
2314 3970 3298
2317 3973 3431
2320 3976 3567
2323 3980 3704
2327 3984 3843
2330 3988 3983
98 6 4
133 7 25
123 13 50
146 22 87
194 37 132
269 61 182
342 94 231
428 135 286
513 178 346
597 221 410
677 267 485
748 314 562
804 361 645
858 411 736
908 459 829
960 508 928
1010 557 1031
1060 605 1138
1109 654 1251
1157 704 1368
1205 753 1485
1253 803 1604
1300 853 1725
1346 904 1847
1392 955 1970
249 82 7
183 183 183
258 85 148
270 90 221
318 110 260
376 135 295
441 164 336
517 199 384
591 235 440
661 273 501
728 314 569
786 358 644
835 401 724
884 447 810
933 493 900
982 539 995
1030 585 1097
1078 631 1202
1126 679 1312
1173 727 1425
1220 776 1540
1266 824 1656
1312 873 1774
1358 923 1894
1403 973 2013
339 219 19
235 232 42
242 233 138
293 230 231
381 233 296
458 243 348
534 262 401
606 285 454
671 314 512
732 347 575
784 382 643
829 419 717
874 459 795
920 499 878
966 540 966
1012 583 1060
1058 626 1159
1104 670 1264
1150 716 1371
1195 761 1480
1241 808 1593
1286 855 1707
1331 903 1823
1375 950 1939
1419 1000 2057
450 363 46
307 381 56
308 382 140
310 384 237
426 379 323
532 382 400
620 390 469
689 404 533
750 424 598
797 448 666
839 475 736
882 505 809
925 538 888
968 572 970
1011 609 1058
1054 647 1150
1097 686 1248
1141 727 1348
1184 769 1454
1227 812 1559
1271 856 1668
1314 900 1779
1357 945 1892
1400 992 2005
1443 1038 2118
583 519 90
452 534 94
457 535 165
459 537 248
464 539 343
587 536 439
681 537 526
753 542 606
807 554 684
852 569 761
896 589 837
938 611 914
980 637 996
1021 666 1080
1062 697 1169
1103 730 1262
1144 765 1357
1185 802 1456
1226 840 1557
1267 879 1660
1308 919 1765
1350 961 1873
1391 1004 1982
1432 1047 2090
1474 1090 2198
705 675 141
610 687 144
611 688 201
615 690 273
618 693 361
622 696 468
725 692 571
796 693 669
852 698 762
902 706 850
949 719 938
992 735 1023
1034 755 1110
1075 777 1200
1115 803 1291
1155 831 1385
1195 861 1480
1234 893 1576
1273 926 1675
1313 962 1777
1352 998 1879
1391 1036 1983
1431 1075 2087
1471 1116 2190
1510 1156 2292
801 834 194
744 844 196
746 846 244
746 847 308
748 850 391
752 853 491
754 856 606
827 853 719
888 853 828
944 857 931
995 864 1030
1041 874 1127
1086 888 1226
1127 905 1322
1168 925 1418
1207 947 1513
1246 972 1609
1284 999 1706
1323 1029 1805
1361 1059 1904
1399 1091 2003
1437 1125 2103
1475 1161 2202
1513 1197 2300
1552 1234 2397
884 997 249
842 1005 251
842 1006 291
844 1008 351
845 1010 429
846 1012 523
848 1015 633
850 1019 759
917 1016 881
978 1015 999
1034 1018 1112
1084 1024 1225
1131 1032 1332
1175 1044 1436
1217 1059 1538
1258 1076 1638
1298 1096 1739
1335 1118 1838
1373 1142 1936
1411 1169 2035
1448 1197 2132
1485 1227 2228
1523 1258 2322
1559 1291 2417
1597 1325 2513
967 1161 304
931 1167 306
932 1169 345
933 1170 402
934 1172 475
936 1174 564
938 1176 669
939 1179 790
940 1183 924
1007 1180 1055
1066 1179 1184
1121 1181 1309
1171 1186 1428
1219 1193 1541
1263 1203 1651
1305 1215 1758
1345 1230 1863
1385 1248 1966
1423 1268 2066
1460 1289 2163
1498 1313 2258
1534 1339 2352
1571 1366 2445
1607 1395 2539
1644 1426 2635
1049 1324 367
1020 1330 370
1020 1331 405
1021 1332 457
1022 1333 526
1023 1335 611
1025 1338 712
1027 1340 829
1028 1343 958
1030 1347 1102
1094 1344 1244
1152 1343 1381
1206 1344 1510
1257 1347 1634
1304 1353 1753
1348 1362 1868
1390 1373 1979
1431 1386 2085
1470 1402 2187
1508 1419 2284
1546 1439 2380
1583 1460 2475
1620 1483 2569
1656 1507 2665
1692 1533 2760
1131 1486 433
1107 1491 437
1107 1492 470
1107 1493 518
1108 1494 584
1109 1495 665
1110 1498 762
1112 1500 873
1113 1503 998
1115 1506 1139
1117 1509 1294
1179 1506 1441
1236 1504 1581
1290 1505 1716
1340 1508 1844
1387 1512 1967
1431 1520 2083
1474 1529 2193
1515 1540 2297
1554 1554 2398
1593 1569 2496
1631 1587 2595
1668 1606 2692
1705 1628 2789
1741 1651 2884
