Toning/Toning-ShapedSkin&Cyan.3dl
#25pt 3DLUT created by 3D LUT Creator Pro (c) Oleg Sharonov
#Copyright Oleg Sharonov
#IMAGEPROFILE 
#INPUTGAMMA 
#OUTPUTGAMMA 
0 128 256 384 512 640 768 896 1023
0 0 0
0 10 189
0 153 487
0 332 787
0 507 1078
0 672 1345
0 815 1575
0 933 1763
0 1046 1940
30 553 0
0 501 610
0 509 820
0 576 1048
0 687 1278
0 810 1501
0 927 1702
0 1029 1872
0 1130 2037
136 1114 0
0 1140 289
0 1028 1200
0 1009 1401
0 1041 1586
0 1098 1777
0 1172 1950
0 1246 2101
0 1326 2250
260 1629 44
70 1651 191
0 1662 916
0 1504 1741
0 1471 1938
0 1500 2091
0 1532 2258
0 1576 2405
0 1632 2549
379 2094 202
248 2109 304
0 2134 649
0 2134 1498
0 1962 2255
0 1930 2470
0 1953 2620
0 1991 2745
0 2031 2891
505 2549 383
402 2560 458
121 2588 628
0 2599 1265
0 2598 2065
0 2450 2770
0 2421 3027
0 2444 3175
0 2481 3313
647 3025 593
560 3035 652
337 3059 789
0 3088 1112
0 3088 1871
0 3087 2619
0 2992 3268
0 2961 3618
0 2991 3790
812 3545 839
738 3554 887
543 3575 1001
174 3612 1184
0 3626 1768
0 3626 2474
0 3624 3136
0 3588 3715
1015 3507 4095
1660 4044 1614
1579 4057 1613
1354 4092 1609
860 4094 1602
0 4095 1735
0 4095 2436
0 4095 3064
0 4095 3612
1165 4095 4095
309 0 0
147 53 371
0 160 695
0 347 915
0 521 1168
0 684 1412
0 824 1628
0 942 1808
0 1053 1979
504 556 0
421 544 565
178 530 854
101 598 1088
61 706 1314
36 826 1531
21 940 1729
9 1041 1897
0 1137 2075
462 1114 0
341 1137 326
274 1040 1186
110 1026 1412
51 1049 1617
15 1106 1807
0 1179 1979
0 1254 2128
0 1332 2284
373 1642 0
388 1643 305
252 1662 916
193 1506 1746
0 1480 1959
0 1507 2115
0 1536 2291
0 1581 2436
0 1638 2580
462 2103 138
474 2104 380
212 2134 649
212 2134 1498
123 1964 2264
0 1938 2490
0 1961 2641
0 1999 2766
0 2036 2917
571 2556 340
580 2556 513
335 2584 686
187 2599 1265
187 2598 2063
66 2453 2780
0 2428 3043
0 2452 3192
0 2489 3330
700 3031 561
708 3032 694
498 3055 833
173 3088 1113
172 3088 1871
171 3087 2617
40 2996 3277
0 2968 3632
0 2999 3805
857 3550 814
864 3551 920
682 3573 1035
345 3609 1219
164 3626 1768
163 3626 2474
163 3624 3135
69 3592 3720
1067 3510 4095
1756 4039 1656
1680 4052 1656
1468 4086 1653
1005 4094 1646
160 4095 1735
162 4095 2436
159 4095 3064
131 4095 3611
1237 4095 4095
723 105 74
749 161 321
428 287 804
71 323 1235
12 532 1385
0 701 1570
0 844 1754
0 961 1916
0 1072 2075
878 549 166
1071 374 421
567 540 1000
254 582 1305
162 714 1475
117 840 1658
90 957 1834
74 1059 1990
0 1153 2171
1047 1120 156
1030 1133 432
898 1095 1125
573 1057 1416
397 1075 1643
304 1131 1838
251 1205 2010
218 1279 2160
0 1344 2375
971 1628 211
920 1639 399
797 1662 916
697 1536 1706
433 1510 1936
322 1521 2129
258 1552 2310
219 1598 2459
0 1649 2660
885 2099 244
785 2112 349
723 2125 770
655 2134 1497
567 1971 2249
326 1956 2480
246 1979 2644
210 2012 2786
0 2049 2988
790 2565 280
803 2566 469
767 2574 809
568 2599 1264
568 2598 2056
485 2453 2775
250 2441 3045
147 2467 3212
0 2508 3377
834 3045 470
895 3040 663
860 3047 929
547 3085 1153
516 3089 1870
517 3087 2612
444 2996 3273
228 2979 3636
0 3018 3846
972 3562 745
1026 3558 897
994 3565 1114
707 3601 1303
491 3626 1768
490 3626 2474
490 3624 3131
443 3591 3716
1195 3519 4095
1979 4026 1760
1918 4038 1762
1733 4071 1761
1334 4094 1754
511 4095 1752
483 4095 2436
483 4095 3064
464 4095 3608
1410 4095 4095
1133 271 221
1256 148 389
1037 547 751
716 532 1219
286 554 1645
110 694 1858
69 857 1982
45 983 2111
27 1099 2248
1260 560 268
1374 453 457
1227 703 852
788 668 1386
373 690 1748
226 831 1910
174 968 2042
144 1078 2172
15 1175 2340
1424 1102 402
1463 1080 569
1518 1057 1021
1011 1043 1549
665 1050 1828
494 1133 1999
399 1219 2156
345 1299 2293
0 1360 2545
1545 1637 364
1542 1642 539
1499 1662 916
1341 1596 1646
998 1547 1920
783 1547 2150
647 1581 2338
563 1628 2493
0 1664 2821
1439 2095 445
1431 2100 581
1337 2120 857
1268 2134 1498
1141 2005 2199
849 1989 2443
697 2010 2627
601 2031 2805
0 2069 3126
1440 2543 567
1373 2554 638
1208 2580 816
1118 2597 1275
1112 2599 2053
1033 2456 2761
762 2461 3009
632 2487 3183
0 2542 3464
1335 3035 624
1275 3044 684
1240 3052 942
1136 3071 1304
1016 3089 1870
1017 3088 2605
964 2995 3264
751 2988 3599
0 3053 3921
1289 3570 737
1240 3577 792
1333 3569 1131
1226 3588 1429
965 3626 1768
966 3626 2473
966 3624 3125
944 3590 3710
1410 3536 4095
2309 4006 1931
2267 4016 1936
2136 4046 1942
1824 4093 1938
1208 4095 1931
950 4095 2436
950 4095 3064
941 4095 3603
1692 4095 4095
1525 441 384
1600 369 503
1610 445 751
1429 804 1164
1025 782 1584
551 782 2020
282 856 2311
186 989 2433
150 1123 2530
1655 598 375
1690 572 552
1771 527 813
1535 931 1252
1075 876 1699
618 884 2097
341 945 2388
271 1084 2473
144 1196 2618
1725 1109 539
1782 1059 642
1997 831 909
1732 1217 1416
1195 1113 1901
787 1116 2250
570 1200 2447
475 1304 2555
119 1374 2818
1915 1620 641
1935 1609 755
1996 1565 1016
1963 1631 1580
1463 1524 2052
1141 1531 2317
947 1586 2500
825 1645 2650
24 1674 3107
2000 2104 593
2005 2107 709
1990 2119 971
1954 2134 1498
1777 2062 2136
1458 2031 2409
1248 2033 2643
1109 2059 2829
0 2091 3387
1912 2552 700
1907 2555 797
1890 2565 1020
1774 2592 1349
1748 2598 2053
1633 2489 2701
1355 2493 2956
1196 2520 3140
0 2585 3643
1920 3022 846
1916 3024 927
1857 3039 1091
1714 3067 1376
1614 3088 1871
1614 3088 2595
1575 2996 3250
1347 3005 3544
0 3107 4047
1956 3542 1012
1908 3551 1055
1792 3573 1165
1766 3582 1511
1598 3615 1860
1540 3626 2474
1540 3625 3116
1556 3588 3696
1711 3560 4095
2742 3973 2205
2705 3984 2202
2603 4013 2192
2407 4065 2197
1975 4094 2190
1516 4095 2436
1516 4095 3063
1515 4095 3595
2071 4095 4095
1902 620 562
1951 572 650
2086 423 848
1909 799 1124
1783 1061 1524
1418 1062 1871
918 1016 2366
657 1084 2631
435 1162 2887
2002 723 554
2018 716 685
2149 576 890
2011 868 1175
1856 1150 1589
1458 1132 1956
970 1096 2426
708 1158 2694
412 1217 3011
2075 1112 663
2151 1033 719
2256 929 970
2242 1011 1276
2010 1360 1728
1543 1297 2148
1100 1286 2561
840 1334 2836
345 1367 3298
2202 1590 803
2222 1578 882
2296 1519 1069
2506 1310 1421
2213 1690 1909
1685 1586 2392
1326 1591 2740
1086 1628 3008
295 1669 3596
2373 2100 890
2385 2093 975
2419 2075 1169
2504 2014 1475
2424 2118 2095
1971 2013 2545
1696 2026 2817
1479 2066 3034
132 2099 3909
2457 2564 854
2462 2566 938
2472 2572 1126
2451 2589 1424
2431 2599 2053
2269 2543 2626
2004 2537 2898
1610 2546 3254
0 2629 4068
2424 3031 991
2421 3034 1064
2410 3042 1235
2385 3057 1509
2279 3088 1883
2276 3088 2591
2222 3010 3211
1723 3051 3581
725 3148 4095
2457 3544 1173
2456 3547 1235
2447 3554 1385
2390 3573 1615
2345 3590 2032
2189 3626 2475
2188 3626 3107
2328 3574 3650
2097 3595 4095
3151 3946 2505
3145 3951 2519
3109 3969 2539
2986 4016 2538
2748 4093 2534
2251 4095 2527
2158 4095 3063
2157 4095 3592
2530 4095 4095
2284 816 764
2320 784 830
2413 690 986
2441 729 1210
2236 1122 1493
2153 1319 1865
1987 1384 2049
1478 1279 2624
1171 1335 2952
2358 893 766
2371 889 860
2462 799 1018
2527 777 1251
2306 1177 1535
2206 1385 1915
2021 1441 2111
1510 1335 2697
1185 1384 3051
2465 1144 808
2521 1086 855
2559 1061 1087
2730 883 1346
2473 1302 1630
2327 1545 2029
2096 1576 2261
1599 1484 2844
1207 1507 3308
2502 1633 970
2542 1599 1023
2682 1467 1137
2834 1322 1446
2743 1487 1757
2502 1807 2195
2202 1801 2502
1773 1754 3010
1193 1729 3786
2677 2067 1095
2690 2061 1154
2726 2040 1300
2844 1949 1537
2955 1864 1965
2704 2162 2389
2333 2111 2817
2002 2106 3232
1498 2110 3945
2839 2572 1178
2848 2569 1243
2873 2557 1395
2921 2534 1635
2993 2491 2022
2901 2596 2576
2574 2540 3028
2235 2523 3534
1779 2585 4055
2946 3052 1169
2951 3054 1232
2961 3058 1382
2975 3067 1611
2966 3087 1893
2963 3088 2592
2830 3063 3134
2449 3085 3541
1904 3147 4095
2993 3555 1332
2991 3558 1389
2984 3565 1527
2972 3577 1752
3015 3573 2225
2906 3616 2542
2876 3626 3106
2930 3585 3645
2581 3643 4095
3451 3960 2792
3449 3964 2805
3444 3974 2838
3432 3993 2894
3399 4026 2971
3191 4094 2968
2847 4095 3063
2847 4095 3591
3052 4095 4095
2691 1040 1004
2717 1017 1055
2787 957 1180
2918 828 1386
2819 1058 1592
2620 1410 1851
2545 1591 2185
2480 1654 2334
2268 1684 2594
2748 1100 1010
2757 1098 1079
2825 1039 1206
2955 915 1415
2882 1099 1629
2673 1454 1886
2586 1644 2224
2520 1704 2374
2299 1719 2664
2878 1250 1008
2880 1255 1093
2909 1241 1266
3035 1125 1482
3033 1198 1720
2801 1560 1972
2682 1770 2318
2614 1825 2473
2370 1805 2844
2920 1656 1151
2961 1620 1189
3074 1520 1283
3139 1472 1575
3284 1352 1863
3012 1732 2104
2829 1985 2464
2762 2031 2629
2476 1954 3187
3000 2118 1305
3013 2113 1350
3061 2082 1460
3257 1920 1627
3427 1779 1991
3309 1949 2271
3009 2286 2647
2954 2314 2840
2607 2253 3511
3169 2566 1441
3178 2563 1487
3203 2554 1600
3252 2531 1794
3412 2422 2071
3499 2371 2520
3216 2650 2863
3188 2640 3140
2802 2669 3721
3325 3073 1548
3332 3071 1596
3351 3066 1710
3385 3056 1903
3446 3032 2169
3507 3006 2599
3442 3073 3042
3269 3114 3431
3056 3130 3958
3457 3593 1554
3461 3594 1604
3470 3597 1725
3491 3592 2098
3516 3592 2472
3528 3613 2675
3528 3626 3106
3480 3625 3600
3216 3681 4095
3758 3999 3156
3759 4002 3168
3760 4010 3198
3762 4025 3252
3763 4047 3327
3757 4079 3421
3711 4094 3509
3504 4095 3591
3581 4095 4095
3091 1282 1269
3112 1266 1311
3165 1224 1415
3265 1140 1591
3361 1079 1818
3199 1380 1986
3022 1671 2195
2903 1874 2456
2912 1917 2668
3136 1332 1279
3156 1317 1323
3210 1275 1431
3309 1190 1614
3432 1091 1859
3259 1401 2026
3074 1698 2234
2944 1908 2496
2952 1950 2712
3242 1459 1294
3261 1445 1340
3313 1403 1460
3415 1317 1663
3579 1163 1947
3411 1451 2126
3203 1763 2329
3045 1991 2595
3049 2032 2822
3330 1752 1374
3379 1711 1386
3476 1630 1466
3578 1547 1708
3750 1390 2044
3686 1525 2300
3426 1868 2493
3210 2135 2762
3210 2173 3012
3361 2204 1532
3401 2176 1544
3513 2095 1578
3688 1965 1735
3769 1911 2138
3836 1885 2501
3666 2099 2698
3443 2337 2991
3414 2392 3266
3486 2646 1688
3502 2640 1700
3545 2622 1733
3624 2584 1872
3741 2512 2240
3851 2451 2656
3805 2527 2911
3614 2712 3137
3541 2794 3412
3625 3126 1983
3630 3127 2014
3644 3127 2095
3669 3127 2236
3710 3124 2446
3808 3083 2775
3938 3023 3161
3807 3142 3343
3698 3240 3598
3748 3633 2639
3751 3635 2657
3760 3639 2705
3777 3646 2788
3803 3655 2915
3840 3663 3087
3893 3664 3307
4015 3620 3627
3883 3719 3824
3971 4091 3639
3974 4093 3648
3980 4093 3671
3990 4094 3711
4006 4094 3770
4026 4094 3844
4048 4095 3926
4070 4095 4008
4095 4095 4095
