Toning/Toning-SplitWarmsAndColds_CMYK.3dl
#25pt 3DLUT created by 3D LUT Creator Pro (c) Oleg Sharonov
#Copyright Oleg Sharonov
#IMAGEPROFILE 
#INPUTGAMMA 
#OUTPUTGAMMA 
0 128 256 384 512 640 768 896 1023
0 0 0
0 0 512
0 0 1024
0 0 1536
0 0 2048
0 0 2559
0 0 3071
0 0 3583
0 0 4095
0 512 32
10 505 522
26 494 1046
52 481 1564
81 468 2077
110 457 2588
129 449 3097
145 443 3607
152 440 4095
0 1023 58
0 1022 570
26 1011 1044
55 1003 1566
97 992 2084
145 982 2600
186 973 3112
225 965 3623
245 961 4095
0 1535 78
0 1533 605
0 1533 1091
61 1518 1564
97 1511 2084
149 1502 2603
201 1495 3118
250 1488 3632
282 1483 4095
0 2047 87
0 2046 632
0 2044 1124
0 2044 1611
107 2026 2082
152 2019 2602
203 2013 3118
252 2007 3634
304 2003 4095
0 2559 94
0 2558 645
0 2556 1151
0 2556 1640
0 2555 2130
165 2535 2599
209 2529 3117
255 2524 3634
479 2519 4095
0 3071 90
0 3070 648
0 3068 1171
0 3067 1663
0 3067 2153
0 3067 2645
222 3044 3115
262 3040 3632
560 3032 4095
0 3583 81
0 3582 641
0 3581 1186
0 3580 1680
0 3579 2174
0 3578 2667
0 3578 3161
276 3554 3630
577 3546 4095
0 4095 68
0 4094 623
0 4093 1179
0 4092 1692
0 4091 2187
0 4090 2682
0 4090 3177
0 4090 3672
516 4062 4095
533 0 0
514 6 474
362 45 1060
358 26 1577
337 26 2081
322 29 2587
314 29 3094
306 29 3603
306 29 4095
559 504 0
497 510 521
404 497 1084
396 484 1601
396 470 2111
396 458 2618
401 451 3123
403 445 3629
406 443 4095
669 1064 0
458 1027 552
404 1010 1073
394 1001 1596
401 990 2114
414 979 2628
433 971 3137
449 963 3645
462 958 4095
618 1534 0
427 1539 573
363 1539 1126
403 1515 1589
401 1508 2110
414 1499 2628
437 1492 3140
462 1484 3652
510 1480 4095
593 2044 0
406 2051 587
330 2050 1147
349 2048 1642
412 2022 2104
419 2015 2624
439 2010 3139
464 2003 3653
562 1999 4095
558 2558 0
394 2562 594
314 2561 1157
308 2560 1669
337 2558 2158
431 2530 2620
445 2525 3136
465 2520 3652
661 2514 4095
525 3071 0
393 3073 595
312 3073 1159
276 3071 1688
302 3070 2180
330 3069 2670
458 3040 3133
474 3035 3649
760 3026 4095
501 3583 0
403 3585 587
324 3584 1149
264 3583 1696
276 3582 2196
297 3581 2689
322 3580 3183
488 3549 3646
843 3537 4095
489 4095 16
423 4095 573
354 4095 1130
280 4095 1686
257 4094 2208
276 4093 2703
297 4092 3197
322 4091 3692
894 4050 4095
1045 10 0
1097 0 306
1035 10 947
852 74 1615
808 81 2126
789 84 2628
781 84 3130
776 84 3633
798 107 4095
1109 467 0
1186 425 324
1031 506 1008
870 499 1634
840 484 2153
832 474 2656
828 465 3158
827 460 3659
830 457 4095
1109 1015 0
1175 1008 284
997 1022 1039
860 1007 1627
840 995 2151
840 984 2662
845 975 3169
853 967 3674
862 962 4095
1218 1593 0
1154 1550 343
967 1541 1068
854 1517 1617
837 1509 2141
838 1501 2657
846 1493 3169
859 1485 3679
908 1483 4095
1251 2141 0
1134 2038 394
943 2052 1084
848 2055 1662
842 2021 2132
838 2016 2650
845 2010 3165
858 2003 3677
955 2000 4095
1197 2586 0
1102 2555 430
928 2564 1093
832 2566 1671
819 2564 2188
846 2529 2643
849 2524 3159
859 2519 3673
1033 2513 4095
1246 3061 0
1067 3069 454
922 3075 1097
831 3076 1670
791 3075 2206
816 3073 2698
859 3037 3153
865 3034 3669
1112 3022 4095
1225 3573 0
1041 3583 479
929 3586 1091
846 3587 1658
791 3586 2205
791 3585 2714
815 3583 3206
874 3547 3664
1234 3529 4095
1203 4088 0
1020 4095 508
945 4095 1080
878 4095 1636
807 4095 2193
773 4095 2725
796 4095 3219
819 4094 3714
1415 4031 4095
1570 16 0
1625 0 273
1660 0 763
1553 26 1414
1400 103 2116
1309 152 2655
1265 168 3168
1254 168 3670
1272 206 4095
1637 433 0
1714 363 271
1779 302 794
1555 494 1480
1389 513 2145
1328 504 2681
1293 494 3196
1291 488 3694
1293 485 4095
1655 986 0
1727 964 250
1742 952 814
1537 1023 1528
1359 1010 2161
1325 998 2689
1305 985 3205
1309 977 3707
1325 977 4095
1650 1532 0
1709 1531 180
1683 1510 815
1501 1534 1555
1341 1519 2155
1311 1508 2686
1303 1498 3202
1311 1491 3709
1363 1493 4095
1752 2119 0
1773 2148 0
1673 2031 872
1480 2053 1580
1333 2028 2148
1298 2019 2680
1299 2013 3194
1308 2007 3704
1388 2005 4095
1774 2620 0
1740 2592 42
1643 2550 909
1461 2565 1593
1351 2570 2185
1298 2530 2670
1300 2526 3185
1307 2521 3698
1436 2516 4095
1782 3107 0
1757 3063 158
1608 3066 933
1452 3076 1598
1351 3080 2182
1312 3080 2718
1305 3038 3177
1309 3034 3691
1498 3023 4095
1789 3581 0
1763 3567 189
1582 3581 957
1456 3587 1594
1368 3590 2167
1314 3590 2715
1303 3588 3232
1316 3547 3685
1634 3524 4095
1832 4075 0
1741 4083 228
1561 4094 986
1467 4095 1585
1401 4095 2143
1332 4095 2701
1285 4095 3242
1308 4095 3736
1895 4013 4095
2096 13 0
2153 0 262
2179 0 755
2199 0 1267
2072 48 1878
1950 110 2611
1835 212 3169
1801 230 3683
1763 310 4095
2158 406 0
2236 295 238
2298 203 757
2265 257 1309
2078 481 1946
1937 527 2633
1847 531 3190
1812 527 3708
1776 540 4095
2190 959 0
2259 925 220
2325 894 756
2246 912 1322
2066 1009 1999
1916 1019 2649
1845 1008 3201
1813 998 3723
1803 1008 4095
2190 1512 0
2256 1499 161
2320 1487 726
2207 1470 1319
2047 1537 2043
1889 1525 2659
1834 1514 3203
1802 1503 3730
1824 1510 4095
2186 2054 0
2236 2058 42
2293 2059 670
2169 1993 1318
2010 2046 2069
1858 2033 2665
1819 2024 3199
1785 2013 3730
1842 2016 4095
2260 2601 0
2287 2616 0
2291 2596 703
2182 2543 1387
1995 2565 2091
1836 2541 2666
1805 2534 3195
1775 2525 3725
1879 2523 4095
2286 3096 0
2303 3106 0
2276 3065 708
2149 3062 1411
1982 3077 2099
1872 3084 2693
1795 3044 3192
1775 3037 3716
1936 3026 4095
2300 3587 0
2308 3578 0
2297 3560 686
2121 3578 1434
1982 3588 2098
1893 3593 2674
1837 3594 3225
1779 3549 3708
2042 3524 4095
2337 4068 0
2340 4070 3
2278 4077 719
2100 4092 1463
1990 4095 2091
1924 4095 2650
1856 4095 3209
1796 4095 3761
2290 4006 4095
2603 0 0
2652 0 192
2668 0 677
2688 0 1160
2683 0 1689
2591 84 2338
2492 103 3108
2403 220 3660
2363 302 4095
2661 349 0
2699 282 189
2740 220 676
2783 142 1174
2713 306 1725
2599 472 2408
2480 535 3124
2399 551 3679
2367 553 4095
2684 924 0
2730 890 189
2773 864 682
2821 832 1188
2718 888 1750
2593 993 2466
2464 1025 3138
2390 1021 3694
2363 1029 4095
2696 1471 0
2744 1449 174
2787 1435 673
2837 1415 1185
2708 1431 1764
2578 1523 2514
2444 1531 3149
2379 1523 3700
2356 1532 4095
2697 2009 0
2743 1997 129
2785 1990 650
2827 1977 1172
2691 1958 1772
2558 2049 2557
2421 2039 3157
2365 2031 3702
2352 2037 4095
2693 2542 0
2733 2538 55
2772 2536 613
2788 2522 1168
2673 2485 1806
2520 2557 2582
2397 2548 3162
2349 2541 3701
2357 2540 4095
2772 3084 0
2796 3092 0
2832 3097 564
2800 3066 1222
2687 3056 1887
2511 3077 2599
2373 3056 3167
2334 3050 3699
2393 3039 4095
2785 3580 0
2814 3581 0
2828 3576 538
2808 3559 1188
2659 3574 1910
2508 3588 2600
2421 3594 3179
2322 3560 3698
2471 3533 4095
2811 4065 0
2842 4063 0
2847 4065 551
2814 4071 1198
2639 4089 1941
2512 4095 2596
2448 4095 3156
2381 4095 3716
2719 4001 4095
3102 0 0
3137 0 136
3160 0 607
3171 0 1079
3195 0 1551
3172 13 2105
3111 132 2791
3034 78 3604
2968 214 4095
3144 347 0
3169 297 145
3196 252 617
3224 220 1088
3257 192 1568
3191 365 2137
3119 474 2862
3022 535 3615
2965 556 4095
3168 908 0
3200 874 158
3230 849 628
3262 828 1102
3294 811 1589
3207 883 2167
3118 981 2924
3010 1029 3627
2958 1030 4095
3186 1445 6
3222 1419 171
3254 1400 632
3288 1385 1108
3302 1379 1615
3214 1411 2190
3106 1508 2976
2996 1535 3636
2948 1531 4095
3196 1976 16
3233 1956 177
3265 1943 630
3299 1932 1105
3296 1928 1631
3212 1936 2210
3089 2036 3023
2979 2043 3644
2932 2044 4095
3200 2504 23
3236 2489 171
3267 2480 620
3300 2472 1093
3282 2464 1641
3197 2471 2262
3070 2562 3066
2961 2553 3651
2920 2556 4095
3200 3029 16
3233 3018 152
3263 3012 604
3294 3008 1075
3265 2991 1649
3179 3003 2309
3033 3069 3092
2942 3063 3656
2924 3062 4095
3267 3573 0
3294 3575 0
3328 3575 525
3350 3573 1079
3322 3557 1688
3196 3569 2385
3033 3588 3103
2923 3572 3660
2959 3560 4095
3287 4064 0
3313 4061 0
3345 4059 460
3354 4061 1062
3348 4063 1673
3176 4085 2417
3034 4095 3101
2971 4095 3663
3132 4033 4095
3597 0 0
3617 0 97
3630 0 548
3649 0 1003
3670 0 1461
3694 16 1923
3665 174 2515
3632 198 3238
3580 10 4095
3629 363 0
3642 337 107
3659 316 556
3680 304 1012
3703 302 1472
3719 326 1958
3687 422 2547
3640 482 3308
3558 528 4095
3651 904 16
3670 880 123
3691 860 566
3714 844 1024
3739 831 1487
3747 840 1995
3710 887 2581
3642 971 3372
3549 1029 4095
3671 1431 42
3693 1411 145
3717 1393 577
3743 1378 1034
3770 1364 1499
3767 1370 2028
3728 1397 2611
3635 1494 3429
3539 1536 4095
3685 1956 78
3709 1938 174
3735 1923 586
3762 1910 1039
3790 1897 1504
3777 1902 2053
3732 1924 2655
3621 2021 3479
3528 2046 4095
3694 2479 113
3719 2464 203
3745 2451 594
3772 2440 1040
3800 2428 1503
3778 2431 2071
3722 2458 2711
3604 2547 3525
3516 2556 4095
3699 3000 152
3724 2987 230
3749 2976 601
3776 2966 1039
3804 2957 1498
3774 2956 2086
3706 2990 2761
3585 3071 3569
3500 3070 4095
3701 3519 186
3726 3508 255
3751 3499 606
3777 3491 1036
3800 3483 1500
3768 3477 2099
3688 3518 2809
3554 3582 3600
3495 3578 4095
3771 4062 0
3791 4060 0
3816 4058 512
3848 4056 1001
3862 4057 1562
3865 4058 2161
3713 4081 2892
3556 4095 3606
3563 4069 4095
4095 0 0
4095 16 61
4095 42 500
4095 84 940
4095 168 1386
4095 352 1838
4095 468 2326
4095 506 2916
4095 383 3672
4095 399 16
4095 384 71
4095 377 505
4095 404 948
4095 504 1402
4095 601 1852
4095 671 2358
4095 665 2944
4095 603 3734
4095 916 52
4095 897 100
4095 883 522
4095 919 974
4095 980 1431
4095 1032 1878
4095 1060 2396
4095 1072 2969
4095 1029 3796
4095 1439 132
4095 1422 180
4095 1421 578
4095 1449 1025
4095 1467 1466
4095 1495 1910
4095 1516 2440
4095 1524 3002
4095 1487 3876
4095 1951 195
4095 1941 284
4095 1942 651
4095 1955 1076
4095 1966 1514
4095 1987 1956
4095 2001 2492
4095 2013 3073
4095 2011 3928
4095 2464 243
4095 2454 365
4095 2459 758
4095 2462 1145
4095 2470 1583
4095 2481 2024
4095 2496 2558
4095 2515 3149
4095 2532 3982
4095 2978 248
4095 2969 497
4095 2968 867
4095 2975 1307
4095 2977 1729
4095 2979 2141
4095 2993 2651
4095 3023 3233
4095 3056 4029
4095 3494 302
4095 3484 1071
4095 3477 1198
4095 3476 1596
4095 3473 1977
4095 3478 2398
4095 3487 2813
4095 3531 3341
4095 3580 4073
4095 3950 2776
4095 3944 2649
4095 3938 2818
4095 3939 2820
4095 3937 3009
4095 3945 3154
4095 3961 3399
4095 4025 3618
4074 4094 4095
