Toning/Toning-Soft blue.3dl
#25pt 3DLUT created by 3D LUT Creator Pro (c) Oleg Sharonov
#Copyright Oleg Sharonov
#IMAGEPROFILE sRGB IEC61966-2.1 v.2.10
#INPUTGAMMA sRGB IEC61966-2.1 v.2.10
#OUTPUTGAMMA sRGB IEC61966-2.1 v.2.10
0 128 256 384 512 640 768 896 1023
0 0 0
39 58 78
139 201 258
287 375 455
437 550 656
586 723 861
735 895 1074
884 1069 1299
1031 1237 1547
3 355 138
0 508 500
129 564 603
373 638 716
526 747 863
665 877 1030
803 1021 1217
942 1171 1429
1080 1322 1670
94 795 345
58 984 583
0 1025 1005
159 1069 1147
468 1128 1238
727 1196 1373
895 1290 1537
1036 1397 1733
1168 1513 1964
533 1412 769
486 1487 862
296 1517 1158
0 1541 1526
78 1575 1734
584 1613 1858
840 1666 2010
1064 1727 2205
1222 1806 2448
1079 1932 1370
1034 1941 1425
892 1965 1555
514 2009 1783
0 2043 2073
0 2070 2351
618 2093 2576
888 2130 2809
1100 2172 3086
1588 2353 2030
1545 2364 2055
1425 2391 2115
1169 2440 2221
666 2503 2393
0 2547 2643
0 2566 2987
487 2579 3339
764 2596 3703
2007 2794 2629
1970 2804 2645
1872 2830 2684
1674 2874 2751
1330 2936 2845
755 3006 2984
0 3051 3220
0 3065 3592
231 3076 4021
2368 3228 3185
2337 3236 3197
2254 3255 3228
2099 3289 3281
1843 3338 3355
1436 3399 3447
817 3480 3566
0 3558 3777
441 3570 4095
2721 3687 3679
2695 3696 3686
2626 3718 3706
2497 3758 3739
2288 3810 3792
1979 3876 3861
1522 3952 3941
864 4030 4065
2191 3954 4094
460 24 9
532 26 325
361 287 402
426 437 573
538 596 738
662 758 926
796 924 1128
933 1092 1348
1073 1256 1594
503 355 136
357 520 773
458 582 690
536 669 780
632 777 918
743 905 1079
864 1046 1261
992 1191 1470
1122 1338 1709
517 789 338
546 1004 676
294 1046 1055
384 1088 1200
639 1139 1273
823 1211 1408
963 1304 1573
1089 1410 1769
1212 1526 2000
650 1372 718
747 1495 895
605 1517 1211
218 1557 1554
387 1584 1766
690 1623 1891
940 1673 2037
1131 1735 2235
1274 1813 2481
1147 1944 1348
1169 1940 1439
1049 1964 1566
740 2009 1803
228 2053 2093
413 2074 2368
754 2098 2598
973 2135 2833
1179 2175 3111
1645 2359 2029
1634 2364 2056
1524 2391 2116
1288 2439 2233
865 2503 2403
289 2553 2664
366 2570 3007
697 2581 3350
900 2597 3717
2053 2797 2631
2038 2803 2640
1945 2829 2679
1759 2873 2746
1436 2935 2849
936 3006 2991
340 3054 3239
315 3069 3611
583 3077 4025
2408 3230 3186
2395 3235 3191
2314 3254 3222
2163 3288 3275
1918 3337 3355
1534 3398 3447
990 3480 3570
338 3562 3793
632 3572 4095
2754 3689 3679
2744 3693 3682
2676 3716 3701
2550 3756 3735
2347 3808 3788
2047 3875 3860
1614 3952 3940
1029 4030 4069
2324 3944 4094
936 89 34
1050 0 332
1057 87 707
791 518 780
780 687 890
846 834 1087
944 987 1271
1057 1143 1479
1176 1296 1717
1006 353 131
1018 507 491
983 574 829
879 716 936
874 838 1074
928 962 1233
1012 1096 1397
1113 1235 1595
1224 1374 1831
1011 755 306
1015 1005 622
810 1037 1407
903 1096 1291
965 1160 1383
1041 1243 1502
1125 1337 1666
1220 1442 1863
1321 1555 2092
1101 1417 770
1086 1497 869
1091 1509 1282
830 1563 1623
801 1599 1843
965 1640 1967
1163 1688 2103
1291 1753 2313
1402 1830 2565
1311 1943 1297
1314 1972 1361
1367 1959 1612
1128 2008 1852
871 2055 2126
873 2081 2411
1030 2107 2651
1187 2144 2893
1363 2182 3173
1774 2375 2007
1771 2378 2047
1747 2389 2115
1551 2436 2252
1218 2502 2422
941 2551 2679
916 2570 3036
1057 2584 3376
1176 2601 3751
2166 2804 2626
2154 2810 2642
2117 2827 2666
1955 2872 2734
1674 2933 2856
1278 3004 3007
987 3050 3253
926 3067 3632
1038 3077 4033
2507 3235 3188
2494 3240 3193
2461 3253 3205
2320 3286 3259
2093 3335 3351
1757 3397 3448
1326 3479 3580
991 3557 3812
1258 3561 4095
2838 3693 3680
2827 3698 3683
2800 3710 3689
2681 3751 3723
2490 3803 3777
2208 3873 3858
1824 3951 3940
1354 4028 4078
2498 3937 4094
1414 187 71
1561 0 201
1584 0 767
1570 220 1104
1243 738 1177
1181 928 1268
1209 1079 1438
1276 1218 1675
1359 1353 1958
1477 382 141
1516 494 429
1659 420 806
1499 643 1175
1317 874 1299
1249 1041 1388
1273 1171 1573
1330 1294 1816
1406 1422 2075
1511 723 273
1535 976 555
1537 1025 1018
1466 1084 1381
1402 1179 1527
1376 1276 1699
1389 1370 1917
1436 1476 2111
1503 1587 2337
1541 1288 630
1544 1439 790
1529 1534 1161
1364 1545 1887
1394 1591 1939
1432 1640 2092
1487 1704 2250
1550 1776 2456
1619 1853 2718
1722 1964 1331
1709 1976 1391
1668 1990 1530
1635 1999 1883
1432 2052 2177
1368 2087 2481
1422 2118 2736
1550 2148 2991
1649 2189 3281
1962 2409 1951
1952 2415 1972
1961 2416 2081
1934 2430 2251
1663 2500 2451
1503 2547 2698
1441 2571 3072
1496 2588 3418
1556 2605 3806
2350 2822 2600
2339 2828 2613
2314 2840 2660
2255 2866 2719
2023 2928 2863
1715 3002 3019
1554 3045 3255
1470 3064 3670
1528 3078 4046
2671 3245 3167
2660 3250 3179
2631 3261 3207
2575 3283 3228
2375 3331 3329
2084 3394 3447
1760 3478 3598
1568 3552 3808
1797 3550 4095
2981 3697 3670
2972 3703 3677
2945 3718 3690
2897 3740 3701
2725 3793 3757
2473 3870 3856
2134 3949 3938
1778 4025 4094
2695 3940 4094
1897 278 104
2052 42 16
2083 0 734
2115 0 1201
2055 399 1534
1716 935 1620
1624 1141 1721
1611 1300 1887
1655 1433 2133
1937 436 160
2010 467 324
2221 233 683
2116 486 1293
2008 724 1589
1767 1039 1716
1675 1226 1817
1664 1369 1996
1704 1492 2254
2013 710 261
2041 958 512
2038 1035 970
2129 994 1362
1969 1138 1738
1868 1273 1923
1787 1416 2057
1780 1527 2278
1810 1628 2567
2009 1096 426
2022 1386 726
2044 1539 1052
2037 1543 1554
1989 1571 1969
1940 1637 2199
1915 1707 2465
1911 1777 2759
1927 1847 3085
2089 1807 1068
2085 1867 1155
2075 1991 1342
2046 2035 1694
1952 2050 2257
1950 2076 2538
1962 2109 2820
1983 2144 3142
2017 2189 3454
2315 2425 1899
2305 2430 1929
2283 2442 2021
2227 2469 2137
2180 2489 2419
2039 2542 2702
1970 2571 3090
1979 2589 3467
2022 2601 3874
2573 2856 2548
2554 2865 2546
2541 2875 2590
2523 2890 2682
2457 2922 2803
2187 2998 3008
2098 3037 3256
2011 3060 3688
2027 3077 4065
2894 3261 3138
2883 3266 3141
2859 3276 3168
2817 3295 3222
2746 3325 3295
2494 3389 3443
2229 3472 3599
2115 3545 3802
2284 3539 4094
3182 3700 3649
3172 3705 3652
3150 3722 3670
3108 3749 3701
3041 3780 3732
2821 3859 3835
2525 3946 3936
2247 4017 4094
2944 3947 4094
2383 356 132
2505 198 75
2588 0 671
2606 0 1222
2641 0 1671
2513 591 2011
2201 1091 2126
2093 1317 2246
2059 1484 2441
2412 490 181
2514 426 186
2750 0 502
2732 116 1243
2672 412 1749
2486 826 2057
2244 1174 2207
2138 1382 2336
2105 1536 2545
2485 733 270
2534 896 433
2539 1047 918
2692 927 1311
2582 1040 1858
2457 1198 2172
2335 1369 2390
2235 1538 2551
2209 1660 2803
2511 1063 391
2532 1337 677
2559 1539 1006
2553 1545 1512
2582 1533 1952
2482 1608 2358
2425 1690 2638
2372 1783 2905
2357 1864 3226
2510 1426 536
2519 1670 872
2533 1907 1200
2548 2046 1569
2514 2056 2094
2520 2061 2528
2496 2093 2903
2477 2129 3289
2472 2164 3696
2646 2290 1528
2639 2320 1577
2623 2386 1688
2607 2511 1879
2570 2538 2197
2517 2557 2643
2514 2567 3074
2516 2580 3499
2522 2592 3948
2885 2900 2356
2877 2905 2377
2861 2915 2448
2827 2933 2552
2772 2962 2695
2725 2990 2930
2608 3039 3204
2540 3063 3635
2537 3075 4083
3145 3288 3085
3135 3293 3091
3102 3307 3095
3068 3325 3142
3033 3347 3227
2964 3382 3352
2711 3468 3561
2652 3536 3797
2686 3551 4094
3418 3707 3618
3409 3712 3620
3388 3723 3630
3360 3748 3667
3311 3786 3720
3234 3837 3790
2976 3940 3931
2733 4016 4094
3265 3954 4094
2895 413 152
2997 272 102
3096 0 624
3106 0 1247
3124 0 1753
3154 0 2199
2975 750 2548
2731 1191 2727
2609 1439 2887
2917 534 197
3017 443 163
3227 0 408
3230 0 1225
3201 233 1792
3165 452 2255
2966 925 2590
2764 1264 2794
2651 1489 2971
2969 761 280
3035 819 355
3047 1059 876
3208 890 1278
3176 934 1851
3103 1041 2337
2963 1245 2693
2836 1442 2946
2745 1614 3172
3014 1064 392
3042 1314 652
3069 1543 965
3062 1550 1490
3145 1496 1924
3073 1551 2441
2987 1639 2841
2934 1726 3172
2874 1834 3479
3015 1417 522
3028 1648 845
3050 1883 1160
3069 2047 1529
3066 2047 2040
3065 2050 2522
3027 2078 2983
3006 2112 3388
2984 2152 3798
3015 1773 657
3019 1991 997
3034 2212 1335
3048 2405 1685
3063 2556 2065
3042 2562 2586
3052 2562 3062
3048 2571 3534
3043 2580 4013
3197 2743 1961
3191 2762 1993
3174 2809 2067
3151 2891 2196
3126 3011 2372
3094 3044 2700
3060 3066 3092
3059 3068 3587
3060 3073 4082
3431 3377 2776
3424 3381 2784
3411 3390 2823
3389 3391 2935
3340 3402 3054
3287 3412 3249
3242 3447 3468
3141 3537 3715
3092 3572 4094
3681 3708 3563
3675 3713 3571
3657 3727 3588
3621 3749 3613
3551 3780 3637
3534 3834 3737
3470 3904 3853
3221 4019 4044
3595 3971 4095
3425 443 163
3513 297 111
3605 0 622
3610 0 1268
3619 0 1808
3629 0 2325
3649 42 2783
3465 834 3146
3281 1236 3383
3442 559 206
3532 459 169
3713 0 394
3715 0 1227
3717 0 1827
3645 444 2353
3631 555 2810
3468 981 3182
3309 1305 3440
3474 782 287
3546 767 302
3560 1067 856
3704 877 1277
3691 895 1876
3637 985 2396
3603 1061 2873
3480 1267 3267
3375 1467 3573
3510 1075 396
3549 1269 604
3580 1546 941
3573 1554 1478
3653 1487 1930
3627 1511 2453
3581 1560 2955
3509 1653 3381
3462 1737 3763
3519 1417 522
3536 1648 844
3563 1882 1158
3582 2048 1517
3578 2049 2032
3606 2035 2511
3581 2053 3021
3548 2085 3494
3531 2112 3939
3518 1792 687
3525 1993 1000
3544 2205 1323
3562 2397 1669
3581 2557 2046
3579 2556 2555
3577 2558 3062
3569 2565 3560
3566 2572 4047
3518 2123 783
3520 2323 1132
3531 2523 1480
3545 2715 1833
3563 2906 2183
3579 3068 2562
3574 3067 3079
3577 3067 3584
3578 3071 4087
3735 3151 2378
3729 3166 2402
3715 3202 2461
3690 3266 2555
3673 3372 2724
3636 3481 2897
3600 3487 3247
3578 3551 3609
3581 3582 4094
3950 3703 3273
3944 3708 3280
3932 3722 3308
3917 3750 3368
3890 3780 3470
3845 3814 3613
3793 3895 3767
3755 3989 3948
3812 4032 4095
3966 439 162
4046 271 101
4095 0 674
4095 0 1312
4095 0 1867
4094 0 2377
4094 0 2893
4095 300 3371
3992 824 3781
3983 560 206
4061 446 164
4095 55 487
4095 453 1321
4095 429 1879
4094 466 2396
4092 487 2917
4094 637 3387
3999 966 3808
3998 790 290
4064 777 311
4076 1065 868
4095 1000 1368
4094 991 1915
4092 1001 2432
4092 1034 2957
4093 1081 3432
4016 1252 3870
4020 1082 399
4060 1251 583
4090 1548 938
4086 1555 1479
4094 1508 1956
4092 1505 2479
4093 1532 2998
4093 1566 3492
4042 1639 3953
4021 1417 522
4048 1638 831
4074 1875 1146
4094 2049 1513
4091 2050 2030
4093 2033 2518
4093 2041 3034
4091 2057 3544
4069 2081 4030
4023 1771 653
4032 1984 987
4053 2203 1319
4075 2396 1668
4094 2557 2042
4092 2557 2553
4093 2555 3060
4094 2558 3571
4087 2564 4076
4021 2127 790
4025 2324 1134
4038 2523 1479
4054 2713 1830
4074 2905 2180
4093 3068 2557
4093 3066 3072
4093 3066 3584
4093 3070 4092
4023 2481 914
4022 2659 1277
4029 2834 1643
4040 3006 2009
4056 3181 2377
4075 3384 2720
4087 3512 3127
4091 3551 3608
4094 3582 4094
4081 3808 3526
4081 3810 3527
4081 3815 3545
4080 3824 3566
4080 3836 3567
4081 3864 3640
4083 3909 3714
4086 3967 3814
4095 4095 4095
