Toning/Toning-Green.3dl
#25pt 3DLUT created by 3D LUT Creator Pro (c) Oleg Sharonov
#Copyright Oleg Sharonov
#IMAGEPROFILE sRGB IEC61966-2.1 v.2.10
#INPUTGAMMA sRGB IEC61966-2.1 v.2.10
#OUTPUTGAMMA sRGB IEC61966-2.1 v.2.10
0 43 86 128 171 214 256 299 341 384 427 469 512 555 597 640 682 725 768 810 853 896 938 981 1023 
0 0 0
0 0 82
0 0 165
0 0 256
0 0 343
0 0 440
0 0 544
0 0 641
0 0 748
0 0 850
0 0 952
0 0 1056
0 2 1165
0 2 1263
0 2 1363
0 4 1454
0 4 1538
0 3 1661
3 4 1813
3 3 1967
3 4 2124
3 4 2285
3 4 2446
3 2 2616
3 2 2776
33 136 52
0 122 122
0 125 254
0 72 255
0 68 343
0 68 445
0 68 554
0 70 656
0 67 760
0 64 859
0 64 959
0 58 1073
0 58 1173
0 55 1270
0 45 1371
0 45 1457
0 45 1569
0 40 1726
3 41 1879
3 33 2045
3 34 2198
3 25 2365
3 26 2537
3 14 2716
3 14 2880
55 271 73
33 261 119
0 252 257
0 251 400
0 239 524
0 152 472
0 145 563
0 144 659
0 139 764
0 137 869
0 136 972
0 125 1083
0 116 1183
0 116 1276
0 103 1369
0 95 1500
0 98 1642
0 85 1804
3 85 1955
3 73 2121
2 69 2285
2 58 2465
2 50 2639
2 36 2819
2 25 2991
77 399 95
54 400 126
30 388 256
0 371 397
0 378 559
0 371 704
0 323 756
0 265 753
0 234 791
0 224 885
0 219 980
0 205 1081
0 191 1181
0 186 1303
0 177 1444
0 164 1591
0 158 1741
0 145 1900
2 136 2059
2 121 2230
2 109 2401
2 93 2583
2 77 2762
2 59 2944
2 40 3121
91 509 104
66 518 116
50 499 243
0 480 372
0 476 526
0 487 695
0 482 859
0 472 1005
0 413 1027
0 364 1066
0 326 1122
0 303 1191
0 286 1288
0 269 1426
0 255 1568
0 242 1712
0 221 1870
0 209 2027
2 186 2197
2 171 2365
2 150 2542
2 130 2720
2 108 2902
1 85 3085
1 66 3240
108 628 110
75 644 105
59 618 235
41 601 367
0 584 503
0 586 658
0 615 834
0 620 1001
0 595 1181
0 547 1319
0 483 1413
0 436 1466
0 399 1539
0 366 1626
0 342 1723
0 319 1871
0 292 2027
0 275 2181
2 245 2351
2 224 2518
1 195 2696
1 169 2877
1 143 3047
1 113 3214
1 91 3369
120 737 104
79 756 82
66 735 209
53 717 337
30 713 462
0 702 601
0 722 751
0 759 927
0 757 1118
0 744 1322
0 710 1503
0 645 1616
0 586 1721
0 536 1834
0 489 1948
0 446 2056
0 407 2171
0 374 2323
2 344 2485
1 314 2652
1 284 2812
1 254 2974
1 225 3137
1 197 3298
1 168 3457
134 849 104
98 871 82
73 863 185
60 842 319
45 838 437
12 835 561
0 831 697
0 866 846
0 899 1035
0 895 1244
0 879 1448
0 854 1647
0 810 1814
0 743 1924
0 685 2040
0 635 2160
0 587 2283
0 542 2413
0 503 2546
1 466 2698
1 432 2858
1 399 3018
1 366 3179
1 336 3337
1 305 3495
151 962 104
119 984 82
76 977 165
61 961 301
55 956 416
40 956 535
0 957 659
0 969 794
0 1005 955
0 1028 1155
0 1034 1377
0 1026 1593
0 1003 1797
0 971 1992
0 908 2127
0 845 2247
0 786 2369
0 732 2495
0 683 2628
0 638 2766
1 595 2908
1 556 3061
1 520 3220
1 485 3378
1 452 3533
167 1072 107
137 1089 85
79 1087 144
67 1073 285
58 1064 405
49 1062 521
30 1064 643
0 1067 766
0 1090 910
0 1124 1069
0 1156 1274
0 1174 1513
0 1161 1723
0 1150 1944
0 1120 2145
0 1073 2316
0 1005 2440
0 944 2568
0 888 2701
0 837 2838
0 787 2975
1 741 3116
1 698 3258
1 659 3406
1 624 3559
185 1195 107
160 1206 89
79 1208 116
70 1196 266
61 1182 399
52 1178 514
43 1178 632
21 1183 755
0 1184 879
0 1203 1020
0 1245 1186
0 1285 1398
0 1301 1630
0 1300 1856
0 1286 2075
0 1264 2287
0 1234 2492
0 1170 2631
0 1105 2762
0 1046 2896
0 990 3033
0 939 3172
1 890 3312
1 846 3453
1 805 3592
202 1317 101
181 1322 89
76 1326 82
73 1313 244
64 1296 390
55 1289 506
49 1288 620
37 1292 742
0 1299 866
0 1311 999
0 1330 1141
0 1380 1317
0 1417 1524
0 1440 1765
0 1438 1991
0 1433 2221
0 1410 2433
0 1384 2642
0 1339 2823
0 1272 2958
0 1209 3093
0 1152 3230
0 1097 3368
1 1047 3506
1 1007 3637
222 1430 101
203 1435 91
104 1439 79
76 1429 221
67 1414 372
61 1402 498
55 1399 612
46 1400 729
30 1407 851
0 1413 977
0 1430 1114
0 1456 1262
0 1505 1438
0 1551 1654
0 1575 1897
0 1577 2126
0 1571 2354
0 1564 2589
0 1536 2798
0 1505 3003
0 1438 3143
0 1374 3283
0 1315 3422
0 1262 3557
1 1221 3681
251 1580 107
235 1585 99
146 1589 87
82 1584 201
76 1570 364
67 1553 507
61 1548 621
55 1546 738
46 1549 859
24 1557 986
0 1544 1100
0 1546 1226
0 1581 1383
0 1630 1560
0 1685 1785
0 1705 2022
0 1715 2261
0 1709 2490
0 1701 2724
0 1686 2951
0 1658 3160
0 1604 3325
0 1539 3463
0 1486 3592
0 1439 3719
324 1916 122
310 1919 115
228 1925 105
101 1924 190
98 1911 398
91 1894 571
85 1883 709
76 1878 838
67 1873 968
52 1870 1099
12 1867 1233
0 1829 1341
0 1822 1472
0 1830 1618
0 1834 1760
0 1869 1970
0 1861 2181
0 1865 2415
0 1852 2637
0 1841 2864
0 1824 3088
0 1802 3304
0 1772 3498
0 1713 3629
0 1661 3754
402 2259 145
389 2260 139
312 2263 135
131 2264 171
131 2252 423
125 2235 621
113 2219 793
107 2214 932
98 2209 1073
82 2204 1217
61 2200 1361
0 2184 1497
0 2134 1608
0 2103 1730
0 2112 1886
0 2090 2013
0 2102 2208
0 2072 2405
0 2055 2622
0 2047 2851
0 1995 3026
0 1973 3241
0 1954 3451
0 1937 3647
0 1901 3775
481 2608 181
470 2608 176
399 2608 173
208 2609 171
171 2598 435
168 2584 660
156 2567 860
144 2558 1020
134 2552 1172
119 2546 1326
101 2542 1480
64 2539 1637
0 2506 1775
0 2455 1895
0 2407 2013
0 2394 2157
0 2366 2287
0 2339 2455
0 2307 2657
0 2250 2833
0 2238 3060
0 2189 3241
0 2138 3412
0 2109 3597
0 2119 3759
563 2939 203
555 2938 199
489 2936 196
326 2935 194
195 2930 408
195 2918 671
195 2901 902
190 2886 1096
179 2879 1258
165 2872 1421
144 2862 1583
116 2852 1746
52 2840 1907
0 2798 2042
0 2752 2170
0 2711 2301
0 2672 2430
0 2641 2564
0 2599 2726
0 2541 2909
0 2483 3087
0 2428 3267
0 2385 3450
0 2336 3617
0 2328 3738
655 3273 223
647 3272 220
586 3270 223
443 3267 224
233 3264 369
240 3252 682
244 3236 937
240 3218 1168
230 3211 1343
218 3204 1515
201 3195 1688
174 3186 1860
131 3175 2027
0 3153 2187
0 3082 2308
0 3026 2435
0 2985 2571
0 2941 2700
0 2876 2805
0 2832 2974
0 2741 3124
0 2684 3307
0 2629 3486
0 2556 3630
0 2563 3739
749 3590 273
741 3589 271
686 3589 274
557 3588 277
285 3588 318
293 3577 683
299 3564 963
299 3547 1214
289 3534 1422
277 3528 1603
260 3520 1784
237 3512 1963
201 3502 2138
137 3490 2314
0 3454 2471
0 3383 2596
0 3309 2713
0 3254 2840
0 3205 2969
0 3123 3061
0 3058 3219
0 2961 3372
0 2870 3517
0 2844 3662
0 2824 3756
820 3860 330
813 3859 330
761 3860 331
643 3861 335
385 3862 342
349 3854 687
355 3842 983
357 3827 1246
349 3814 1480
338 3809 1666
322 3802 1853
301 3795 2035
271 3784 2216
223 3774 2399
119 3763 2579
0 3732 2744
0 3677 2885
0 3603 3005
0 3525 3116
0 3447 3251
0 3349 3364
0 3249 3492
0 3186 3610
0 3127 3693
0 3097 3790
783 3965 385
777 3965 384
725 3965 385
608 3967 388
389 3967 428
396 3959 743
398 3953 991
398 3944 1224
391 3935 1448
380 3928 1644
367 3922 1827
347 3916 2008
322 3908 2187
283 3900 2368
221 3892 2549
0 3882 2727
0 3847 2886
0 3804 3035
0 3756 3181
0 3693 3328
0 3622 3480
0 3553 3600
0 3493 3701
0 3440 3798
0 3389 3888
780 4071 438
775 4071 437
733 4073 438
635 4075 438
545 4076 548
440 4074 717
443 4068 963
442 4061 1194
439 4053 1416
429 4044 1626
416 4039 1806
399 4033 1984
375 4027 2160
342 4019 2338
293 4012 2517
206 4004 2694
0 3987 2865
0 3953 3022
0 3917 3174
0 3864 3321
0 3797 3470
0 3749 3603
0 3695 3723
0 3637 3822
0 3593 3928
1967 4070 1911
1971 4070 1914
1973 4070 1923
1974 4070 1939
1972 4071 1966
1958 4071 1998
1926 4072 2037
1882 4073 2084
1821 4075 2136
1741 4076 2193
1686 4077 2270
1633 4077 2358
1568 4079 2452
1485 4080 2554
1376 4082 2663
1229 4085 2778
994 4090 2900
0 4091 3001
0 4057 3156
0 4021 3305
0 3973 3458
0 3917 3594
0 3874 3723
0 3830 3847
0 3777 3944
2480 4093 2454
2483 4093 2456
2485 4093 2461
2487 4093 2471
2488 4093 2486
2485 4093 2506
2467 4093 2528
2444 4093 2556
2414 4093 2590
2379 4093 2630
2373 4093 2689
2368 4093 2756
2362 4093 2828
2353 4093 2906
2344 4093 2990
2332 4093 3079
2314 4093 3172
2247 4093 3259
1979 4095 3301
1613 4095 3365
1046 4095 3455
0 4083 3578
0 4037 3715
0 3995 3843
0 3950 3964
150 17 25
134 0 110
107 0 196
95 0 273
91 0 366
88 0 459
85 0 552
85 0 650
85 0 749
85 0 856
85 0 959
85 0 1063
82 0 1167
82 0 1273
79 0 1366
76 0 1454
73 0 1538
76 0 1682
79 1 1834
79 1 1986
82 1 2140
85 1 2298
85 1 2458
88 0 2622
88 0 2782
126 164 268
177 151 154
85 66 197
55 0 309
49 0 385
46 0 467
46 0 567
43 0 661
43 0 759
43 0 860
43 0 963
43 0 1065
43 0 1174
43 0 1278
40 0 1372
36 0 1460
36 0 1544
36 0 1679
36 1 1834
36 1 1987
36 1 2141
39 1 2296
39 1 2457
39 0 2623
39 0 2780
106 255 316
180 303 160
147 287 294
0 261 447
0 188 469
0 140 490
0 131 578
0 130 675
0 125 779
0 121 878
0 120 980
0 108 1092
0 102 1190
0 102 1282
0 91 1377
0 82 1492
0 86 1630
0 73 1792
3 75 1945
3 63 2111
3 61 2270
2 49 2445
2 45 2619
2 30 2801
2 23 2973
122 347 263
166 415 160
146 417 281
100 397 426
0 380 574
0 368 723
0 308 749
0 251 742
0 228 803
0 217 895
0 211 991
0 197 1090
0 184 1190
0 178 1303
0 168 1440
0 156 1591
0 150 1739
0 138 1894
2 130 2054
2 115 2222
2 104 2395
2 88 2573
2 74 2755
2 55 2935
2 37 3112
139 458 210
163 522 155
131 524 261
123 516 406
31 488 540
0 491 707
0 484 873
0 472 1019
0 405 1028
0 357 1062
0 319 1118
0 296 1188
0 281 1290
0 263 1428
0 249 1568
0 236 1712
0 216 1870
0 204 2026
2 181 2197
2 167 2361
2 146 2537
2 127 2718
2 105 2897
1 82 3079
1 63 3238
154 581 180
168 637 151
125 637 241
115 623 377
95 608 516
0 592 662
0 621 841
0 624 1012
0 595 1193
0 541 1325
0 475 1415
0 432 1466
0 394 1536
0 362 1624
0 338 1726
0 315 1874
0 288 2030
0 271 2184
2 241 2350
2 221 2516
1 192 2694
1 167 2875
1 140 3046
1 111 3209
1 89 3365
162 696 157
173 750 139
127 761 209
113 741 348
107 742 477
73 729 616
0 727 754
0 763 932
0 759 1127
0 745 1332
0 710 1513
0 642 1620
0 583 1726
0 532 1838
0 485 1950
0 440 2057
0 402 2174
0 369 2328
2 339 2490
1 308 2655
1 279 2815
1 249 2979
1 219 3141
1 191 3301
1 162 3461
176 820 138
180 860 138
125 881 185
112 859 325
106 857 445
100 861 576
48 849 704
0 870 848
0 902 1040
0 897 1250
0 880 1456
0 853 1655
0 808 1819
0 740 1929
0 682 2043
0 631 2163
0 582 2287
0 538 2417
0 498 2549
1 462 2702
1 428 2862
1 395 3021
1 362 3182
1 332 3340
1 301 3497
187 941 131
193 975 135
125 997 162
113 980 305
104 975 425
101 977 549
88 984 679
0 972 795
0 1008 957
0 1031 1159
0 1037 1383
0 1027 1600
0 1002 1804
0 970 1999
0 907 2131
0 842 2251
0 783 2373
0 728 2499
0 680 2632
0 634 2769
1 591 2910
1 553 3064
1 516 3224
1 482 3383
1 448 3536
200 1058 126
204 1082 133
125 1103 137
113 1089 287
104 1079 411
98 1077 529
91 1083 655
73 1090 782
0 1092 910
0 1126 1071
0 1158 1278
0 1176 1517
0 1162 1728
0 1151 1950
0 1121 2152
0 1071 2320
0 1003 2444
0 942 2572
0 886 2705
0 833 2841
0 784 2978
1 738 3119
1 695 3260
1 656 3410
1 621 3562
214 1188 122
218 1204 133
134 1220 123
113 1210 266
101 1194 405
98 1191 521
91 1192 640
88 1200 767
58 1200 889
0 1206 1020
0 1248 1188
0 1287 1400
0 1302 1634
0 1301 1860
0 1287 2080
0 1264 2291
0 1234 2497
0 1169 2635
0 1104 2765
0 1044 2899
0 988 3035
0 937 3174
1 889 3316
1 843 3456
1 803 3595
