Toning/Toning-Sunny.3dl
#25pt 3DLUT created by 3D LUT Creator Pro (c) Oleg Sharonov
#Copyright Oleg Sharonov
#IMAGEPROFILE sRGB
#INPUTGAMMA sRGB
#OUTPUTGAMMA sRGB
0 256 512 768 1023
171 0 0
206 0 595
215 2 1490
231 101 2187
251 294 2539
269 1089 42
300 1080 764
302 1014 1578
306 984 2190
305 935 2502
367 2201 131
401 2232 905
401 2128 1843
393 1984 2343
377 1775 2549
469 3190 222
500 3214 1003
509 3198 2111
494 2992 2765
466 2698 2911
573 3973 314
600 3992 1102
611 3996 2131
608 3885 3101
575 3598 3428
1308 0 0
1323 0 703
1231 9 1560
1125 15 2275
923 18 2680
1405 1101 47
1440 1136 820
1285 1050 1663
1071 928 2273
255 330 2589
1503 2212 136
1536 2242 916
1196 2191 1923
814 2026 2453
375 1737 2617
1601 3197 227
1633 3221 1016
1557 3228 2111
501 3051 2835
470 2727 2961
1700 3978 319
1732 3996 1115
1741 4001 2142
616 3945 3117
581 3639 3471
2403 0 0
2434 10 734
2392 19 1728
2177 127 2457
1851 83 2904
2492 1114 52
2522 1148 832
2490 1128 1833
2200 932 2609
1760 76 3004
2579 2223 141
2608 2253 929
2617 2263 1966
2050 2160 2680
1461 1674 2867
2666 3205 232
2694 3228 1028
2704 3234 2059
1603 3197 3033
483 2826 3179
2754 3983 325
2780 4002 1126
2788 4006 2153
2518 4009 3157
606 3803 3645
3353 0 0
3375 23 747
3381 33 1792
3286 41 2651
2926 441 3138
3421 1127 58
3442 1161 845
3448 1171 1886
3363 970 2742
2927 473 3204
3487 2235 148
3508 2265 942
3513 2274 1978
3465 2202 2865
2855 1356 3563
3553 3214 239
3573 3237 1040
3578 3243 2072
3584 3250 3006
2380 2989 3624
3619 3990 332
3638 4008 1139
3643 4013 2164
3649 4018 3085
2557 4010 3813
4095 4 0
4095 37 761
4095 47 1805
4095 58 2775
3962 63 3395
4095 1142 66
4095 1175 859
4095 1185 1899
4095 1197 2857
3992 64 3425
4095 2249 156
4095 2279 957
4095 2288 1992
4095 2298 2939
4095 730 3578
4095 3225 248
4095 3247 1057
4095 3253 2086
4095 3261 3019
4095 2933 3732
4095 4000 341
4095 4018 1157
4095 4022 2180
4095 4027 3097
4095 4034 3831
