Toning/Toning-Magenta.3dl
#25pt 3DLUT created by 3D LUT Creator Pro (c) Oleg Sharonov
#Copyright Oleg Sharonov
#IMAGEPROFILE 
#INPUTGAMMA 
#OUTPUTGAMMA 
0 128 256 384 512 640 768 896 1023
0 0 84
16 0 207
71 12 482
189 88 806
353 219 1148
540 390 1482
742 581 1784
954 787 2043
1169 1001 2295
163 195 372
152 219 518
210 247 891
341 315 1175
491 424 1455
661 565 1723
846 731 1965
1043 914 2196
1245 1110 2423
552 744 823
560 758 900
530 800 1105
606 819 1546
701 889 1801
878 974 2016
1054 1087 2225
1231 1224 2435
1408 1372 2649
1022 1376 1310
1027 1384 1354
1018 1408 1485
987 1453 1681
1074 1464 2061
1155 1514 2308
1279 1583 2515
1453 1657 2721
1615 1746 2924
1495 1921 1755
1499 1926 1781
1511 1937 1845
1480 1963 1978
1454 1998 2144
1538 2002 2522
1607 2033 2790
1684 2083 3006
1802 2139 3207
1899 2392 2124
1901 2396 2142
1908 2404 2188
1907 2420 2280
1878 2449 2421
1858 2484 2587
1929 2486 2971
1983 2510 3256
2044 2551 3486
2257 2855 2483
2259 2857 2497
2264 2864 2532
2274 2875 2596
2256 2896 2713
2227 2927 2858
2209 2962 3023
2282 2961 3410
2368 2978 3681
2610 3309 2837
2611 3312 2848
2615 3317 2877
2623 3326 2928
2627 3341 3012
2600 3365 3141
2572 3396 3289
2555 3431 3452
2880 3391 3703
3277 3665 3396
3280 3667 3402
3288 3671 3418
3302 3677 3446
3324 3687 3488
3339 3704 3549
3354 3727 3624
3379 3754 3707
3422 3784 3794
85 11 158
210 2 393
243 46 645
332 131 928
468 264 1239
635 429 1549
823 616 1829
1021 817 2077
1225 1027 2324
311 254 392
370 256 567
410 283 935
493 354 1220
613 464 1486
762 604 1738
932 768 1966
1115 950 2192
1300 1134 2449
599 799 801
687 788 935
675 825 1134
722 851 1563
823 912 1826
972 996 2042
1130 1110 2250
1293 1244 2459
1451 1384 2701
1051 1409 1297
1111 1403 1378
1116 1425 1497
1087 1468 1695
1157 1481 2071
1224 1532 2316
1352 1596 2529
1511 1669 2736
1648 1754 2967
1514 1940 1748
1554 1937 1795
1564 1948 1857
1544 1972 1986
1520 2007 2152
1594 2012 2529
1653 2043 2797
1722 2093 3012
1826 2146 3242
1911 2406 2119
1935 2404 2151
1941 2412 2197
1946 2427 2285
1917 2456 2428
1898 2491 2593
1964 2493 2977
2015 2518 3261
2054 2559 3511
2267 2865 2479
2285 2863 2504
2290 2870 2540
2300 2881 2603
2287 2902 2717
2258 2932 2863
2241 2967 3028
2310 2966 3415
2389 2984 3688
2617 3318 2834
2633 3317 2854
2636 3322 2882
2643 3331 2933
2651 3345 3015
2624 3370 3145
2596 3401 3293
2581 3435 3456
2895 3397 3708
3289 3670 3401
3291 3672 3407
3299 3676 3423
3313 3683 3451
3335 3692 3493
3352 3709 3554
3366 3732 3629
3391 3759 3712
3434 3789 3799
344 167 366
482 148 484
661 127 865
699 222 1149
760 360 1420
874 518 1686
1021 697 1927
1187 889 2159
1362 1089 2393
564 399 518
626 394 681
825 361 1025
853 430 1340
899 544 1601
995 682 1833
1124 840 2045
1275 1014 2262
1435 1190 2510
882 877 862
917 879 967
1005 882 1197
1041 908 1594
1110 966 1863
1205 1055 2075
1320 1168 2276
1450 1300 2476
1574 1419 2783
1188 1475 1308
1214 1477 1367
1327 1467 1541
1316 1504 1732
1349 1524 2090
1404 1572 2338
1526 1626 2565
1648 1699 2775
1736 1769 3084
1566 1986 1727
1603 1982 1777
1692 1973 1889
1694 1994 2006
1672 2028 2175
1723 2036 2546
1762 2069 2810
1822 2117 3029
1889 2160 3334
1941 2440 2106
1965 2438 2139
2024 2431 2221
2036 2446 2299
2014 2472 2443
1996 2507 2610
2052 2510 2991
2092 2536 3272
2077 2579 3577
2290 2892 2469
2308 2890 2495
2355 2885 2558
2363 2896 2620
2362 2915 2727
2334 2945 2875
2318 2979 3040
2380 2979 3427
2444 2999 3704
2636 3340 2826
2651 3338 2847
2689 3334 2898
2696 3343 2948
2709 3357 3024
2686 3380 3154
2658 3411 3303
2651 3444 3465
2934 3410 3722
3317 3683 3415
3319 3685 3421
3327 3689 3437
3340 3696 3465
3361 3706 3506
3382 3721 3565
3396 3744 3641
3420 3771 3724
3462 3801 3810
688 449 619
792 435 684
978 407 947
1188 375 1369
1229 486 1641
1268 646 1861
1348 819 2070
1458 1001 2284
1586 1189 2503
860 635 733
931 622 890
1114 588 1129
1309 560 1480
1349 650 1752
1370 795 1961
1436 950 2164
1534 1116 2371
1653 1279 2609
1184 1032 972
1221 1027 1109
1290 1031 1289
1496 987 1648
1531 1039 1930
1553 1137 2152
1607 1251 2357
1687 1379 2557
1784 1486 2858
1495 1555 1363
1517 1556 1428
1566 1558 1576
1653 1561 1786
1681 1581 2110
1726 1621 2372
1788 1679 2597
1861 1752 2803
1911 1786 3257
1754 2037 1769
1769 2038 1807
1803 2041 1886
1900 2032 2046
1893 2063 2213
1909 2077 2570
1929 2113 2830
2013 2147 3068
2016 2172 3520
2020 2493 2098
2030 2494 2122
2079 2490 2200
2177 2477 2341
2178 2500 2471
2160 2534 2641
2198 2540 3014
2223 2569 3290
2120 2612 3701
2333 2939 2449
2351 2937 2476
2397 2932 2542
2476 2923 2653
2491 2938 2745
2465 2967 2897
2450 3001 3064
2500 3003 3446
2537 3025 3733
2670 3378 2811
2685 3376 2832
2723 3372 2885
2804 3360 2985
2826 3371 3063
2831 3389 3179
2816 3418 3322
2824 3449 3474
3001 3434 3746
3366 3706 3442
3369 3708 3448
3376 3712 3462
3388 3719 3489
3408 3729 3530
3435 3742 3585
3448 3765 3661
3470 3792 3745
3511 3822 3831
1068 784 897
1138 776 943
1343 734 1090
1503 711 1438
1689 678 1820
1720 800 2044
1753 961 2240
1797 1138 2441
1865 1315 2646
1198 932 984
1258 918 1117
1435 883 1249
1596 856 1546
1765 825 1885
1793 930 2114
1817 1079 2312
1853 1241 2511
1921 1393 2739
1462 1254 1173
1495 1249 1283
1567 1243 1453
1758 1194 1723
1900 1167 2009
1932 1235 2256
1941 1351 2464
1970 1479 2664
2043 1573 2958
1769 1681 1446
1785 1681 1519
1821 1682 1662
1885 1683 1850
2046 1644 2147
2081 1675 2425
2092 1740 2660
2124 1814 2873
2197 1834 3314
2004 2104 1811
2016 2105 1848
2046 2105 1935
2097 2107 2076
2171 2110 2265
2193 2124 2587
2227 2151 2860
2274 2191 3098
2284 2168 3744
2216 2545 2147
2226 2545 2173
2251 2547 2239
2294 2549 2342
2392 2541 2513
2386 2572 2680
2397 2584 3039
2403 2618 3306
2375 2634 3770
2461 2988 2472
2469 2989 2491
2490 2991 2538
2540 2989 2631
2651 2975 2792
2651 2998 2929
2635 3031 3099
2668 3037 3473
2670 3063 3777
2761 3422 2820
2777 3420 2843
2823 3413 2905
2898 3402 3005
3002 3387 3135
3028 3402 3227
3019 3430 3357
3030 3461 3494
3098 3468 3784
3438 3740 3485
3441 3741 3490
3448 3746 3503
3460 3753 3526
3478 3763 3564
3504 3777 3618
3525 3797 3692
3545 3824 3776
3583 3854 3862
1446 1141 1181
1494 1136 1216
1634 1110 1309
1794 1076 1550
1950 1037 1869
2097 1009 2196
2121 1133 2420
2158 1280 2614
2183 1452 2810
1540 1256 1249
1579 1248 1344
1713 1221 1427
1855 1190 1644
2007 1152 1929
2150 1125 2246
2173 1236 2473
2205 1371 2669
2238 1516 2888
1736 1508 1397
1761 1503 1480
1831 1489 1647
1976 1450 1842
2127 1415 2062
2261 1393 2351
2286 1472 2590
2308 1582 2791
2362 1666 3077
1980 1842 1613
1995 1841 1677
2042 1833 1829
2097 1837 1956
2275 1792 2208
2403 1771 2486
2438 1810 2745
2448 1881 2962
2537 1885 3387
2242 2203 1873
2252 2204 1905
2277 2204 1995
2316 2208 2127
2385 2208 2320
2544 2174 2619
2584 2192 2904
2592 2240 3150
2685 2194 3742
2463 2612 2187
2472 2612 2214
2495 2613 2280
2533 2614 2391
2591 2616 2543
2664 2619 2733
2685 2631 3054
2706 2642 3434
2734 2655 3808
2668 3043 2516
2675 3044 2537
2695 3044 2589
2727 3046 2676
2776 3049 2796
2876 3041 2973
2870 3071 3140
2881 3083 3495
2845 3113 3837
2966 3455 2925
2976 3454 2944
3002 3452 2990
3045 3449 3063
3111 3445 3164
3183 3445 3282
3197 3468 3399
3202 3499 3534
3227 3514 3836
3542 3782 3555
3544 3784 3559
3547 3789 3567
3555 3798 3583
3572 3809 3615
3595 3823 3664
3627 3840 3731
3643 3867 3817
3678 3897 3903
1785 1491 1459
1816 1488 1485
1902 1473 1552
2079 1422 1686
2181 1411 1946
2351 1363 2241
2487 1342 2567
2509 1459 2790
2549 1587 2985
1847 1576 1510
1872 1571 1579
1956 1556 1640
2125 1509 1765
2229 1496 2004
2396 1451 2286
2529 1430 2606
2550 1536 2832
2604 1637 3051
1986 1763 1624
2006 1759 1685
2079 1738 1844
2218 1706 1962
2333 1688 2151
2496 1651 2393
2622 1634 2695
2644 1714 2928
2734 1754 3211
2196 2019 1790
2210 2017 1839
2263 2004 1981
2315 2006 2091
2478 1967 2302
2633 1936 2531
2754 1920 2820
2781 1969 3067
2923 1936 3475
2447 2338 1988
2456 2338 2027
2486 2333 2138
2529 2333 2262
2591 2336 2410
2776 2289 2679
2896 2271 2955
2935 2299 3222
3095 2228 3747
2701 2705 2248
2708 2705 2271
2728 2706 2333
2758 2710 2424
2802 2713 2577
2875 2711 2783
3031 2678 3083
3116 2664 3452
3137 2680 3807
2914 3110 2557
2920 3110 2578
2939 3110 2630
2968 3112 2719
3012 3114 2845
3075 3115 3004
3147 3118 3193
3165 3127 3538
3188 3138 3888
3184 3504 3021
3192 3503 3040
3213 3502 3087
3247 3500 3161
3295 3500 3255
3328 3512 3335
3378 3524 3443
3383 3553 3587
3386 3571 3906
3674 3833 3655
3676 3835 3659
3680 3839 3667
3687 3848 3681
3697 3862 3701
3710 3880 3730
3739 3898 3787
3766 3922 3869
3796 3951 3956
2073 1803 1715
2098 1800 1733
2163 1792 1780
2300 1764 1867
2445 1733 2048
2568 1714 2311
2747 1665 2608
2871 1653 2932
2892 1753 3155
2123 1861 1752
2142 1857 1801
2208 1849 1844
2343 1822 1925
2483 1794 2100
2607 1774 2355
2783 1729 2642
2905 1716 2965
2943 1792 3211
2239 1997 1836
2256 1994 1879
2316 1978 2007
2451 1951 2077
2569 1932 2238
2696 1912 2465
2866 1873 2726
2984 1861 3040
3067 1882 3346
2422 2214 1963
2435 2212 2003
2478 2202 2118
2543 2194 2248
2698 2157 2418
2826 2134 2629
2989 2102 2851
3102 2090 3152
3267 2029 3570
2652 2497 2133
2661 2496 2168
2691 2491 2267
2746 2483 2411
2800 2487 2529
2974 2443 2762
3129 2412 2995
3241 2398 3283
3432 2313 3751
2906 2830 2340
2912 2829 2369
2932 2828 2448
2969 2825 2577
3011 2829 2699
3102 2823 2846
3318 2758 3166
3422 2742 3455
3507 2728 3814
3151 3198 2619
3157 3199 2636
3172 3200 2681
3197 3202 2756
3232 3207 2858
3286 3211 3002
3373 3203 3229
3518 3170 3546
3588 3163 3891
3410 3568 3144
3415 3567 3161
3430 3567 3202
3455 3568 3269
3488 3570 3355
3521 3582 3427
3563 3598 3507
3624 3609 3646
3642 3618 3983
3813 3900 3768
3815 3902 3771
3820 3906 3779
3829 3914 3793
3843 3926 3813
3860 3942 3842
3881 3964 3878
3906 3989 3931
3936 4017 4020
2357 2071 1936
2377 2070 1950
2430 2064 1986
2536 2047 2053
2726 2000 2166
2814 1995 2401
2953 1970 2673
3138 1922 2969
3251 1917 3293
2398 2119 1965
2409 2120 1976
2461 2115 2011
2566 2098 2079
2758 2050 2191
2860 2037 2427
2999 2009 2706
3185 1957 3009
3298 1948 3338
2496 2234 2032
2506 2236 2042
2534 2239 2070
2636 2222 2138
2823 2177 2251
2971 2141 2485
3109 2107 2784
3299 2045 3105
3414 2025 3448
2656 2422 2142
2664 2424 2150
2688 2427 2173
2736 2430 2223
2913 2389 2338
3151 2315 2556
3286 2272 2899
3486 2192 3259
3607 2153 3632
2864 2674 2291
2871 2675 2297
2891 2679 2313
2930 2684 2348
3004 2683 2426
3312 2588 2616
3515 2506 3014
3645 2458 3396
3714 2452 3734
3104 2975 2475
3110 2977 2479
3126 2981 2489
3157 2987 2510
3212 2992 2553
3320 2982 2666
3582 2890 3071
3703 2849 3470
3783 2839 3800
3357 3315 2690
3362 3317 2692
3375 3321 2699
3400 3328 2711
3441 3336 2733
3496 3340 2853
3582 3330 3105
3775 3264 3551
3870 3247 3882
3610 3653 3313
3613 3655 3316
3621 3659 3324
3636 3667 3336
3659 3678 3354
3694 3692 3373
3744 3706 3433
3827 3705 3608
3974 3667 3981
3953 3983 3908
3955 3984 3911
3961 3989 3918
3970 3996 3931
3984 4007 3949
4003 4022 3975
4028 4042 4007
4058 4066 4047
4095 4095 4095
