Toning/Toning-Instagrammish.3dl
#25pt 3DLUT created by 3D LUT Creator Pro (c) Oleg Sharonov
#Copyright Oleg Sharonov
#IMAGEPROFILE sRGB IEC61966-2.1 v.2.10
#INPUTGAMMA sRGB IEC61966-2.1 v.2.10
#OUTPUTGAMMA sRGB IEC61966-2.1 v.2.10
0 256 512 768 1023
0 0 270
0 0 1025
0 0 1842
0 0 2251
0 0 2601
0 1033 270
0 1024 1025
87 1028 1826
293 1135 2199
406 985 2584
0 2073 271
34 2056 1030
1 2070 1841
22 2221 2195
0 2097 2600
0 3095 271
110 3067 1050
10 3049 1886
0 3111 2251
1135 3232 2409
0 4095 270
158 4094 1031
1 4095 1842
2792 3951 2137
0 4095 2601
1182 0 191
1124 0 1033
1165 29 1893
1382 117 2459
1307 186 2920
1182 1030 191
1125 1028 1033
1157 1025 1909
1207 1002 2599
1316 1003 2928
1184 2065 217
1098 2059 1028
1139 2065 1904
1183 2071 2567
1489 1965 2891
1283 3066 273
1064 3080 1023
1113 3092 1903
1169 3100 2554
1673 3027 2789
1162 4094 241
1031 4095 1021
1603 4074 1832
2855 4066 2290
1106 4095 2949
2193 0 136
2154 16 1030
2185 0 1936
2331 0 2660
2348 0 3296
2198 1026 153
2169 1022 1029
2195 1020 1936
2282 995 2719
2269 1091 3310
2193 2060 136
2155 2057 1028
2185 2060 1936
2252 2063 2723
2343 2069 3298
2251 3055 156
2136 3083 1024
2172 3085 1935
2239 3091 2716
2377 3095 3255
2193 4095 136
2233 4086 1073
2157 4095 1934
2482 4074 2663
2297 4095 3311
3127 0 78
3102 17 1031
3107 0 2000
3161 0 2840
3221 130 3490
3126 1044 99
3113 1016 1024
3131 1012 1983
3169 1004 2845
3167 1095 3528
3117 2077 79
3108 2049 1024
3128 2052 1981
3166 2053 2844
3204 2074 3542
3127 3078 78
3104 3075 1023
3124 3078 1981
3161 3082 2840
3203 3087 3566
3292 4068 486
3204 4091 1173
3132 4090 2015
3155 4095 2835
3193 4095 3568
4095 0 46
4095 9 1024
4095 0 2012
4071 114 2893
4095 0 3721
4095 1020 66
4095 1021 1023
4094 1038 2003
4080 1083 2893
4095 1016 3721
4095 2052 47
4095 2043 1025
4095 2049 2011
4087 2066 2913
4095 2055 3721
4074 3107 142
4092 3073 1032
4092 3075 2016
4095 3077 2913
4095 3080 3721
4095 4095 46
4095 4095 1023
4095 4095 2006
4095 4095 2908
4095 4095 3721
