Toning/Toning-FilmEmulation_Outdoor.3dl
#25pt 3DLUT created by 3D LUT Creator Pro (c) Oleg Sharonov
#Copyright Oleg Sharonov
#IMAGEPROFILE sRGB IEC61966-2.1 v.2.10
#INPUTGAMMA sRGB IEC61966-2.1 v.2.10
#OUTPUTGAMMA sRGB IEC61966-2.1 v.2.10
0 256 512 768 1023
0 0 0
0 0 956
0 0 2151
0 0 3121
0 0 3805
10 487 15
0 827 885
0 900 2153
0 902 3120
0 906 3803
185 1161 270
255 1479 754
0 2021 2015
66 2173 3107
184 2182 3766
391 1939 553
513 2137 931
471 2640 1831
236 3053 2947
660 3222 3736
668 2638 878
854 2751 1208
987 3140 1859
961 3524 2809
1074 3771 3615
740 0 0
740 0 960
740 0 2154
740 0 3121
744 0 3804
880 715 0
743 904 963
693 852 2390
647 803 3326
733 895 3802
703 1427 297
586 1703 788
578 2081 2069
679 2180 3143
742 2181 3797
742 2126 483
666 2356 877
777 2743 1851
551 3096 2986
1083 3227 3746
959 2755 807
836 2938 1058
1114 3251 1896
1069 3578 2842
1122 3796 3639
2017 0 0
2019 0 961
2020 0 2153
2022 0 3118
2025 0 3799
2094 848 145
2124 840 898
2125 808 2241
2082 811 3209
2040 863 3797
2268 1783 0
2275 1880 850
2022 2175 2153
1984 2140 3295
2022 2174 3793
2010 2511 713
2005 2650 951
1746 2942 1914
1751 3174 3057
2040 3237 3786
1938 3076 1010
1936 3209 1104
1777 3528 1938
1813 3741 2917
1481 3891 3731
3137 229 247
3208 0 961
3207 0 2152
3203 18 3112
3187 169 3771
3126 986 469
3211 901 960
3263 824 2167
3249 832 3147
3220 890 3793
3356 2075 382
3327 2098 1061
3335 2104 2087
3332 2074 3212
3227 2160 3789
3475 2778 190
3548 2828 592
3456 2995 2072
3208 3234 3111
3207 3233 3786
3284 3371 1243
3322 3442 1352
3339 3673 1964
2951 3854 2904
2859 3937 3775
3942 535 578
4022 244 1032
4017 266 2157
4011 312 3090
4006 383 3754
3897 1238 823
3985 1071 1127
4046 930 2157
4036 959 3106
4026 1008 3769
4020 2186 1044
4012 2201 1415
4051 2166 2144
4050 2158 3118
4050 2162 3787
4051 3111 1419
4050 3138 1738
4049 3197 2388
4048 3227 3104
4048 3225 3784
4048 3586 2434
4048 3624 2678
4048 3768 3300
4048 3868 3601
4048 3946 3783
