Toning/Toning - Contrast & Red shaping.3dl
#25pt 3DLUT created by 3D LUT Creator Pro (c) Oleg Sharonov
#Copyright Oleg Sharonov
#IMAGEPROFILE ProPhoto RGB v.2.10
#INPUTGAMMA ProPhoto RGB v.2.10
#OUTPUTGAMMA ProPhoto RGB v.2.10
0 43 86 128 171 214 256 299 341 384 427 469 512 555 597 640 682 725 768 810 853 896 938 981 1023 
0 0 0
1 0 88
1 0 239
1 0 431
0 0 644
0 0 863
0 0 1091
0 0 1326
0 0 1568
0 0 1829
0 0 2087
0 0 2352
0 0 2611
0 0 2861
0 0 3095
0 0 3309
0 0 3498
0 0 3654
0 0 3786
0 0 3894
0 0 3979
0 0 4045
0 0 4094
0 0 4095
0 0 4095
0 134 0
1 136 84
1 139 239
1 142 433
0 145 646
0 149 866
0 153 1094
0 156 1328
0 160 1571
0 164 1831
0 168 2089
0 172 2353
0 176 2612
0 179 2862
0 182 3096
0 185 3310
0 188 3496
0 191 3655
0 193 3786
0 195 3894
0 197 3979
0 199 4045
0 201 4093
0 202 4095
0 203 4095
1 268 0
1 273 83
1 277 237
1 285 431
1 293 643
0 301 869
0 308 1097
0 316 1325
0 324 1575
0 333 1834
0 343 2093
0 352 2352
0 361 2615
0 369 2865
0 376 3099
0 383 3311
0 390 3497
0 395 3654
0 400 3785
0 404 3893
0 408 3978
0 411 4044
0 414 4092
0 415 4095
0 416 4095
1 415 0
1 420 83
1 429 240
1 439 433
1 450 644
0 462 868
0 474 1094
0 486 1327
0 499 1576
0 512 1832
0 528 2094
0 542 2354
0 556 2613
0 568 2863
0 580 3097
0 591 3310
0 601 3498
0 610 3654
0 617 3785
0 624 3893
0 629 3978
0 633 4043
0 637 4091
0 639 4095
0 640 4095
1 577 0
1 585 83
1 595 240
1 609 433
1 625 645
0 642 870
0 657 1096
0 675 1327
0 693 1576
0 710 1833
0 732 2095
0 751 2355
0 769 2614
0 787 2863
0 803 3098
0 818 3310
0 833 3498
0 844 3654
0 854 3785
0 864 3892
0 871 3977
0 877 4042
0 881 4091
0 883 4095
0 885 4095
1 760 0
1 768 82
1 783 240
1 801 433
1 820 646
0 839 868
0 861 1096
0 882 1329
0 903 1575
0 927 1834
0 953 2093
0 979 2356
0 1003 2616
0 1025 2865
0 1046 3099
0 1065 3311
0 1082 3498
0 1097 3654
0 1110 3785
0 1120 3892
0 1129 3977
0 1136 4042
0 1142 4090
0 1144 4095
0 1146 4095
0 955 0
1 965 82
1 982 239
1 1003 433
0 1027 646
0 1051 869
0 1075 1096
0 1101 1329
0 1128 1577
0 1155 1835
0 1187 2096
0 1216 2356
0 1244 2616
0 1271 2865
0 1296 3099
0 1319 3311
0 1341 3498
0 1357 3654
0 1372 3784
0 1385 3891
0 1396 3976
0 1403 4041
0 1410 4089
0 1413 4095
0 1415 4095
0 1161 0
1 1172 81
1 1192 239
0 1216 433
0 1243 647
0 1270 870
0 1298 1097
0 1327 1329
0 1357 1576
0 1389 1836
0 1424 2095
0 1459 2357
0 1491 2617
0 1522 2866
0 1550 3099
0 1577 3312
0 1599 3497
0 1620 3654
0 1637 3784
0 1650 3890
0 1662 3975
0 1671 4040
0 1679 4087
0 1681 4095
0 1683 4095
0 1373 0
0 1384 81
0 1406 239
0 1433 433
0 1462 645
0 1493 870
0 1524 1097
0 1554 1329
0 1588 1577
0 1623 1836
0 1663 2096
0 1700 2357
0 1736 2617
0 1769 2867
0 1801 3100
0 1830 3312
0 1854 3497
0 1876 3653
0 1894 3783
0 1909 3889
0 1922 3974
0 1931 4038
0 1939 4086
0 1942 4095
0 1943 4095
0 1587 0
0 1599 80
0 1623 239
0 1651 433
0 1682 645
0 1715 870
0 1748 1097
0 1780 1329
0 1817 1577
0 1854 1837
0 1896 2096
0 1935 2357
0 1971 2617
0 2006 2866
0 2039 3099
0 2069 3311
0 2095 3496
0 2118 3652
0 2137 3782
0 2153 3888
0 2165 3972
0 2175 4036
0 2183 4084
0 2186 4094
0 2188 4094
0 1801 0
0 1813 79
0 1838 239
0 1867 433
0 1899 645
0 1932 870
0 1965 1097
0 1999 1329
0 2035 1577
0 2073 1836
0 2115 2096
0 2156 2356
0 2194 2616
0 2231 2865
0 2266 3098
0 2298 3310
0 2325 3495
0 2350 3651
0 2370 3781
0 2386 3887
0 2399 3971
0 2411 4036
0 2419 4083
0 2422 4094
0 2423 4094
0 2019 0
0 2031 78
0 2056 238
0 2084 433
0 2116 646
0 2150 870
0 2184 1097
0 2219 1328
0 2257 1577
0 2296 1836
0 2341 2096
0 2383 2357
0 2422 2617
0 2460 2866
0 2496 3098
0 2528 3310
0 2557 3495
0 2581 3651
0 2602 3781
0 2618 3886
0 2632 3970
0 2643 4034
0 2651 4082
0 2655 4094
0 2656 4094
0 2249 0
0 2262 78
0 2287 238
0 2316 432
0 2349 646
0 2383 870
0 2417 1096
0 2453 1329
0 2490 1577
0 2529 1836
0 2573 2095
0 2615 2357
0 2654 2616
0 2692 2866
0 2727 3098
0 2759 3310
0 2788 3495
0 2812 3650
0 2832 3780
0 2849 3885
0 2863 3969
0 2873 4033
0 2882 4081
0 2885 4094
0 2887 4094
0 2493 0
0 2505 77
0 2529 238
0 2557 432
0 2589 646
0 2622 870
0 2655 1096
0 2689 1329
0 2725 1577
0 2762 1837
0 2805 2096
0 2845 2357
0 2883 2617
0 2919 2866
0 2953 3098
0 2984 3310
0 3011 3494
0 3034 3650
0 3054 3779
0 3070 3884
0 3083 3968
0 3093 4032
0 3101 4079
0 3105 4095
0 3106 4095
0 2739 0
0 2750 76
0 2773 237
0 2799 432
0 2828 646
0 2859 869
0 2890 1097
0 2922 1329
0 2955 1577
0 2990 1837
0 3029 2096
0 3067 2357
0 3102 2617
0 3136 2866
0 3167 3098
0 3196 3310
0 3221 3494
0 3242 3649
0 3260 3778
0 3275 3883
0 3287 3967
0 3297 4031
0 3304 4078
0 3308 4095
0 3309 4095
0 2984 0
0 2994 75
0 3014 237
0 3037 432
0 3063 646
0 3091 869
0 3118 1096
0 3146 1329
0 3176 1577
0 3207 1837
0 3242 2096
0 3276 2358
0 3307 2617
0 3337 2866
0 3365 3098
0 3391 3309
0 3413 3493
0 3432 3648
0 3448 3777
0 3462 3883
0 3472 3966
0 3481 4030
0 3487 4077
0 3491 4095
0 3492 4095
0 3220 0
0 3229 74
0 3246 236
0 3266 431
0 3288 646
0 3311 869
0 3334 1096
0 3358 1329
0 3383 1577
0 3410 1837
0 3439 2096
0 3468 2358
0 3494 2618
0 3520 2866
0 3544 3098
0 3565 3309
0 3584 3493
0 3600 3648
0 3614 3777
0 3625 3882
0 3635 3965
0 3642 4029
0 3647 4075
0 3650 4095
0 3651 4095
0 3443 0
0 3450 74
0 3464 236
0 3480 431
0 3497 646
0 3516 869
0 3534 1096
0 3553 1329
0 3573 1578
0 3594 1838
0 3618 2097
0 3640 2358
0 3661 2618
0 3681 2866
0 3700 3098
0 3717 3309
0 3732 3493
0 3745 3647
0 3756 3776
0 3765 3881
0 3772 3964
0 3778 4027
0 3782 4074
0 3785 4095
0 3786 4095
0 3649 0
0 3654 73
0 3664 236
0 3675 431
0 3688 646
0 3701 870
0 3714 1097
0 3728 1330
0 3742 1578
0 3757 1838
0 3774 2097
0 3790 2359
0 3805 2618
0 3820 2867
0 3833 3099
0 3846 3309
0 3857 3492
0 3866 3647
0 3874 3775
0 3881 3880
0 3886 3963
0 3890 4027
0 3894 4073
0 3895 4095
0 3896 4095
0 3823 0
0 3826 73
0 3832 236
0 3839 431
0 3847 646
0 3855 870
0 3863 1097
0 3871 1330
0 3880 1579
0 3889 1839
0 3900 2098
0 3910 2359
0 3919 2619
0 3929 2867
0 3937 3099
0 3945 3309
0 3952 3492
0 3958 3647
0 3963 3775
0 3968 3879
0 3971 3962
0 3974 4026
0 3976 4072
0 3977 4095
0 3977 4095
0 3952 0
0 3954 73
0 3957 236
0 3960 432
0 3964 647
0 3968 871
0 3972 1098
0 3976 1331
0 3981 1580
0 3985 1840
0 3991 2099
0 3995 2360
0 4001 2620
0 4006 2868
0 4010 3100
0 4015 3310
0 4018 3493
0 4022 3647
0 4024 3775
0 4027 3879
0 4029 3962
0 4030 4025
0 4031 4072
0 4032 4095
0 4032 4095
0 4044 0
0 4044 73
0 4045 237
0 4045 433
0 4046 648
0 4047 872
0 4048 1099
0 4049 1332
0 4050 1581
0 4051 1841
0 4053 2100
0 4054 2362
0 4056 2621
0 4058 2869
0 4059 3101
0 4061 3311
0 4062 3493
0 4064 3647
0 4065 3775
0 4066 3879
0 4067 3962
0 4067 4025
0 4068 4071
0 4068 4095
0 4068 4095
0 4095 0
0 4095 73
0 4095 238
0 4095 434
0 4095 649
0 4095 873
0 4095 1100
0 4095 1333
0 4095 1582
0 4094 1842
0 4092 2102
0 4091 2363
0 4091 2622
0 4090 2870
0 4090 3102
0 4090 3312
0 4090 3494
0 4090 3648
0 4090 3776
0 4090 3880
0 4090 3962
0 4090 4025
0 4090 4071
0 4090 4095
0 4090 4095
0 4095 0
0 4095 74
0 4095 239
0 4095 435
0 4095 650
0 4095 874
0 4095 1101
0 4095 1335
0 4095 1584
0 4095 1844
0 4095 2103
0 4094 2365
0 4095 2624
0 4095 2871
0 4095 3103
0 4095 3313
0 4095 3495
0 4095 3649
0 4095 3776
0 4095 3880
0 4095 3962
0 4095 4025
0 4095 4071
0 4095 4095
0 4095 4095
2 4095 0
2 4095 77
2 4095 240
2 4095 438
2 4095 652
0 4095 876
0 4095 1103
0 4095 1337
0 4095 1585
0 4095 1846
0 4095 2105
0 4094 2367
0 4095 2625
0 4095 2873
0 4095 3104
0 4095 3314
0 4095 3496
0 4095 3650
0 4095 3777
0 4095 3881
0 4095 3963
0 4095 4025
0 4095 4071
3 4095 4095
0 4095 4095
212 2 0
217 2 95
213 2 267
213 2 469
216 2 669
215 2 889
215 2 1109
214 2 1346
213 2 1598
212 2 1852
212 2 2117
211 2 2375
210 2 2632
209 2 2885
208 2 3112
208 2 3326
207 2 3509
207 2 3663
208 2 3792
208 2 3898
209 2 3981
210 2 4045
211 2 4093
212 2 4095
213 2 4095
209 138 0
210 140 95
210 142 274
209 145 473
209 149 684
208 152 901
207 155 1123
206 159 1348
205 163 1589
204 166 1842
203 170 2101
203 174 2365
202 177 2623
201 181 2872
200 184 3105
200 187 3317
200 189 3504
200 192 3659
200 194 3789
200 196 3895
201 198 3979
202 200 4044
203 202 4092
204 203 4095
205 204 4095
208 274 0
209 276 90
209 283 264
209 289 471
208 296 688
207 304 910
207 311 1137
206 318 1362
205 327 1607
204 334 1861
202 344 2113
201 353 2370
200 362 2623
199 370 2871
198 377 3104
197 384 3316
196 390 3500
196 395 3657
196 400 3788
196 404 3893
197 408 3979
197 411 4044
198 414 4092
199 416 4095
200 417 4095
203 422 0
203 427 86
203 436 252
202 445 456
201 457 675
200 469 903
199 481 1128
198 492 1357
197 504 1603
196 516 1860
195 530 2115
195 545 2372
194 558 2631
193 571 2878
192 581 3108
192 593 3318
192 602 3501
192 609 3656
192 617 3786
192 623 3892
193 628 3977
194 633 4042
195 637 4091
196 638 4095
197 640 4095
200 585 0
200 592 84
200 604 247
200 617 448
200 632 666
199 649 895
198 663 1127
197 678 1358
196 697 1606
194 714 1863
193 733 2120
192 751 2378
190 771 2638
189 788 2885
188 803 3117
188 819 3328
188 832 3510
188 842 3663
188 852 3791
188 860 3895
189 866 3978
190 872 4042
191 877 4090
192 880 4095
189 880 4095
196 768 0
197 777 83
196 791 243
196 808 443
195 826 660
195 847 888
194 864 1117
194 886 1353
193 908 1604
192 928 1862
191 953 2122
190 978 2382
189 1001 2641
188 1023 2889
187 1044 3121
186 1062 3329
186 1080 3510
186 1093 3662
186 1106 3790
186 1116 3895
187 1125 3978
187 1132 4042
188 1138 4089
189 1140 4095
191 1142 4095
195 964 0
195 974 82
195 992 242
195 1011 440
194 1034 657
193 1059 884
192 1081 1114
191 1105 1348
190 1133 1599
190 1158 1861
189 1186 2122
188 1216 2384
187 1244 2644
186 1271 2893
185 1294 3122
184 1317 3328
183 1337 3508
183 1351 3661
183 1368 3790
183 1379 3894
183 1389 3977
184 1398 4041
185 1405 4088
186 1407 4095
187 1409 4095
192 1172 0
193 1183 81
193 1203 241
193 1225 437
192 1251 655
192 1278 882
191 1303 1111
189 1332 1347
188 1362 1596
186 1391 1858
184 1424 2120
183 1459 2385
183 1490 2645
182 1520 2892
181 1546 3118
181 1572 3325
181 1596 3507
180 1613 3660
180 1630 3788
181 1644 3893
181 1655 3976
182 1665 4040
183 1672 4087
184 1674 4095
185 1676 4095
189 1386 0
189 1397 80
189 1420 241
188 1444 437
188 1472 655
187 1502 882
187 1529 1112
186 1560 1346
185 1594 1596
184 1625 1857
183 1661 2118
182 1699 2381
180 1734 2640
179 1766 2884
179 1795 3113
178 1824 3322
178 1849 3504
178 1868 3659
178 1886 3787
179 1901 3891
179 1913 3974
180 1923 4039
180 1931 4086
181 1934 4095
182 1936 4095
187 1600 0
188 1613 80
187 1636 240
187 1662 436
186 1692 653
185 1724 880
184 1753 1110
184 1787 1344
183 1822 1594
182 1855 1855
181 1894 2115
180 1934 2378
178 1971 2634
176 2006 2880
175 2037 3110
174 2067 3319
174 2093 3502
174 2112 3657
174 2131 3785
174 2146 3890
175 2160 3973
176 2170 4037
177 2178 4084
178 2181 4095
179 2182 4095
185 1814 0
185 1826 79
185 1851 240
185 1877 436
185 1908 652
183 1942 879
182 1972 1109
181 2007 1343
179 2043 1592
178 2078 1853
177 2116 2113
176 2157 2373
175 2195 2630
174 2230 2876
173 2262 3107
171 2292 3317
171 2319 3500
170 2339 3655
170 2359 3784
170 2375 3889
170 2389 3972
171 2400 4036
172 2408 4083
173 2411 4095
174 2413 4095
