Toning/Toning-Warm Only (Yellow).3dl
#25pt 3DLUT created by 3D LUT Creator Pro (c) Oleg Sharonov
#Copyright Oleg Sharonov
#IMAGEPROFILE sRGB IEC61966-2.1 v.2.10
#INPUTGAMMA sRGB IEC61966-2.1 v.2.10
#OUTPUTGAMMA sRGB IEC61966-2.1 v.2.10
0 256 512 768 1023
0 71 0
451 560 52
1500 1254 1143
2334 2079 2059
2864 2814 2728
712 775 113
1015 982 623
1812 1538 1436
2493 2272 2221
2961 2933 2832
1971 1681 993
2071 1788 1382
2398 2160 2041
2837 2718 2587
3194 3221 3089
2897 2687 1858
2925 2746 2114
3028 2937 2642
3249 3265 3073
3501 3584 3455
3511 3512 2732
3524 3540 2880
3577 3631 3204
3666 3767 3603
3822 3916 3841
726 123 52
950 865 530
1751 1447 1362
2443 2204 2164
2920 2883 2788
1304 1047 0
1385 1206 891
2006 1699 1606
2586 2381 2305
3012 2994 2883
2205 1872 1015
2274 1965 1451
2512 2278 2151
2901 2797 2652
3233 3268 3132
2986 2804 1877
3013 2852 2137
3097 3017 2679
3290 3313 3122
3528 3612 3488
3552 3567 2763
3565 3591 2907
3611 3670 3242
3693 3792 3633
3839 3931 3861
2020 87 0
2299 530 287
2284 1944 1884
2716 2539 2443
3075 3075 2960
2478 971 0
2611 1012 577
2439 2133 2048
2820 2674 2555
3150 3166 3042
2833 2377 0
2871 2486 243
2807 2620 2399
3073 3013 2850
3343 3397 3263
3219 3089 1931
3238 3140 2186
3279 3243 2786
3408 3454 3266
3606 3689 3586
3666 3709 2870
3677 3728 3005
3709 3778 3345
3777 3865 3709
3888 3972 3917
3232 316 0
3311 514 634
3416 1821 2006
3054 2984 2844
3296 3342 3234
3451 1125 0
3494 1161 834
3493 1997 2114
3125 3077 2929
3353 3406 3300
3573 2485 0
3600 2526 289
3614 2608 2334
3313 3324 3158
3506 3574 3479
3615 3519 0
3617 3552 676
3622 3613 2227
3587 3657 3486
3725 3802 3733
3828 3877 3076
3835 3889 3196
3856 3923 3500
3892 3969 3832
3965 4035 4001
3922 1128 700
3927 1182 1371
3863 2017 2414
3591 3185 3179
3531 3592 3534
3954 1635 780
3953 1682 1458
3886 2194 2526
3655 3214 3204
3572 3634 3580
3924 2726 509
3919 2758 1307
3901 2837 2660
3770 3396 3341
3686 3751 3705
3923 3666 0
3919 3680 897
3911 3700 2491
3900 3734 3589
3858 3920 3889
4051 4068 2086
4049 4068 2435
4044 4071 3180
4044 4082 3829
4058 4095 4091
