Toning/Toning-Goldie.3dl
#25pt 3DLUT created by 3D LUT Creator Pro (c) Oleg Sharonov
#Copyright Oleg Sharonov
#IMAGEPROFILE sRGB IEC61966-2.1 v.2.10
#INPUTGAMMA sRGB IEC61966-2.1 v.2.10
#OUTPUTGAMMA sRGB IEC61966-2.1 v.2.10
0 256 512 768 1023
0 0 0
183 146 203
559 525 565
1048 1002 1018
1621 1566 1539
1065 1044 720
1352 1277 1207
1369 1325 1312
1616 1566 1537
1951 1890 1859
2336 2453 1646
2476 2628 1912
2375 2346 2166
2347 2303 2258
2528 2471 2448
3051 3224 2258
3096 3278 2379
3227 3445 2745
3062 3057 2954
3124 3113 3101
3580 3740 2782
3611 3774 2858
3665 3836 3048
3725 3885 3390
3742 3810 3788
1454 133 200
1434 458 793
1151 904 975
1392 1261 1282
1812 1725 1699
1380 1049 375
1987 1632 1337
1661 1497 1487
1780 1688 1657
2081 2002 1972
2251 2295 1282
2474 2604 1716
2615 2659 2335
2437 2379 2332
2608 2543 2520
3030 3179 2077
3133 3293 2312
3284 3478 2737
3149 3153 3010
3167 3149 3138
3612 3767 2717
3662 3818 2849
3717 3879 3065
3769 3925 3403
3775 3837 3814
2968 1322 913
3138 856 990
2695 1091 1544
2215 1655 1755
2246 2016 2036
3031 1891 937
3165 2097 1557
2906 1511 1827
2430 1926 2006
2452 2243 2258
2784 2378 886
2933 2567 1352
3276 3076 2464
2793 2530 2536
2861 2727 2725
3185 3156 1645
3244 3251 1883
3326 3408 2458
3296 3304 3086
3299 3265 3253
3689 3835 2503
3716 3860 2644
3768 3911 2962
3819 3946 3408
3840 3881 3859
3580 2131 1412
3645 1967 1441
3674 1051 1841
3341 1614 2214
2831 2308 2423
3667 2536 1517
3691 2570 1820
3799 1789 1916
3453 1857 2403
2962 2477 2587
3641 2801 1214
3713 2903 1613
3806 3081 2451
3603 2483 2790
3255 2871 2961
3585 3263 1111
3602 3298 1462
3652 3393 2204
3699 3485 3138
3565 3396 3428
3919 3921 2074
3931 3943 2256
3926 3956 2651
3919 3999 3276
3930 3954 3910
3904 2512 1671
3977 2327 1650
3985 1784 1998
3933 1385 2556
3490 2373 2762
3962 2769 1702
3972 2690 1882
3987 2268 2168
3968 1737 2706
3585 2518 2895
3953 3004 1761
3968 3091 2210
3995 3166 2722
3996 2588 2960
3754 2881 3189
3938 3366 1801
3955 3406 2224
3985 3495 2781
4016 3538 3296
3934 3410 3577
4028 3998 3800
4029 4006 3839
4029 4006 3831
4029 4013 3862
4023 4023 3974
