Toning/Toning-Greenish.3dl
#25pt 3DLUT created by 3D LUT Creator Pro (c) Oleg Sharonov
#Copyright Oleg Sharonov
#IMAGEPROFILE sRGB IEC61966-2.1 v.2.10
#INPUTGAMMA sRGB IEC61966-2.1 v.2.10
#OUTPUTGAMMA sRGB IEC61966-2.1 v.2.10
0 256 512 768 1023
0 0 0
0 0 548
0 0 1823
0 0 3025
200 126 3698
0 842 0
0 847 553
0 848 1823
55 884 2898
730 1096 3430
380 2175 114
397 2178 700
442 2186 1793
941 2183 2764
1413 2245 3372
1522 3178 1108
1532 3180 1393
1561 3186 2092
1615 3199 2935
2112 3194 3528
2921 3781 2663
2933 3782 2750
2973 3785 2991
3046 3791 3330
3148 3803 3687
929 0 0
932 0 552
933 0 1822
934 0 3024
1039 338 3571
930 844 0
936 850 555
938 852 1820
1003 920 2836
1224 1154 3400
1108 2182 138
1115 2185 716
1136 2193 1801
1382 2199 2770
1690 2269 3378
1816 3185 1135
1823 3187 1416
1847 3193 2107
1891 3205 2943
2282 3204 3536
3015 3784 2709
3066 3776 2840
3099 3780 3051
3160 3788 3356
3248 3801 3686
2200 0 0
2203 0 552
2203 0 1823
2104 134 2843
2021 720 3403
2160 874 0
2159 883 582
2153 905 1769
2092 1049 2759
2080 1323 3360
2194 2206 217
2196 2209 772
2204 2218 1826
2234 2252 2793
2255 2274 3721
2477 3206 1220
2482 3208 1489
2495 3214 2157
2522 3226 2970
2637 3243 3630
3259 3794 2846
3290 3789 2958
3307 3795 3131
3354 3803 3405
3420 3815 3703
3016 406 185
3012 435 711
3002 517 1709
2996 651 2750
2866 1152 3357
2999 1148 374
2998 1161 825
2998 1201 1752
3005 1275 2762
2899 1599 3369
3051 2295 806
3053 2300 1143
3059 2317 1929
3072 2350 2845
3120 2368 3683
3196 3247 1374
3198 3249 1622
3204 3255 2250
3217 3267 3022
3241 3290 3698
3565 3818 3060
3577 3815 3145
3591 3819 3284
3568 3843 3439
3604 3850 3745
3514 1299 949
3515 1317 1211
3518 1371 1862
3527 1468 2676
3545 1607 3410
3530 1706 1096
3531 1720 1337
3536 1760 1947
3547 1835 2724
3567 1944 3435
3598 2543 1495
3600 2550 1688
3766 2448 2066
3756 2492 2930
3745 2564 3642
3736 3327 2087
3725 3333 2278
3732 3343 2639
3792 3346 3122
3792 3378 3697
3837 3853 3283
3837 3853 3343
3839 3855 3463
3850 3865 3553
3858 3872 3772
