Toning/Toning-FilmEmulation_Outdoor.3dl
#25pt 3DLUT created by 3D LUT Creator Pro (c) Oleg Sharonov
#Copyright Oleg Sharonov
#IMAGEPROFILE sRGB IEC61966-2.1 v.2.10
#INPUTGAMMA sRGB IEC61966-2.1 v.2.10
#OUTPUTGAMMA sRGB IEC61966-2.1 v.2.10
0 128 256 384 512 640 768 896 1023
0 0 0
0 0 417
0 0 956
0 0 1565
0 0 2151
0 0 2659
0 0 3121
0 0 3494
0 0 3805
0 233 0
0 362 390
0 386 958
0 385 1566
0 384 2152
0 384 2660
0 383 3121
0 384 3494
0 385 3804
10 487 15
21 608 301
0 827 885
0 900 1568
0 900 2153
0 901 2660
0 902 3120
0 904 3492
0 906 3803
85 798 124
131 892 350
84 1165 776
0 1415 1454
0 1537 2153
0 1538 2660
0 1539 3119
0 1541 3490
52 1549 3786
185 1161 270
239 1229 449
255 1479 754
138 1784 1334
0 2021 2015
30 2172 2654
66 2173 3107
119 2176 3470
184 2182 3766
282 1550 411
349 1598 570
374 1808 827
370 2093 1273
171 2364 1890
69 2562 2504
162 2701 3078
247 2730 3462
345 2733 3752
391 1939 553
462 1974 697
513 2137 931
544 2380 1292
471 2640 1831
229 2879 2386
236 3053 2947
433 3175 3417
660 3222 3736
518 2304 708
594 2329 840
675 2448 1061
714 2657 1370
764 2897 1792
637 3130 2344
438 3327 2835
586 3459 3320
920 3551 3686
668 2638 878
746 2656 999
854 2751 1208
909 2928 1480
987 3140 1859
1039 3346 2317
961 3524 2809
866 3669 3234
1074 3771 3615
289 1 1
289 0 418
287 0 959
285 0 1567
284 0 2153
282 0 2661
282 0 3122
281 0 3494
282 0 3805
345 314 1
288 388 418
249 339 1300
85 121 2343
0 0 2810
0 0 3143
0 0 3449
0 0 3721
255 353 3804
279 578 13
192 727 282
196 866 924
193 908 1657
148 892 2296
109 870 2830
99 850 3267
128 846 3590
178 858 3803
269 881 78
152 1034 224
227 1233 783
186 1443 1480
223 1544 2178
220 1542 2691
227 1540 3147
246 1540 3504
279 1546 3800
314 1229 213
230 1343 337
285 1559 762
242 1825 1350
188 2040 2031
262 2176 2663
280 2176 3117
310 2178 3479
357 2182 3776
391 1603 356
319 1690 460
404 1874 829
399 2139 1276
185 2393 1905
151 2578 2518
307 2708 3087
408 2732 3467
500 2734 3757
489 1981 499
424 2045 596
545 2188 933
568 2419 1300
494 2667 1838
242 2899 2397
242 3064 2958
440 3180 3425
789 3224 3738
606 2336 650
551 2382 745
706 2488 1063
738 2690 1375
785 2923 1801
658 3148 2351
454 3339 2843
594 3466 3327
929 3555 3692
744 2664 820
700 2700 913
865 2786 1199
934 2956 1485
1010 3161 1867
1064 3361 2322
981 3534 2815
878 3676 3240
1084 3776 3620
740 0 0
740 0 418
740 0 960
740 0 1568
740 0 2154
740 0 2661
740 0 3121
742 0 3493
744 0 3804
799 359 0
877 323 348
857 306 1085
873 202 1898
840 7 2591
764 0 3036
713 0 3396
679 0 3691
731 344 3803
880 715 0
890 761 313
743 904 963
717 877 1773
693 852 2390
667 824 2909
647 803 3326
642 797 3637
733 895 3802
761 1077 180
740 1171 326
602 1344 807
598 1499 1533
649 1548 2220
654 1539 2741
659 1532 3193
671 1529 3542
692 1531 3800
703 1427 297
691 1520 318
586 1703 788
624 1898 1377
578 2081 2069
659 2183 2686
679 2180 3143
705 2179 3502
742 2181 3797
700 1780 382
678 1857 396
616 2037 821
717 2229 1317
604 2439 1939
567 2608 2544
705 2724 3110
777 2736 3479
852 2737 3770
742 2126 483
733 2183 516
666 2356 877
801 2529 1336
777 2743 1851
550 2950 2430
551 3096 2986
830 3194 3441
1083 3227 3746
838 2446 634
826 2490 666
686 2674 898
853 2830 1387
878 3030 1831
757 3223 2378
525 3387 2878
633 3496 3355
965 3570 3716
959 2755 807
948 2791 839
836 2938 1058
1052 3071 1505
1114 3251 1896
1176 3424 2339
1069 3578 2842
930 3707 3262
1122 3796 3639
1354 0 0
1356 0 417
1357 0 960
1356 0 1569
1358 0 2153
1359 0 2660
1360 0 3120
1362 0 3492
1364 0 3802
1399 358 0
1512 281 303
1530 243 1003
1484 256 1685
1490 182 2332
1470 111 2871
1432 87 3299
1396 138 3611
1369 293 3801
1495 838 0
1487 847 370
1487 850 909
1479 830 1682
1440 824 2305
1413 812 2827
1387 804 3264
1367 807 3594
1362 869 3800
1570 1229 0
1611 1255 227
1536 1368 888
1360 1540 1571
1335 1515 2332
1319 1499 2858
1309 1489 3286
1303 1483 3614
1355 1535 3797
1438 1637 272
1454 1691 374
1364 1819 821
1159 2012 1380
1156 2145 2126
1237 2186 2735
1261 2177 3195
1279 2171 3546
1303 2170 3795
1323 1999 494
1331 2053 512
1254 2187 826
1125 2358 1347
1150 2513 1968
1116 2656 2587
1260 2744 3145
1306 2740 3503
1364 2738 3793
1284 2321 593
1281 2366 607
1198 2509 821
1125 2667 1346
1234 2828 1886
1105 3001 2467
1114 3129 3017
1359 3215 3462
1522 3232 3760
1286 2618 697
1277 2657 711
1216 2821 777
1158 2973 1376
1310 3128 1893
1267 3294 2399
1050 3437 2921
1104 3529 3385
1498 3585 3734
1324 2908 825
1320 2940 846
1308 3068 971
1198 3284 1414
1386 3417 1942
1399 3546 2376
1258 3663 2889
1053 3767 3307
1201 3837 3678
2017 0 0
2019 0 415
2019 0 961
2019 0 1569
2020 0 2153
2021 0 2660
2022 0 3118
2024 0 3489
2025 0 3799
2019 384 38
2104 304 328
2156 230 944
2130 243 1623
2102 260 2223
2097 237 2746
2082 235 3198
2061 261 3542
2043 311 3799
2094 848 145
2078 863 459
2124 840 898
2144 812 1607
2125 808 2241
2102 808 2761
2082 811 3209
2062 820 3554
2040 863 3797
2175 1410 0
2173 1429 384
2162 1477 926
2164 1480 1515
2154 1458 2266
2104 1464 2805
2072 1467 3248
2051 1470 3587
2030 1530 3795
2268 1783 0
2324 1794 57
2275 1880 850
2204 2010 1493
2022 2175 2153
1995 2150 2849
1984 2140 3295
1977 2133 3628
2022 2174 3793
2146 2181 364
2165 2216 381
2155 2296 796
2042 2433 1358
1787 2608 1951
1780 2714 2640
1896 2746 3187
1929 2737 3546
1993 2735 3791
2010 2511 713
2021 2544 728
2005 2650 951
1919 2782 1346
1746 2942 1914
1766 3066 2493
1751 3174 3057
1960 3242 3496
2040 3237 3786
1952 2805 854
1956 2835 870
1962 2963 943
1850 3105 1330
1738 3247 1905
1843 3363 2418
1708 3479 2957
1742 3556 3411
2055 3603 3758
1938 3076 1010
1939 3101 1027
1936 3209 1104
1857 3410 1283
1777 3528 1938
1914 3633 2435
1813 3741 2917
1515 3836 3359
1481 3891 3731
2627 7 8
2633 0 416
2633 0 960
2633 0 1569
2633 0 2153
2634 0 2659
2635 0 3117
2637 0 3487
2633 39 3789
2539 489 261
2643 374 404
2717 262 924
2704 273 1582
2688 287 2183
2675 302 2691
2667 309 3146
2655 334 3503
2642 376 3797
2622 902 325
2617 911 537
2689 858 917
2734 809 1569
2722 808 2195
2709 810 2718
2692 820 3171
2676 835 3524
2660 861 3795
2752 1457 263
2739 1467 532
2712 1489 1003
2760 1468 1503
2776 1442 2193
2760 1434 2759
2724 1449 3212
2697 1460 3558
2660 1511 3793
2820 1971 4
2816 1988 355
2788 2044 918
2795 2112 1517
2802 2111 2094
2790 2089 2782
2723 2104 3253
2690 2111 3595
2646 2167 3790
2917 2307 0
2941 2325 0
2960 2368 760
2907 2461 1466
2830 2583 2067
2636 2734 2657
2610 2710 3285
2606 2706 3620
2638 2734 3789
2802 2662 499
2817 2685 517
2863 2753 800
2819 2850 1311
2682 2986 1907
2398 3143 2463
2393 3223 3101
2539 3244 3529
2604 3237 3787
2679 2973 921
2687 2995 946
2718 3088 1057
2676 3204 1456
2567 3323 1899
2363 3445 2433
2371 3523 2977
2369 3587 3440
2622 3627 3787
2596 3238 1213
2603 3257 1231
2628 3337 1307
2652 3487 1464
2527 3615 1888
2369 3717 2436
2428 3792 2917
2233 3869 3383
2207 3914 3753
3137 229 247
3209 0 415
3208 0 961
3208 0 1569
3207 0 2152
3207 0 2658
3203 18 3112
3196 80 3474
3187 169 3771
3047 621 440
3160 465 503
3242 317 934
3236 323 1567
3229 334 2160
3222 346 2667
3217 356 3123
3208 385 3483
3198 431 3780
3126 986 469
3124 993 646
3211 901 960
3270 822 1552
3263 824 2167
3256 827 2687
3249 832 3147
3234 855 3504
3220 890 3793
3234 1502 513
3226 1510 715
3218 1526 1069
3279 1481 1515
3313 1441 2156
3303 1439 2706
3293 1437 3181
3267 1460 3533
3244 1488 3791
3356 2075 382
3347 2082 619
3327 2098 1061
3301 2118 1584
3335 2104 2087
3347 2081 2700
3332 2074 3212
3290 2095 3564
3227 2160 3789
3394 2477 227
3409 2487 242
3390 2527 924
3350 2599 1527
3348 2672 2103
3365 2673 2601
3352 2653 3227
3279 2678 3583
3217 2728 3787
3475 2778 190
3489 2792 213
3548 2828 592
3507 2900 1436
3456 2995 2072
3385 3104 2577
3208 3234 3111
3187 3215 3613
3207 3233 3786
3382 3104 827
3392 3119 847
3433 3182 929
3476 3265 1336
3423 3354 1868
3282 3460 2408
2990 3573 2937
2977 3621 3472
3168 3630 3785
3284 3371 1243
3292 3385 1263
3322 3442 1352
3369 3551 1538
3339 3673 1964
3206 3762 2398
2951 3854 2904
2910 3903 3387
2859 3937 3775
3581 383 414
3658 101 466
3662 72 979
3659 85 1576
3656 104 2150
3653 128 2648
3650 154 3100
3649 182 3466
3639 267 3762
3506 753 601
3600 570 616
3675 383 964
3672 387 1573
3668 395 2153
3664 407 2655
3661 420 3108
3659 434 3473
3647 494 3769
3554 1097 628
3553 1102 785
3639 969 1027
3698 854 1555
3693 858 2155
3689 864 2667
3684 873 3125
3679 885 3489
3664 935 3784
3632 1573 695
3630 1578 845
3625 1592 1158
3690 1519 1550
3729 1458 2140
3723 1461 2676
3716 1465 3145
3708 1473 3511
3685 1517 3790
3721 2114 693
3716 2119 872
3703 2133 1229
3690 2151 1661
3738 2117 2099
3759 2088 2661
3749 2088 3159
3738 2090 3536
3698 2139 3788
3786 2618 709
3786 2624 859
3782 2648 1254
3761 2667 1707
3742 2685 2171
3764 2677 2605
3769 2661 3146
3757 2657 3550
3685 2719 3786
3816 2948 732
3825 2956 748
3852 2984 998
3822 3038 1609
3784 3111 2144
3769 3183 2630
3789 3185 3066
3779 3168 3567
3673 3230 3785
3880 3213 840
3889 3222 855
3926 3262 920
3994 3315 1289
3948 3380 2046
3890 3453 2590
3818 3530 3039
3666 3625 3475
3665 3624 3784
3821 3474 1297
3828 3483 1312
3857 3523 1378
3910 3599 1508
3991 3703 1772
3929 3770 2323
3777 3851 2839
3488 3938 3331
3465 3946 3784
3942 535 578
4007 315 598
4022 244 1032
4019 253 1601
4017 266 2157
4014 285 2645
4011 312 3090
4009 344 3453
4006 383 3754
3880 885 765
3955 701 756
4032 476 1018
4029 482 1597
4026 491 2159
4023 507 2649
4019 528 3095
4016 553 3458
4012 586 3758
3897 1238 823
3897 1243 955
3985 1071 1127
4050 921 1581
4046 930 2157
4041 942 2656
4036 959 3106
4031 980 3468
4026 1008 3769
3957 1677 899
3955 1682 1022
3952 1694 1290
4024 1593 1619
4053 1511 2145
4052 1520 2660
4051 1531 3118
4051 1546 3481
4045 1569 3783
4020 2186 1044
4017 2191 1172
4012 2201 1415
4006 2216 1763
4051 2166 2144
4050 2156 2655
4050 2158 3118
4050 2150 3490
4050 2162 3787
4053 2681 1138
4052 2684 1256
4052 2694 1517
4051 2709 1881
4050 2724 2263
4049 2724 2647
4048 2721 3112
4049 2721 3485
4049 2727 3785
4051 3111 1419
4051 3114 1425
4050 3138 1738
4049 3169 2071
4049 3197 2388
4048 3212 2735
4048 3227 3104
4048 3224 3480
4048 3225 3784
4050 3378 1859
4049 3386 1915
4049 3417 2117
4048 3471 2475
4048 3508 2667
4048 3554 2898
4047 3603 3196
4048 3622 3472
4048 3620 3783
4048 3586 2434
4048 3593 2479
4048 3624 2678
4048 3682 2958
4048 3768 3300
4048 3829 3509
4048 3868 3601
4048 3905 3678
4048 3946 3783
