Toning/Toning-Sunny desert.3dl
#25pt 3DLUT created by 3D LUT Creator Pro (c) Oleg Sharonov
#Copyright Oleg Sharonov
#IMAGEPROFILE sRGB IEC61966-2.1 v.2.10
#INPUTGAMMA sRGB IEC61966-2.1 v.2.10
#OUTPUTGAMMA sRGB IEC61966-2.1 v.2.10
0 43 86 128 171 214 256 299 341 384 427 469 512 555 597 640 682 725 768 810 853 896 938 981 1023 
0 0 0
8 41 154
14 79 303
19 126 452
27 181 607
35 236 767
44 286 922
52 333 1069
63 380 1221
74 429 1378
85 480 1540
99 530 1705
112 583 1872
129 636 2038
146 691 2204
164 747 2365
181 806 2524
200 865 2676
219 927 2825
238 989 2968
257 1054 3107
277 1120 3242
298 1188 3371
317 1254 3493
336 1321 3613
54 99 46
52 96 126
19 112 310
24 149 458
33 198 614
38 248 774
46 295 924
54 340 1072
65 387 1223
76 434 1380
87 484 1543
101 534 1707
115 586 1874
132 639 2039
149 694 2205
167 750 2367
184 808 2524
202 867 2677
221 929 2825
240 992 2969
259 1056 3108
279 1123 3243
298 1190 3372
318 1256 3494
337 1323 3614
112 224 96
104 221 162
115 217 279
46 230 482
52 259 635
57 293 788
63 331 933
68 369 1079
76 412 1232
87 457 1389
99 503 1549
110 551 1715
124 602 1881
140 654 2048
156 707 2212
174 763 2374
191 820 2531
209 879 2683
228 939 2831
246 1002 2973
265 1066 3112
285 1132 3247
303 1198 3375
323 1264 3497
342 1332 3617
176 351 151
174 351 198
156 347 320
184 340 434
126 350 615
85 366 792
87 392 941
93 423 1093
101 458 1247
110 497 1404
118 540 1565
132 585 1730
143 632 1895
159 682 2061
174 734 2225
188 787 2386
206 843 2543
221 901 2694
240 960 2841
257 1022 2983
276 1085 3121
295 1151 3256
313 1215 3381
331 1281 3503
351 1347 3622
234 464 200
232 467 236
228 460 336
206 457 462
244 452 575
213 460 744
129 474 950
132 496 1104
140 525 1264
146 558 1425
154 595 1587
164 636 1752
174 679 1917
186 725 2082
200 774 2245
213 825 2406
228 879 2561
244 935 2712
259 993 2857
276 1053 2998
293 1116 3136
312 1180 3269
330 1242 3392
347 1307 3513
365 1372 3632
293 582 251
286 586 274
293 580 362
277 574 482
270 570 605
307 567 724
281 576 894
181 587 1119
184 610 1277
191 636 1442
198 666 1612
204 702 1778
213 742 1945
221 784 2109
234 830 2272
246 879 2430
257 929 2584
272 983 2734
286 1039 2879
302 1097 3019
318 1158 3155
334 1220 3285
351 1280 3407
367 1343 3526
385 1407 3644
356 704 305
350 708 320
357 704 396
350 698 506
328 694 635
336 690 756
372 687 879
350 698 1055
292 709 1262
240 728 1462
244 755 1632
251 785 1804
259 819 1976
267 858 2141
274 900 2303
285 945 2460
295 993 2614
307 1045 2762
320 1099 2905
334 1155 3045
350 1214 3179
363 1271 3304
379 1329 3425
394 1390 3544
411 1453 3661
420 834 362
415 836 373
420 836 439
421 830 539
405 824 661
383 821 795
405 816 917
439 815 1047
420 826 1228
376 840 1431
297 855 1658
300 882 1828
307 912 2002
315 946 2172
323 984 2338
331 1026 2495
340 1072 2648
350 1120 2795
362 1171 2937
375 1225 3075
386 1278 3203
398 1333 3327
412 1390 3447
426 1449 3565
442 1509 3680
487 972 420
482 974 429
484 976 490
491 969 576
483 963 694
463 958 825
442 957 962
476 951 1088
511 951 1224
494 963 1412
457 977 1616
356 991 1861
360 1018 2031
366 1049 2202
373 1083 2369
382 1121 2531
390 1163 2685
400 1208 2831
409 1257 2972
419 1305 3104
429 1355 3230
441 1408 3353
453 1462 3472
465 1518 3588
479 1576 3702
558 1118 481
554 1120 489
547 1125 546
563 1119 622
561 1112 732
546 1106 861
524 1102 1000
517 1099 1138
551 1095 1271
588 1096 1414
570 1107 1607
537 1124 1812
477 1141 2034
423 1164 2237
428 1196 2402
435 1231 2564
444 1269 2719
453 1310 2868
460 1352 3005
469 1397 3135
477 1444 3260
488 1493 3381
498 1544 3499
509 1597 3613
521 1652 3727
632 1273 545
629 1275 552
616 1284 590
636 1276 675
639 1269 776
631 1263 903
611 1258 1039
588 1255 1187
595 1251 1326
630 1248 1464
667 1250 1614
652 1263 1811
621 1280 2013
572 1299 2226
488 1320 2442
493 1353 2600
500 1386 2751
506 1421 2895
515 1459 3033
523 1499 3166
532 1543 3291
540 1588 3411
549 1637 3527
559 1686 3641
569 1738 3753
710 1438 614
708 1440 620
695 1448 650
713 1444 735
720 1438 828
716 1430 949
702 1424 1086
679 1420 1233
655 1418 1385
677 1414 1526
714 1411 1669
752 1414 1823
738 1428 2020
709 1444 2216
663 1462 2414
568 1480 2627
559 1509 2781
564 1542 2923
571 1576 3060
579 1613 3192
588 1652 3319
597 1694 3441
604 1738 3557
613 1784 3669
621 1832 3780
791 1608 684
789 1610 689
778 1617 715
790 1617 799
801 1610 884
803 1602 999
793 1595 1135
772 1590 1279
750 1586 1435
725 1585 1588
761 1579 1729
799 1577 1873
838 1578 2027
821 1591 2216
795 1607 2406
753 1626 2592
690 1646 2782
625 1669 2955
630 1702 3088
638 1736 3219
645 1771 3345
653 1809 3466
661 1847 3583
670 1889 3698
678 1933 3807
873 1777 754
870 1779 759
861 1785 783
862 1789 864
882 1781 942
886 1774 1051
882 1766 1182
866 1760 1326
844 1756 1480
819 1753 1638
810 1750 1790
846 1745 1931
885 1743 2074
925 1745 2225
909 1758 2409
883 1774 2589
845 1793 2765
792 1812 2942
694 1832 3120
699 1863 3247
705 1896 3370
712 1930 3490
720 1965 3607
728 2002 3720
736 2041 3831
957 1947 825
955 1949 830
946 1954 852
931 1964 912
965 1954 1006
972 1946 1107
971 1939 1233
961 1932 1376
940 1927 1527
917 1923 1686
891 1921 1845
897 1917 1991
934 1912 2131
975 1910 2272
1015 1912 2418
1000 1926 2594
974 1941 2764
938 1960 2930
890 1978 3095
811 1998 3259
769 2023 3397
774 2054 3514
781 2086 3629
787 2119 3741
795 2153 3851
1043 2116 899
1041 2117 904
1033 2122 924
1016 2131 971
1048 2124 1074
1058 2117 1167
1060 2110 1287
1054 2103 1426
1039 2097 1577
1016 2092 1733
991 2088 1894
965 2087 2050
987 2082 2190
1024 2078 2326
1066 2077 2463
1108 2079 2602
1092 2091 2768
1067 2106 2929
1032 2123 3085
987 2141 3239
923 2159 3392
841 2179 3540
845 2208 3651
849 2237 3761
856 2267 3869
1130 2279 974
1128 2280 978
1121 2284 997
1105 2293 1037
1129 2290 1142
1144 2283 1231
1150 2276 1344
1147 2269 1479
1137 2263 1628
1117 2257 1782
1093 2253 1940
1067 2250 2098
1039 2249 2249
1077 2243 2381
1115 2239 2512
1159 2238 2642
1201 2239 2775
1185 2251 2932
1161 2264 3083
1127 2280 3231
1083 2297 3374
1028 2313 3520
929 2330 3668
915 2354 3781
918 2381 3886
1218 2436 1050
1217 2437 1054
1210 2441 1071
1195 2448 1108
1208 2449 1211
1231 2441 1296
1239 2435 1403
1240 2428 1532
1233 2421 1677
1218 2416 1830
1194 2411 1984
1169 2407 2142
1142 2404 2294
1130 2402 2435
1167 2396 2561
1207 2393 2686
1251 2391 2810
1294 2392 2935
1278 2402 3083
1255 2415 3227
1221 2428 3366
1179 2444 3502
1128 2458 3641
1053 2474 3776
985 2492 3903
1306 2583 1125
1305 2584 1128
1298 2587 1144
1284 2594 1178
1279 2599 1278
1316 2590 1362
1326 2585 1462
1330 2578 1586
1326 2571 1725
1315 2565 1875
1295 2560 2028
1271 2555 2181
1244 2552 2333
1216 2550 2478
1220 2546 2608
1258 2541 2729
1297 2538 2847
1342 2535 2965
1386 2536 3083
1370 2545 3223
1346 2555 3359
1314 2567 3491
1273 2580 3621
1224 2593 3752
1158 2607 3883
1392 2721 1198
1390 2722 1202
1385 2724 1217
1372 2730 1248
1353 2738 1314
1397 2729 1427
1410 2723 1522
1417 2717 1638
1417 2711 1772
1408 2705 1917
1394 2699 2069
1369 2695 2217
1345 2691 2367
1317 2687 2512
1289 2686 2648
1308 2681 2769
1346 2676 2883
1385 2672 2995
1431 2669 3108
1475 2668 3219
1459 2676 3351
1436 2685 3481
1404 2695 3607
1363 2707 3731
1315 2718 3856
1476 2848 1270
1474 2849 1273
1469 2851 1287
1457 2856 1316
1437 2863 1371
1473 2858 1490
1493 2852 1580
1501 2846 1690
1503 2840 1817
1498 2834 1957
1486 2828 2104
1467 2823 2251
1442 2819 2396
1416 2815 2540
1388 2812 2676
1358 2811 2805
1394 2804 2916
1432 2799 3025
1470 2796 3131
1516 2792 3238
1561 2791 3343
1545 2797 3469
1521 2804 3592
1490 2813 3713
1450 2822 3833
1556 2965 1340
1555 2965 1342
1549 2967 1355
1538 2972 1382
1518 2978 1430
1543 2976 1549
1570 2969 1637
1579 2964 1738
1584 2958 1860
1582 2952 1994
1574 2947 2135
1559 2941 2281
1535 2937 2421
1511 2933 2562
1484 2929 2698
1455 2926 2826
1438 2924 2946
1475 2917 3050
1513 2913 3154
1552 2908 3255
1597 2904 3356
1642 2902 3455
1626 2907 3576
1602 2913 3694
1571 2920 3811
1631 3072 1405
1631 3072 1408
1626 3074 1420
1615 3077 1445
1597 3083 1488
1605 3084 1605
1641 3077 1689
1653 3071 1785
1660 3066 1900
1661 3060 2028
1655 3055 2163
1644 3049 2304
1625 3044 2444
1600 3040 2579
1575 3036 2713
1547 3033 2841
1517 3031 2963
1516 3027 3073
1553 3021 3172
1590 3015 3270
1629 3011 3367
1673 3006 3464
1719 3003 3558
1702 3007 3674
1678 3011 3788
1703 3169 1467
1702 3169 1470
1697 3170 1481
1687 3173 1504
1670 3179 1544
1654 3184 1632
1706 3175 1738
1722 3169 1830
1730 3164 1937
1734 3159 2058
1730 3153 2188
1722 3148 2324
1708 3143 2461
1685 3139 2593
1661 3135 2724
1635 3131 2851
1606 3128 2972
1576 3125 3086
1590 3120 3187
1626 3114 3282
1662 3108 3376
1700 3103 3469
1743 3099 3561
1789 3095 3652
1773 3097 3763
1770 3257 1526
1769 3257 1528
1764 3258 1538
1754 3261 1560
1739 3265 1596
1719 3271 1662
1764 3264 1783
1786 3258 1871
1795 3253 1971
1800 3248 2086
1800 3243 2210
1794 3238 2340
1782 3233 2472
1765 3228 2604
1740 3224 2730
1716 3220 2856
1689 3216 2975
1660 3213 3089
1630 3211 3197
1659 3204 3291
1694 3198 3382
1729 3193 3472
1767 3187 3561
1809 3182 3650
1853 3177 3738
173 0 0
78 37 86
35 76 270
19 121 454
24 176 607
35 234 769
44 285 925
52 331 1070
63 380 1222
74 429 1380
85 479 1541
99 530 1706
112 582 1872
129 635 2038
146 690 2204
164 747 2366
181 805 2524
200 864 2677
219 926 2825
238 989 2968
257 1054 3107
277 1120 3243
297 1187 3371
317 1253 3493
336 1321 3614
207 66 11
107 97 108
71 115 259
24 146 463
30 193 615
38 246 776
46 295 927
54 339 1073
65 386 1224
74 434 1381
87 483 1543
99 533 1707
115 586 1874
129 639 2041
149 694 2206
167 750 2367
184 807 2525
202 867 2678
221 928 2826
240 991 2969
259 1056 3108
279 1123 3243
298 1189 3372
318 1255 3494
337 1323 3615
151 219 85
129 234 129
132 221 274
101 234 443
49 257 637
54 293 792
60 330 934
68 369 1081
76 411 1233
85 456 1389
99 502 1551
110 550 1715
124 601 1882
140 653 2048
156 707 2212
174 762 2374
191 819 2531
209 878 2684
228 939 2831
246 1002 2974
265 1065 3112
285 1132 3247
303 1198 3375
322 1264 3497
342 1331 3617
206 348 140
191 356 172
174 350 310
195 344 432
164 351 596
85 365 794
87 390 944
93 423 1095
101 458 1248
110 497 1405
118 540 1567
129 585 1730
143 632 1897
159 681 2062
174 734 2226
188 787 2387
204 842 2543
221 900 2694
240 960 2841
257 1022 2984
276 1085 3122
295 1150 3256
313 1215 3382
331 1280 3503
351 1347 3622
253 462 193
244 468 215
238 464 326
213 459 457
251 453 574
226 462 739
129 474 952
132 496 1105
138 524 1265
146 558 1425
154 595 1587
162 635 1752
174 679 1918
186 725 2083
198 774 2246
213 825 2406
228 879 2561
244 934 2712
259 993 2858
276 1053 2998
293 1115 3136
312 1179 3269
328 1242 3392
347 1306 3513
365 1372 3631
307 580 246
300 585 263
300 582 353
285 576 477
276 572 604
312 568 722
288 577 891
181 586 1119
184 609 1278
191 636 1444
198 666 1613
204 702 1779
213 741 1945
221 784 2110
232 829 2272
244 878 2431
257 929 2585
272 983 2734
286 1039 2879
302 1097 3019
318 1158 3155
334 1219 3284
351 1280 3407
367 1343 3527
385 1407 3645
366 702 300
360 707 313
360 707 387
356 701 501
334 695 631
340 691 755
376 689 879
354 698 1053
303 711 1256
240 728 1463
244 755 1632
251 785 1805
259 819 1977
267 858 2141
274 899 2303
285 945 2461
295 993 2614
307 1044 2762
320 1098 2906
334 1154 3045
350 1213 3179
363 1270 3304
379 1329 3425
394 1390 3544
411 1453 3661
428 833 357
424 836 367
423 839 433
426 832 533
409 826 657
387 822 792
408 818 915
442 816 1045
424 826 1227
382 840 1427
297 855 1659
300 882 1830
307 912 2003
315 946 2173
323 984 2338
331 1026 2496
340 1071 2648
350 1119 2795
362 1171 2937
373 1225 3075
386 1278 3203
398 1333 3327
412 1390 3447
426 1448 3565
442 1509 3680
494 971 416
490 974 425
484 978 486
495 972 571
488 965 690
467 960 822
444 958 960
479 952 1086
514 952 1224
497 963 1411
460 977 1614
356 991 1862
360 1018 2032
366 1049 2202
373 1083 2370
382 1121 2531
390 1163 2685
400 1208 2832
409 1257 2973
419 1305 3104
429 1355 3231
441 1407 3353
452 1462 3471
465 1517 3588
479 1575 3702
563 1117 479
560 1119 486
546 1128 528
565 1120 617
565 1113 728
549 1107 858
528 1104 999
519 1100 1137
554 1095 1269
590 1097 1413
573 1108 1607
541 1124 1810
483 1142 2031
423 1164 2238
428 1196 2402
435 1231 2564
444 1269 2720
453 1310 2869
460 1352 3005
469 1396 3135
477 1443 3260
488 1493 3381
498 1544 3499
509 1597 3614
521 1652 3727
638 1273 543
635 1275 550
621 1283 583
639 1278 671
642 1271 773
634 1264 900
614 1260 1038
591 1256 1186
597 1252 1325
633 1249 1464
669 1250 1614
654 1263 1810
624 1280 2012
576 1299 2224
488 1320 2442
493 1353 2600
500 1385 2751
506 1421 2895
514 1459 3034
523 1499 3166
531 1542 3291
540 1588 3411
548 1636 3527
558 1686 3641
568 1738 3753
