Toning/Toning-TealOrange-VideoAB.3dl
#25pt 3DLUT created by 3D LUT Creator Pro (c) Oleg Sharonov
#Copyright Oleg Sharonov
#IMAGEPROFILE 
#INPUTGAMMA 
#OUTPUTGAMMA 
0 256 512 768 1023
0 0 0
15 199 383
70 552 905
177 916 1472
318 1280 2108
0 1020 147
0 1022 1028
0 1140 1468
0 1341 1989
257 1588 2564
0 2125 331
0 2125 1106
0 2129 2134
0 2182 2856
0 2288 3458
0 3164 210
0 3164 1067
0 3164 2142
0 3165 3166
0 3171 4058
0 4095 9
0 4095 1026
0 4095 2130
0 4095 3165
6 4095 4095
726 309 0
790 330 777
505 610 1600
437 995 1844
500 1335 2390
1001 1028 52
548 1112 1186
545 1215 1625
564 1399 2117
478 1618 2832
919 2142 0
907 2130 1293
803 2150 2178
598 2216 2911
0 2301 3696
978 3168 0
1000 3165 1108
984 3166 2155
979 3167 3171
803 3179 4095
1023 4095 6
1022 4095 1024
1022 4095 2130
1023 4095 3165
1024 4095 4095
1588 746 0
1614 795 237
1727 768 1704
1516 1009 2653
1232 1184 3672
2112 1036 0
1808 1210 963
1705 1270 2018
1553 1337 3081
1358 1422 3996
2110 2134 107
2010 2157 1149
1650 2228 2313
1753 2264 2930
1762 2231 4070
2115 3167 6
2092 3171 1026
2101 3164 2221
2084 3171 3179
2063 3175 4095
2129 4095 0
2130 4095 1026
2130 4095 2130
2129 4095 3165
2129 4095 4095
2559 1124 0
2640 1102 186
2965 849 1286
2789 1061 2769
2699 1244 3667
2886 1313 0
2761 1418 922
2958 1329 1612
2869 1397 2934
2936 1330 3983
3162 2131 30
3167 2128 1016
2994 2214 2167
2953 2238 3158
3090 2181 4058
3162 3166 30
3158 3167 1040
3140 3171 2158
3028 3197 3226
3157 3168 4094
3165 4095 3
3165 4095 1024
3165 4095 2129
3165 4095 3165
3165 4095 4095
3622 1304 64
3750 1166 227
4040 698 1147
3908 980 2807
3890 1015 3881
3820 1458 0
3970 1291 89
4070 1177 1526
4036 1220 2932
4030 1190 4023
4079 2143 0
4095 2135 890
4093 2142 2014
4077 2160 3083
4074 2154 4072
4094 3165 12
4095 3165 1023
4095 3165 2129
4095 3165 3162
4094 3166 4094
4095 4095 0
4095 4095 1021
4095 4095 2128
4095 4095 3165
4095 4095 4095
