Toning/Toning-Green&Red.3dl
#25pt 3DLUT created by 3D LUT Creator Pro (c) Oleg Sharonov
#Copyright Oleg Sharonov
#IMAGEPROFILE sRGB IEC61966-2.1 v.2.10
#INPUTGAMMA sRGB IEC61966-2.1 v.2.10
#OUTPUTGAMMA sRGB IEC61966-2.1 v.2.10
0 256 512 768 1023
0 0 4
25 196 59
368 563 190
693 958 366
1065 1317 595
0 1026 4
81 1070 254
636 1215 392
964 1386 559
1279 1628 781
0 2048 4
43 2132 281
195 2333 695
1117 2330 973
1647 2356 1267
0 3069 4
0 3195 279
12 3406 770
449 3606 1426
1578 3423 1919
0 4095 4
121 4095 277
337 4095 770
686 4095 1563
2230 4064 2813
880 1 4
773 327 214
742 705 300
944 1028 484
1232 1372 700
813 1118 4
932 1110 310
1008 1230 475
1188 1423 641
1432 1664 886
588 2360 4
702 2350 306
938 2326 776
1402 2307 1040
1758 2375 1358
361 3599 4
471 3591 303
668 3566 841
1087 3500 1539
1668 3432 1985
883 4095 4
977 4095 299
1149 4095 840
1425 4095 1710
2401 4065 2897
1925 1 4
1992 4 336
1880 696 635
1693 1158 730
1768 1490 944
2070 963 4
2148 957 338
1995 1170 750
1892 1457 904
1968 1710 1197
1853 2168 4
1933 2158 333
2078 2139 935
2137 2230 1279
2227 2358 1793
1638 3372 4
1719 3361 329
1871 3334 928
2117 3287 1756
2036 3420 2253
1925 4095 4
1988 4095 325
2106 4095 925
2286 4095 1886
2840 4062 3140
2961 0 0
3000 3 363
3303 388 916
2888 1087 1338
2672 1562 1460
3312 812 0
3353 813 364
3331 915 974
2979 1376 1465
2874 1707 1706
3135 1959 0
3177 1958 359
3256 1948 1020
3126 2100 1751
3302 2142 2466
2956 3108 0
3000 3103 354
3080 3090 1011
3200 3068 2064
3209 3153 2947
2961 4095 0
2995 4095 351
3059 4095 1006
3156 4095 2056
3416 4072 3527
4004 1 0
4010 5 389
4017 7 1093
3984 995 1856
3784 1488 2417
4076 981 0
4078 989 386
4079 995 1095
4040 1181 2032
3870 1633 2722
4047 2023 0
4050 2029 384
4054 2033 1094
4029 2071 2130
3902 2265 3145
4015 3066 0
4021 3070 379
4027 3073 1093
4032 3071 2228
3910 3177 3513
4005 4095 0
4011 4095 376
4018 4095 1091
4024 4095 2229
4033 4095 4068
