Toning/Toning-SplitWarmsAndColds.3dl
#25pt 3DLUT created by 3D LUT Creator Pro (c) Oleg Sharonov
#Copyright Oleg Sharonov
#IMAGEPROFILE 
#INPUTGAMMA 
#OUTPUTGAMMA 
0 256 512 768 1023
0 0 19
0 6 1030
61 29 1949
212 58 2887
349 103 3855
316 909 633
94 909 1225
78 997 1950
149 1036 2864
245 1073 3831
708 1809 1209
455 1836 1582
372 1821 2281
198 2012 2857
183 2066 3810
1084 2713 1718
909 2769 1895
635 2706 2691
615 2767 3365
326 3013 3909
1430 3625 2166
1264 3658 2393
995 3725 2857
849 3679 3753
2018 3730 4095
995 10 19
946 23 1128
734 55 2129
779 87 3003
844 132 3940
1197 887 393
978 1064 1126
909 967 2200
895 914 3139
922 891 4077
1422 1766 1183
1238 1857 1551
911 1982 2248
806 2042 3040
836 2043 3999
1696 2674 1721
1551 2710 2054
1351 2838 2506
996 2903 3296
766 3107 3909
2041 3581 2150
1878 3599 2510
1760 3732 2783
1360 3764 3654
2125 3803 4095
1911 94 71
1990 52 935
1951 81 2008
1708 183 3153
1716 212 4081
2126 779 81
2176 909 831
1948 1083 2114
1791 1044 3195
1786 998 4095
2295 1826 650
2142 1914 1402
2017 2125 2121
1962 2043 3159
1956 2022 4095
2550 2697 1422
2339 2734 2074
2230 2870 2542
1930 3051 3203
1836 3148 3996
2829 3584 1997
2587 3619 2541
2490 3706 2971
2340 3870 3456
2455 3939 4095
2852 262 71
2939 177 854
2993 142 1857
2947 201 2956
2795 273 4095
2911 994 84
3072 902 757
3095 933 1964
2955 1079 3064
2798 1097 4095
3294 1651 377
3179 1875 982
3118 2060 1907
2941 2141 3098
2860 2152 4092
3304 2805 979
3212 2862 1667
3108 2957 2429
3028 3156 3104
3009 3107 4084
3569 3673 1688
3448 3681 2330
3298 3752 2995
3230 3892 3525
3055 4090 4095
3825 412 116
3911 304 814
3955 260 1949
4002 230 2909
3961 257 4047
3833 1136 119
3998 965 749
4047 1003 1875
4046 1036 2970
3971 1105 4082
4095 1729 235
4030 2003 791
4049 2079 1858
4039 2095 3040
3945 2164 4090
4095 2769 1208
4095 2818 1619
4095 3006 2060
4027 3171 2944
3932 3197 4062
4095 3817 2197
4095 3843 2508
4095 3910 2702
4076 3991 3453
4077 4095 4095
