Toning/Toning-Stretch blues and oranges.3dl
#25pt 3DLUT created by 3D LUT Creator Pro (c) Oleg Sharonov
#Copyright Oleg Sharonov
#INPUTGAMMA sRGB IEC61966-2.1 v.2.10
#IMAGEPROFILE sRGB IEC61966-2.1 v.2.10
#OUTPUTGAMMA sRGB IEC61966-2.1 v.2.10
0 256 512 768 1023
0 0 0
0 0 1023
0 0 2047
0 0 3071
0 0 4095
0 1024 0
0 946 1024
0 868 2047
0 790 3071
0 713 4095
0 2048 0
0 1996 1024
0 1944 2047
0 1892 3071
0 1840 4095
0 3071 0
0 3045 1024
0 3019 2047
0 2993 3071
0 2968 4095
0 4095 0
0 4095 1024
0 4095 2047
0 4095 3071
0 4095 4095
1024 0 0
827 0 787
551 0 1889
276 0 2992
0 0 4095
1024 857 0
827 795 787
551 706 1890
276 618 2992
0 529 4095
1024 1937 0
827 1895 787
551 1836 1890
276 1777 2992
0 1718 4095
1024 3016 0
827 2995 787
551 2965 1890
276 2936 2992
0 2907 4095
1024 4095 0
827 4095 787
551 4095 1890
276 4095 2992
0 4095 4095
2048 0 0
1952 0 551
1745 0 1732
1539 0 2913
1333 0 4095
2048 691 0
1951 645 551
1745 545 1732
1540 446 2914
1333 346 4095
2047 1826 0
1951 1795 551
1745 1728 1732
1539 1662 2914
1333 1596 4095
2047 2960 0
1951 2945 551
1745 2912 1732
1539 2879 2913
1333 2845 4095
2047 4095 0
1952 4095 551
1745 4095 1732
1539 4095 2913
1333 4095 4095
3071 0 0
3044 0 314
2934 0 1574
2824 0 2834
2714 0 4095
3071 524 0
3044 497 314
2934 386 1574
2824 274 2834
2714 163 4095
3071 1715 0
3044 1696 314
2934 1622 1574
2824 1548 2834
2714 1474 4095
3071 2905 0
3044 2896 314
2934 2858 1574
2824 2821 2834
2714 2784 4095
3071 4095 0
3044 4095 314
2934 4095 1574
2824 4095 2835
2714 4095 4095
4095 0 0
4095 0 77
4095 0 1416
4095 0 2755
4095 0 4095
4095 358 0
4095 352 78
4095 235 1416
4095 117 2756
4095 0 4095
4095 1604 0
4095 1599 78
4095 1517 1417
4095 1434 2756
4095 1352 4095
4095 2849 0
4095 2847 77
4095 2806 1416
4095 2764 2755
4095 2723 4095
4095 4095 0
4095 4095 75
4095 4095 1415
4095 4095 2754
4095 4095 4095
