Toning/Toning-Coffee.3dl
#25pt 3DLUT created by 3D LUT Creator Pro (c) Oleg Sharonov
#Copyright Oleg Sharonov
#INPUTGAMMA sRGB IEC61966-2.1 v.2.10
#IMAGEPROFILE sRGB IEC61966-2.1 v.2.10
#OUTPUTGAMMA sRGB IEC61966-2.1 v.2.10
0 128 256 384 512 640 768 896 1023
493 217 230
492 216 411
493 218 620
510 231 879
551 261 1157
622 314 1440
714 380 1728
809 455 2021
906 537 2318
538 455 255
500 438 449
520 443 725
556 464 983
611 502 1246
687 552 1515
770 613 1793
857 683 2077
948 761 2368
752 894 385
722 870 579
597 805 800
670 811 1105
736 834 1384
808 871 1652
881 920 1923
959 980 2198
1040 1050 2479
1010 1427 555
989 1404 744
907 1324 952
797 1247 1182
882 1251 1505
951 1272 1802
1022 1306 2085
1096 1352 2361
1171 1410 2639
1271 1993 741
1255 1972 925
1195 1895 1120
1081 1776 1321
1015 1738 1588
1104 1741 1925
1179 1759 2237
1249 1790 2535
1322 1833 2824
1512 2559 926
1499 2540 1108
1448 2466 1293
1351 2336 1478
1258 2244 1702
1242 2266 2017
1335 2269 2368
1414 2285 2694
1486 2316 3006
1706 3057 1085
1695 3041 1264
1648 2974 1441
1560 2850 1611
1500 2795 1845
1493 2814 2143
1479 2838 2470
1572 2840 2833
1655 2856 3174
1831 3444 1193
1817 3432 1368
1773 3376 1540
1748 3352 1754
1748 3363 2013
1741 3379 2300
1736 3399 2610
1723 3424 2948
1934 3402 3285
2258 3808 1562
2260 3809 1748
2265 3812 1945
2274 3817 2154
2287 3825 2376
2301 3836 2614
2320 3851 2863
2345 3869 3145
2373 3891 3498
722 217 230
699 217 427
700 222 683
718 238 953
763 272 1212
836 327 1483
922 392 1763
1011 466 2050
1105 548 2343
802 458 250
765 443 458
761 453 744
789 478 1005
841 516 1266
906 565 1534
981 625 1810
1063 694 2093
1145 771 2392
979 894 379
963 870 581
830 817 815
907 821 1120
963 844 1398
1024 881 1666
1091 930 1936
1163 990 2210
1236 1059 2502
1211 1427 544
1207 1402 744
1130 1326 955
1014 1256 1194
1098 1260 1515
1163 1280 1813
1229 1314 2094
1299 1361 2371
1365 1418 2660
1455 1995 726
1460 1970 926
1402 1895 1122
1290 1779 1327
1220 1745 1597
1309 1748 1933
1381 1766 2246
1449 1797 2544
1513 1839 2842
1693 2561 915
1696 2538 1108
1646 2466 1294
1552 2339 1481
1464 2249 1708
1441 2273 2024
1534 2274 2374
1610 2292 2701
1674 2322 3021
1887 3059 1077
1887 3040 1265
1841 2975 1442
1756 2853 1613
1702 2799 1849
1692 2818 2149
1673 2844 2476
1767 2846 2839
1841 2862 3186
2018 3447 1191
2008 3434 1370
1966 3378 1542
1946 3356 1757
1947 3366 2016
1938 3382 2305
1930 3403 2615
1914 3428 2953
2127 3406 3290
2446 3812 1566
2448 3813 1752
2453 3816 1948
2462 3821 2157
2475 3829 2380
2489 3840 2617
2508 3855 2867
2533 3872 3151
2560 3895 3506
1126 233 243
1090 229 438
1056 242 718
1051 261 1024
1068 301 1299
1111 353 1579
1173 416 1855
1250 490 2126
1334 571 2408
1211 474 262
1187 463 475
1140 480 767
1124 503 1080
1133 540 1361
1169 589 1634
1228 649 1893
1298 718 2164
1373 793 2456
1353 890 342
1330 876 560
1252 826 825
1233 842 1146
1256 868 1425
1293 906 1695
1343 955 1965
1404 1015 2240
1460 1079 2562
1512 1416 543
1497 1399 738
1448 1333 961
1282 1279 1220
1371 1278 1542
1424 1299 1839
1477 1334 2117
1536 1382 2394
1582 1435 2713
1720 1983 725
1708 1966 913
1673 1895 1126
1569 1793 1343
1461 1764 1618
1555 1765 1953
1619 1782 2267
1681 1813 2566
1724 1855 2887
1927 2554 908
1916 2537 1092
1892 2464 1297
1808 2348 1487
1710 2262 1724
1668 2289 2042
1762 2290 2390
1834 2306 2718
1876 2338 3061
2100 3059 1067
2090 3044 1248
2072 2976 1447
1992 2863 1622
1940 2809 1859
1920 2830 2163
1890 2858 2491
1984 2859 2853
2038 2877 3216
2235 3454 1194
2218 3444 1366
2192 3388 1551
2171 3365 1764
2174 3375 2022
2161 3391 2315
2147 3413 2628
2123 3440 2967
2340 3416 3305
2650 3821 1577
2650 3823 1761
2655 3826 1957
2663 3831 2166
2676 3838 2389
2691 3849 2627
2708 3864 2877
2732 3882 3167
2758 3904 3527
1567 281 286
1556 274 481
1491 287 735
1466 317 1051
1459 351 1372
1467 402 1660
1497 463 1944
1544 532 2232
1604 608 2527
1631 523 309
1616 517 522
1568 524 770
1527 554 1090
1516 585 1417
1517 633 1706
1541 690 1990
1584 755 2277
1640 828 2574
1768 904 372
1754 895 585
1699 861 850
1636 875 1157
1617 900 1495
1615 938 1798
1634 986 2088
1675 1047 2355
1721 1109 2675
1914 1411 484
1900 1399 692
1844 1354 949
1755 1284 1224
1735 1304 1562
1744 1332 1866
1774 1369 2151
1814 1417 2431
1835 1461 2818
2053 1972 725
2038 1960 918
1996 1908 1130
1931 1820 1359
1793 1787 1643
1851 1790 1990
1905 1807 2307
1953 1841 2596
1965 1879 2978
2219 2545 913
2209 2531 1097
2172 2476 1294
2116 2372 1507
2012 2280 1747
1923 2319 2073
2027 2315 2419
2093 2331 2749
2100 2363 3139
2369 3059 1074
2360 3046 1256
2325 2994 1442
2276 2889 1642
2225 2825 1868
2187 2849 2188
2130 2884 2519
2230 2882 2878
2267 2901 3266
2510 3464 1228
2497 3455 1402
2439 3420 1556
2430 3380 1777
2437 3389 2038
2429 3403 2334
2403 3427 2652
2363 3459 2990
2577 3434 3334
2879 3834 1607
2878 3836 1790
2877 3842 1979
2880 3849 2182
2892 3856 2406
2907 3866 2642
2923 3881 2895
2945 3898 3198
2969 3920 3565
2028 379 374
2034 370 562
1966 370 791
1894 396 1063
1879 428 1397
1868 471 1728
1875 526 2033
1895 594 2322
1932 669 2614
2074 610 393
2065 606 597
2024 598 819
1951 624 1093
1925 657 1429
1911 698 1764
1913 750 2069
1930 816 2359
1965 885 2666
2197 962 449
2187 957 653
2150 936 904
2064 925 1153
2020 959 1493
2003 993 1837
1997 1041 2147
2009 1099 2442
2037 1154 2793
2336 1438 527
2327 1431 730
2291 1400 984
2226 1348 1266
2139 1342 1573
2119 1368 1932
2111 1406 2259
2123 1454 2564
2135 1487 2999
2473 1986 661
2463 1976 859
2423 1939 1101
2353 1875 1370
2262 1795 1649
2243 1817 2003
2240 1846 2333
2266 1882 2631
2250 1902 3143
2589 2554 909
2579 2544 1098
2539 2503 1313
2472 2428 1537
2400 2322 1766
2307 2340 2093
2337 2348 2467
2396 2363 2802
2362 2392 3279
2691 3078 1100
2684 3069 1282
2654 3028 1472
2598 2950 1669
2541 2850 1889
2506 2874 2218
2392 2923 2560
2509 2915 2916
2564 2927 3313
2844 3491 1308
2835 3484 1483
2794 3455 1645
2723 3402 1801
2777 3392 2098
2789 3404 2373
2742 3434 2691
2678 3474 3015
2841 3460 3384
3122 3854 1652
3122 3856 1835
3122 3861 2023
3121 3870 2219
3122 3882 2429
3136 3892 2667
3151 3906 2927
3169 3923 3247
3191 3944 3623
2520 525 492
2525 519 678
2496 517 897
2417 526 1146
2302 535 1410
2291 563 1755
2277 613 2094
2285 671 2417
2298 745 2713
2554 747 508
2548 745 706
2535 735 917
2456 743 1167
2347 756 1436
2327 785 1782
2311 833 2124
2316 890 2447
2330 957 2760
2656 1079 560
2651 1076 757
2627 1063 996
2573 1051 1234
2460 1055 1504
2407 1071 1841
2388 1115 2190
2387 1168 2514
2402 1219 2874
2791 1523 639
2784 1518 835
2759 1499 1074
2713 1466 1346
2619 1443 1604
2519 1431 1924
2500 1467 2285
2491 1514 2615
2508 1538 3067
2913 2050 732
2906 2044 927
2881 2018 1163
2833 1971 1434
2769 1909 1727
2645 1858 2014
2625 1885 2393
2612 1923 2743
2618 1925 3325
3025 2610 884
3018 2603 1074
2990 2573 1297
2936 2519 1549
2862 2442 1820
2772 2351 2101
2754 2376 2470
2734 2403 2874
2743 2421 3362
3106 3129 1113
3099 3122 1299
3071 3094 1503
3016 3040 1727
2940 2962 1959
2898 2897 2217
2825 2937 2571
2834 2951 2977
2896 2961 3395
3224 3545 1455
3218 3540 1631
3194 3519 1798
3147 3477 1959
3090 3423 2138
3106 3434 2408
3082 3458 2721
2986 3508 3051
3131 3494 3463
3377 3887 1724
3375 3887 1903
3373 3889 2084
3373 3897 2279
3373 3910 2481
3373 3926 2698
3387 3939 2977
3401 3956 3320
3418 3977 3705
3061 750 662
3065 746 847
3062 742 1055
3011 757 1302
2934 783 1572
2840 810 1865
2779 797 2189
2686 774 2472
2693 835 2809
3084 964 675
3081 963 868
3087 953 1071
3035 967 1317
2958 990 1587
2861 1015 1881
2797 1002 2204
2713 990 2498
2725 1044 2851
3165 1277 724
3162 1276 916
3147 1270 1145
3124 1263 1376
3044 1277 1643
2940 1294 1934
2863 1276 2258
2778 1260 2557
2799 1296 2956
3282 1690 805
3278 1688 996
3262 1678 1223
3231 1660 1484
3173 1649 1735
3063 1649 2020
2965 1620 2340
2878 1593 2648
2911 1601 3129
3394 2190 905
3390 2186 1096
3373 2170 1319
3341 2141 1576
3295 2100 1859
3202 2070 2120
3082 2023 2433
3003 1988 2758
3031 1983 3325
3469 2731 1010
3466 2726 1199
3451 2706 1417
3420 2668 1665
3376 2613 1939
3317 2543 2230
3195 2476 2518
3146 2441 2927
3142 2467 3410
3527 3228 1187
3524 3224 1373
3509 3204 1579
3480 3168 1807
3435 3113 2053
3372 3042 2312
3290 2952 2582
3265 2976 2994
3275 2997 3513
3584 3633 1622
3581 3629 1800
3572 3615 1976
3550 3588 2141
3512 3548 2309
3452 3497 2483
3433 3494 2729
3369 3535 3077
3440 3536 3585
3638 3951 1871
3638 3951 2051
3635 3950 2228
3631 3948 2401
3622 3946 2570
3622 3961 2792
3622 3982 3052
3634 3997 3419
3647 4015 3813
3772 1093 905
3774 1090 1089
3781 1076 1288
3751 1084 1532
3681 1117 1812
3578 1196 2124
3467 1258 2438
3396 1258 2758
3384 1209 3183
3779 1298 913
3786 1289 1097
3793 1274 1295
3768 1278 1538
3700 1313 1821
3596 1391 2134
3482 1453 2449
3404 1453 2765
3393 1396 3194
3800 1583 944
3800 1579 1132
3804 1565 1350
3797 1550 1577
3766 1561 1854
3666 1636 2174
3543 1694 2492
3442 1694 2798
3427 1611 3241
3803 1984 1035
3804 1981 1222
3807 1966 1430
3814 1931 1670
3786 1942 1937
3732 1968 2238
3643 1990 2564
3526 1977 2879
3458 1884 3274
3810 2451 1165
3811 2448 1349
3813 2434 1547
3812 2412 1780
3806 2386 2054
3765 2384 2322
3696 2374 2621
3602 2324 2949
3498 2201 3318
3819 2939 1339
3818 2936 1522
3816 2925 1716
3811 2903 1928
3804 2869 2162
3795 2822 2427
3744 2787 2686
3657 2721 2994
3546 2552 3394
3828 3382 1551
3827 3379 1731
3825 3369 1912
3819 3348 2097
3811 3315 2295
3800 3270 2513
3784 3203 2766
3712 3131 3045
3653 3050 3562
3855 3750 1833
3855 3749 2009
3852 3741 2179
3846 3726 2343
3837 3703 2505
3823 3672 2673
3802 3629 2857
3761 3558 3101
3758 3577 3762
3879 4026 2154
3878 4026 2334
3878 4026 2514
3877 4026 2696
3875 4025 2880
3871 4024 3068
3863 4022 3256
3863 4040 3539
3873 4054 3945
4028 1943 1540
4029 1946 1724
4029 1961 1922
4029 1990 2140
4028 2033 2376
4025 2084 2626
4021 2133 2888
4013 2169 3212
4001 2176 3574
4029 2136 1548
4030 2139 1732
4030 2153 1931
4030 2182 2147
4029 2223 2382
4027 2273 2631
4022 2321 2892
4014 2355 3218
4002 2361 3578
4032 2373 1579
4032 2376 1763
4035 2386 1964
4036 2411 2178
4034 2448 2408
4032 2491 2653
4027 2534 2913
4019 2563 3240
4007 2565 3599
4037 2656 1639
4038 2658 1823
4040 2666 2020
4044 2681 2235
4044 2709 2458
4041 2743 2694
4036 2776 2958
4028 2797 3285
4016 2792 3639
4046 2968 1724
4046 2969 1907
4048 2974 2100
4051 2984 2307
4055 2997 2528
4054 3018 2766
4049 3039 3039
4041 3052 3355
4029 3039 3699
4056 3286 1829
4056 3287 2011
4057 3289 2203
4059 3294 2410
4062 3300 2637
4067 3305 2892
4063 3315 3155
4056 3319 3450
4044 3302 3779
4067 3588 2020
4067 3589 2201
4068 3590 2392
4069 3591 2594
4071 3593 2811
4073 3594 3045
4077 3591 3303
4071 3591 3567
4061 3572 3875
4078 3858 2284
4078 3858 2464
4079 3858 2649
4079 3859 2840
4080 3859 3038
4081 3860 3245
4083 3859 3462
4086 3855 3707
4078 3843 3981
4091 4085 2587
4091 4085 2766
4091 4085 2948
4091 4086 3131
4092 4087 3318
4092 4088 3507
4093 4090 3699
4094 4092 3895
4095 4095 4095
