Toning/Toning-SplitWarmsAndColds_CMYK.3dl
#25pt 3DLUT created by 3D LUT Creator Pro (c) Oleg Sharonov
#Copyright Oleg Sharonov
#IMAGEPROFILE 
#INPUTGAMMA 
#OUTPUTGAMMA 
0 256 512 768 1023
0 0 0
0 0 1024
0 0 2048
0 0 3071
0 0 4095
0 1023 58
26 1011 1044
97 992 2084
186 973 3112
245 961 4095
0 2047 87
0 2044 1124
107 2026 2082
203 2013 3118
304 2003 4095
0 3071 90
0 3068 1171
0 3067 2153
222 3044 3115
560 3032 4095
0 4095 68
0 4093 1179
0 4091 2187
0 4090 3177
516 4062 4095
1045 10 0
1035 10 947
808 81 2126
781 84 3130
798 107 4095
1109 1015 0
997 1022 1039
840 995 2151
845 975 3169
862 962 4095
1251 2141 0
943 2052 1084
842 2021 2132
845 2010 3165
955 2000 4095
1246 3061 0
922 3075 1097
791 3075 2206
859 3037 3153
1112 3022 4095
1203 4088 0
945 4095 1080
807 4095 2193
796 4095 3219
1415 4031 4095
2096 13 0
2179 0 755
2072 48 1878
1835 212 3169
1763 310 4095
2190 959 0
2325 894 756
2066 1009 1999
1845 1008 3201
1803 1008 4095
2186 2054 0
2293 2059 670
2010 2046 2069
1819 2024 3199
1842 2016 4095
2286 3096 0
2276 3065 708
1982 3077 2099
1795 3044 3192
1936 3026 4095
2337 4068 0
2278 4077 719
1990 4095 2091
1856 4095 3209
2290 4006 4095
3102 0 0
3160 0 607
3195 0 1551
3111 132 2791
2968 214 4095
3168 908 0
3230 849 628
3294 811 1589
3118 981 2924
2958 1030 4095
3196 1976 16
3265 1943 630
3296 1928 1631
3089 2036 3023
2932 2044 4095
3200 3029 16
3263 3012 604
3265 2991 1649
3033 3069 3092
2924 3062 4095
3287 4064 0
3345 4059 460
3348 4063 1673
3034 4095 3101
3132 4033 4095
4095 0 0
4095 42 500
4095 168 1386
4095 468 2326
4095 383 3672
4095 916 52
4095 883 522
4095 980 1431
4095 1060 2396
4095 1029 3796
4095 1951 195
4095 1942 651
4095 1966 1514
4095 2001 2492
4095 2011 3928
4095 2978 248
4095 2968 867
4095 2977 1729
4095 2993 2651
4095 3056 4029
4095 3950 2776
4095 3938 2818
4095 3937 3009
4095 3961 3399
4074 4094 4095
