Toning/Toning-Warm-BlueShadows.3dl
#25pt 3DLUT created by 3D LUT Creator Pro (c) Oleg Sharonov
#Copyright Oleg Sharonov
#IMAGEPROFILE sRGB IEC61966-2.1 v.2.10
#INPUTGAMMA sRGB IEC61966-2.1 v.2.10
#OUTPUTGAMMA sRGB IEC61966-2.1 v.2.10
0 43 86 128 171 214 256 299 341 384 427 469 512 555 597 640 682 725 768 810 853 896 938 981 1023 
0 0 435
1 1 482
5 5 533
9 9 593
19 19 653
26 26 725
40 40 807
53 53 895
70 70 994
90 89 1102
113 112 1222
140 138 1345
169 168 1474
197 195 1608
228 226 1748
258 256 1893
286 284 2038
317 313 2185
346 343 2338
375 372 2495
405 401 2654
434 430 2813
465 460 2978
493 489 3141
523 518 3304
61 98 433
61 100 479
64 102 538
70 107 603
74 111 674
79 116 752
83 119 840
93 129 931
109 145 1034
127 161 1143
145 178 1259
168 200 1382
192 221 1510
218 245 1644
245 270 1783
273 297 1926
301 323 2070
328 348 2217
356 375 2371
384 401 2528
412 429 2683
441 457 2842
469 484 3006
497 511 3169
526 539 3331
128 203 432
127 205 467
126 204 531
131 208 597
138 212 669
146 218 747
151 222 834
156 226 932
163 233 1042
169 238 1166
182 249 1287
201 266 1412
222 284 1540
246 304 1675
274 326 1814
300 349 1956
326 372 2099
352 395 2247
378 418 2399
405 443 2554
431 469 2710
459 494 2870
486 519 3033
513 545 3194
541 571 3355
195 307 434
195 310 457
196 311 521
193 310 592
200 314 666
208 319 744
218 326 833
225 332 930
234 338 1039
242 344 1159
250 351 1288
258 357 1423
266 363 1565
279 374 1708
304 393 1848
329 413 1990
355 434 2134
381 455 2282
406 476 2434
432 499 2589
458 523 2745
485 547 2904
511 570 3066
538 595 3226
563 618 3385
267 415 438
269 419 439
266 418 510
265 418 581
262 416 659
269 421 743
279 427 831
290 435 930
304 443 1040
313 449 1159
324 457 1285
336 465 1419
346 473 1559
356 481 1707
363 487 1858
373 495 2013
385 504 2168
411 524 2318
437 544 2473
464 567 2628
489 590 2782
515 611 2942
540 633 3104
566 655 3263
592 677 3422
344 511 468
345 514 469
341 523 505
339 529 570
338 529 649
333 526 736
337 529 829
353 539 929
367 548 1041
382 556 1160
395 564 1287
408 573 1421
422 582 1559
435 591 1705
445 599 1857
457 608 2010
467 616 2166
475 623 2329
485 630 2497
492 639 2666
520 661 2821
546 682 2982
571 702 3143
597 723 3303
622 744 3462
423 604 505
427 609 506
426 614 517
418 628 579
414 641 637
411 640 723
406 637 821
410 640 925
427 649 1038
444 659 1160
463 669 1288
480 680 1422
496 691 1561
510 701 1706
524 711 1857
537 720 2009
547 727 2164
558 735 2326
568 743 2493
578 751 2660
587 761 2828
597 770 3003
605 777 3178
628 794 3341
653 814 3500
506 719 518
508 721 518
510 725 519
502 738 574
494 750 632
492 753 713
488 753 807
479 748 915
483 750 1034
504 762 1157
525 774 1286
545 785 1422
565 797 1562
581 808 1708
598 819 1858
612 828 2009
624 837 2164
637 846 2325
648 854 2490
660 863 2656
671 872 2824
680 881 2998
690 890 3172
699 897 3345
708 905 3518
589 833 532
592 836 532
594 839 532
593 848 559
580 862 627
576 867 706
573 869 797
567 868 900
555 861 1022
558 862 1152
580 875 1283
605 889 1420
628 902 1562
647 914 1708
667 926 1859
683 936 2011
698 946 2165
711 955 2326
725 964 2490
738 973 2655
749 982 2823
761 992 2996
772 1002 3169
783 1010 3341
792 1017 3512
676 950 545
678 952 545
681 956 545
683 960 546
672 976 618
663 982 695
659 982 787
654 983 888
646 981 1005
634 974 1138
632 972 1277
659 988 1415
687 1004 1558
709 1018 1707
731 1032 1859
750 1044 2012
768 1055 2167
783 1065 2328
798 1076 2493
813 1085 2657
826 1095 2823
839 1103 2996
851 1113 3169
862 1122 3340
874 1130 3511
762 1068 554
765 1071 554
766 1073 554
770 1077 554
765 1088 595
751 1098 678
748 1101 771
744 1103 873
739 1102 987
731 1097 1120
715 1088 1262
711 1085 1408
740 1101 1553
768 1119 1703
792 1134 1856
814 1149 2011
833 1161 2167
851 1173 2329
868 1184 2494
884 1195 2658
900 1206 2825
914 1215 2998
928 1225 3170
940 1234 3341
952 1242 3511
852 1177 582
853 1178 582
855 1180 583
858 1183 584
862 1187 585
842 1216 658
835 1216 754
832 1219 857
829 1221 970
823 1217 1101
814 1212 1242
798 1202 1392
790 1197 1547
820 1216 1697
848 1234 1852
873 1250 2007
895 1263 2164
916 1277 2328
935 1289 2494
954 1301 2659
969 1312 2826
986 1323 2999
1001 1333 3171
1015 1342 3341
1028 1352 3511
943 1277 623
944 1278 623
946 1281 624
948 1283 625
952 1287 627
941 1311 664
925 1334 735
920 1336 839
916 1339 952
914 1337 1083
908 1334 1223
897 1328 1372
881 1317 1528
870 1311 1690
901 1330 1845
929 1347 2002
953 1363 2160
977 1378 2325
999 1392 2492
1019 1405 2660
1038 1417 2827
1056 1429 3000
1072 1439 3171
1087 1450 3341
1101 1459 3511
1034 1376 668
1036 1378 668
1037 1379 669
1040 1382 670
1042 1384 671
1042 1393 681
1022 1427 755
1008 1450 824
1004 1456 933
1001 1455 1064
997 1453 1203
992 1450 1352
981 1443 1507
965 1433 1670
950 1424 1838
981 1443 1996
1009 1461 2155
1034 1477 2321
1059 1492 2489
1081 1506 2658
1102 1520 2827
1121 1532 3000
1140 1544 3172
1156 1555 3342
1173 1566 3512
1126 1472 716
1126 1473 716
1127 1475 717
1130 1477 718
1133 1480 720
1137 1484 722
1121 1515 770
1104 1540 848
1093 1567 923
1088 1573 1043
1085 1571 1183
1081 1569 1331
1075 1566 1487
1064 1559 1649
1048 1548 1817
1029 1537 1988
1060 1556 2148
1088 1573 2314
1114 1590 2484
1138 1606 2653
1161 1621 2824
1183 1635 2997
1202 1647 3169
1222 1660 3340
1239 1671 3511
1216 1566 768
1218 1567 769
1219 1568 769
1221 1570 770
1223 1573 772
1226 1576 774
1223 1593 792
1203 1630 872
1188 1655 949
1177 1682 1034
1173 1689 1163
1169 1687 1310
1165 1685 1465
1158 1680 1627
1148 1674 1795
1130 1663 1966
1109 1650 2140
1139 1669 2307
1168 1687 2478
1194 1704 2648
1219 1720 2820
1243 1735 2994
1264 1749 3167
1285 1763 3339
1303 1775 3509
1308 1660 820
1308 1660 820
1310 1662 821
1311 1664 822
1314 1666 823
1317 1669 825
1321 1673 827
1303 1710 895
1285 1743 973
1271 1771 1057
1261 1799 1152
1257 1805 1289
1253 1803 1443
1249 1801 1605
1241 1796 1772
1229 1788 1944
1212 1778 2117
1191 1764 2297
1219 1782 2470
1248 1801 2642
1275 1818 2815
1300 1834 2990
1324 1849 3163
1346 1864 3336
1367 1877 3508
1398 1755 869
1399 1756 869
1400 1758 870
1402 1759 871
1404 1761 872
1407 1764 874
1410 1768 876
1404 1787 913
1384 1826 1002
1367 1859 1080
1354 1887 1174
1345 1917 1274
1340 1922 1420
1337 1920 1581
1332 1917 1748
1323 1911 1921
1311 1903 2095
1293 1892 2274
1273 1879 2459
1299 1895 2634
1327 1913 2808
1355 1931 2984
1381 1947 3159
1405 1963 3332
1427 1977 3505
1489 1850 920
1490 1851 920
1491 1852 920
1492 1854 921
1494 1856 923
1497 1858 924
1500 1862 926
1504 1866 928
1484 1905 1021
1464 1942 1108
1448 1975 1194
1437 2006 1294
1427 2041 1394
1424 2042 1552
1420 2040 1719
1414 2036 1892
1405 2025 2072
1392 2017 2251
1375 2007 2435
1354 1994 2622
1377 2008 2801
1407 2027 2978
1435 2044 3153
1461 2059 3327
1485 2075 3500
1580 1946 971
1581 1947 971
1582 1948 972
1583 1949 973
1585 1951 973
1588 1954 975
1591 1957 977
1594 1961 979
1585 1985 1035
1565 2025 1134
1546 2059 1222
1531 2095 1314
1520 2129 1416
1511 2164 1523
1507 2162 1691
1503 2160 1863
1497 2149 2044
1487 2139 2228
1475 2132 2412
1459 2123 2599
1437 2109 2789
1458 2122 2971
1488 2140 3147
1516 2157 3323
1541 2173 3496
1673 2042 1023
1673 2043 1023
1674 2044 1024
1675 2045 1025
1677 2047 1026
1680 2049 1027
1683 2052 1029
1687 2056 1031
1687 2062 1040
1667 2107 1149
1646 2145 1247
1628 2180 1340
1614 2220 1433
1604 2258 1538
1595 2288 1657
1592 2286 1830
1587 2277 2011
1580 2265 2198
1571 2255 2389
1559 2248 2575
1542 2237 2764
1519 2223 2957
1538 2235 3140
1568 2253 3317
1597 2272 3492
1765 2138 1075
1765 2138 1075
1766 2139 1076
1768 2140 1077
1769 2142 1078
1771 2144 1079
1774 2147 1080
1777 2151 1082
1781 2155 1084
1768 2187 1159
1747 2230 1267
1726 2265 1363
1709 2305 1457
1697 2349 1553
1687 2389 1660
1679 2413 1794
1674 2406 1974
1669 2395 2160
1664 2377 2364
1654 2370 2552
1643 2363 2739
1625 2353 2932
1602 2338 3124
1617 2347 3308
1648 2367 3484
1856 2232 1127
1856 2233 1127
1857 2234 1128
1858 2235 1128
1860 2237 1129
1862 2239 1130
1864 2241 1132
1867 2244 1134
1871 2248 1136
1868 2262 1163
1849 2311 1278
1826 2351 1385
1806 2388 1482
1792 2435 1575
1779 2480 1675
1768 2522 1784
1761 2534 1936
1757 2524 2122
1753 2507 2324
1747 2491 2527
1739 2486 2715
1726 2479 2907
1708 2468 3100
1685 2453 3291
1697 2461 3476
1947 2328 1181
1948 2329 1181
1948 2330 1182
1949 2330 1182
1951 2332 1183
1953 2334 1184
1955 2337 1185
1958 2340 1187
1961 2343 1189
1965 2348 1191
1949 2387 1288
1928 2434 1406
1905 2471 1508
1888 2515 1605
1874 2564 1701
1862 2609 1804
1850 2649 1917
1844 2648 2088
1842 2635 2287
1838 2617 2495
1832 2607 2690
1822 2602 2881
1809 2594 3076
1791 2582 3267
1768 2568 3458
2039 2426 1234
2039 2426 1234
2040 2427 1234
2041 2428 1235
2042 2429 1236
2044 2431 1237
2046 2434 1238
2049 2437 1240
2052 2440 1242
2056 2444 1244
2050 2463 1292
2029 2512 1417
2006 2555 1531
1986 2597 1632
1971 2644 1732
1957 2693 1829
1944 2737 1938
1932 2772 2054
1929 2760 2251
1927 2744 2459
1923 2730 2661
1916 2723 2856
1906 2718 3051
1892 2708 3243
1874 2696 3434
141 3 436
128 4 475
100 5 539
64 12 596
19 19 658
30 29 730
40 40 811
57 56 899
73 73 997
93 92 1106
113 112 1222
140 138 1345
169 168 1477
200 198 1611
228 226 1748
258 256 1893
286 284 2038
317 313 2185
346 343 2340
375 372 2498
405 401 2654
434 430 2815
465 460 2978
493 489 3141
523 518 3304
173 139 436
160 161 518
149 156 555
124 141 613
89 119 678
79 116 754
83 119 844
95 130 935
108 143 1035
127 161 1144
147 180 1262
168 200 1385
192 221 1513
218 245 1646
246 271 1786
274 298 1928
301 323 2072
328 348 2219
356 375 2371
384 401 2528
412 429 2685
441 457 2844
469 484 3008
497 511 3170
526 539 3331
229 262 434
236 272 487
241 275 561
215 260 612
177 236 675
145 217 750
151 222 838
157 228 936
163 233 1046
169 238 1167
182 250 1290
200 265 1412
224 285 1543
248 305 1677
274 327 1816
300 349 1958
326 372 2099
352 395 2248
379 419 2401
405 443 2556
433 470 2712
459 495 2872
487 520 3034
513 545 3195
541 571 3355
292 366 436
305 377 474
308 381 547
303 378 612
278 362 677
229 332 749
218 326 835
225 332 933
235 338 1042
242 344 1162
250 351 1289
258 357 1424
266 363 1565
279 374 1708
303 393 1849
329 413 1990
355 434 2134
381 455 2282
407 477 2436
432 499 2591
458 523 2745
485 547 2904
511 570 3066
538 595 3226
564 619 3387
365 468 450
369 474 459
387 493 533
380 489 601
372 486 676
341 466 752
282 429 834
293 436 932
304 443 1042
315 450 1161
324 457 1287
336 466 1422
346 473 1562
356 481 1708
365 488 1861
373 495 2015
386 505 2170
412 525 2320
437 544 2473
464 567 2628
489 590 2784
515 611 2943
540 633 3104
566 655 3264
593 678 3424
440 559 487
445 563 488
473 591 539
458 600 593
452 600 665
442 595 750
405 572 837
352 539 932
367 547 1043
382 556 1162
395 564 1290
411 574 1423
422 582 1562
435 592 1708
447 601 1859
457 608 2012
467 616 2168
475 623 2331
485 630 2498
492 639 2666
520 662 2823
546 682 2983
571 702 3144
597 723 3304
622 744 3463
517 661 510
520 664 510
530 678 529
536 703 597
528 710 656
522 709 737
513 704 833
474 680 933
427 649 1040
446 660 1162
463 669 1290
480 680 1424
496 692 1564
510 701 1708
525 711 1859
537 720 2011
548 728 2166
558 736 2328
568 743 2494
578 751 2661
587 761 2830
597 770 3004
605 777 3180
628 794 3343
653 814 3501
593 769 521
595 772 522
597 775 522
619 809 588
607 818 649
602 819 729
596 819 819
586 813 927
545 788 1040
504 762 1159
524 774 1288
545 785 1423
565 797 1564
581 808 1710
598 818 1859
612 828 2010
624 837 2165
637 846 2326
648 854 2492
660 863 2658
670 872 2825
681 882 3000
690 890 3173
699 897 3345
708 905 3518
670 880 535
671 881 535
675 885 536
694 909 569
688 928 642
681 929 722
677 930 812
669 929 913
659 924 1032
619 900 1158
580 875 1285
605 889 1422
628 902 1564
649 915 1710
667 926 1861
682 936 2012
698 946 2166
712 956 2328
725 965 2492
738 974 2657
749 982 2823
761 992 2997
772 1002 3170
783 1010 3342
792 1017 3513
748 994 546
749 995 546
752 999 546
754 1003 547
770 1038 626
762 1043 708
757 1044 799
751 1044 899
745 1042 1016
734 1036 1148
694 1011 1283
659 988 1417
687 1004 1561
711 1019 1709
731 1032 1861
751 1045 2014
768 1056 2169
783 1065 2330
799 1076 2494
813 1085 2657
826 1095 2825
839 1103 2998
852 1114 3171
863 1122 3342
874 1130 3511
828 1106 558
829 1107 558
830 1110 559
834 1113 560
855 1146 603
842 1155 691
836 1156 784
833 1158 885
828 1157 999
821 1153 1131
809 1146 1271
772 1123 1414
741 1102 1555
768 1119 1704
792 1134 1858
814 1149 2012
833 1161 2168
851 1173 2330
868 1184 2496
885 1196 2660
900 1205 2826
913 1215 2998
928 1225 3171
940 1234 3342
952 1242 3512
