Toning/Toning-SplitWarmsAndColds.3dl
#25pt 3DLUT created by 3D LUT Creator Pro (c) Oleg Sharonov
#Copyright Oleg Sharonov
#IMAGEPROFILE 
#INPUTGAMMA 
#OUTPUTGAMMA 
0 43 86 128 171 214 256 299 341 384 427 469 512 555 597 640 682 725 768 810 853 896 938 981 1023 
0 0 19
0 6 189
0 0 358
0 3 525
0 3 693
0 6 861
0 6 1030
0 13 1188
0 13 1342
13 13 1496
26 23 1646
48 19 1799
61 29 1949
87 29 2102
116 29 2256
139 36 2413
165 42 2571
189 48 2729
212 58 2887
238 65 3045
264 71 3204
287 81 3365
308 90 3527
330 97 3691
349 103 3855
10 136 168
13 136 243
6 155 372
0 168 527
0 174 691
0 180 857
0 186 1024
0 195 1180
0 198 1335
3 206 1484
16 209 1636
26 217 1786
45 217 1941
61 230 2092
87 233 2247
110 238 2405
129 245 2563
161 243 2724
189 248 2883
214 257 3041
240 264 3200
262 276 3360
289 273 3523
312 278 3687
326 291 3852
42 293 273
42 278 349
36 287 448
13 314 560
6 324 713
3 330 874
0 341 1033
0 345 1187
0 352 1335
6 360 1482
13 367 1631
26 369 1784
39 377 1935
58 377 2090
81 381 2245
94 393 2399
123 391 2561
142 399 2719
168 404 2877
195 411 3036
220 419 3194
243 427 3354
273 423 3518
289 436 3680
310 437 3848
126 446 363
74 439 437
68 420 559
39 439 657
16 471 758
10 488 896
10 494 1053
10 503 1196
13 506 1341
16 512 1488
23 520 1635
32 525 1784
48 525 1938
58 533 2088
81 535 2244
90 547 2397
107 554 2554
132 553 2716
149 566 2870
177 571 3028
209 570 3190
233 577 3350
250 586 3511
276 587 3677
295 588 3845
180 604 451
126 601 512
42 584 640
48 578 755
42 599 852
29 629 954
16 655 1067
19 659 1209
26 661 1354
29 668 1496
36 671 1643
45 676 1792
55 681 1941
68 687 2090
78 696 2241
90 701 2397
110 706 2555
126 713 2712
152 716 2870
174 722 3027
195 729 3185
217 735 3345
238 742 3506
262 744 3673
269 757 3837
250 757 541
209 756 591
152 754 681
74 725 850
74 735 950
61 758 1048
52 783 1139
36 812 1230
36 820 1364
42 825 1505
48 830 1650
58 832 1798
68 837 1946
78 842 2095
87 851 2246
94 860 2398
110 865 2554
129 870 2711
142 880 2863
161 885 3020
183 892 3178
203 897 3339
222 904 3501
240 909 3666
257 912 3835
316 909 633
280 910 673
238 913 745
142 897 894
103 879 1043
100 893 1140
94 909 1225
84 934 1312
65 963 1403
55 984 1515
61 987 1660
71 991 1805
78 997 1950
87 1003 2099
97 1010 2250
103 1018 2401
116 1023 2557
126 1033 2707
149 1036 2864
158 1047 3016
177 1053 3174
195 1059 3334
206 1067 3496
230 1067 3664
245 1073 3831
384 1060 727
351 1063 758
312 1067 818
262 1070 917
132 1034 1123
142 1032 1232
142 1041 1315
136 1059 1401
123 1084 1487
103 1113 1577
78 1145 1670
84 1153 1809
94 1155 1957
100 1163 2104
110 1169 2255
116 1177 2405
123 1185 2556
136 1192 2707
152 1197 2862
161 1207 3015
177 1212 3173
195 1217 3334
209 1223 3497
214 1233 3659
230 1237 3827
449 1209 824
419 1214 845
384 1220 896
343 1227 976
262 1214 1134
183 1179 1316
195 1178 1407
195 1190 1491
186 1210 1575
171 1235 1662
149 1265 1750
123 1296 1842
107 1318 1962
113 1324 2109
119 1331 2257
126 1339 2407
136 1345 2557
149 1351 2709
155 1359 2860
165 1368 3012
180 1374 3171
195 1379 3332
203 1386 3494
209 1394 3657
222 1399 3825
516 1358 925
486 1365 937
454 1373 977
416 1382 1044
363 1386 1148
257 1347 1359
240 1323 1492
248 1326 1582
243 1340 1666
235 1361 1750
220 1386 1838
198 1416 1926
165 1451 2016
126 1487 2112
129 1495 2259
139 1500 2409
149 1507 2558
158 1514 2708
165 1522 2859
171 1530 3012
180 1537 3169
189 1544 3329
198 1551 3492
201 1559 3654
209 1565 3821
579 1508 1023
552 1516 1030
522 1525 1062
488 1535 1118
443 1543 1203
362 1530 1366
282 1486 1543
291 1469 1667
297 1474 1758
293 1490 1842
282 1512 1927
264 1541 2011
240 1573 2100
209 1607 2191
168 1644 2284
155 1663 2410
161 1670 2558
171 1676 2709
174 1685 2857
180 1693 3011
192 1698 3171
195 1707 3330
195 1715 3489
195 1724 3651
195 1734 3815
645 1658 1118
617 1665 1126
590 1676 1149
557 1686 1196
518 1697 1267
464 1702 1376
363 1653 1582
322 1629 1722
343 1617 1841
345 1625 1933
337 1645 2016
326 1668 2102
308 1696 2189
287 1727 2278
257 1761 2367
217 1799 2455
174 1834 2556
180 1840 2707
186 1848 2857
192 1854 3013
195 1863 3169
198 1871 3328
192 1881 3486
189 1891 3647
186 1900 3812
708 1809 1209
680 1814 1225
654 1826 1239
625 1838 1277
590 1850 1339
543 1859 1427
455 1836 1582
391 1794 1764
374 1776 1897
389 1768 2014
393 1777 2110
384 1797 2195
372 1821 2281
354 1849 2366
332 1882 2452
299 1917 2539
262 1956 2628
212 1995 2721
198 2012 2857
198 2020 3011
198 2029 3167
195 2039 3324
195 2047 3485
192 2056 3646
183 2066 3810
772 1960 1299
743 1964 1321
718 1976 1331
690 1989 1361
658 2002 1412
616 2011 1484
558 2010 1589
460 1961 1801
427 1938 1945
422 1925 2073
437 1920 2190
440 1928 2290
431 1950 2373
416 1977 2455
398 2005 2540
374 2038 2627
343 2073 2715
306 2111 2805
252 2153 2897
206 2186 3010
206 2194 3167
203 2204 3324
195 2214 3482
186 2224 3643
174 2235 3806
837 2111 1388
807 2114 1413
781 2125 1429
755 2140 1448
725 2152 1490
686 2161 1550
636 2166 1636
547 2144 1797
489 2104 1986
464 2087 2121
468 2077 2246
481 2075 2362
485 2081 2466
475 2105 2548
461 2131 2633
442 2160 2719
417 2194 2805
384 2231 2893
341 2271 2983
291 2312 3078
220 2357 3172
201 2372 3319
195 2382 3479
177 2394 3637
161 2405 3801
903 2263 1477
872 2265 1505
844 2273 1526
818 2287 1536
788 2299 1568
752 2310 1620
710 2318 1694
650 2318 1802
551 2273 2018
523 2251 2165
504 2238 2296
513 2230 2419
525 2229 2534
530 2236 2643
518 2260 2726
503 2287 2811
481 2319 2895
454 2354 2983
420 2391 3075
379 2431 3169
324 2474 3260
252 2520 3352
189 2552 3473
171 2563 3634
152 2575 3795
965 2414 1560
933 2413 1590
904 2418 1615
879 2431 1626
851 2446 1649
817 2459 1693
778 2470 1757
728 2476 1846
640 2455 2011
579 2416 2204
560 2400 2342
543 2390 2469
558 2385 2590
566 2387 2705
572 2392 2820
560 2416 2907
542 2446 2992
520 2478 3082
490 2513 3171
454 2553 3260
409 2594 3350
352 2638 3441
278 2684 3535
171 2732 3632
145 2744 3791
1024 2564 1639
992 2563 1672
963 2567 1700
936 2578 1719
911 2593 1733
880 2607 1770
845 2619 1825
801 2628 1902
742 2628 2013
642 2584 2233
613 2564 2383
596 2552 2515
587 2545 2641
600 2542 2763
607 2544 2881
611 2552 2998
601 2574 3093
580 2605 3181
554 2639 3267
521 2678 3352
484 2717 3441
439 2757 3534
379 2801 3628
304 2848 3721
192 2897 3816
1084 2713 1718
1052 2712 1753
1023 2715 1784
995 2724 1809
971 2740 1821
942 2755 1849
909 2769 1895
868 2780 1962
819 2787 2054
731 2767 2223
667 2730 2420
648 2715 2560
635 2706 2691
629 2701 2817
639 2701 2940
644 2706 3059
647 2715 3178
637 2735 3279
615 2767 3365
588 2801 3452
557 2838 3540
517 2878 3632
467 2921 3722
404 2966 3814
326 3013 3909
1144 2863 1796
1111 2861 1833
1081 2864 1866
1054 2871 1895
1028 2885 1913
1003 2902 1930
971 2917 1970
934 2931 2028
890 2941 2106
831 2942 2221
731 2899 2449
699 2880 2603
685 2869 2738
675 2863 2867
667 2861 2994
674 2863 3118
679 2869 3238
681 2878 3357
675 2895 3466
652 2927 3552
623 2963 3641
587 3002 3728
543 3043 3818
490 3087 3909
428 3132 4004
1204 3013 1874
1171 3011 1912
1141 3013 1947
1112 3020 1979
1085 3031 2003
1060 3049 2016
1031 3066 2047
997 3081 2097
959 3094 2166
909 3101 2261
823 3082 2438
756 3047 2640
734 3033 2783
722 3026 2917
712 3023 3045
704 3022 3171
711 3025 3296
714 3032 3417
714 3042 3536
711 3056 3654
684 3091 3740
653 3128 3828
615 3167 3918
571 3208 4011
517 3251 4095
1260 3165 1946
1228 3163 1987
1198 3164 2026
1169 3169 2060
1143 3180 2090
1119 3196 2107
1093 3215 2129
1062 3231 2172
1026 3246 2232
982 3257 2313
921 3260 2430
819 3218 2666
784 3200 2823
768 3190 2963
758 3185 3094
749 3183 3222
741 3185 3348
744 3189 3472
745 3198 3594
744 3209 3716
742 3222 3839
716 3254 3932
683 3292 4022
644 3332 4095
1079 3360 4095
1317 3318 2021
1286 3315 2063
1255 3316 2103
1227 3320 2140
1199 3329 2173
1174 3343 2197
1151 3363 2212
1123 3381 2247
1090 3397 2300
1050 3411 2371
999 3420 2468
909 3403 2647
841 3368 2857
815 3356 3004
802 3349 3139
793 3347 3269
784 3347 3397
776 3351 3523
775 3356 3650
776 3364 3775
773 3376 3899
768 3391 4022
786 3418 4095
1224 3439 4095
1423 3472 4095
1373 3471 2093
1342 3468 2137
1312 3468 2179
1284 3471 2219
1256 3479 2255
1231 3491 2284
1208 3510 2300
1182 3530 2326
1151 3548 2371
1114 3564 2433
1070 3576 2518
1008 3580 2637
906 3539 2880
868 3522 3041
848 3514 3183
835 3511 3316
826 3510 3446
818 3512 3575
810 3516 3703
803 3524 3830
802 3533 3957
798 3546 4082
1299 3539 4095
1713 3538 4095
1652 3619 4095
1430 3625 2166
1399 3621 2211
1369 3621 2254
1341 3624 2296
1314 3631 2334
1288 3642 2368
1264 3658 2393
1240 3679 2409
1211 3698 2447
1178 3715 2502
1137 3730 2575
1086 3740 2674
995 3725 2857
924 3692 3070
896 3682 3220
878 3676 3360
867 3674 3493
858 3675 3624
849 3679 3753
840 3686 3880
830 3695 4008
1008 3699 4095
1652 3674 4095
1846 3699 4095
2018 3730 4095
174 0 52
52 10 269
19 13 412
19 13 566
26 13 727
19 13 891
19 10 1058
23 10 1221
29 10 1372
52 10 1524
61 13 1675
81 16 1823
97 19 1973
126 26 2123
142 32 2275
165 39 2429
189 45 2585
214 52 2743
240 58 2900
264 65 3057
287 74 3216
306 84 3376
332 90 3537
349 100 3700
370 107 3864
165 155 158
94 165 287
55 90 471
42 90 618
26 90 776
10 94 936
23 81 1102
45 68 1270
71 58 1427
97 42 1577
110 48 1721
132 42 1868
149 52 2014
165 61 2161
189 61 2311
212 65 2465
233 68 2619
250 74 2776
271 84 2931
293 87 3087
314 97 3244
336 100 3403
354 113 3563
374 116 3725
389 126 3889
198 299 271
139 312 341
42 299 493
36 295 633
23 291 792
26 284 953
42 278 1114
55 269 1278
65 267 1432
74 267 1576
87 269 1720
107 269 1866
123 273 2013
149 269 2164
165 280 2312
189 280 2467
212 282 2623
230 289 2779
252 291 2934
276 295 3091
302 293 3249
320 299 3408
339 308 3567
360 310 3729
374 320 3893
240 449 374
206 452 428
123 454 547
42 448 692
29 468 802
36 461 964
45 454 1127
52 452 1288
61 449 1437
78 446 1582
90 445 1727
110 445 1874
129 443 2022
152 445 2170
174 445 2323
192 451 2474
212 454 2629
230 458 2785
255 458 2941
278 460 3097
297 467 3253
318 471 3411
343 468 3573
360 475 3734
377 477 3899
293 600 464
260 603 510
217 610 597
74 597 761
48 605 877
39 629 984
39 634 1130
45 633 1291
58 628 1436
74 623 1584
90 623 1728
110 618 1878
132 617 2027
152 617 2175
171 622 2325
192 622 2480
214 622 2636
235 624 2792
252 631 2944
276 632 3100
295 636 3256
316 640 3414
343 634 3577
356 643 3737
376 643 3903
356 748 559
326 753 595
291 760 665
209 757 804
87 749 956
68 762 1067
55 789 1171
42 810 1286
58 802 1436
74 797 1583
90 793 1732
107 792 1878
129 788 2029
152 788 2179
171 790 2330
186 796 2481
209 796 2637
233 795 2793
250 801 2945
273 802 3101
293 805 3258
316 806 3417
334 810 3576
356 807 3742
365 817 3904
419 897 656
389 903 682
358 912 739
314 919 836
189 899 1023
110 906 1144
90 921 1254
81 943 1346
65 969 1440
74 971 1578
90 966 1729
110 963 1878
132 959 2030
149 961 2178
165 964 2329
183 967 2482
206 966 2638
222 971 2790
248 970 2946
264 976 3099
287 977 3256
308 979 3415
326 982 3575
339 987 3738
356 988 3904
481 1045 757
455 1052 771
425 1062 818
389 1071 896
308 1064 1053
212 1053 1218
142 1063 1331
129 1072 1428
119 1093 1518
100 1120 1610
90 1138 1723
110 1134 1875
129 1132 2025
145 1134 2175
165 1134 2329
183 1136 2483
201 1139 2635
217 1143 2786
243 1142 2943
257 1148 3096
282 1147 3255
297 1153 3411
314 1156 3572
334 1155 3739
343 1162 3902
545 1193 853
520 1201 864
492 1211 900
460 1223 966
412 1231 1070
302 1204 1283
238 1205 1406
180 1209 1507
177 1222 1600
165 1245 1688
142 1272 1780
116 1303 1872
129 1304 2020
145 1305 2172
165 1304 2327
177 1309 2478
198 1310 2631
217 1312 2784
235 1315 2937
250 1319 3091
273 1319 3251
287 1324 3408
304 1327 3570
322 1328 3736
336 1331 3902
610 1341 948
584 1349 960
558 1361 986
527 1374 1041
489 1386 1125
403 1379 1287
324 1352 1477
269 1351 1582
230 1358 1680
225 1374 1771
212 1396 1861
192 1425 1952
158 1458 2043
145 1477 2166
158 1478 2319
177 1479 2473
195 1481 2624
214 1483 2778
230 1486 2932
248 1489 3087
264 1492 3244
280 1494 3406
295 1498 3568
310 1500 3733
318 1507 3896
673 1491 1041
646 1497 1059
623 1511 1076
594 1524 1120
559 1538 1190
509 1545 1299
394 1515 1516
352 1495 1656
308 1497 1759
280 1506 1857
273 1525 1946
257 1551 2034
233 1581 2124
201 1615 2216
161 1649 2313
180 1649 2466
195 1652 2617
212 1653 2771
225 1658 2923
243 1660 3081
257 1663 3240
271 1666 3401
287 1669 3565
293 1675 3727
304 1679 3892
