Toning/Toning-Warm&Soft.3dl
#25pt 3DLUT created by 3D LUT Creator Pro (c) Oleg Sharonov
#Copyright Oleg Sharonov
#IMAGEPROFILE sRGB IEC61966-2.1 v.2.10
#INPUTGAMMA sRGB IEC61966-2.1 v.2.10
#OUTPUTGAMMA sRGB IEC61966-2.1 v.2.10
0 43 86 128 171 214 256 299 341 384 427 469 512 555 597 640 682 725 768 810 853 896 938 981 1023 
0 0 324
0 0 429
0 0 528
0 0 630
0 0 732
0 0 832
1 1 935
1 1 1038
2 2 1138
2 2 1241
2 2 1343
3 3 1446
3 3 1547
4 4 1649
4 4 1751
5 5 1853
5 5 1957
6 6 2058
6 6 2160
7 7 2262
7 7 2364
8 8 2466
8 8 2568
9 9 2670
9 9 2772
0 169 323
0 169 425
0 170 527
0 170 630
0 171 732
0 171 833
1 172 935
1 172 1038
2 173 1138
2 173 1241
3 174 1343
3 174 1446
3 174 1547
4 175 1649
4 175 1751
5 176 1853
5 176 1955
6 177 2058
6 177 2160
7 178 2262
7 178 2364
8 179 2466
8 179 2568
9 180 2670
9 180 2772
0 337 323
0 340 425
0 338 526
0 340 628
0 341 730
0 341 833
1 342 936
1 342 1036
2 343 1139
2 343 1242
3 344 1343
3 344 1444
3 345 1548
4 345 1650
4 346 1752
5 346 1853
5 347 1955
6 347 2056
6 348 2158
7 348 2261
7 349 2363
8 349 2465
8 349 2567
9 350 2669
9 350 2771
0 509 322
0 510 424
0 510 526
0 511 628
0 511 730
0 512 832
1 512 934
1 513 1036
2 513 1139
2 514 1240
3 514 1343
3 515 1444
3 515 1546
4 516 1648
4 516 1750
5 517 1852
5 517 1955
6 518 2056
6 518 2158
7 518 2261
7 519 2362
8 519 2464
8 520 2566
9 520 2669
9 521 2771
0 680 322
0 681 424
0 681 526
0 681 628
0 682 729
0 683 832
1 683 934
1 684 1036
2 685 1138
2 684 1239
3 685 1342
3 685 1444
3 685 1545
4 686 1647
4 686 1750
5 687 1851
5 688 1954
6 688 2056
6 688 2158
7 690 2260
7 690 2362
8 691 2464
8 691 2566
9 692 2668
9 692 2770
0 851 321
0 851 423
0 852 525
0 852 627
0 853 730
0 853 831
1 854 933
1 854 1035
2 854 1137
2 855 1239
3 855 1341
3 856 1443
3 857 1545
4 857 1647
4 858 1749
5 858 1851
5 859 1954
6 859 2055
6 859 2157
7 860 2260
7 860 2362
8 861 2464
8 861 2566
9 862 2668
9 862 2770
0 1021 321
0 1022 423
0 1022 525
0 1023 627
0 1023 729
0 1024 830
1 1024 933
1 1025 1035
2 1026 1137
2 1025 1239
3 1027 1341
3 1026 1443
3 1027 1545
4 1027 1647
4 1028 1749
5 1028 1851
5 1029 1953
6 1029 2055
6 1030 2157
7 1031 2259
7 1031 2361
8 1031 2463
8 1032 2565
9 1033 2667
9 1033 2769
0 1192 320
0 1193 422
0 1193 524
0 1194 626
0 1194 729
0 1195 830
1 1195 933
1 1196 1035
2 1196 1136
2 1197 1238
3 1197 1340
3 1198 1442
3 1198 1544
4 1199 1647
4 1199 1748
5 1200 1851
5 1199 1952
6 1200 2055
6 1201 2157
7 1201 2258
7 1202 2361
8 1202 2463
8 1203 2565
9 1203 2667
9 1204 2769
0 1363 320
0 1363 422
0 1364 524
0 1364 626
0 1364 728
0 1365 830
1 1366 932
1 1366 1034
2 1366 1136
2 1367 1238
3 1368 1340
3 1368 1442
3 1369 1544
4 1369 1646
4 1370 1748
5 1370 1850
5 1370 1952
6 1371 2054
6 1371 2156
7 1372 2258
7 1372 2360
8 1373 2462
8 1373 2564
9 1373 2666
9 1374 2768
0 1533 319
0 1534 422
0 1534 523
0 1534 625
0 1535 727
0 1536 829
1 1536 932
1 1536 1033
2 1537 1135
2 1538 1237
3 1538 1340
3 1538 1441
3 1539 1544
4 1540 1646
4 1540 1748
5 1541 1850
5 1541 1952
6 1542 2054
6 1542 2156
7 1542 2258
7 1543 2359
8 1543 2462
8 1543 2564
9 1544 2666
9 1545 2768
0 1704 319
0 1704 421
0 1705 523
0 1705 625
0 1706 727
0 1707 829
1 1707 931
1 1707 1033
2 1708 1135
2 1709 1237
3 1709 1339
3 1709 1441
3 1710 1543
4 1710 1645
4 1711 1747
5 1711 1849
5 1712 1951
6 1712 2053
6 1713 2155
7 1713 2257
7 1713 2359
8 1714 2461
8 1714 2563
9 1715 2665
9 1715 2767
0 1875 318
0 1875 421
0 1876 522
0 1876 624
0 1876 727
0 1877 828
1 1878 931
1 1878 1032
2 1878 1134
2 1879 1237
3 1879 1339
3 1880 1440
3 1880 1543
4 1881 1645
4 1881 1747
5 1882 1849
5 1882 1951
6 1883 2053
6 1883 2155
7 1883 2257
7 1884 2359
8 1884 2461
8 1885 2563
9 1885 2665
9 1886 2767
0 2045 318
0 2046 420
0 2046 522
0 2047 624
0 2047 726
0 2047 828
1 2048 930
1 2049 1032
2 2049 1134
2 2049 1236
3 2050 1338
3 2050 1440
3 2051 1542
4 2051 1644
4 2052 1746
5 2052 1848
5 2053 1950
6 2053 2052
6 2054 2154
7 2054 2256
7 2055 2358
8 2055 2460
8 2056 2562
9 2056 2664
9 2057 2766
0 2216 317
0 2217 420
0 2217 521
0 2217 623
0 2218 726
0 2218 827
1 2219 929
1 2219 1032
2 2220 1133
2 2220 1236
3 2221 1338
3 2221 1439
3 2221 1541
4 2222 1644
4 2222 1745
5 2223 1848
5 2224 1950
6 2224 2052
6 2224 2154
7 2225 2256
7 2225 2358
8 2226 2460
8 2226 2562
9 2227 2664
9 2227 2766
0 2386 317
0 2387 419
0 2387 521
0 2388 623
0 2388 725
0 2389 827
1 2389 929
1 2390 1031
2 2390 1133
2 2391 1235
3 2391 1337
3 2391 1439
3 2392 1541
4 2393 1643
4 2393 1745
5 2394 1847
5 2394 1949
6 2395 2051
6 2395 2153
7 2395 2255
7 2396 2357
8 2396 2459
8 2397 2561
9 2397 2663
9 2398 2765
0 2557 316
0 2558 419
0 2558 520
0 2559 622
0 2559 725
0 2559 827
1 2560 929
1 2560 1031
2 2561 1132
2 2561 1235
3 2562 1337
3 2562 1439
4 2563 1541
4 2563 1643
4 2564 1745
5 2564 1847
5 2565 1949
6 2565 2051
6 2566 2153
7 2566 2255
7 2567 2357
8 2567 2459
8 2568 2561
9 2568 2663
9 2568 2765
0 2728 316
0 2728 418
0 2729 520
0 2729 622
0 2730 724
0 2730 826
1 2731 928
1 2731 1030
2 2732 1132
2 2732 1234
3 2732 1336
3 2733 1438
4 2734 1540
4 2734 1642
4 2735 1744
5 2735 1846
5 2735 1948
6 2736 2050
6 2736 2152
7 2737 2254
7 2737 2356
8 2738 2458
8 2738 2561
9 2739 2662
12 2739 2764
0 2898 315
0 2899 418
0 2899 520
0 2900 621
0 2900 724
0 2901 826
1 2901 927
1 2902 1030
2 2902 1132
2 2902 1234
3 2903 1336
3 2903 1438
4 2904 1540
4 2905 1642
4 2905 1744
5 2906 1846
5 2906 1948
6 2906 2050
6 2907 2152
7 2907 2254
7 2908 2356
8 2908 2458
8 2909 2560
9 2909 2662
9 2910 2764
0 3069 315
0 3069 417
0 3070 519
0 3070 621
0 3071 723
0 3071 825
1 3072 927
1 3072 1029
2 3073 1131
2 3073 1233
3 3074 1335
3 3074 1437
4 3075 1539
4 3075 1641
4 3076 1743
5 3076 1845
5 3077 1947
6 3077 2049
6 3078 2151
7 3078 2253
7 3078 2355
8 3079 2457
8 3079 2559
9 3080 2661
9 3080 2763
0 3240 314
0 3240 417
0 3241 519
0 3241 620
0 3242 723
0 3242 825
1 3243 927
1 3243 1029
2 3244 1131
2 3244 1233
3 3244 1335
3 3245 1437
4 3245 1539
4 3246 1641
4 3246 1743
5 3247 1845
5 3247 1947
6 3248 2049
6 3248 2151
7 3249 2253
7 3249 2355
8 3250 2457
8 3250 2559
9 3250 2661
9 3251 2763
0 3410 314
0 3411 416
0 3411 518
0 3411 620
0 3412 722
0 3413 824
1 3413 926
1 3413 1028
2 3414 1130
2 3414 1232
3 3415 1334
3 3415 1436
4 3416 1538
4 3416 1640
4 3417 1742
5 3417 1844
5 3418 1946
6 3418 2048
6 3419 2150
7 3419 2252
7 3420 2354
8 3420 2456
8 3420 2558
9 3421 2660
9 3421 2762
0 3581 314
0 3581 416
0 3582 518
0 3582 620
0 3583 722
0 3583 824
1 3584 926
1 3584 1028
2 3585 1130
2 3585 1232
3 3586 1334
3 3586 1436
4 3587 1538
4 3587 1640
4 3587 1742
5 3588 1844
5 3588 1946
6 3589 2048
6 3589 2150
7 3590 2252
7 3590 2354
8 3591 2456
8 3591 2558
9 3592 2660
12 3592 2762
0 3751 313
0 3752 415
0 3752 517
0 3753 619
0 3753 721
0 3754 823
1 3754 925
1 3755 1027
2 3755 1129
2 3756 1231
3 3756 1333
3 3757 1435
4 3757 1537
4 3758 1639
4 3758 1741
5 3759 1843
5 3759 1945
6 3760 2047
6 3760 2149
7 3760 2252
7 3761 2353
8 3761 2455
8 3762 2557
9 3762 2659
9 3763 2761
0 3922 313
0 3922 415
0 3923 517
0 3923 619
0 3924 721
0 3924 823
1 3925 925
1 3925 1027
2 3926 1129
2 3926 1231
3 3927 1333
3 3927 1435
4 3928 1537
4 3928 1639
4 3929 1741
5 3929 1843
5 3930 1945
6 3930 2047
6 3931 2149
7 3931 2251
7 3931 2353
8 3932 2455
8 3932 2557
9 3933 2659
9 3933 2761
1 4093 314
2 4093 416
2 4094 516
2 4094 619
3 4095 720
0 4095 822
1 4095 924
4 4095 1027
2 4095 1128
2 4095 1230
3 4095 1332
6 4095 1434
4 4095 1536
4 4095 1638
4 4095 1740
5 4095 1842
5 4095 1944
6 4095 2046
6 4095 2148
13 4095 2251
11 4095 2352
11 4095 2454
11 4095 2557
15 4095 2658
12 4095 2761
227 0 310
231 0 414
228 0 517
229 0 622
232 0 727
233 0 836
233 1 937
234 1 1043
234 1 1149
234 2 1252
235 2 1359
235 3 1462
236 3 1567
236 4 1674
237 4 1777
237 5 1883
238 5 1988
238 6 2092
238 6 2197
239 6 2302
239 7 2406
240 7 2511
240 8 2616
241 8 2721
241 9 2826
231 169 309
231 170 414
231 170 519
232 171 623
232 171 728
233 171 832
233 172 937
234 172 1043
234 173 1149
234 173 1252
235 174 1357
235 174 1462
236 175 1567
236 175 1672
237 176 1776
237 176 1881
238 176 1987
238 177 2091
238 177 2196
239 178 2302
239 178 2406
240 179 2511
240 179 2616
241 180 2721
241 180 2826
231 340 309
231 339 413
231 341 518
232 342 624
232 342 729
233 342 833
233 343 938
234 343 1042
234 344 1147
234 344 1252
235 345 1357
235 345 1463
236 346 1567
236 346 1672
237 347 1777
237 347 1882
237 348 1986
238 348 2092
238 348 2196
239 349 2301
239 349 2406
240 350 2511
240 350 2616
241 351 2720
241 351 2825
230 511 308
231 512 413
231 512 518
232 513 622
232 513 727
233 514 833
233 515 938
234 515 1042
234 515 1147
234 516 1252
235 516 1357
235 516 1461
236 517 1567
236 517 1672
237 518 1777
237 518 1881
237 519 1986
238 519 2090
238 520 2196
239 520 2300
239 521 2405
240 521 2510
240 521 2615
241 522 2720
241 522 2825
230 682 308
231 683 412
231 683 517
232 684 622
232 684 727
233 686 832
233 686 937
234 686 1041
234 687 1147
234 688 1252
235 688 1356
235 687 1460
236 689 1566
236 689 1671
237 690 1776
237 690 1881
237 691 1985
238 691 2091
238 692 2196
239 692 2300
239 692 2405
240 692 2509
240 693 2614
240 694 2719
238 693 2824
230 854 307
231 855 412
231 855 517
232 856 621
232 856 726
233 857 831
233 856 936
234 858 1041
234 858 1146
234 858 1250
235 859 1356
235 859 1460
236 859 1565
236 860 1670
237 861 1775
237 861 1880
237 862 1985
238 862 2090
238 863 2194
239 863 2300
239 864 2404
240 864 2509
240 865 2614
240 865 2719
241 865 2824
230 1025 307
231 1026 412
231 1026 516
232 1027 621
232 1027 726
233 1028 831
233 1029 936
233 1029 1040
234 1030 1145
234 1030 1251
235 1031 1355
235 1030 1460
236 1032 1565
236 1032 1670
237 1032 1775
237 1033 1880
237 1033 1985
238 1033 2089
238 1034 2195
239 1034 2299
239 1035 2404
240 1035 2509
240 1035 2614
240 1036 2718
241 1036 2823
230 1197 306
231 1198 411
231 1198 516
232 1199 621
232 1199 726
233 1199 830
233 1200 935
233 1201 1040
234 1201 1145
234 1201 1250
235 1201 1355
235 1202 1460
236 1202 1564
236 1203 1669
237 1203 1774
237 1204 1879
237 1205 1984
238 1205 2089
238 1206 2194
239 1206 2299
239 1207 2404
240 1207 2508
240 1207 2613
240 1208 2718
241 1208 2823
230 1369 306
231 1369 411
231 1370 515
232 1370 620
232 1371 725
233 1371 830
233 1371 935
233 1371 1039
234 1372 1144
234 1372 1249
235 1373 1354
235 1374 1459
236 1374 1564
236 1374 1669
236 1375 1774
237 1375 1879
237 1376 1984
238 1377 2089
238 1377 2193
239 1377 2298
239 1377 2403
240 1378 2508
240 1378 2613
240 1379 2717
241 1380 2823
230 1540 306
231 1540 410
231 1541 515
232 1541 620
232 1542 725
233 1542 829
233 1542 934
233 1543 1039
234 1543 1144
234 1544 1249
235 1544 1354
235 1545 1459
236 1545 1564
236 1546 1669
236 1546 1773
237 1547 1878
237 1547 1983
238 1548 2088
238 1548 2193
239 1548 2298
239 1549 2403
240 1549 2508
240 1550 2613
240 1550 2717
241 1551 2822
230 1711 305
231 1712 410
231 1712 514
232 1712 619
232 1713 724
233 1713 829
233 1714 934
233 1714 1039
234 1714 1144
234 1715 1249
235 1715 1353
235 1716 1458
236 1717 1563
236 1717 1668
236 1718 1773
237 1718 1878
237 1718 1983
238 1719 2088
238 1719 2192
239 1719 2297
239 1720 2402
240 1721 2507
240 1721 2612
240 1722 2717
241 1722 2822
