Toning/Toning-Accent blues.3dl
#25pt 3DLUT created by 3D LUT Creator Pro (c) Oleg Sharonov
#Copyright Oleg Sharonov
#INPUTGAMMA sRGB IEC61966-2.1 v.2.10
#IMAGEPROFILE sRGB IEC61966-2.1 v.2.10
#OUTPUTGAMMA sRGB IEC61966-2.1 v.2.10
0 43 86 128 171 214 256 299 341 384 427 469 512 555 597 640 682 725 768 810 853 896 938 981 1023 
0 0 0
0 0 171
0 0 341
0 0 512
0 0 683
0 0 852
0 0 1023
0 0 1195
0 0 1364
0 0 1535
0 0 1705
0 0 1877
0 0 2047
0 0 2218
0 0 2388
0 0 2559
0 0 2731
0 0 2900
0 0 3071
0 0 3242
0 0 3413
0 0 3583
0 0 3754
0 0 3924
0 0 4095
0 171 0
0 164 171
0 156 341
0 149 512
0 142 683
0 135 853
0 128 1024
0 121 1195
0 114 1364
0 107 1535
0 100 1706
0 92 1877
0 85 2047
0 78 2218
0 71 2389
0 64 2559
0 57 2729
0 50 2901
0 43 3071
0 36 3243
0 28 3413
0 21 3583
0 14 3754
0 7 3925
0 0 4095
0 341 0
0 327 171
0 313 341
0 299 512
0 284 682
0 270 853
0 256 1024
0 242 1194
0 228 1365
0 213 1536
0 199 1707
0 185 1876
0 171 2048
0 156 2219
0 142 2389
0 128 2560
0 114 2730
0 100 2900
0 85 3070
0 71 3242
0 57 3412
0 43 3583
0 28 3753
0 14 3924
0 0 4094
0 512 0
0 491 171
0 470 341
0 449 512
0 428 682
0 408 853
0 387 1023
0 366 1194
0 345 1365
0 324 1535
0 303 1707
0 282 1877
0 262 2047
0 241 2218
0 220 2388
0 199 2559
0 178 2730
0 157 2900
0 136 3071
0 116 3242
0 95 3412
0 74 3583
0 53 3754
0 32 3924
0 11 4095
0 683 0
0 663 171
0 643 341
0 623 512
0 603 682
0 583 853
0 563 1024
0 544 1194
0 524 1365
0 504 1535
0 484 1707
0 464 1877
0 444 2047
0 424 2218
0 404 2388
0 384 2559
0 365 2730
0 344 2900
0 325 3071
0 306 3242
0 286 3412
0 266 3583
0 246 3753
0 226 3924
0 206 4095
0 853 0
0 834 171
0 815 341
0 797 512
0 778 683
0 759 853
0 740 1024
0 721 1194
0 702 1365
0 683 1535
0 664 1706
0 646 1877
0 627 2047
0 608 2218
0 589 2389
0 570 2559
0 551 2730
0 532 2900
0 514 3071
0 495 3242
0 476 3413
0 457 3583
0 438 3754
0 419 3924
0 400 4095
0 1024 0
0 1006 171
0 988 341
0 970 512
0 952 683
0 934 853
0 916 1024
0 899 1194
0 881 1365
0 863 1535
0 845 1706
0 827 1877
0 809 2047
0 791 2218
0 773 2388
0 755 2559
0 738 2730
0 720 2900
0 702 3071
0 684 3242
0 667 3412
0 648 3583
0 630 3754
0 613 3924
0 595 4095
0 1194 0
0 1178 171
0 1161 341
0 1144 512
0 1127 683
0 1110 853
0 1093 1024
0 1076 1194
0 1059 1365
0 1043 1536
0 1025 1706
0 1009 1877
0 992 2047
0 975 2218
0 958 2389
0 941 2559
0 924 2730
0 908 2901
0 891 3071
0 873 3242
0 857 3413
0 840 3583
0 823 3754
0 806 3925
0 790 4095
0 1365 0
0 1349 171
0 1333 341
0 1317 512
0 1301 682
0 1286 853
0 1270 1024
0 1254 1194
0 1238 1365
0 1222 1536
0 1206 1706
0 1190 1877
0 1174 2048
0 1159 2218
0 1143 2389
0 1127 2560
0 1111 2730
0 1095 2900
0 1079 3071
0 1063 3242
0 1047 3412
0 1031 3583
0 1015 3753
0 999 3924
0 983 4095
0 1536 0
0 1521 171
0 1506 341
0 1491 512
0 1476 682
0 1461 853
0 1446 1024
0 1431 1194
0 1416 1365
0 1402 1536
0 1387 1706
0 1372 1877
0 1357 2048
0 1342 2218
0 1327 2389
0 1312 2559
0 1297 2730
0 1282 2901
0 1268 3071
0 1253 3242
0 1237 3412
0 1222 3583
0 1208 3753
0 1193 3924
0 1178 4095
0 1706 0
0 1692 171
0 1678 341
0 1665 512
0 1651 682
0 1637 853
0 1623 1024
0 1609 1194
0 1595 1365
0 1581 1536
0 1567 1706
0 1553 1877
0 1540 2047
0 1526 2218
0 1512 2389
0 1498 2559
0 1484 2730
0 1470 2901
0 1456 3071
0 1442 3242
0 1428 3412
0 1415 3583
0 1400 3753
0 1386 3924
0 1372 4095
0 1877 0
0 1864 171
0 1851 341
0 1838 512
0 1825 683
0 1812 853
0 1799 1024
0 1786 1194
0 1774 1365
0 1761 1536
0 1748 1706
0 1735 1877
0 1722 2047
0 1709 2218
0 1696 2389
0 1683 2559
0 1670 2730
0 1657 2901
0 1645 3071
0 1631 3242
0 1618 3412
0 1605 3583
0 1593 3753
0 1580 3924
0 1567 4095
0 2048 0
0 2036 171
0 2024 341
0 2012 512
0 2000 683
0 1988 853
0 1976 1024
0 1964 1194
0 1952 1365
0 1940 1536
0 1928 1706
0 1916 1877
0 1904 2047
0 1892 2218
0 1881 2389
0 1869 2559
0 1857 2730
0 1845 2900
0 1833 3071
0 1821 3242
0 1809 3412
0 1797 3583
0 1785 3754
0 1773 3924
0 1762 4095
0 2218 0
0 2207 171
0 2196 341
0 2185 512
0 2174 683
0 2164 853
0 2153 1024
0 2142 1194
0 2131 1365
0 2120 1536
0 2109 1706
0 2098 1877
0 2087 2047
0 2076 2218
0 2065 2389
0 2054 2559
0 2043 2730
0 2032 2900
0 2021 3071
0 2011 3242
0 2000 3412
0 1989 3583
0 1978 3754
0 1967 3924
0 1956 4095
0 2389 0
0 2379 171
0 2369 341
0 2359 512
0 2349 683
0 2339 853
0 2329 1024
0 2319 1194
0 2309 1365
0 2299 1536
0 2289 1706
0 2279 1877
0 2270 2047
0 2260 2218
0 2250 2389
0 2240 2559
0 2230 2730
0 2220 2901
0 2210 3071
0 2200 3242
0 2190 3412
0 2180 3583
0 2170 3754
0 2160 3924
0 2150 4095
0 2559 0
0 2550 171
0 2541 341
0 2533 512
0 2524 683
0 2515 853
0 2506 1024
0 2497 1194
0 2488 1365
0 2479 1536
0 2470 1706
0 2461 1877
0 2452 2047
0 2443 2218
0 2434 2389
0 2425 2559
0 2416 2730
0 2407 2901
0 2398 3071
0 2390 3242
0 2381 3412
0 2372 3583
0 2363 3754
0 2354 3924
0 2345 4095
0 2730 0
0 2722 171
0 2714 341
0 2706 512
0 2698 683
0 2690 853
0 2682 1024
0 2674 1194
0 2666 1365
0 2659 1536
0 2651 1706
0 2643 1877
0 2635 2047
0 2627 2218
0 2619 2389
0 2611 2559
0 2603 2730
0 2595 2901
0 2587 3071
0 2579 3242
0 2571 3412
0 2563 3583
0 2555 3754
0 2547 3924
0 2539 4095
0 2901 0
0 2894 171
0 2887 341
0 2880 512
0 2873 683
0 2866 853
0 2859 1024
0 2852 1194
0 2845 1365
0 2838 1536
0 2831 1706
0 2824 1877
0 2817 2047
0 2810 2218
0 2803 2389
0 2796 2559
0 2789 2730
0 2782 2900
0 2775 3071
0 2768 3242
0 2761 3412
0 2754 3583
0 2747 3754
0 2741 3924
0 2734 4095
0 3071 0
0 3065 171
0 3059 341
0 3053 512
0 3047 683
0 3041 853
0 3035 1024
0 3030 1194
0 3024 1365
0 3018 1536
0 3012 1706
0 3006 1877
0 3000 2047
0 2994 2218
0 2988 2389
0 2982 2559
0 2976 2730
0 2970 2900
0 2964 3071
0 2958 3242
0 2952 3412
0 2946 3583
0 2940 3754
0 2934 3924
0 2928 4095
0 3242 0
0 3237 171
0 3232 341
0 3227 512
0 3222 683
0 3217 853
0 3212 1024
0 3207 1194
0 3202 1365
0 3197 1536
0 3192 1706
0 3187 1877
0 3182 2047
0 3177 2218
0 3172 2389
0 3167 2559
0 3162 2730
0 3157 2901
0 3153 3071
0 3147 3242
0 3142 3412
0 3138 3583
0 3133 3754
0 3128 3924
0 3123 4095
0 3412 0
0 3409 171
0 3405 341
0 3401 512
0 3397 683
0 3393 853
0 3389 1024
0 3385 1194
0 3381 1365
0 3377 1536
0 3373 1706
0 3369 1877
0 3365 2047
0 3361 2218
0 3357 2389
0 3353 2559
0 3349 2730
0 3345 2900
0 3341 3071
0 3337 3242
0 3333 3412
0 3329 3583
0 3325 3754
0 3321 3924
0 3317 4095
0 3583 0
0 3580 171
0 3577 341
0 3574 512
0 3571 683
0 3568 853
0 3565 1024
0 3562 1194
0 3559 1365
0 3556 1536
0 3553 1706
0 3550 1877
0 3547 2047
0 3544 2218
0 3541 2389
0 3538 2559
0 3535 2730
0 3532 2901
0 3530 3071
0 3526 3242
0 3524 3412
0 3521 3583
0 3518 3754
0 3514 3924
0 3512 4095
0 3754 0
0 3752 171
0 3750 341
0 3748 512
0 3746 683
0 3744 853
0 3742 1024
0 3740 1194
0 3738 1365
0 3736 1536
0 3734 1706
0 3732 1877
0 3730 2047
0 3728 2218
0 3726 2389
0 3724 2559
0 3722 2730
0 3720 2900
0 3718 3071
0 3716 3242
0 3714 3412
0 3712 3583
0 3710 3754
0 3708 3924
0 3706 4095
0 3924 0
0 3923 171
0 3922 341
0 3921 512
0 3920 683
0 3919 853
0 3918 1024
0 3917 1194
0 3916 1365
0 3915 1536
0 3914 1706
0 3913 1877
0 3912 2047
0 3911 2218
0 3910 2389
0 3909 2559
0 3908 2730
0 3907 2900
0 3906 3071
0 3905 3242
0 3904 3412
0 3903 3583
0 3902 3754
0 3901 3924
0 3900 4095
0 4095 0
0 4095 171
0 4095 341
0 4095 512
0 4095 683
0 4095 853
0 4095 1024
0 4095 1195
0 4095 1365
0 4095 1536
0 4095 1706
0 4095 1877
0 4095 2047
0 4095 2218
0 4095 2389
0 4095 2559
0 4095 2730
0 4095 2901
0 4095 3071
0 4095 3242
0 4095 3412
0 4095 3583
0 4095 3754
0 4095 3924
0 4095 4095
171 0 0
164 0 171
156 0 341
149 0 512
142 0 682
135 0 854
128 0 1023
121 0 1194
114 0 1366
107 0 1535
100 0 1707
92 0 1876
85 0 2047
78 0 2219
71 0 2388
64 0 2560
57 0 2730
50 0 2900
43 0 3071
36 0 3242
28 0 3412
21 0 3583
14 0 3753
7 0 3924
0 0 4095
171 171 0
164 164 171
156 156 341
149 149 512
142 142 682
135 135 853
128 128 1023
121 121 1194
114 114 1366
107 107 1535
100 100 1706
92 92 1877
85 85 2047
78 78 2218
71 71 2388
64 64 2559
57 57 2731
50 50 2900
43 43 3071
36 36 3242
28 28 3412
21 21 3583
14 14 3754
7 7 3924
0 0 4095
171 341 0
164 327 171
156 313 341
149 299 512
142 284 683
135 270 853
128 256 1024
121 242 1194
114 228 1365
107 213 1536
100 199 1706
92 185 1877
85 171 2048
78 156 2218
71 142 2389
64 128 2560
57 114 2730
50 100 2901
43 85 3072
36 71 3241
28 57 3413
21 43 3584
14 28 3754
7 14 3924
0 0 4095
171 512 0
164 491 171
156 470 341
149 449 512
142 428 682
135 408 853
128 387 1024
121 366 1194
114 345 1365
107 324 1536
100 303 1706
92 282 1876
85 262 2048
78 241 2219
71 220 2389
64 199 2560
57 178 2730
50 157 2900
43 136 3072
36 116 3242
28 95 3412
21 74 3583
14 53 3753
7 32 3924
0 11 4095
171 683 0
164 663 171
156 643 341
149 623 512
142 603 682
135 583 853
128 563 1024
121 543 1194
114 524 1365
107 504 1536
100 484 1706
92 464 1876
85 444 2048
78 425 2218
71 405 2389
64 385 2560
57 365 2730
50 345 2901
43 325 3072
36 306 3242
28 285 3412
21 265 3582
14 245 3753
7 226 3924
0 205 4095
171 853 0
164 834 171
156 815 341
149 797 512
142 778 682
135 759 853
128 740 1024
121 721 1194
114 702 1365
107 683 1535
100 664 1706
92 646 1877
85 626 2047
78 607 2218
71 589 2388
64 570 2559
57 551 2730
50 532 2900
43 514 3071
36 495 3242
28 476 3412
21 457 3583
14 438 3754
7 419 3924
0 400 4095
171 1024 0
164 1006 171
156 988 341
149 970 512
142 952 682
135 934 853
128 917 1024
121 899 1194
114 881 1365
107 863 1536
100 845 1706
92 827 1877
85 809 2048
78 792 2218
71 774 2389
64 756 2560
57 738 2730
50 720 2900
43 702 3072
36 684 3242
28 666 3412
21 648 3583
14 630 3753
7 612 3924
0 594 4095
171 1194 0
164 1178 171
156 1161 341
149 1144 512
142 1127 683
135 1110 853
128 1093 1024
121 1076 1194
114 1059 1365
107 1042 1535
100 1025 1706
92 1009 1877
85 992 2047
78 975 2218
71 958 2389
64 941 2559
57 924 2730
50 908 2900
43 891 3071
36 874 3242
28 857 3412
21 840 3583
14 823 3754
7 806 3924
0 790 4095
171 1365 0
164 1349 171
156 1333 341
149 1317 512
142 1301 683
135 1286 853
128 1270 1024
121 1254 1194
114 1238 1365
107 1222 1536
100 1206 1706
92 1190 1877
85 1174 2047
78 1158 2218
71 1142 2389
64 1127 2559
57 1111 2730
50 1095 2901
43 1079 3071
36 1063 3242
28 1047 3412
21 1031 3583
14 1015 3754
7 999 3924
0 984 4095
171 1536 0
164 1521 171
156 1506 341
149 1491 512
142 1476 683
135 1461 853
128 1446 1024
121 1431 1194
114 1416 1365
107 1402 1536
100 1387 1706
92 1372 1877
85 1357 2047
78 1342 2218
71 1327 2389
64 1312 2559
57 1297 2730
50 1282 2901
43 1268 3071
36 1252 3242
28 1238 3413
21 1223 3583
14 1208 3754
7 1193 3925
0 1178 4095
171 1706 0
164 1692 171
156 1678 341
149 1665 512
142 1651 683
135 1637 853
128 1623 1024
121 1609 1194
114 1595 1365
107 1581 1536
100 1567 1706
92 1553 1877
85 1540 2047
78 1525 2218
71 1512 2389
64 1498 2559
57 1484 2730
50 1470 2901
43 1456 3071
36 1442 3242
28 1428 3413
21 1415 3583
14 1401 3754
7 1387 3924
0 1373 4095
