Toning/Toning-Cinematic.3dl
#25pt 3DLUT created by 3D LUT Creator Pro (c) Oleg Sharonov
#Copyright Oleg Sharonov
#IMAGEPROFILE sRGB IEC61966-2.1 v.2.10
#INPUTGAMMA sRGB IEC61966-2.1 v.2.10
#OUTPUTGAMMA sRGB IEC61966-2.1 v.2.10
0 43 86 128 171 214 256 299 341 384 427 469 512 555 597 640 682 725 768 810 853 896 938 981 1023 
259 259 259
240 240 240
222 222 269
202 202 340
176 176 450
130 130 593
0 0 760
0 0 920
0 0 1100
0 0 1295
0 0 1500
0 0 1711
0 0 1924
0 0 2136
0 0 2346
0 0 2550
0 0 2749
0 0 2940
0 0 3123
0 0 3299
0 0 3468
0 0 3630
15 15 3782
42 42 3931
0 0 4095
250 243 250
237 243 243
221 238 271
201 229 342
175 212 451
128 177 595
0 105 761
0 107 922
0 109 1102
0 111 1297
0 111 1502
0 111 1712
0 110 1925
0 108 2138
0 101 2347
0 107 2551
0 114 2750
0 121 2941
0 128 3124
0 135 3300
0 146 3468
0 157 3630
17 178 3782
42 206 3931
0 171 4095
242 262 242
230 268 242
216 273 273
198 274 346
171 269 456
120 251 601
0 223 764
0 227 928
0 237 1109
0 247 1303
0 257 1508
0 267 1717
0 276 1930
0 285 2141
0 293 2350
0 301 2554
0 308 2752
0 315 2942
0 321 3125
0 327 3300
0 332 3469
0 337 3631
19 348 3782
43 372 3931
0 341 4095
231 316 231
220 326 236
207 338 275
189 349 349
160 352 462
99 350 609
0 347 769
0 355 937
0 366 1120
0 383 1314
0 399 1518
0 415 1727
0 430 1938
0 443 2148
0 456 2356
0 467 2559
0 478 2756
0 487 2945
0 494 3127
0 501 3302
0 506 3470
0 510 3631
20 520 3782
43 538 3931
0 512 4095
211 403 211
201 417 220
187 434 270
166 452 353
130 468 468
11 473 619
0 480 774
0 493 946
0 509 1133
0 524 1330
0 545 1533
0 565 1740
0 585 1949
0 602 2158
0 619 2365
0 633 2566
0 646 2761
0 657 2950
0 666 3131
0 674 3305
0 680 3471
0 684 3632
22 692 3782
43 706 3931
0 683 4095
164 525 164
154 542 181
136 562 247
103 585 348
0 606 475
0 619 619
0 628 782
0 641 957
0 661 1146
0 682 1344
0 702 1549
0 721 1758
0 744 1965
0 765 2172
0 784 2376
0 801 2575
0 815 2769
0 828 2956
0 838 3135
0 847 3308
0 853 3474
0 857 3634
24 865 3782
44 875 3931
0 853 4095
0 672 0
0 689 97
0 708 213
0 728 343
0 748 479
0 769 629
0 791 792
0 807 971
0 824 1160
0 846 1359
0 870 1564
0 892 1772
0 914 1980
0 933 2188
0 952 2391
0 970 2588
0 987 2779
0 1000 2963
0 1012 3141
0 1020 3312
0 1027 3476
0 1031 3635
26 1038 3782
44 1044 3931
0 1024 4095
0 807 0
0 826 96
0 852 210
0 879 344
0 906 489
0 933 643
0 959 809
0 986 986
0 1004 1177
0 1023 1376
0 1044 1580
0 1069 1787
0 1091 1994
0 1112 2200
0 1131 2401
0 1148 2598
0 1164 2788
0 1177 2971
0 1188 3147
0 1197 3316
0 1203 3478
0 1207 3635
27 1211 3782
45 1214 3931
0 1194 4095
0 968 0
0 988 96
0 1015 216
0 1049 347
0 1080 502
0 1109 659
0 1139 828
0 1168 1008
0 1195 1196
0 1214 1395
0 1232 1598
0 1251 1803
0 1274 2009
0 1295 2213
0 1314 2412
0 1331 2607
0 1346 2795
0 1358 2976
0 1369 3150
0 1376 3318
0 1381 3479
0 1383 3635
28 1385 3782
45 1384 3931
0 1365 4095
0 1151 0
0 1171 95
0 1198 224
0 1231 359
0 1267 511
0 1299 678
0 1329 850
0 1359 1031
0 1388 1220
0 1414 1414
0 1431 1617
0 1447 1821
0 1463 2024
0 1481 2226
0 1500 2424
0 1516 2616
0 1530 2802
0 1541 2982
0 1550 3154
0 1556 3320
0 1559 3480
0 1560 3636
28 1558 3782
46 1555 3931
0 1536 4095
0 1353 0
0 1371 94
0 1397 232
0 1429 372
0 1467 524
0 1500 699
0 1530 873
0 1559 1056
0 1587 1245
0 1613 1440
0 1636 1637
0 1650 1839
0 1663 2041
0 1675 2240
0 1688 2435
0 1703 2626
0 1715 2810
0 1724 2987
0 1732 3158
0 1736 3322
0 1738 3481
0 1736 3635
27 1732 3782
47 1726 3931
0 1706 4095
0 1570 0
0 1587 92
0 1610 241
0 1639 387
0 1675 542
0 1711 715
0 1740 898
0 1767 1082
0 1793 1272
0 1817 1466
0 1839 1662
0 1858 1858
0 1868 2058
0 1877 2255
0 1884 2448
0 1891 2635
0 1901 2817
0 1909 2992
0 1914 3161
0 1916 3324
0 1916 3481
0 1912 3635
25 1906 3782
47 1897 3931
0 1877 4095
0 1800 0
0 1814 89
0 1834 251
0 1861 403
0 1893 562
0 1930 731
0 1957 924
0 1981 1109
0 2004 1299
0 2025 1492
0 2044 1687
0 2061 1882
0 2075 2075
0 2080 2270
0 2084 2461
0 2088 2646
0 2090 2825
0 2093 2998
0 2096 3164
0 2096 3325
0 2094 3482
0 2088 3635
21 2079 3782
48 2067 3931
0 2048 4095
0 2039 0
0 2050 86
0 2067 261
0 2090 419
0 2118 582
0 2150 753
0 2178 944
0 2199 1137
0 2219 1327
0 2237 1519
0 2252 1713
0 2266 1906
0 2277 2098
0 2285 2285
0 2285 2473
0 2285 2656
0 2283 2832
0 2280 3003
0 2278 3168
0 2276 3327
0 2271 3482
0 2263 3634
15 2252 3782
49 2238 3931
0 2218 4095
0 2285 0
0 2293 82
0 2306 271
0 2325 435
0 2348 603
0 2376 776
0 2402 964
0 2420 1166
0 2436 1355
0 2450 1547
0 2461 1739
0 2471 1930
0 2478 2119
0 2483 2305
0 2486 2486
0 2481 2666
0 2476 2840
0 2469 3008
0 2463 3171
0 2455 3328
0 2448 3482
0 2438 3633
0 2425 3782
50 2409 3931
0 2389 4095
0 2535 0
0 2540 80
0 2549 281
0 2563 452
0 2581 624
0 2604 800
0 2628 986
0 2642 1188
0 2653 1385
0 2663 1576
0 2670 1766
0 2676 1955
0 2679 2141
0 2680 2324
0 2679 2503
0 2676 2676
0 2667 2848
0 2657 3013
0 2647 3174
0 2636 3329
0 2624 3481
0 2612 3632
0 2597 3782
52 2579 3931
0 2559 4095
0 2786 0
0 2787 79
0 2792 292
0 2801 469
0 2815 645
0 2832 824
0 2853 1008
0 2862 1212
0 2869 1416
0 2874 1605
0 2877 1793
0 2878 1980
0 2877 2164
0 2874 2344
0 2870 2520
0 2863 2690
0 2855 2856
0 2842 3019
0 2829 3177
0 2815 3330
0 2801 3481
0 2785 3632
33 2768 3782
54 2749 3931
0 2730 4095
0 3035 0
0 3032 82
0 3033 303
0 3039 486
0 3047 666
0 3059 848
0 3074 1034
0 3079 1237
0 3081 1441
0 3082 1635
0 3080 1822
0 3077 2006
0 3072 2187
0 3065 2364
0 3057 2536
0 3047 2704
0 3036 2867
0 3024 3024
0 3008 3180
0 2992 3331
0 2976 3481
0 2958 3632
60 2937 3781
57 2918 3931
0 2901 4095
0 3279 0
0 3274 90
0 3271 316
0 3271 504
0 3276 688
0 3282 873
0 3292 1060
0 3291 1264
0 3289 1467
0 3285 1667
0 3278 1851
0 3271 2033
0 3261 2211
0 3251 2385
0 3239 2554
0 3226 2718
0 3213 2877
0 3198 3032
0 3183 3183
0 3165 3332
0 3147 3481
80 3125 3629
82 3105 3780
61 3087 3931
0 3071 4095
0 3517 0
0 3508 102
0 3501 330
0 3498 522
0 3498 710
0 3499 898
0 3503 1087
0 3497 1293
0 3489 1496
0 3480 1694
0 3470 1883
0 3458 2061
0 3445 2236
0 3431 2406
0 3416 2572
0 3400 2733
0 3384 2889
0 3367 3041
0 3351 3189
0 3334 3334
105 3312 3479
119 3291 3626
99 3273 3778
64 3256 3931
0 3242 4095
0 3745 0
0 3733 119
0 3723 346
0 3716 542
0 3711 734
0 3708 924
0 3705 1119
0 3694 1325
0 3681 1526
0 3668 1724
0 3653 1916
0 3637 2091
0 3620 2263
0 3603 2430
0 3585 2592
0 3567 2749
0 3549 2902
0 3532 3050
0 3516 3194
142 3495 3332
161 3475 3475
148 3457 3624
114 3440 3776
68 3425 3931
0 3413 4095
0 3960 0
0 3946 139
0 3933 363
0 3923 563
0 3914 758
0 3907 952
0 3895 1156
0 3879 1361
0 3863 1561
0 3845 1756
0 3826 1946
0 3806 2124
0 3786 2292
0 3767 2455
0 3748 2613
0 3729 2765
0 3712 2913
112 3693 3054
190 3673 3191
211 3654 3330
202 3637 3474
173 3622 3622
128 3607 3775
71 3594 3931
0 3583 4095
184 4095 184
198 4081 291
211 4067 466
222 4052 656
229 4038 849
234 4024 1044
238 4010 1237
235 3995 1429
225 3981 1618
207 3967 1803
179 3953 1984
142 3939 2160
96 3924 2321
20 3910 2478
0 3896 2630
102 3882 2777
208 3867 2917
254 3847 3053
270 3829 3188
261 3813 3328
235 3798 3472
194 3785 3621
139 3774 3774
74 3763 3931
0 3754 4095
1014 4095 1014
976 4088 1000
939 4081 1029
903 4074 1097
868 4067 1196
835 4059 1317
802 4052 1453
768 4045 1599
733 4038 1751
697 4031 1907
660 4024 2062
622 4017 2217
584 4010 2365
548 4003 2506
512 3995 2645
479 3988 2781
447 3981 2915
416 3974 3047
377 3967 3183
330 3960 3324
275 3953 3470
214 3946 3619
150 3939 3773
79 3931 3931
0 3924 4095
1404 4095 1404
1348 4095 1367
1295 4095 1364
1243 4095 1395
1193 4095 1454
1144 4095 1537
1096 4095 1637
1048 4095 1752
1001 4095 1876
954 4095 2006
907 4095 2140
859 4095 2276
811 4095 2411
761 4095 2538
711 4095 2664
661 4095 2790
611 4095 2914
556 4095 3043
494 4095 3178
426 4095 3317
352 4095 3462
272 4095 3612
187 4095 3768
96 4095 3928
0 4095 4095
243 250 250
243 237 243
238 221 270
228 202 342
211 175 451
174 128 595
93 0 761
50 0 924
57 0 1104
64 0 1299
71 0 1503
78 0 1713
85 0 1926
92 0 2138
100 0 2347
107 0 2551
114 0 2750
121 0 2941
128 0 3124
135 0 3300
142 0 3468
149 0 3630
174 16 3782
206 42 3931
171 0 4095
246 246 248
243 243 243
236 237 271
225 228 342
206 210 452
167 174 596
43 88 763
50 89 924
57 91 1104
64 90 1298
71 87 1503
78 78 1713
85 85 1926
92 92 2138
100 100 2347
107 107 2552
114 114 2750
121 121 2941
128 128 3124
135 135 3300
142 142 3468
149 149 3631
173 177 3782
206 206 3931
171 171 4095
244 264 241
239 269 243
233 270 274
222 271 346
202 266 456
160 246 601
43 213 766
50 217 929
57 227 1109
64 238 1304
71 248 1508
78 258 1718
85 268 1930
92 277 2141
100 286 2350
107 294 2554
114 301 2752
121 309 2942
128 316 3125
135 323 3300
142 329 3469
149 334 3631
175 347 3782
206 371 3931
171 341 4095
236 318 230
231 327 237
224 339 280
215 342 350
192 346 462
142 343 608
43 338 770
50 346 937
57 358 1120
64 375 1314
71 391 1517
78 407 1726
85 422 1937
92 437 2148
100 450 2356
107 461 2559
114 472 2755
121 482 2945
128 490 3127
135 497 3302
142 503 3470
149 508 3631
177 518 3782
206 538 3931
171 512 4095
219 405 210
214 419 222
205 436 274
190 454 362
169 458 468
86 462 618
43 471 775
50 484 946
57 500 1132
64 516 1330
71 537 1532
78 558 1739
85 578 1949
92 596 2158
100 612 2364
107 627 2565
114 641 2761
121 652 2949
128 662 3131
135 670 3304
142 677 3471
149 681 3632
178 690 3782
207 706 3931
171 683 4095
175 527 162
170 544 183
157 564 252
127 587 359
28 609 489
36 608 621
43 616 782
50 631 957
57 652 1145
64 672 1343
71 693 1548
78 713 1757
85 736 1964
92 758 2171
100 777 2375
107 795 2575
114 810 2768
121 823 2955
128 834 3135
135 843 3307
142 850 3473
149 855 3633
180 863 3782
207 874 3931
171 853 4095
72 674 0
7 695 82
14 712 216
21 731 350
28 752 493
36 773 644
43 779 792
50 794 970
57 812 1159
64 836 1358
71 860 1563
78 883 1771
85 905 1979
92 925 2187
100 945 2389
107 964 2586
114 981 2778
121 995 2963
128 1007 3141
135 1017 3311
142 1024 3476
149 1028 3635
182 1036 3782
208 1043 3931
171 1024 4095
0 814 0
7 833 79
14 857 211
21 883 351
28 909 503
36 937 658
43 964 825
50 973 986
57 991 1177
64 1010 1374
71 1034 1578
78 1059 1786
85 1082 1993
92 1104 2199
100 1124 2400
107 1141 2597
114 1157 2787
121 1171 2971
128 1183 3146
135 1193 3315
142 1200 3478
149 1204 3635
183 1210 3782
208 1213 3931
171 1194 4095
0 975 0
7 994 76
14 1020 217
21 1053 352
28 1083 511
36 1113 675
43 1143 845
50 1172 1025
57 1182 1195
64 1200 1394
71 1219 1596
78 1240 1801
85 1264 2007
92 1286 2211
100 1306 2411
107 1324 2606
114 1339 2794
121 1353 2976
128 1364 3150
135 1372 3318
142 1378 3479
149 1381 3635
184 1383 3782
209 1384 3931
171 1365 4095
0 1158 0
7 1177 72
14 1203 224
21 1236 364
28 1271 520
36 1303 694
43 1334 867
50 1364 1048
57 1392 1237
64 1400 1414
71 1418 1616
78 1434 1819
85 1451 2022
92 1472 2225
100 1491 2423
107 1508 2615
114 1523 2802
121 1535 2981
128 1545 3154
135 1552 3320
142 1556 3480
149 1557 3636
185 1557 3782
210 1554 3931
171 1536 4095
0 1360 0
7 1378 66
14 1402 232
21 1433 378
28 1471 531
36 1503 709
43 1534 890
50 1564 1073
57 1591 1262
64 1617 1457
71 1623 1636
78 1637 1838
85 1651 2039
92 1663 2238
100 1679 2434
107 1695 2625
114 1708 2809
121 1718 2987
128 1726 3157
135 1732 3322
142 1734 3481
149 1733 3635
184 1730 3782
210 1725 3931
171 1706 4095
