Toning/Toning-Dark & Washed Out.3dl
#25pt 3DLUT created by 3D LUT Creator Pro (c) Oleg Sharonov
#Copyright Oleg Sharonov
#IMAGEPROFILE sRGB IEC61966-2.1 v.2.10
#INPUTGAMMA sRGB IEC61966-2.1 v.2.10
#OUTPUTGAMMA sRGB IEC61966-2.1 v.2.10
0 43 86 128 171 214 256 299 341 384 427 469 512 555 597 640 682 725 768 810 853 896 938 981 1023 
645 600 436
645 600 453
645 600 475
646 600 516
646 600 576
646 601 648
646 601 722
647 601 793
648 601 858
648 602 926
649 602 995
650 603 1060
651 603 1118
652 603 1177
653 604 1240
653 604 1307
654 604 1377
654 605 1445
655 605 1515
655 605 1589
656 605 1670
656 605 1760
656 605 1857
657 605 1955
657 605 2054
645 623 436
645 623 455
645 623 485
646 626 532
646 626 601
646 629 677
647 629 749
647 632 817
648 635 881
649 638 946
650 639 1008
650 642 1067
651 643 1123
652 643 1180
653 643 1240
653 644 1305
654 644 1373
654 644 1442
655 644 1514
655 645 1590
656 645 1672
656 645 1764
656 645 1862
657 648 1961
657 648 2060
645 666 436
646 669 460
646 669 496
646 672 555
646 675 631
647 678 708
647 684 779
648 687 841
648 691 902
649 694 960
650 697 1018
651 698 1072
651 701 1125
652 702 1180
653 699 1239
653 699 1303
654 700 1369
654 700 1439
655 700 1513
655 700 1592
656 700 1676
656 701 1769
657 704 1868
657 707 1968
657 707 2068
646 764 436
646 766 468
646 766 511
646 769 583
647 772 662
647 772 734
648 775 798
648 778 857
649 781 913
650 784 967
650 785 1022
651 785 1074
652 786 1125
652 786 1178
653 784 1234
654 784 1297
654 784 1366
655 782 1439
655 785 1516
656 785 1597
656 788 1683
657 790 1779
657 793 1879
657 796 1980
658 798 2081
646 870 436
646 872 470
646 872 519
647 872 592
647 872 671
647 874 745
648 874 805
648 875 862
649 875 916
650 875 968
650 876 1021
651 874 1071
652 873 1121
653 873 1172
653 871 1230
654 872 1295
654 874 1367
655 874 1443
655 876 1522
656 878 1605
656 880 1695
657 884 1794
657 887 1896
658 891 1998
658 894 2099
646 959 436
646 959 470
647 959 518
647 959 594
647 958 673
648 957 743
648 957 804
649 958 860
649 956 913
650 955 965
651 956 1016
651 954 1067
652 955 1117
653 955 1171
654 957 1231
654 957 1298
655 959 1373
655 961 1452
656 964 1534
656 966 1621
657 969 1713
657 972 1815
658 976 1919
658 980 2022
659 984 2123
647 1029 436
647 1029 470
647 1028 519
647 1027 592
648 1027 668
648 1027 740
649 1027 801
649 1028 856
650 1028 910
650 1028 963
651 1029 1016
652 1029 1068
653 1030 1120
653 1032 1175
654 1034 1238
655 1036 1309
655 1038 1387
656 1041 1468
657 1043 1553
657 1046 1642
658 1050 1739
658 1053 1844
658 1058 1948
659 1062 2052
659 1067 2154
647 1100 436
647 1101 470
648 1100 519
648 1100 592
648 1100 670
649 1100 742
649 1101 803
650 1102 859
650 1103 914
651 1104 967
652 1105 1021
653 1107 1075
653 1108 1128
654 1111 1186
655 1113 1252
655 1116 1327
656 1119 1407
657 1122 1492
657 1126 1579
658 1130 1672
658 1134 1774
659 1138 1880
659 1143 1985
660 1148 2089
660 1154 2191
648 1179 436
648 1179 470
648 1179 521
648 1180 597
649 1180 676
649 1181 749
650 1182 809
650 1183 867
651 1184 922
652 1186 977
653 1188 1032
653 1190 1086
654 1193 1142
655 1195 1203
656 1198 1273
656 1201 1351
657 1205 1435
658 1209 1522
658 1213 1612
659 1217 1709
659 1222 1815
660 1227 1922
660 1233 2028
660 1239 2132
661 1245 2234
648 1267 436
649 1268 473
649 1268 527
649 1268 606
650 1269 686
650 1270 757
651 1271 819
651 1272 877
652 1274 933
653 1276 990
653 1278 1046
654 1281 1101
655 1284 1160
656 1287 1225
657 1291 1300
657 1295 1382
658 1298 1469
659 1303 1558
659 1307 1652
660 1313 1755
660 1318 1863
660 1323 1971
661 1329 2076
661 1336 2180
662 1342 2282
649 1365 436
649 1364 476
650 1365 532
650 1365 615
650 1366 696
651 1367 769
651 1368 831
652 1370 890
653 1372 948
654 1374 1006
654 1377 1063
655 1380 1120
656 1383 1182
657 1386 1252
658 1390 1332
658 1394 1418
659 1399 1508
660 1403 1600
660 1408 1700
661 1414 1808
661 1419 1917
662 1426 2025
662 1432 2130
662 1439 2233
663 1446 2335
650 1471 437
650 1470 481
650 1471 540
651 1471 627
651 1472 710
652 1473 781
653 1475 845
653 1476 905
654 1478 964
655 1481 1024
656 1484 1082
656 1487 1142
657 1491 1208
658 1495 1284
659 1499 1369
660 1504 1459
660 1509 1551
661 1514 1648
661 1520 1754
662 1526 1865
662 1532 1974
663 1539 2082
663 1546 2187
664 1554 2290
664 1563 2392
651 1592 437
651 1592 484
651 1592 551
652 1593 641
652 1594 725
653 1595 795
654 1597 859
654 1599 921
655 1602 982
656 1604 1043
657 1608 1103
658 1612 1167
659 1616 1239
659 1620 1321
660 1625 1410
661 1630 1503
661 1636 1599
662 1642 1702
662 1649 1814
663 1656 1926
663 1663 2036
664 1671 2143
664 1680 2248
665 1688 2351
665 1697 2452
652 1733 437
652 1733 489
652 1733 562
653 1734 654
653 1735 739
654 1737 809
655 1738 875
655 1741 938
656 1744 1001
657 1747 1064
658 1751 1126
659 1755 1194
660 1759 1273
661 1764 1361
661 1769 1454
662 1775 1551
662 1781 1652
663 1788 1762
663 1795 1877
664 1802 1990
664 1810 2099
665 1818 2206
665 1827 2311
666 1837 2414
666 1847 2515
653 1887 437
653 1888 492
653 1888 572
654 1889 667
654 1890 753
655 1892 824
656 1894 891
656 1896 956
657 1899 1022
658 1902 1085
659 1906 1151
660 1910 1225
661 1915 1310
662 1920 1404
662 1925 1501
663 1931 1602
664 1937 1710
664 1943 1826
665 1950 1942
665 1958 2054
665 1965 2164
666 1974 2271
666 1982 2375
667 1991 2477
667 2001 2576
653 2048 437
654 2049 497
654 2049 584
655 2050 682
655 2051 767
656 2053 839
657 2055 907
658 2058 975
658 2060 1042
659 2063 1108
660 2067 1178
661 2071 1259
662 2076 1351
663 2080 1449
664 2085 1550
664 2091 1656
665 2097 1772
665 2103 1891
666 2110 2007
666 2117 2119
666 2124 2228
667 2132 2334
667 2140 2438
668 2149 2540
668 2158 2631
654 2214 437
655 2214 505
655 2215 596
655 2216 695
656 2217 780
657 2219 854
658 2220 924
659 2223 994
660 2226 1062
661 2229 1131
661 2232 1206
662 2236 1295
663 2240 1392
664 2245 1495
665 2250 1600
665 2255 1712
666 2260 1834
666 2266 1953
667 2272 2069
667 2279 2181
667 2286 2290
668 2293 2396
668 2301 2500
669 2309 2597
669 2318 2681
655 2379 437
655 2380 510
656 2380 607
656 2381 709
657 2382 793
658 2384 868
659 2385 940
660 2388 1012
661 2390 1081
662 2393 1154
663 2396 1236
663 2400 1331
664 2403 1434
665 2408 1539
666 2412 1650
666 2417 1770
667 2421 1894
667 2427 2013
667 2432 2129
668 2438 2241
668 2445 2350
669 2451 2456
669 2459 2558
670 2466 2648
670 2474 2725
656 2541 437
656 2541 515
656 2541 618
657 2542 721
658 2543 805
659 2545 882
660 2546 956
661 2548 1029
662 2551 1101
663 2553 1178
664 2556 1267
664 2559 1367
665 2563 1474
666 2566 1584
666 2570 1700
667 2574 1827
667 2579 1951
668 2584 2071
668 2589 2187
669 2594 2299
669 2600 2408
670 2606 2513
670 2613 2611
671 2620 2693
671 2627 2764
656 2698 437
657 2698 520
657 2699 628
658 2699 733
659 2701 818
659 2702 895
660 2703 971
661 2705 1046
663 2708 1120
664 2710 1202
664 2713 1297
665 2715 1403
666 2719 1514
667 2722 1628
667 2725 1752
668 2729 1881
668 2733 2006
669 2738 2126
669 2742 2242
670 2747 2354
670 2752 2462
671 2758 2567
671 2764 2657
672 2770 2733
672 2777 2800
657 2852 437
657 2852 526
658 2852 639
658 2853 743
659 2854 829
660 2855 908
661 2857 986
662 2858 1062
663 2860 1139
664 2863 1226
665 2865 1328
666 2868 1438
667 2870 1552
668 2873 1672
668 2877 1802
669 2880 1933
669 2884 2058
670 2887 2178
670 2892 2294
671 2896 2406
671 2901 2515
671 2906 2614
672 2911 2698
673 2917 2769
673 2923 2833
658 3000 437
658 3000 533
659 3000 648
659 3001 753
660 3002 839
661 3003 920
662 3004 1000
663 3006 1077
664 3007 1158
665 3009 1251
666 3011 1358
667 3013 1473
668 3016 1590
669 3018 1716
669 3021 1851
670 3024 1982
670 3027 2107
670 3030 2228
671 3034 2344
671 3038 2456
672 3042 2564
672 3046 2656
673 3051 2734
674 3055 2802
674 3061 2864
658 3135 437
659 3135 539
659 3135 657
660 3136 762
661 3136 849
662 3137 931
663 3138 1013
664 3140 1092
665 3141 1176
666 3143 1275
667 3144 1388
668 3146 1506
669 3148 1627
669 3150 1760
670 3152 1897
670 3154 2028
671 3157 2154
671 3159 2274
672 3162 2391
672 3165 2503
673 3168 2607
673 3172 2693
674 3176 2767
675 3180 2832
675 3184 2892
659 3253 437
660 3253 544
660 3253 665
661 3253 771
662 3254 859
663 3254 943
664 3255 1026
665 3256 1107
666 3257 1195
667 3258 1300
668 3260 1417
669 3261 1537
670 3262 1664
670 3263 1802
671 3264 1940
671 3266 2071
672 3268 2198
672 3269 2318
673 3271 2435
673 3273 2547
674 3275 2644
674 3278 2726
675 3280 2796
676 3283 2860
677 3286 2918
660 3342 438
660 3341 550
661 3341 674
662 3341 779
663 3341 868
664 3341 954
665 3341 1038
666 3342 1121
667 3342 1214
668 3343 1324
669 3343 1445
670 3343 1568
671 3344 1700
671 3344 1843
672 3345 1981
673 3345 2113
673 3346 2239
673 3347 2360
674 3348 2477
674 3349 2587
675 3350 2678
676 3351 2756
676 3353 2824
677 3354 2885
678 3356 2942
673 600 436
673 600 453
673 600 478
677 600 519
677 600 583
682 600 660
682 601 730
687 601 799
692 601 866
696 602 933
701 602 1001
706 602 1061
707 603 1119
708 603 1179
709 604 1240
709 604 1307
710 604 1375
710 604 1443
711 605 1514
711 605 1589
712 605 1670
712 605 1761
712 605 1858
713 605 1957
717 605 2055
677 623 436
681 625 458
681 625 488
681 626 537
682 626 608
686 629 683
690 632 756
691 632 822
696 635 889
701 638 950
702 639 1010
706 642 1068
707 643 1123
708 643 1179
709 643 1240
709 644 1305
710 644 1373
710 644 1441
711 644 1513
711 645 1590
712 645 1673
712 645 1765
713 645 1863
717 648 1962
717 648 2061
685 672 436
685 672 460
689 672 498
690 675 560
690 678 636
694 681 713
695 684 783
700 687 844
700 693 904
705 694 962
706 697 1018
707 698 1072
707 701 1125
708 702 1180
709 699 1239
709 699 1302
710 700 1368
710 700 1439
711 700 1514
712 700 1592
712 700 1677
712 703 1771
713 704 1870
717 707 1969
718 707 2070
697 766 436
698 766 468
698 769 513
698 772 585
698 772 663
703 775 737
703 778 800
704 781 857
705 781 914
705 784 968
706 785 1022
707 785 1073
708 786 1125
708 786 1177
709 784 1234
710 784 1297
710 782 1366
711 782 1439
711 785 1517
712 785 1597
712 788 1684
713 790 1780
717 793 1881
718 796 1982
718 798 2082
702 872 436
702 872 470
702 872 518
702 872 594
703 872 671
703 874 744
704 874 806
704 875 862
705 875 915
706 875 968
706 876 1021
707 874 1070
708 872 1120
709 873 1172
709 871 1230
710 871 1295
710 874 1367
711 874 1444
712 876 1523
712 878 1606
713 880 1696
717 884 1795
718 887 1897
718 891 1999
722 896 2100
702 958 436
702 958 470
702 958 518
703 958 594
703 957 671
704 957 743
704 957 804
705 956 859
705 956 912
706 955 964
707 955 1016
707 954 1066
708 955 1117
709 955 1170
710 956 1230
710 957 1299
711 959 1374
712 961 1453
712 963 1535
717 966 1622
717 968 1715
718 972 1817
718 976 1921
723 980 2023
723 985 2125
703 1027 436
703 1027 470
703 1027 518
703 1027 592
704 1027 668
704 1027 740
705 1027 801
705 1027 856
706 1027 910
706 1028 963
707 1029 1016
708 1029 1068
709 1030 1120
709 1032 1176
710 1033 1239
711 1036 1310
712 1038 1388
716 1040 1469
717 1043 1555
717 1047 1644
718 1050 1741
722 1054 1845
723 1059 1950
723 1063 2054
728 1067 2156
703 1100 436
703 1100 470
703 1100 519
704 1100 592
704 1100 670
705 1101 742
705 1101 803
706 1102 859
706 1103 913
707 1104 968
708 1105 1022
709 1107 1075
709 1109 1129
714 1111 1187
715 1113 1253
716 1116 1327
716 1120 1409
717 1123 1493
718 1126 1580
722 1130 1673
723 1134 1775
723 1139 1881
728 1143 1987
728 1149 2091
729 1154 2193
704 1180 436
704 1180 470
704 1180 521
704 1180 597
705 1181 676
709 1181 748
710 1182 809
710 1183 866
711 1184 922
712 1186 977
713 1188 1032
713 1190 1086
714 1193 1142
715 1195 1203
716 1199 1274
721 1202 1352
721 1205 1436
722 1210 1523
723 1213 1613
723 1218 1711
728 1222 1817
728 1228 1924
729 1233 2030
733 1239 2133
734 1245 2236
708 1268 436
709 1268 473
709 1269 527
709 1269 606
710 1270 686
710 1270 758
711 1271 819
711 1273 877
716 1274 934
717 1276 990
718 1279 1046
718 1282 1102
719 1285 1160
720 1288 1225
721 1291 1300
726 1295 1383
726 1299 1470
727 1304 1559
728 1308 1653
728 1313 1756
733 1318 1865
733 1324 1973
734 1330 2078
738 1336 2182
739 1343 2284
713 1365 436
713 1365 476
714 1366 532
714 1366 617
714 1367 698
715 1368 769
716 1369 831
720 1371 890
721 1372 948
722 1375 1006
723 1377 1063
724 1380 1121
725 1383 1182
725 1387 1253
726 1390 1333
731 1395 1419
732 1399 1509
732 1404 1601
733 1409 1701
737 1414 1809
738 1420 1919
738 1426 2026
743 1432 2132
743 1440 2235
744 1447 2337
