Toning/Toning-Bronze.3dl
#25pt 3DLUT created by 3D LUT Creator Pro (c) Oleg Sharonov
#Copyright Oleg Sharonov
#IMAGEPROFILE sRGB IEC61966-2.1 v.2.10
#INPUTGAMMA sRGB IEC61966-2.1 v.2.10
#OUTPUTGAMMA sRGB IEC61966-2.1 v.2.10
0 256 512 768 1023
0 0 0
163 0 0
556 0 0
1020 0 0
1542 0 0
1501 1474 727
1539 1262 610
1572 0 0
1764 0 0
2083 0 0
2936 3148 2253
2935 3084 2176
2944 2843 1917
2994 2200 1371
2997 0 494
3753 3971 3805
3750 3957 3776
3740 3906 3675
3722 3789 3451
3709 3534 3026
3981 4095 4095
3982 4095 4095
3985 4095 4095
3991 4095 4095
4001 4095 4095
855 0 0
757 0 304
890 0 0
1277 0 0
1722 0 0
1267 1153 229
1520 1118 657
1696 0 121
1916 0 0
2200 0 0
2981 3120 2207
2981 3054 2129
2993 2806 1866
3046 2141 1311
3045 0 400
3760 3965 3786
3757 3950 3756
3748 3898 3653
3731 3779 3426
3721 3520 2997
3985 4095 4095
3986 4095 4095
3989 4095 4095
3995 4095 4095
4005 4095 4095
1830 0 0
1847 0 656
1758 0 608
1873 0 0
2166 0 0
2092 1031 0
2083 936 656
2115 304 608
2300 0 0
2507 0 0
2430 2399 738
2432 2373 1365
2814 2493 1802
3197 1937 1107
3188 0 0
3451 3776 3010
3449 3764 3180
3443 3720 3289
3762 3748 3344
3762 3473 2906
3998 4095 4095
3999 4095 4095
4003 4095 4095
4009 4095 4095
4018 4095 4095
2798 0 0
2806 0 656
2833 0 1313
2692 0 913
2704 0 0
2907 656 0
2914 656 656
2934 656 1313
2873 304 913
2926 0 0
3165 2327 630
3168 2296 1255
3178 2177 1801
3327 1635 1357
3430 0 0
3343 3369 1291
3342 3363 1935
3341 3341 2548
3598 3503 3151
3840 3377 2729
3600 4095 2273
3600 4095 2728
3602 4095 3184
3748 4095 3791
4044 4095 4095
3699 0 0
3703 0 656
3718 0 1313
3744 0 1969
3479 0 1217
3761 656 0
3765 656 656
3778 656 1313
3800 656 1969
3580 304 1217
3922 2188 446
3926 2146 1063
3939 1980 1573
3936 1401 1969
3826 821 1217
4024 3343 1217
4024 3336 1859
4025 3311 2466
4030 3253 3023
4001 3165 2921
4085 4095 1469
4085 4095 2126
4087 4095 2782
4090 4095 3439
4095 4095 4095
