Toning/Toning-Purple Shadows.3dl
#25pt 3DLUT created by 3D LUT Creator Pro (c) Oleg Sharonov
#Copyright Oleg Sharonov
#IMAGEPROFILE ProPhoto RGB v.2.10
#INPUTGAMMA ProPhoto RGB v.2.10
#OUTPUTGAMMA ProPhoto RGB v.2.10
0 256 512 768 1023
298 0 549
190 0 801
159 45 1765
152 85 2780
151 106 3804
340 855 342
326 880 1016
261 967 1871
212 1016 2833
189 1049 3834
357 1944 321
381 1938 1127
317 1976 1998
285 2007 2938
249 2031 3909
361 2996 327
399 2992 1206
370 3006 2090
322 3029 3032
300 3040 3997
363 4038 340
405 4039 1263
403 4048 2174
376 4064 3110
336 4077 4077
876 22 341
938 49 928
1001 91 1808
1043 108 2797
1071 121 3812
1071 892 347
1086 913 1041
1081 979 1882
1089 1025 2836
1102 1059 3836
1182 1941 357
1213 1954 1158
1174 1984 2007
1172 2010 2938
1163 2036 3907
1249 2994 370
1293 3000 1249
1268 3014 2106
1228 3033 3036
1222 3040 3995
1289 4040 383
1335 4044 1308
1334 4053 2199
1307 4069 3119
1270 4078 4079
1869 148 247
1878 156 1027
1943 140 1909
1978 142 2862
2011 144 3854
1948 1010 298
1955 1014 1082
1991 1029 1950
2007 1059 2889
2034 1083 3872
2055 1990 311
2066 1996 1147
2068 2011 2028
2074 2030 2966
2087 2055 3932
2132 3014 353
2151 3020 1240
2144 3030 2111
2133 3043 3046
2141 3050 4007
2199 4053 387
2226 4057 1314
2224 4060 2203
2210 4073 3121
2191 4081 4082
2887 187 225
2886 198 1088
2921 186 1981
2963 171 2938
2983 169 3914
2919 1084 264
2916 1092 1122
2945 1093 2003
2981 1093 2955
2996 1109 3926
2997 2041 299
2998 2043 1176
3011 2049 2060
3028 2057 3005
3036 2078 3972
3068 3045 314
3073 3048 1214
3076 3053 2114
3078 3059 3061
3086 3070 4031
3130 4075 365
3140 4079 1296
3138 4079 2198
3132 4080 3122
3129 4087 4087
3912 205 220
3908 220 1128
3928 216 2042
3960 205 2990
3989 193 3976
3925 1130 251
3920 1142 1155
3939 1144 2060
3969 1142 3001
3996 1137 3984
3976 2084 284
3971 2090 1195
3982 2095 2100
4004 2099 3038
4023 2100 4015
4038 3073 312
4036 3074 1234
4039 3076 2146
4049 3083 3084
4060 3087 4056
4092 4092 340
4094 4093 1313
4094 4093 2205
4094 4094 3128
4095 4095 4095
