Toning/Toning-More saturation.3dl
#25pt 3DLUT created by 3D LUT Creator Pro (c) Oleg Sharonov
#Copyright Oleg Sharonov
#IMAGEPROFILE sRGB IEC61966-2.1 v.2.10
#INPUTGAMMA sRGB IEC61966-2.1 v.2.10
#OUTPUTGAMMA sRGB IEC61966-2.1 v.2.10
0 256 512 768 1023
0 0 0
0 0 1181
0 4 2368
0 7 3281
4 18 4091
0 1198 0
0 1199 1184
0 1198 2372
0 1199 3283
0 1200 4093
0 2353 4
0 2354 1184
0 2352 2371
0 2353 3284
0 2353 4094
0 3366 7
0 3366 1186
0 3365 2371
0 3366 3284
26 3365 4094
4 4095 18
0 4095 1187
0 4094 2372
6 4094 3291
4 4095 4095
1180 0 0
1124 0 1220
962 0 2556
837 0 3581
1178 3 4095
1181 1120 0
1126 1115 1184
961 1127 2514
838 1138 3543
1178 1121 4042
1180 2308 0
1124 2297 1211
961 2298 2537
838 2304 3559
1179 2307 4063
1179 3348 0
1124 3336 1220
961 3328 2550
836 3332 3576
1184 3348 4085
1182 4095 20
1124 4083 1224
961 4070 2556
841 4070 3580
1181 4095 4095
2306 0 0
2445 0 1036
2288 0 2373
2170 0 3398
2305 0 4094
2306 1045 0
2446 1033 1007
2288 1042 2296
2170 1050 3303
2305 1046 3989
2305 2262 0
2444 2252 1021
2287 2254 2326
2169 2259 3345
2304 2262 4035
2305 3327 0
2443 3319 1030
2287 3317 2360
2170 3317 3379
2305 3327 4071
2305 4094 0
2444 4087 1039
2289 4082 2374
2170 4080 3397
2305 4094 4094
3268 0 0
3543 0 905
3404 0 2232
3300 0 3248
3268 0 4095
3268 980 0
3545 960 885
3405 971 2160
3300 978 3147
3268 980 3973
3267 2225 0
3541 2213 892
3403 2218 2189
3299 2222 3184
3267 2225 4017
3268 3313 0
3543 3306 901
3404 3308 2216
3299 3310 3223
3268 3313 4064
3270 4094 2
3543 4093 905
3405 4092 2231
3300 4092 3249
3268 4094 4094
4095 0 0
4095 0 1183
4094 0 2372
4094 0 3284
4095 2 4094
4095 926 4
4095 927 1160
4094 927 2299
4095 927 3182
4095 927 3971
4094 2193 0
4095 2193 1167
4093 2192 2328
4093 2192 3217
4094 2193 4014
4094 3300 0
4095 3300 1173
4093 3299 2353
4094 3299 3257
4094 3300 4061
4095 4094 169
4095 4095 1216
4094 4094 2381
4094 4094 3287
4095 4095 4095
