Toning/Toning-Stretch blues and oranges 2.3dl
#25pt 3DLUT created by 3D LUT Creator Pro (c) Oleg Sharonov
#Copyright Oleg Sharonov
#INPUTGAMMA sRGB
#IMAGEPROFILE sRGB
#OUTPUTGAMMA sRGB
0 256 512 768 1023
0 0 0
0 0 1220
0 0 2353
0 0 3290
0 0 4095
0 1024 0
0 1241 1220
0 1457 2354
0 1674 3290
0 1892 4095
0 2047 0
0 2213 1220
0 2379 2354
0 2545 3290
0 2711 4095
0 3071 0
0 3151 1220
0 3230 2354
0 3310 3290
0 3389 4095
0 4095 0
0 4095 1220
0 4095 2354
0 4095 3290
0 4095 4095
1024 0 0
991 0 934
945 0 2198
900 0 3224
854 0 4095
1024 792 0
991 951 934
946 1172 2198
900 1393 3225
855 1614 4095
1024 1893 0
991 2031 934
946 2224 2198
900 2416 3224
855 2608 4095
1024 2994 0
991 3060 934
946 3153 2198
900 3245 3224
854 3337 4095
1024 4095 0
991 4095 934
946 4095 2198
900 4095 3224
855 4095 4095
2048 0 0
2040 0 643
2024 0 2039
2007 0 3158
1991 0 4094
2047 561 0
2040 657 642
2023 858 2038
2007 1061 3158
1991 1263 4095
2047 1738 0
2040 1843 642
2023 2063 2038
2007 2284 3158
1991 2505 4095
2047 2916 0
2040 2967 642
2023 3073 2038
2007 3179 3158
1991 3285 4095
2047 4095 0
2040 4095 643
2024 4095 2038
2008 4095 3158
1990 4095 4095
3071 0 0
3067 0 356
3050 0 1873
3033 0 3090
3016 0 4095
3071 329 0
3067 365 355
3050 502 1873
3033 639 3091
3016 777 4095
3071 1583 0
3067 1649 355
3050 1898 1873
3033 2147 3091
3016 2397 4095
3071 2839 0
3067 2871 355
3050 2992 1873
3033 3113 3091
3016 3234 4095
3071 4095 0
3067 4095 357
3050 4095 1873
3033 4095 3091
3016 4095 4095
4095 0 0
4095 0 98
4094 0 1701
4095 0 3023
4094 0 4094
4095 99 0
4095 101 98
4095 146 1701
4095 185 3022
4094 226 4095
4095 1429 0
4095 1449 98
4095 1724 1701
4095 2000 3022
4094 2277 4095
4095 2762 0
4095 2772 98
4095 2908 1701
4095 3045 3022
4094 3182 4095
4095 4095 0
4095 4095 96
4095 4095 1700
4095 4095 3021
4094 4095 4095
