Toning/Toning-Cool-Seperate warms.3dl
#25pt 3DLUT created by 3D LUT Creator Pro (c) Oleg Sharonov
#Copyright Oleg Sharonov
#IMAGEPROFILE sRGB IEC61966-2.1 v.2.10
#INPUTGAMMA sRGB IEC61966-2.1 v.2.10
#OUTPUTGAMMA sRGB IEC61966-2.1 v.2.10
0 43 86 128 171 214 256 299 341 384 427 469 512 555 597 640 682 725 768 810 853 896 938 981 1023 
0 0 0
0 0 49
0 0 112
0 0 212
0 0 335
0 0 449
0 0 559
0 15 662
2 53 764
16 85 871
24 113 975
28 135 1078
35 153 1166
41 175 1244
46 194 1317
46 208 1396
48 223 1474
53 237 1550
57 254 1627
62 269 1708
61 282 1796
60 297 1886
64 312 1973
69 327 2062
73 338 2158
0 24 72
0 1 268
0 0 454
0 0 529
0 0 596
0 19 662
0 47 737
10 72 818
18 97 903
23 119 994
28 137 1081
33 153 1161
39 173 1233
44 191 1300
45 205 1372
45 218 1447
50 233 1518
55 248 1592
59 264 1668
61 275 1751
60 289 1836
61 304 1923
66 319 2008
71 331 2097
72 342 2194
26 199 176
34 185 339
9 157 503
0 118 694
6 102 793
14 106 854
20 117 924
23 128 991
26 139 1060
30 152 1127
35 165 1191
39 180 1250
44 195 1310
45 207 1376
45 219 1444
49 232 1510
53 245 1578
57 261 1647
61 272 1723
59 285 1805
59 298 1889
63 313 1970
68 327 2054
72 338 2144
70 348 2241
117 352 327
115 339 431
120 325 553
83 290 721
32 230 920
25 203 1038
29 190 1107
32 186 1161
36 188 1218
40 194 1266
44 204 1315
44 211 1367
43 221 1424
46 230 1480
50 241 1538
53 253 1600
57 266 1664
59 276 1734
58 288 1810
57 300 1888
61 313 1964
66 327 2042
71 337 2126
69 347 2218
67 358 2312
185 492 457
173 486 517
190 467 628
167 440 765
126 389 935
56 320 1123
40 280 1233
43 258 1309
45 248 1357
43 245 1405
44 246 1459
47 249 1511
49 256 1558
52 263 1608
55 273 1661
58 280 1721
57 288 1787
56 298 1854
58 309 1922
61 321 1991
66 332 2064
69 342 2143
67 350 2229
66 360 2318
64 372 2407
259 644 577
245 639 617
249 614 723
245 579 864
216 548 1000
163 483 1165
93 408 1333
53 355 1446
46 325 1517
49 310 1573
51 304 1611
54 302 1657
57 301 1708
56 301 1768
55 304 1822
55 311 1879
57 319 1935
60 328 1993
63 337 2055
67 344 2123
66 351 2198
64 360 2276
63 368 2358
63 380 2439
67 388 2524
333 817 700
314 809 741
304 793 812
310 753 948
297 719 1086
261 682 1224
194 593 1394
121 494 1574
75 435 1661
62 398 1733
58 374 1798
56 359 1847
55 351 1892
57 349 1938
59 350 1989
62 354 2045
65 356 2102
65 359 2160
64 364 2224
62 370 2291
60 376 2361
61 385 2432
65 392 2507
66 411 2574
63 432 2650
406 1002 837
390 994 871
369 986 910
379 953 1030
374 912 1175
343 879 1316
312 839 1448
227 736 1607
145 628 1787
96 535 1877
67 473 1980
63 438 2041
64 420 2094
66 409 2132
66 402 2178
64 398 2232
62 396 2292
60 396 2356
60 398 2420
62 406 2475
64 419 2531
63 433 2592
60 449 2658
57 467 2728
55 486 2801
493 1193 969
476 1187 998
456 1179 1031
444 1157 1123
447 1119 1260
440 1084 1396
392 1051 1526
358 1008 1676
269 893 1817
174 777 2000
112 672 2094
85 602 2188
66 551 2255
60 517 2323
58 496 2379
58 485 2423
60 480 2470
62 479 2520
62 481 2578
59 485 2643
57 493 2709
55 504 2770
52 518 2834
51 535 2900
53 555 2966
600 1388 1076
582 1387 1101
556 1384 1136
526 1374 1195
540 1339 1317
551 1303 1444
536 1268 1575
472 1230 1705
438 1185 1863
305 1054 2045
206 929 2216
132 817 2320
93 739 2412
71 681 2480
66 641 2540
62 613 2607
59 595 2659
57 586 2709
55 582 2765
53 583 2825
51 588 2888
53 597 2951
50 607 3023
47 622 3090
45 638 3159
708 1584 1181
692 1583 1203
671 1582 1232
634 1580 1275
637 1555 1373
654 1519 1492
658 1483 1615
628 1460 1743
558 1437 1868
508 1381 2033
375 1221 2241
227 1076 2459
150 969 2560
99 883 2638
73 822 2724
59 776 2785
52 743 2853
53 722 2917
52 712 2966
50 706 3021
47 705 3082
44 709 3148
41 715 3217
39 725 3289
37 737 3365
822 1785 1280
807 1784 1299
788 1783 1324
757 1782 1360
737 1771 1427
756 1737 1542
770 1703 1659
764 1673 1780
721 1656 1909
658 1617 2040
590 1554 2211
438 1419 2423
279 1247 2671
166 1115 2828
112 1027 2892
78 966 2984
57 918 3045
47 883 3111
43 859 3183
41 843 3245
39 835 3301
37 833 3363
32 833 3433
28 848 3495
25 868 3559
940 1978 1379
927 1978 1396
909 1977 1418
881 1977 1451
842 1976 1494
860 1949 1597
878 1920 1709
885 1892 1825
870 1862 1949
810 1833 2086
758 1791 2221
677 1725 2392
507 1615 2604
349 1448 2848
204 1298 3065
109 1189 3175
69 1121 3274
53 1070 3327
39 1029 3393
30 1007 3461
26 999 3527
23 998 3580
20 1004 3635
16 1017 3694
14 1039 3749
1059 2161 1483
1047 2160 1498
1031 2160 1519
1007 2159 1548
972 2159 1588
964 2145 1667
985 2117 1777
1000 2089 1890
1001 2055 2009
974 2025 2137
893 1997 2269
860 1966 2404
766 1895 2574
597 1790 2788
412 1661 3028
279 1505 3265
153 1367 3427
71 1293 3549
41 1249 3620
26 1220 3670
18 1206 3722
17 1211 3769
18 1224 3818
20 1243 3858
26 1268 3897
1181 2340 1590
1170 2340 1604
1157 2340 1623
1135 2340 1650
1103 2340 1687
1071 2337 1740
1092 2311 1846
1111 2282 1955
1123 2245 2074
1117 2215 2195
1080 2195 2319
991 2173 2443
970 2139 2581
863 2065 2753
689 1967 2977
486 1865 3220
342 1745 3453
224 1606 3616
121 1532 3740
49 1505 3846
30 1482 3887
26 1475 3924
33 1487 3954
64 1513 3974
103 1540 3986
1307 2518 1700
1298 2518 1713
1286 2518 1729
1265 2518 1755
1238 2518 1789
1201 2519 1832
1204 2500 1919
1225 2473 2025
1242 2444 2134
1248 2413 2249
1234 2394 2362
1187 2379 2485
1109 2351 2608
1081 2312 2762
967 2238 2935
794 2147 3166
584 2057 3409
402 2000 3639
294 1891 3771
197 1823 3884
136 1817 3973
123 1805 4003
145 1808 4012
185 1819 4018
233 1842 4024
1437 2695 1810
1428 2695 1821
1416 2695 1837
1398 2695 1861
1373 2696 1892
1339 2696 1930
1319 2688 1993
1341 2662 2095
1361 2634 2201
1375 2608 2309
1375 2586 2418
1352 2570 2531
1297 2551 2663
1232 2520 2789
1200 2486 2949
1076 2412 3123
905 2329 3354
694 2251 3595
528 2247 3782
359 2214 3905
298 2167 3980
309 2161 4014
328 2155 4033
358 2156 4040
396 2171 4047
1566 2866 1917
1558 2866 1927
1548 2867 1941
1531 2867 1962
1509 2867 1990
1478 2868 2026
1438 2870 2068
1457 2846 2165
1480 2820 2269
1497 2793 2375
1506 2769 2483
1500 2745 2597
1470 2727 2718
1398 2709 2849
1355 2687 2972
1318 2660 3134
1191 2588 3310
1021 2512 3543
836 2481 3731
697 2484 3901
632 2459 3961
591 2438 4013
603 2422 4049
655 2412 4069
696 2401 4082
1696 3035 2020
1689 3035 2029
1679 3035 2042
1664 3036 2062
1644 3037 2089
1616 3038 2122
1580 3040 2163
1573 3029 2235
1595 3002 2337
1616 2975 2442
1631 2950 2548
1637 2928 2659
1627 2905 2777
1590 2894 2897
1503 2884 3017
1482 2864 3146
1442 2832 3321
1311 2764 3495
1164 2730 3687
1007 2710 3855
1005 2697 3950
969 2671 4015
960 2651 4053
987 2631 4077
1094 2600 4082
1828 3198 2123
1822 3198 2132
1813 3199 2144
1799 3200 2162
1780 3201 2187
1755 3203 2219
1722 3206 2257
1689 3205 2308
1712 3181 2405
1734 3155 2508
1755 3131 2614
1769 3112 2720
1772 3092 2832
1755 3080 2944
1711 3078 3062
1621 3069 3188
1611 3034 3331
1571 2996 3505
1448 2963 3648
1342 2947 3810
1289 2917 3925
1309 2908 4013
1354 2868 4044
1393 2827 4059
1441 2793 4072
1960 3359 2229
1954 3360 2238
1946 3360 2249
1933 3361 2266
1915 3362 2290
1892 3364 2319
1862 3366 2356
1825 3370 2399
1830 3354 2481
1852 3330 2579
1876 3308 2679
1897 3288 2785
1909 3271 2892
1907 3258 3001
1884 3251 3114
1833 3244 3246
1758 3224 3378
1752 3190 3517
1707 3187 3654
1628 3166 3770
1603 3148 3891
1618 3107 3971
1724 3056 4009
1773 3018 4034
1804 2987 4050
2114 3496 2335
2108 3496 2343
2101 3497 2353
2089 3498 2370
2072 3500 2392
2050 3502 2420
2022 3505 2455
1987 3509 2495
1966 3508 2554
1990 3488 2649
2014 3468 2748
2036 3449 2850
2053 3433 2957
2060 3420 3064
2052 3408 3177
2021 3394 3306
1962 3386 3436
1910 3377 3552
1899 3375 3669
1904 3370 3773
1911 3340 3852
2003 3288 3910
2051 3243 3958
2126 3208 3992
2170 3180 4018
2269 3628 2441
2264 3629 2449
2257 3629 2458
2246 3631 2474
2230 3632 2494
2210 3635 2521
2185 3640 2552
2154 3645 2588
2117 3653 2630
2136 3639 2718
2161 3619 2815
2185 3601 2917
2206 3584 3021
2221 3569 3128
2224 3555 3240
2214 3536 3362
2182 3525 3487
2110 3534 3597
2105 3536 3687
2238 3501 3748
2339 3466 3802
2373 3435 3856
2433 3404 3909
2461 3375 3955
2515 3353 3990
2483 3728 2588
2483 3727 2599
2483 3726 2613
2482 3725 2635
2481 3723 2664
2479 3721 2700
2478 3719 2742
2475 3715 2790
2472 3711 2842
2482 3704 2909
2509 3690 2991
2535 3677 3074
2559 3664 3161
2581 3649 3249
2597 3637 3336
2601 3622 3431
2589 3616 3523
2562 3622 3609
2503 3635 3684
2607 3615 3733
2710 3595 3781
2766 3575 3831
2789 3551 3880
2833 3530 3925
2852 3511 3963
2886 3776 2965
2886 3775 2972
2886 3774 2981
2887 3773 2995
2887 3772 3014
2887 3771 3037
2888 3769 3064
2889 3767 3096
2889 3765 3131
2891 3761 3172
2912 3751 3229
2933 3741 3289
2954 3731 3350
2974 3720 3412
2990 3706 3479
3002 3702 3537
3018 3700 3588
3024 3702 3641
3018 3708 3697
2981 3719 3757
3068 3702 3792
3138 3692 3831
3174 3681 3871
3189 3669 3911
3218 3659 3952
0 0 0
0 0 63
0 0 144
0 0 314
0 0 414
0 0 512
0 0 602
0 27 699
9 62 801
20 91 901
24 119 1006
30 138 1098
37 157 1182
43 177 1259
48 195 1329
46 210 1409
49 224 1485
54 240 1559
59 255 1636
63 269 1718
62 283 1806
61 297 1895
65 313 1981
70 327 2070
73 339 2167
41 67 0
38 66 239
0 6 344
0 0 441
0 7 535
0 33 616
1 57 705
14 85 796
24 110 888
30 131 973
31 147 1064
37 162 1146
43 178 1221
48 195 1289
50 210 1362
49 223 1439
53 238 1514
58 252 1587
62 268 1664
64 279 1748
63 292 1834
63 307 1923
68 322 2008
74 334 2098
72 343 2203
86 235 101
97 219 319
78 188 460
34 145 612
19 123 712
23 120 806
26 128 880
30 141 948
29 151 1027
34 162 1099
38 173 1168
43 185 1234
47 201 1295
49 213 1361
48 224 1432
52 237 1502
56 251 1571
60 265 1644
64 278 1719
63 289 1803
62 302 1888
65 316 1971
70 330 2055
75 341 2145
70 349 2250
151 373 265
159 358 422
158 346 542
130 306 676
70 247 858
48 220 965
35 204 1050
36 196 1121
39 197 1180
42 201 1236
46 210 1287
49 218 1341
47 227 1405
48 236 1466
52 247 1528
56 259 1591
59 271 1657
62 281 1728
62 291 1806
61 304 1885
64 316 1962
69 331 2041
74 340 2126
72 350 2218
68 358 2320
212 512 413
219 498 528
214 488 614
197 456 757
154 400 907
93 330 1069
59 291 1190
49 269 1256
49 256 1320
48 252 1381
45 252 1436
48 255 1486
50 261 1539
53 269 1593
57 278 1649
60 286 1709
60 293 1778
59 302 1847
60 313 1918
64 324 1988
68 336 2061
72 345 2141
71 353 2228
69 363 2317
65 373 2414
281 663 544
289 650 633
269 638 698
270 599 856
235 558 989
189 492 1136
115 416 1303
79 366 1412
55 334 1483
51 318 1538
53 309 1596
55 307 1645
57 307 1694
59 308 1748
58 310 1806
57 315 1865
58 323 1925
62 332 1985
65 341 2048
69 348 2118
69 355 2194
67 364 2273
66 372 2356
65 383 2439
68 388 2532
359 839 665
352 819 758
329 809 805
330 776 935
321 738 1083
279 694 1215
216 599 1364
144 502 1547
92 441 1645
73 407 1710
64 383 1766
59 367 1823
57 356 1886
57 353 1936
60 354 1984
62 358 2035
65 361 2090
67 364 2149
66 368 2216
64 374 2284
63 380 2356
63 388 2429
66 397 2503
69 416 2571
63 432 2657
430 1021 809
427 1004 885
405 995 926
397 971 1017
394 931 1170
367 893 1317
329 848 1440
244 741 1583
164 636 1768
114 544 1854
82 483 1960
68 446 2021
66 427 2071
67 415 2122
67 406 2179
65 401 2234
63 400 2291
61 400 2349
60 402 2410
62 412 2466
64 425 2523
65 440 2584
62 455 2653
59 472 2724
55 486 2808
518 1211 943
515 1196 1005
491 1189 1044
462 1175 1109
469 1138 1248
464 1101 1388
416 1065 1526
375 1017 1669
285 898 1797
190 785 1985
128 679 2076
97 611 2178
76 561 2239
65 526 2301
60 504 2362
58 491 2418
60 484 2474
63 483 2526
62 485 2580
60 490 2639
58 498 2699
56 510 2762
54 523 2828
52 540 2896
53 555 2974
624 1400 1054
624 1389 1105
599 1387 1140
559 1384 1190
561 1351 1304
572 1315 1435
560 1281 1568
490 1240 1697
458 1196 1850
321 1059 2026
221 935 2205
145 824 2309
105 747 2405
79 688 2474
70 649 2528
64 620 2589
60 602 2651
57 590 2713
55 585 2775
53 586 2834
51 592 2893
53 601 2951
51 613 3016
48 627 3084
45 639 3166
730 1593 1162
729 1585 1206
707 1583 1236
674 1581 1278
654 1566 1360
674 1528 1483
678 1493 1609
652 1469 1738
575 1442 1861
526 1391 2020
397 1229 2217
244 1083 2451
162 974 2553
111 889 2634
82 829 2719
66 784 2778
56 751 2840
53 729 2903
52 716 2966
49 709 3033
46 708 3097
43 711 3161
41 718 3227
39 729 3293
36 737 3375
