Toning/Toning-WoodenHueTwists.3dl
#25pt 3DLUT created by 3D LUT Creator Pro (c) Oleg Sharonov
#Copyright Oleg Sharonov
#IMAGEPROFILE sRGB IEC61966-2.1 v.2.10
#INPUTGAMMA sRGB IEC61966-2.1 v.2.10
#OUTPUTGAMMA sRGB IEC61966-2.1 v.2.10
0 43 86 128 171 214 256 299 341 384 427 469 512 555 597 640 682 725 768 810 853 896 938 981 1023 
0 0 0
16 22 171
32 43 341
46 65 512
62 87 683
78 108 853
93 128 1024
108 149 1195
120 167 1365
132 182 1536
139 194 1706
144 200 1877
143 197 2048
135 187 2218
121 169 2389
104 143 2559
81 113 2730
59 82 2901
38 54 3071
22 30 3242
11 14 3412
3 5 3583
2 2 3754
0 0 3924
0 0 4095
59 171 55
0 171 171
0 171 341
16 192 512
32 214 683
46 235 853
62 256 1024
76 277 1195
90 296 1365
102 313 1536
111 326 1706
118 334 1877
119 335 2048
114 329 2218
104 315 2389
90 295 2559
71 269 2730
52 243 2901
35 218 3071
19 197 3242
9 184 3412
3 175 3583
2 172 3754
0 171 3924
0 171 4095
116 341 111
110 341 226
0 341 341
0 341 512
0 341 683
16 362 853
30 384 1024
46 405 1195
60 425 1365
73 443 1536
84 457 1706
91 468 1877
96 473 2048
94 471 2218
87 462 2389
76 446 2559
62 426 2730
46 404 2901
30 383 3071
17 366 3242
8 353 3412
3 346 3583
2 342 3754
0 341 3924
0 341 4095
175 512 167
168 512 283
110 512 397
0 512 512
0 512 683
0 512 853
0 512 1024
16 533 1195
30 553 1365
44 572 1536
55 589 1706
65 602 1877
71 611 2048
73 612 2218
70 608 2389
62 598 2559
51 583 2730
38 565 2901
25 547 3071
16 533 3242
8 522 3412
3 516 3583
2 513 3754
0 512 3924
0 512 4095
233 683 223
227 683 338
219 683 453
110 683 568
0 683 683
0 683 853
0 682 1024
0 682 1195
0 682 1365
14 702 1536
27 721 1706
40 736 1877
47 748 2048
52 754 2218
52 755 2389
47 749 2559
41 739 2730
32 726 2901
22 712 3071
13 700 3242
6 691 3412
3 686 3583
2 683 3754
0 683 3924
0 683 4095
291 853 279
284 853 394
278 853 509
219 853 624
110 853 738
0 853 853
0 853 1024
0 853 1195
0 853 1365
0 853 1536
0 852 1706
13 871 1877
24 886 2048
32 896 2218
35 901 2389
35 901 2559
30 895 2730
24 887 2901
17 876 3071
11 868 3242
5 860 3412
2 856 3583
0 854 3754
0 853 3924
0 853 4095
349 1024 334
343 1024 449
336 1024 564
329 1024 680
219 1024 794
110 1024 909
0 1024 1024
0 1024 1195
0 1024 1365
0 1024 1536
0 1024 1706
0 1023 1877
0 1023 2048
9 1037 2218
17 1047 2389
21 1052 2559
21 1051 2730
17 1047 2901
13 1041 3071
8 1035 3242
5 1029 3412
2 1026 3583
0 1024 3754
0 1024 3924
0 1024 4095
407 1195 390
400 1195 505
394 1195 620
387 1195 735
328 1195 850
219 1195 965
110 1195 1080
0 1195 1195
0 1195 1365
0 1195 1536
0 1194 1706
0 1194 1877
0 1194 2048
0 1194 2218
0 1193 2389
6 1203 2559
9 1208 2730
9 1208 2901
8 1206 3071
5 1202 3242
3 1198 3412
2 1196 3583
0 1195 3754
0 1194 3924
0 1194 4095
464 1365 445
457 1365 560
450 1365 675
444 1365 790
437 1365 905
328 1365 1020
219 1365 1135
109 1365 1250
0 1365 1365
0 1365 1536
0 1365 1706
0 1365 1877
0 1365 2048
0 1365 2218
0 1364 2389
0 1364 2559
0 1364 2730
3 1369 2901
3 1370 3071
3 1369 3242
2 1367 3412
0 1366 3583
0 1365 3754
0 1364 3924
0 1364 4095
521 1536 500
514 1536 615
507 1536 730
500 1536 845
493 1536 960
435 1536 1075
326 1536 1190
217 1536 1305
109 1536 1420
0 1536 1536
0 1536 1706
0 1536 1877
0 1536 2048
0 1535 2218
0 1535 2389
0 1535 2559
0 1535 2730
0 1535 2901
0 1535 3071
0 1536 3242
0 1536 3412
0 1535 3583
0 1535 3754
0 1535 3924
0 1535 4095
576 1706 554
568 1706 669
561 1706 784
554 1706 898
547 1706 1013
540 1706 1128
432 1706 1243
324 1706 1359
216 1706 1475
108 1706 1591
0 1706 1706
0 1706 1877
0 1706 2048
0 1706 2218
0 1706 2389
0 1706 2559
0 1706 2730
0 1706 2901
0 1705 3071
0 1705 3242
0 1705 3412
0 1705 3583
0 1705 3754
0 1705 3924
0 1705 4095
629 1877 608
622 1877 722
614 1877 836
607 1877 951
599 1877 1065
592 1877 1180
534 1877 1295
428 1877 1411
321 1877 1528
214 1877 1644
108 1877 1760
0 1877 1877
0 1877 2048
0 1877 2218
0 1877 2389
0 1877 2559
0 1877 2730
0 1877 2901
0 1876 3071
0 1876 3242
0 1876 3412
0 1876 3583
0 1876 3754
0 1876 3924
0 1876 4095
680 2048 661
672 2048 775
664 2048 888
656 2048 1002
649 2048 1116
641 2048 1230
633 2048 1344
528 2048 1461
422 2048 1578
316 2048 1696
211 2048 1813
105 2048 1930
0 2048 2048
0 2048 2218
0 2048 2389
0 2048 2559
0 2048 2730
0 2047 2901
0 2047 3071
0 2047 3242
0 2047 3412
0 2047 3583
0 2046 3754
0 2046 3924
0 2046 4095
728 2218 712
720 2218 826
712 2218 939
703 2218 1052
695 2218 1165
687 2218 1279
679 2218 1392
623 2218 1508
519 2218 1626
415 2218 1745
311 2218 1863
207 2218 1981
104 2218 2100
0 2218 2218
0 2218 2389
0 2218 2559
0 2218 2730
0 2218 2901
0 2218 3071
0 2218 3242
0 2218 3412
0 2217 3583
0 2217 3754
0 2217 3924
0 2217 4095
774 2389 763
765 2389 876
756 2389 988
747 2389 1101
739 2389 1213
730 2389 1326
721 2389 1439
713 2389 1551
611 2389 1671
509 2389 1791
407 2389 1910
305 2389 2030
204 2389 2149
102 2389 2269
0 2389 2389
0 2389 2559
0 2389 2730
0 2389 2901
0 2389 3071
0 2389 3242
0 2389 3412
0 2388 3583
0 2388 3754
0 2388 3924
0 2388 4095
817 2559 813
808 2559 925
799 2559 1036
789 2559 1148
780 2559 1260
770 2559 1372
761 2559 1484
752 2559 1596
698 2559 1713
598 2559 1834
498 2559 1955
398 2559 2076
299 2559 2196
199 2559 2317
100 2559 2438
0 2559 2559
0 2559 2730
0 2559 2901
0 2559 3071
0 2559 3242
0 2559 3412
0 2559 3583
0 2559 3754
0 2559 3924
0 2559 4095
859 2730 862
850 2730 973
840 2730 1084
830 2730 1196
820 2730 1307
810 2730 1418
800 2730 1529
790 2730 1641
780 2730 1752
683 2730 1874
585 2730 1996
487 2730 2119
390 2730 2241
292 2730 2363
195 2730 2485
98 2730 2608
0 2730 2730
0 2730 2901
0 2730 3071
0 2730 3242
0 2730 3412
0 2730 3583
0 2730 3754
0 2730 3924
0 2730 4095
901 2901 911
891 2901 1021
880 2901 1132
870 2901 1243
860 2901 1353
849 2901 1464
839 2901 1575
829 2901 1685
818 2901 1796
765 2901 1913
669 2901 2036
574 2901 2160
478 2901 2283
382 2901 2407
287 2901 2530
192 2901 2654
96 2901 2777
0 2901 2901
0 2901 3071
0 2901 3242
0 2901 3412
0 2901 3583
0 2901 3754
0 2901 3924
0 2900 4095
944 3071 960
933 3071 1070
922 3071 1180
911 3071 1291
901 3071 1401
890 3071 1511
879 3071 1621
868 3071 1731
858 3071 1841
847 3071 1952
753 3071 2076
658 3071 2200
564 3071 2325
470 3071 2449
376 3071 2573
282 3071 2698
188 3071 2822
94 3071 2947
0 3071 3071
0 3071 3242
0 3071 3412
0 3071 3583
0 3071 3754
0 3071 3924
0 3071 4095
988 3242 1010
977 3242 1120
966 3242 1230
955 3242 1339
944 3242 1449
932 3242 1559
921 3242 1669
910 3242 1779
899 3242 1888
889 3242 1998
837 3242 2116
744 3242 2241
650 3242 2366
557 3242 2491
464 3242 2616
372 3242 2741
279 3242 2866
186 3242 2992
93 3242 3117
0 3242 3242
0 3242 3412
0 3242 3583
0 3242 3754
0 3242 3924
0 3242 4095
1035 3412 1061
1024 3412 1171
1012 3412 1280
1001 3412 1390
989 3412 1499
978 3412 1609
967 3412 1718
956 3412 1828
945 3412 1937
933 3412 2047
922 3412 2157
830 3412 2282
737 3412 2408
645 3412 2533
553 3412 2659
461 3412 2784
368 3412 2910
276 3412 3036
184 3412 3161
93 3412 3287
0 3412 3412
0 3413 3583
0 3413 3754
0 3413 3924
0 3413 4095
1083 3583 1113
1072 3583 1222
1061 3583 1332
1049 3583 1441
1038 3583 1551
1026 3583 1660
1015 3583 1769
1004 3583 1879
992 3583 1988
981 3583 2098
970 3583 2207
918 3583 2325
826 3583 2450
734 3583 2576
642 3583 2702
550 3583 2828
459 3583 2954
367 3583 3080
275 3583 3206
183 3583 3331
91 3583 3457
0 3583 3583
0 3583 3754
0 3583 3924
0 3583 4095
1134 3754 1165
1122 3754 1275
1111 3754 1384
1099 3754 1493
1088 3754 1603
1076 3754 1712
1065 3754 1821
1053 3754 1931
1042 3754 2040
1031 3754 2150
1020 3754 2259
1008 3754 2368
916 3754 2494
825 3754 2620
733 3754 2746
641 3754 2872
549 3754 2998
458 3754 3124
366 3754 3250
275 3754 3376
183 3754 3502
91 3754 3628
0 3754 3754
0 3754 3924
0 3754 4095
1185 3924 1218
1174 3924 1327
1162 3924 1437
1150 3924 1546
1139 3924 1655
1127 3924 1765
1116 3924 1874
1104 3924 1983
1093 3924 2093
1082 3924 2202
1071 3924 2312
1059 3924 2421
1008 3924 2539
916 3924 2665
824 3924 2791
732 3924 2916
641 3924 3042
549 3924 3168
458 3924 3295
366 3924 3420
275 3924 3546
183 3924 3673
91 3924 3798
0 3924 3924
0 3924 4095
1236 4095 1271
1225 4095 1380
1214 4095 1490
1202 4095 1599
1190 4095 1708
1179 4095 1818
1167 4095 1927
1156 4095 2036
1145 4095 2146
1133 4095 2255
1122 4095 2365
1111 4095 2474
1099 4095 2583
1008 4095 2709
916 4095 2835
824 4095 2961
732 4095 3087
641 4095 3213
549 4095 3339
457 4095 3465
366 4095 3591
275 4095 3717
183 4095 3843
91 4095 3969
0 4095 4095
171 0 0
171 35 168
210 79 341
225 101 512
241 123 683
256 144 853
271 165 1024
285 185 1195
298 204 1365
309 219 1536
318 230 1706
321 236 1877
320 234 2048
311 224 2218
298 205 2389
279 180 2559
256 150 2730
234 119 2901
213 90 3071
196 66 3242
184 51 3412
177 43 3583
174 38 3754
174 36 3924
174 36 4095
171 147 16
171 171 171
187 192 341
201 214 512
218 235 683
233 257 853
248 278 1024
262 298 1195
276 316 1365
288 333 1536
296 345 1706
301 352 1877
301 351 2048
295 343 2218
284 327 2389
267 304 2559
247 276 2730
226 248 2901
207 221 3071
192 200 3242
181 185 3412
175 175 3583
172 172 3754
171 171 3924
171 171 4095
235 341 113
229 341 226
171 341 341
171 341 512
187 363 683
201 385 853
216 406 1024
232 426 1195
246 446 1365
258 463 1536
269 477 1706
275 486 1877
277 489 2048
274 485 2218
266 474 2389
253 456 2559
237 433 2730
219 408 2901
202 386 3071
189 367 3242
180 354 3412
174 346 3583
172 342 3754
171 341 3924
171 341 4095
293 512 168
288 512 282
280 512 397
171 512 512
171 512 683
171 512 853
185 533 1024
201 554 1195
215 574 1365
229 593 1536
241 609 1706
249 621 1877
253 627 2048
253 627 2218
249 620 2389
239 607 2559
226 589 2730
212 570 2901
199 550 3071
187 534 3242
178 523 3412
174 516 3583
172 513 3754
171 512 3924
171 512 4095
351 683 224
345 683 338
338 683 453
280 683 568
171 683 682
171 683 853
171 682 1024
171 682 1195
185 703 1365
200 723 1536
212 740 1706
222 755 1877
230 765 2048
233 769 2218
231 767 2389
225 759 2559
216 746 2730
205 730 2901
195 715 3071
184 702 3242
178 692 3412
174 686 3583
171 684 3754
171 683 3924
171 683 4095
409 853 279
403 853 393
397 853 509
390 853 624
280 853 738
171 853 853
171 853 1024
171 853 1195
171 853 1365
171 853 1536
184 872 1706
196 889 1877
206 902 2048
212 910 2218
214 913 2389
212 910 2559
206 902 2730
199 891 2901
189 880 3071
183 869 3242
177 861 3412
172 856 3583
171 854 3754
171 853 3924
171 853 4095
468 1024 335
461 1024 449
455 1024 564
448 1024 679
390 1024 794
280 1024 909
171 1024 1024
171 1024 1195
171 1024 1365
171 1024 1536
171 1024 1706
171 1023 1877
183 1040 2048
191 1052 2218
196 1059 2389
197 1061 2559
196 1058 2730
191 1052 2901
185 1044 3071
180 1036 3242
175 1030 3412
172 1026 3583
171 1024 3754
171 1024 3924
171 1024 4095
525 1195 390
519 1195 504
513 1195 620
506 1195 735
499 1195 850
390 1195 965
280 1195 1079
171 1195 1194
171 1195 1365
171 1195 1536
171 1194 1706
171 1194 1877
171 1194 2048
171 1194 2218
180 1206 2389
184 1213 2559
185 1215 2730
184 1213 2901
181 1208 3071
177 1203 3242
174 1199 3412
172 1196 3583
171 1195 3754
171 1194 3924
171 1194 4095
583 1365 446
576 1365 560
570 1365 675
563 1365 790
556 1365 905
499 1365 1020
389 1365 1135
279 1365 1250
171 1365 1365
171 1365 1536
171 1365 1706
171 1365 1877
171 1365 2048
171 1364 2218
171 1364 2389
171 1364 2559
175 1371 2730
177 1374 2901
177 1373 3071
175 1371 3242
172 1368 3412
171 1366 3583
171 1365 3754
171 1364 3924
171 1364 4095
639 1536 501
633 1536 615
626 1536 730
620 1536 845
613 1536 960
606 1536 1075
497 1536 1190
388 1536 1305
279 1536 1420
171 1536 1535
171 1536 1706
171 1536 1877
171 1535 2048
171 1535 2218
171 1535 2389
171 1535 2559
171 1535 2730
171 1535 2901
172 1538 3071
172 1538 3242
172 1537 3412
171 1536 3583
171 1535 3754
171 1535 3924
171 1535 4095
695 1706 555
688 1706 669
681 1706 784
674 1706 899
667 1706 1013
661 1706 1128
603 1706 1243
494 1706 1359
386 1706 1475
278 1706 1590
171 1706 1706
171 1707 1877
171 1706 2048
171 1706 2218
171 1706 2389
171 1706 2559
171 1706 2730
171 1706 2901
171 1706 3071
171 1705 3242
171 1706 3412
171 1706 3583
171 1705 3754
171 1705 3924
171 1705 4095
