Toning/Toning-Stretch blues and oranges.3dl
#25pt 3DLUT created by 3D LUT Creator Pro (c) Oleg Sharonov
#Copyright Oleg Sharonov
#INPUTGAMMA sRGB IEC61966-2.1 v.2.10
#IMAGEPROFILE sRGB IEC61966-2.1 v.2.10
#OUTPUTGAMMA sRGB IEC61966-2.1 v.2.10
0 43 86 128 171 214 256 299 341 384 427 469 512 555 597 640 682 725 768 810 853 896 938 981 1023 
0 0 0
0 0 171
0 0 341
0 0 512
0 0 683
0 0 852
0 0 1023
0 0 1195
0 0 1364
0 0 1535
0 0 1705
0 0 1877
0 0 2047
0 0 2218
0 0 2388
0 0 2559
0 0 2731
0 0 2900
0 0 3071
0 0 3242
0 0 3413
0 0 3583
0 0 3754
0 0 3924
0 0 4095
0 171 0
0 164 171
0 156 341
0 149 512
0 142 683
0 135 853
0 128 1024
0 121 1195
0 114 1364
0 107 1535
0 100 1706
0 92 1877
0 85 2047
0 78 2218
0 71 2389
0 64 2559
0 57 2729
0 50 2901
0 43 3071
0 36 3243
0 28 3413
0 21 3583
0 14 3754
0 7 3925
0 0 4095
0 341 0
0 327 171
0 313 341
0 299 512
0 284 682
0 270 853
0 256 1024
0 242 1194
0 228 1365
0 213 1536
0 199 1707
0 185 1876
0 171 2048
0 156 2219
0 142 2389
0 128 2560
0 114 2730
0 100 2900
0 85 3070
0 71 3242
0 57 3412
0 43 3583
0 28 3753
0 14 3924
0 0 4094
0 512 0
0 497 171
0 482 341
0 467 512
0 451 682
0 436 853
0 421 1023
0 406 1194
0 391 1365
0 376 1535
0 361 1707
0 346 1877
0 330 2047
0 315 2218
0 300 2388
0 285 2559
0 270 2730
0 255 2900
0 240 3071
0 225 3242
0 210 3412
0 194 3583
0 179 3754
0 164 3924
0 149 4095
0 683 0
0 668 171
0 654 341
0 639 512
0 625 682
0 611 853
0 596 1024
0 582 1194
0 568 1365
0 553 1535
0 539 1707
0 524 1877
0 510 2047
0 495 2218
0 481 2388
0 466 2559
0 453 2730
0 437 2900
0 423 3071
0 409 3242
0 395 3412
0 381 3583
0 366 3753
0 352 3924
0 338 4095
0 853 0
0 839 171
0 826 341
0 812 512
0 798 683
0 785 853
0 771 1024
0 757 1194
0 743 1365
0 730 1535
0 716 1706
0 703 1877
0 689 2047
0 675 2218
0 662 2389
0 648 2559
0 634 2730
0 621 2900
0 607 3071
0 593 3242
0 580 3413
0 566 3583
0 552 3754
0 539 3924
0 525 4095
0 1024 0
0 1011 171
0 998 341
0 985 512
0 972 683
0 959 853
0 946 1024
0 933 1194
0 920 1365
0 907 1535
0 894 1706
0 881 1877
0 868 2047
0 855 2218
0 842 2388
0 829 2559
0 817 2730
0 803 2900
0 790 3071
0 778 3242
0 765 3412
0 751 3583
0 738 3754
0 726 3924
0 713 4095
0 1194 0
0 1182 171
0 1170 341
0 1158 512
0 1145 683
0 1133 853
0 1121 1024
0 1109 1194
0 1096 1365
0 1084 1536
0 1072 1706
0 1060 1877
0 1048 2047
0 1035 2218
0 1023 2389
0 1011 2559
0 998 2730
0 987 2901
0 974 3071
0 962 3242
0 950 3413
0 938 3583
0 926 3754
0 913 3925
0 901 4095
0 1365 0
0 1353 171
0 1342 341
0 1330 512
0 1319 682
0 1307 853
0 1296 1024
0 1284 1194
0 1273 1365
0 1261 1536
0 1250 1706
0 1238 1877
0 1227 2048
0 1215 2218
0 1204 2389
0 1192 2560
0 1181 2730
0 1169 2900
0 1158 3071
0 1146 3242
0 1135 3412
0 1123 3583
0 1112 3753
0 1100 3924
0 1088 4095
0 1536 0
0 1525 171
0 1514 341
0 1503 512
0 1492 682
0 1482 853
0 1471 1024
0 1460 1194
0 1449 1365
0 1438 1536
0 1428 1706
0 1417 1877
0 1406 2048
0 1395 2218
0 1385 2389
0 1374 2559
0 1363 2730
0 1352 2901
0 1341 3071
0 1331 3242
0 1319 3412
0 1309 3583
0 1298 3753
0 1287 3924
0 1277 4095
0 1706 0
0 1696 171
0 1686 341
0 1676 512
0 1666 682
0 1656 853
0 1646 1024
0 1636 1194
0 1626 1365
0 1616 1536
0 1606 1706
0 1595 1877
0 1585 2047
0 1575 2218
0 1565 2389
0 1555 2559
0 1545 2730
0 1535 2901
0 1525 3071
0 1515 3242
0 1505 3412
0 1495 3583
0 1484 3753
0 1474 3924
0 1464 4095
0 1877 0
0 1868 171
0 1858 341
0 1849 512
0 1839 683
0 1830 853
0 1821 1024
0 1811 1194
0 1802 1365
0 1793 1536
0 1783 1706
0 1774 1877
0 1765 2047
0 1755 2218
0 1746 2389
0 1737 2559
0 1727 2730
0 1718 2901
0 1708 3071
0 1699 3242
0 1689 3412
0 1680 3583
0 1671 3753
0 1661 3924
0 1652 4095
0 2048 0
0 2039 171
0 2030 341
0 2022 512
0 2013 683
0 2004 853
0 1996 1024
0 1987 1194
0 1978 1365
0 1970 1536
0 1961 1706
0 1953 1877
0 1944 2047
0 1935 2218
0 1927 2389
0 1918 2559
0 1909 2730
0 1901 2900
0 1892 3071
0 1883 3242
0 1875 3412
0 1866 3583
0 1858 3754
0 1849 3924
0 1840 4095
0 2218 0
0 2210 171
0 2202 341
0 2194 512
0 2186 683
0 2179 853
0 2171 1024
0 2163 1194
0 2155 1365
0 2147 1536
0 2139 1706
0 2131 1877
0 2123 2047
0 2115 2218
0 2107 2389
0 2099 2559
0 2092 2730
0 2083 2900
0 2076 3071
0 2068 3242
0 2060 3412
0 2052 3583
0 2044 3754
0 2036 3924
0 2028 4095
0 2389 0
0 2382 171
0 2374 341
0 2367 512
0 2360 683
0 2353 853
0 2346 1024
0 2338 1194
0 2331 1365
0 2324 1536
0 2317 1706
0 2309 1877
0 2302 2047
0 2295 2218
0 2288 2389
0 2281 2559
0 2274 2730
0 2266 2901
0 2259 3071
0 2252 3242
0 2245 3412
0 2238 3583
0 2230 3754
0 2223 3924
0 2216 4095
0 2559 0
0 2553 171
0 2546 341
0 2540 512
0 2533 683
0 2527 853
0 2520 1024
0 2514 1194
0 2508 1365
0 2501 1536
0 2495 1706
0 2488 1877
0 2482 2047
0 2475 2218
0 2469 2389
0 2462 2559
0 2456 2730
0 2449 2901
0 2443 3071
0 2436 3242
0 2430 3412
0 2423 3583
0 2417 3754
0 2410 3924
0 2404 4095
0 2730 0
0 2724 171
0 2718 341
0 2713 512
0 2707 683
0 2701 853
0 2695 1024
0 2690 1194
0 2684 1365
0 2678 1536
0 2672 1706
0 2667 1877
0 2661 2047
0 2655 2218
0 2649 2389
0 2644 2559
0 2638 2730
0 2632 2901
0 2626 3071
0 2621 3242
0 2615 3412
0 2609 3583
0 2603 3754
0 2598 3924
0 2592 4095
0 2901 0
0 2896 171
0 2891 341
0 2885 512
0 2880 683
0 2875 853
0 2870 1024
0 2865 1194
0 2860 1365
0 2855 1536
0 2850 1706
0 2845 1877
0 2840 2047
0 2835 2218
0 2830 2389
0 2825 2559
0 2820 2730
0 2815 2900
0 2810 3071
0 2805 3242
0 2800 3412
0 2795 3583
0 2790 3754
0 2785 3924
0 2779 4095
0 3071 0
0 3067 171
0 3063 341
0 3058 512
0 3054 683
0 3050 853
0 3045 1024
0 3041 1194
0 3037 1365
0 3032 1536
0 3028 1706
0 3024 1877
0 3019 2047
0 3015 2218
0 3011 2389
0 3006 2559
0 3002 2730
0 2998 2900
0 2993 3071
0 2989 3242
0 2985 3412
0 2981 3583
0 2976 3754
0 2972 3924
0 2968 4095
0 3242 0
0 3238 171
0 3235 341
0 3231 512
0 3227 683
0 3224 853
0 3220 1024
0 3217 1194
0 3213 1365
0 3210 1536
0 3206 1706
0 3202 1877
0 3199 2047
0 3195 2218
0 3192 2389
0 3188 2559
0 3184 2730
0 3181 2901
0 3177 3071
0 3173 3242
0 3170 3412
0 3166 3583
0 3163 3754
0 3159 3924
0 3155 4095
0 3412 0
0 3410 171
0 3407 341
0 3404 512
0 3401 683
0 3398 853
0 3395 1024
0 3392 1194
0 3389 1365
0 3387 1536
0 3384 1706
0 3381 1877
0 3378 2047
0 3375 2218
0 3372 2389
0 3369 2559
0 3366 2730
0 3363 2900
0 3360 3071
0 3358 3242
0 3355 3412
0 3352 3583
0 3349 3754
0 3346 3924
0 3343 4095
0 3583 0
0 3581 171
0 3579 341
0 3577 512
0 3574 683
0 3572 853
0 3570 1024
0 3568 1194
0 3566 1365
0 3564 1536
0 3561 1706
0 3559 1877
0 3557 2047
0 3555 2218
0 3553 2389
0 3551 2559
0 3548 2730
0 3546 2901
0 3544 3071
0 3542 3242
0 3540 3412
0 3538 3583
0 3536 3754
0 3533 3924
0 3531 4095
0 3754 0
0 3752 171
0 3751 341
0 3749 512
0 3748 683
0 3747 853
0 3745 1024
0 3744 1194
0 3742 1365
0 3741 1536
0 3739 1706
0 3738 1877
0 3736 2047
0 3735 2218
0 3734 2389
0 3732 2559
0 3731 2730
0 3729 2900
0 3728 3071
0 3726 3242
0 3725 3412
0 3723 3583
0 3722 3754
0 3721 3924
0 3719 4095
0 3924 0
0 3924 171
0 3923 341
0 3922 512
0 3921 683
0 3921 853
0 3920 1024
0 3919 1194
0 3919 1365
0 3918 1536
0 3917 1706
0 3916 1877
0 3916 2047
0 3915 2218
0 3914 2389
0 3913 2559
0 3913 2730
0 3912 2900
0 3911 3071
0 3911 3242
0 3910 3412
0 3909 3583
0 3908 3754
0 3908 3924
0 3907 4095
0 4095 0
0 4095 171
0 4095 341
0 4095 512
0 4095 683
0 4095 853
0 4095 1024
0 4095 1195
0 4095 1365
0 4095 1536
0 4095 1706
0 4095 1877
0 4095 2047
0 4095 2218
0 4095 2389
0 4095 2559
0 4095 2730
0 4095 2901
0 4095 3071
0 4095 3242
0 4095 3412
0 4095 3583
0 4095 3754
0 4095 3924
0 4095 4095
171 0 0
164 0 164
157 0 327
150 0 491
143 0 654
137 0 817
130 0 984
122 0 1157
115 0 1330
108 0 1502
101 0 1675
94 0 1848
86 0 2020
79 0 2193
72 0 2366
65 0 2540
58 0 2712
50 0 2885
43 0 3057
36 0 3231
29 0 3404
22 0 3577
14 0 3750
7 0 3922
0 0 4095
171 164 0
164 157 164
157 150 327
150 144 490
143 137 654
137 131 817
130 124 984
122 117 1157
115 110 1330
108 104 1503
101 97 1675
94 90 1849
86 83 2022
79 76 2195
72 69 2367
65 62 2540
58 55 2712
50 48 2885
43 41 3059
36 35 3231
29 28 3404
22 21 3577
14 14 3750
7 7 3922
0 0 4095
171 327 0
164 314 164
157 301 327
150 288 491
143 275 654
137 262 817
130 248 984
122 235 1157
115 221 1330
108 207 1502
101 193 1675
94 179 1849
86 166 2022
79 152 2193
72 138 2366
65 124 2540
58 110 2712
50 97 2885
43 83 3059
36 69 3231
29 55 3404
22 41 3577
14 28 3750
7 14 3922
0 0 4095
171 491 0
164 476 164
157 461 327
150 447 491
143 432 654
137 418 818
130 403 985
122 387 1157
115 372 1330
108 357 1503
101 341 1676
94 326 1848
86 310 2021
79 295 2194
72 280 2367
65 264 2539
58 249 2713
50 233 2886
43 218 3058
36 203 3230
29 187 3403
22 172 3576
14 156 3749
7 141 3921
0 126 4095
171 654 0
164 640 164
157 626 327
150 612 491
143 598 654
137 585 817
130 570 984
122 556 1157
115 541 1330
108 526 1503
101 512 1676
94 497 1848
86 482 2021
79 467 2194
72 453 2367
65 438 2539
58 423 2713
50 409 2886
43 394 3058
36 379 3230
29 365 3403
22 350 3576
14 335 3749
7 320 3921
0 306 4095
171 824 0
164 811 164
157 797 327
150 784 491
143 771 654
137 758 817
130 744 984
122 730 1157
115 716 1330
108 702 1503
101 688 1675
94 675 1849
86 661 2021
79 647 2194
72 633 2367
65 619 2540
58 604 2712
50 590 2885
43 577 3058
36 562 3231
29 548 3404
22 534 3577
14 520 3749
7 506 3922
0 492 4095
171 996 0
164 983 164
157 971 327
150 958 491
143 946 654
137 933 817
130 921 984
122 907 1157
115 894 1330
108 881 1503
101 868 1676
94 854 1848
86 841 2021
79 828 2194
72 815 2367
65 801 2539
58 788 2713
50 775 2885
43 762 3058
36 749 3231
29 735 3404
22 722 3577
14 709 3749
7 696 3922
0 682 4095
171 1168 0
164 1156 164
157 1145 327
150 1133 491
143 1121 654
137 1109 818
130 1097 984
122 1084 1157
115 1072 1330
108 1059 1503
101 1047 1675
94 1034 1848
86 1022 2021
79 1009 2194
72 997 2367
65 984 2540
58 972 2712
50 959 2885
43 947 3058
36 934 3231
29 922 3404
22 909 3577
14 897 3749
7 884 3922
0 872 4095
171 1340 0
164 1329 164
157 1318 327
150 1307 491
143 1296 654
137 1285 818
130 1273 984
122 1261 1157
115 1250 1330
108 1238 1503
101 1226 1676
94 1215 1848
86 1203 2021
79 1191 2194
72 1179 2367
65 1168 2540
58 1155 2712
50 1144 2885
43 1132 3058
36 1120 3231
29 1109 3404
22 1097 3576
14 1085 3749
7 1073 3922
0 1062 4095
171 1513 0
164 1502 164
157 1492 327
150 1481 491
143 1471 654
137 1460 818
130 1450 984
122 1439 1157
115 1428 1330
108 1417 1503
101 1405 1675
94 1395 1848
86 1384 2021
79 1373 2194
72 1362 2367
65 1351 2540
58 1339 2712
50 1328 2885
43 1317 3058
36 1306 3231
29 1295 3404
22 1284 3577
14 1273 3749
7 1262 3922
0 1251 4095
171 1685 0
164 1675 164
157 1665 327
150 1655 491
143 1646 654
137 1636 817
130 1626 984
122 1616 1157
115 1605 1330
108 1595 1503
101 1585 1676
94 1574 1848
86 1564 2021
79 1554 2194
72 1543 2367
65 1533 2540
58 1523 2712
50 1513 2885
43 1502 3058
36 1492 3231
29 1482 3404
22 1472 3577
14 1461 3749
7 1451 3922
0 1441 4095
