Toning/Toning-Instagrammish.3dl
#25pt 3DLUT created by 3D LUT Creator Pro (c) Oleg Sharonov
#Copyright Oleg Sharonov
#IMAGEPROFILE sRGB IEC61966-2.1 v.2.10
#INPUTGAMMA sRGB IEC61966-2.1 v.2.10
#OUTPUTGAMMA sRGB IEC61966-2.1 v.2.10
0 43 86 128 171 214 256 299 341 384 427 469 512 555 597 640 682 725 768 810 853 896 938 981 1023 
0 0 270
0 0 366
0 0 471
0 0 590
0 0 722
0 0 867
0 0 1025
0 0 1193
0 0 1349
0 0 1493
0 0 1623
0 0 1740
0 0 1842
0 0 1931
0 0 2005
0 0 2068
0 0 2130
0 0 2191
0 0 2251
0 0 2311
0 0 2370
0 0 2429
0 0 2487
0 0 2544
0 0 2601
0 156 270
0 158 364
2 172 465
6 178 586
10 179 720
11 177 868
14 178 1027
24 180 1185
41 186 1333
63 192 1468
89 200 1589
119 209 1696
151 220 1790
184 233 1870
217 246 1940
245 259 2007
268 271 2073
288 282 2138
304 293 2203
317 302 2266
327 310 2329
332 314 2392
332 312 2454
324 302 2517
281 251 2584
0 331 270
2 324 375
0 334 470
1 345 586
4 348 719
6 348 866
9 347 1026
19 350 1186
40 356 1333
68 362 1465
104 370 1583
145 379 1685
190 390 1773
236 404 1847
279 419 1916
315 434 1983
345 450 2050
370 466 2115
389 482 2180
404 496 2245
415 507 2309
421 514 2372
423 512 2437
417 495 2502
377 416 2574
0 508 270
10 496 383
2 500 480
0 510 590
1 515 719
2 516 866
3 515 1026
10 518 1188
26 522 1338
52 526 1473
89 531 1590
133 537 1693
183 546 1779
236 557 1851
285 571 1917
326 588 1982
360 606 2047
387 625 2112
408 645 2176
423 664 2239
433 679 2303
440 689 2367
444 689 2431
444 665 2497
424 559 2572
0 683 270
23 670 388
8 671 486
1 677 596
0 683 722
1 685 866
1 684 1025
4 686 1190
14 689 1343
34 692 1481
65 694 1602
106 697 1706
155 701 1794
209 710 1866
261 722 1929
306 738 1992
342 757 2055
369 780 2118
390 803 2180
403 827 2243
412 849 2305
418 863 2368
424 863 2431
432 833 2497
441 697 2573
0 858 270
37 844 393
19 843 491
6 847 600
1 852 725
0 854 867
0 854 1025
1 855 1191
7 858 1346
20 860 1487
44 860 1612
77 860 1720
121 862 1811
170 867 1885
222 877 1947
266 892 2008
302 912 2068
329 938 2129
348 966 2189
360 995 2250
366 1021 2310
370 1040 2371
376 1042 2434
391 1007 2501
434 838 2578
0 1033 270
54 1017 398
34 1016 495
14 1019 603
4 1022 728
1 1024 869
0 1024 1025
0 1025 1192
3 1027 1348
11 1029 1491
27 1029 1619
52 1028 1731
87 1028 1826
130 1030 1904
176 1038 1966
218 1053 2025
252 1075 2083
276 1102 2141
293 1135 2199
301 1170 2257
304 1202 2314
306 1226 2374
310 1230 2436
330 1190 2504
406 985 2584
0 1207 270
71 1190 403
52 1189 500
27 1192 606
11 1194 729
3 1196 869
0 1195 1026
0 1196 1192
1 1198 1349
5 1199 1493
15 1200 1623
32 1199 1738
59 1198 1837
93 1199 1919
131 1207 1983
168 1221 2040
198 1244 2096
219 1275 2152
232 1312 2206
237 1352 2261
237 1390 2316
234 1420 2373
236 1427 2435
257 1384 2504
361 1143 2589
0 1381 270
89 1363 410
73 1361 507
43 1364 611
20 1367 732
7 1367 871
1 1366 1026
0 1366 1192
0 1369 1349
1 1371 1493
6 1372 1624
18 1371 1741
36 1371 1843
61 1373 1927
91 1381 1995
121 1396 2051
146 1421 2105
163 1454 2158
173 1495 2210
175 1539 2261
171 1584 2314
165 1619 2369
162 1632 2429
178 1588 2501
301 1312 2592
0 1555 270
106 1535 417
96 1533 515
64 1536 617
34 1539 736
14 1539 873
4 1538 1027
1 1538 1192
1 1541 1349
0 1543 1492
2 1545 1624
8 1545 1741
19 1546 1845
37 1549 1931
59 1558 2000
82 1574 2056
101 1601 2108
114 1636 2159
120 1680 2209
119 1729 2257
113 1779 2307
103 1820 2360
94 1838 2419
103 1797 2493
229 1493 2596
0 1728 271
122 1707 424
120 1704 525
88 1708 626
52 1711 742
25 1712 876
9 1710 1028
4 1710 1191
3 1713 1347
1 1716 1491
0 1718 1622
2 1720 1740
8 1722 1844
19 1726 1931
34 1736 2001
50 1754 2056
64 1782 2108
74 1819 2157
77 1866 2204
74 1917 2251
65 1971 2298
52 2017 2349
38 2041 2406
37 2006 2480
152 1687 2598
0 1901 271
138 1879 431
145 1874 535
114 1878 636
75 1883 749
41 1884 880
19 1883 1029
10 1883 1189
7 1885 1346
5 1889 1490
1 1892 1621
0 1894 1739
2 1897 1842
8 1902 1930
17 1913 1999
28 1932 2054
37 1960 2105
43 1999 2153
45 2046 2199
40 2100 2244
30 2156 2289
15 2206 2337
1 2237 2393
0 2212 2466
74 1889 2600
0 2073 271
152 2051 439
168 2045 545
141 2048 646
101 2053 758
62 2056 885
34 2056 1030
18 2056 1187
13 2057 1343
10 2061 1488
5 2064 1620
2 2067 1738
1 2070 1841
2 2076 1929
6 2087 1998
13 2106 2053
19 2135 2103
22 2174 2150
22 2221 2195
17 2275 2238
7 2332 2282
0 2386 2329
0 2423 2382
1 2409 2453
0 2097 2600
0 2245 271
165 2222 446
190 2215 555
168 2217 657
127 2223 766
85 2227 891
51 2228 1032
30 2228 1186
20 2229 1341
16 2231 1487
11 2234 1620
5 2237 1738
1 2240 1842
0 2246 1930
1 2256 1999
4 2275 2054
8 2303 2104
10 2341 2150
9 2387 2194
3 2441 2236
0 2498 2279
0 2554 2323
0 2596 2374
0 2595 2441
0 2297 2581
1 2416 271
176 2393 452
209 2384 565
192 2386 667
153 2392 775
108 2396 897
69 2399 1034
42 2399 1185
28 2399 1340
22 2401 1487
16 2403 1622
10 2405 1742
5 2407 1846
1 2411 1934
0 2421 2004
1 2439 2058
2 2465 2108
3 2501 2154
2 2545 2197
1 2597 2239
1 2654 2280
1 2711 2323
0 2757 2371
1 2767 2434
1 2491 2561
0 2587 271
186 2563 458
226 2553 574
212 2554 676
174 2560 783
128 2565 903
86 2567 1037
54 2568 1185
36 2568 1340
27 2569 1489
21 2569 1625
14 2570 1747
8 2571 1853
3 2573 1942
1 2581 2013
0 2596 2067
0 2620 2116
1 2653 2162
0 2695 2204
0 2745 2246
1 2801 2286
0 2857 2327
0 2907 2372
0 2928 2431
452 2753 2506
1 2757 271
195 2733 464
240 2722 582
229 2722 685
192 2727 791
144 2732 909
98 2735 1041
62 2736 1187
40 2735 1341
30 2735 1492
23 2734 1631
17 2733 1755
10 2732 1862
5 2732 1953
2 2737 2026
1 2748 2080
0 2769 2129
0 2800 2174
0 2839 2216
0 2886 2257
0 2939 2296
2 2995 2336
0 3047 2379
0 3077 2432
634 2930 2475
0 2926 271
201 2903 469
250 2891 589
242 2890 693
205 2894 799
155 2898 915
107 2901 1045
67 2902 1190
43 2902 1344
30 2901 1496
24 2898 1638
18 2895 1764
11 2891 1874
6 2888 1967
2 2889 2041
0 2897 2097
1 2914 2145
1 2941 2190
0 2977 2232
0 3021 2272
0 3072 2310
0 3126 2349
0 3179 2389
1 3216 2439
884 3091 2440
0 3095 271
206 3072 473
258 3059 595
250 3057 700
213 3060 805
161 3064 920
110 3067 1050
69 3068 1193
42 3068 1347
29 3066 1502
22 3062 1646
16 3056 1774
10 3049 1886
5 3043 1981
1 3040 2058
0 3043 2116
0 3056 2164
0 3079 2209
0 3111 2251
1 3152 2290
0 3199 2328
0 3252 2365
0 3305 2404
1 3347 2449
1135 3232 2409
0 3264 271
209 3240 476
262 3227 600
255 3224 705
216 3227 810
163 3230 925
110 3233 1054
67 3234 1197
39 3234 1351
26 3232 1507
20 3226 1653
14 3217 1784
7 3207 1898
2 3197 1996
1 3190 2076
0 3188 2136
1 3196 2185
0 3214 2230
0 3242 2271
0 3279 2310
0 3324 2348
0 3374 2384
0 3426 2421
0 3472 2463
1418 3358 2381
0 3431 270
210 3409 477
263 3395 603
256 3392 709
217 3394 814
162 3397 929
108 3399 1057
64 3401 1200
35 3401 1355
22 3399 1512
16 3391 1659
10 3380 1792
3 3365 1909
0 3351 2009
0 3340 2092
0 3334 2155
0 3336 2205
0 3349 2251
0 3372 2293
0 3405 2333
0 3446 2370
0 3493 2406
1 3544 2442
0 3592 2481
1634 3470 2363
1 3598 270
208 3576 477
262 3563 603
255 3560 710
215 3561 816
160 3564 931
105 3567 1060
60 3569 1202
32 3570 1357
19 3567 1515
12 3558 1664
5 3543 1798
0 3526 1917
1 3508 2020
0 3492 2106
1 3480 2173
0 3477 2225
0 3485 2272
0 3503 2315
1 3531 2355
0 3567 2393
0 3611 2428
0 3659 2464
0 3708 2500
1844 3577 2352
0 3764 270
203 3744 474
256 3732 600
251 3729 708
213 3730 815
159 3733 931
104 3736 1060
59 3738 1203
30 3739 1358
17 3737 1517
9 3726 1666
0 3710 1801
0 3690 1922
1 3669 2027
0 3649 2116
0 3632 2186
0 3623 2241
0 3624 2290
2 3636 2335
1 3658 2377
1 3690 2415
0 3729 2451
0 3774 2486
0 3821 2522
2032 3686 2349
1 3930 270
191 3912 465
243 3902 590
243 3900 699
212 3902 808
164 3906 926
112 3909 1055
66 3911 1199
35 3912 1354
18 3910 1513
8 3901 1662
1 3886 1798
0 3866 1919
0 3843 2026
0 3819 2117
0 3798 2190
0 3782 2249
1 3775 2301
1 3780 2349
1 3794 2394
0 3819 2434
0 3851 2472
0 3891 2509
0 3935 2544
2188 3812 2358
0 4095 270
152 4084 435
198 4080 553
211 4081 665
204 4084 780
185 4089 901
158 4094 1031
127 4095 1169
98 4095 1313
73 4095 1459
52 4095 1599
28 4095 1728
1 4095 1842
552 3997 1870
1282 3897 1933
1794 3864 2001
2216 3877 2055
2537 3911 2099
2792 3951 2137
3000 3989 2173
3143 4016 2207
3263 4038 2240
3319 4046 2270
3232 4030 2300
0 4095 2601
204 0 243
200 0 346
211 0 458
214 0 587
210 0 726
206 3 874
206 7 1029
211 12 1184
220 19 1333
234 30 1472
251 42 1599
270 57 1714
293 74 1818
317 91 1908
343 109 1986
370 126 2053
395 142 2120
418 155 2186
438 165 2249
456 173 2314
470 179 2376
480 183 2439
482 183 2502
468 177 2566
399 149 2635
206 157 243
200 159 346
194 160 462
188 162 589
183 163 726
177 164 873
172 165 1030
170 164 1194
165 157 1355
154 145 1506
137 137 1647
128 128 1774
119 119 1887
109 109 1988
100 100 2075
90 90 2149
81 81 2212
72 72 2271
66 66 2330
61 61 2389
56 56 2447
52 52 2504
48 48 2561
46 46 2617
42 42 2648
229 323 249
195 335 343
191 336 459
185 337 585
180 336 722
178 336 870
175 336 1028
175 334 1193
177 329 1352
184 322 1499
193 316 1634
203 309 1756
214 303 1865
226 297 1961
238 292 2045
250 287 2116
261 283 2178
270 280 2240
277 277 2300
282 275 2361
284 272 2421
284 268 2480
281 262 2540
272 250 2600
239 215 2649
246 496 257
191 509 340
188 510 457
184 510 583
178 510 720
176 508 869
174 508 1028
176 504 1192
182 497 1350
195 488 1494
213 479 1625
232 471 1744
254 463 1850
276 457 1943
299 451 2025
320 447 2096
339 444 2161
354 442 2225
366 440 2288
374 439 2350
380 437 2411
382 432 2472
380 425 2531
372 410 2591
334 358 2646
258 670 266
184 684 336
185 685 454
181 684 581
177 683 719
174 681 867
172 680 1027
173 677 1193
178 668 1351
193 656 1496
215 643 1626
241 630 1742
270 619 1846
300 610 1937
330 603 2018
359 597 2087
383 594 2153
402 593 2218
417 593 2282
427 593 2344
434 591 2407
438 586 2468
437 576 2529
430 555 2589
396 485 2642
266 843 275
178 858 333
184 859 450
180 859 578
175 857 717
173 854 866
171 853 1026
171 851 1193
174 843 1353
182 828 1500
203 811 1632
232 794 1748
266 779 1851
301 766 1942
336 755 2020
370 748 2088
398 745 2154
419 745 2218
435 746 2282
447 747 2345
455 746 2408
460 741 2469
461 728 2530
459 699 2590
436 608 2638
272 1017 284
169 1032 328
182 1033 446
181 1033 574
175 1031 714
171 1028 865
170 1025 1025
170 1023 1193
169 1018 1354
171 1005 1504
185 986 1639
212 966 1758
245 946 1863
282 929 1953
320 915 2031
355 906 2098
385 902 2162
408 902 2226
425 905 2289
437 908 2351
445 909 2413
451 903 2474
456 888 2534
460 851 2596
458 732 2634
278 1190 293
161 1205 325
181 1206 441
182 1206 570
176 1205 711
172 1201 863
170 1197 1025
169 1196 1192
166 1193 1353
163 1183 1504
168 1166 1644
187 1145 1768
216 1123 1876
250 1102 1969
286 1086 2048
321 1075 2115
351 1070 2177
374 1072 2239
390 1077 2300
401 1082 2361
409 1084 2421
415 1079 2482
423 1060 2542
436 1013 2604
462 862 2631
284 1363 302
149 1378 320
182 1378 439
187 1379 568
178 1378 708
173 1374 862
170 1372 1025
167 1371 1189
163 1369 1350
157 1363 1501
152 1348 1643
164 1329 1772
185 1307 1886
213 1286 1983
244 1268 2066
275 1257 2135
302 1251 2195
323 1254 2254
337 1261 2313
345 1270 2372
351 1274 2430
356 1270 2490
366 1249 2550
388 1190 2613
448 1000 2630
290 1535 311
137 1551 316
188 1550 440
196 1550 570
188 1550 709
177 1548 861
171 1547 1023
165 1549 1185
159 1549 1342
152 1544 1494
141 1533 1636
145 1516 1770
158 1496 1888
178 1476 1991
201 1459 2078
226 1448 2150
248 1444 2209
264 1449 2267
274 1459 2323
279 1471 2380
281 1479 2436
283 1478 2495
292 1454 2556
320 1386 2621
416 1149 2630
296 1708 319
122 1724 313
193 1722 442
206 1722 573
199 1722 712
187 1721 862
177 1721 1021
169 1725 1180
156 1730 1334
144 1728 1482
133 1719 1625
131 1705 1760
136 1687 1882
148 1669 1990
163 1654 2081
180 1645 2155
195 1644 2215
206 1651 2270
211 1666 2325
211 1682 2379
208 1696 2435
206 1698 2492
211 1674 2555
238 1598 2624
367 1311 2631
