Toning/Toning-OrangeAndBlue-Toned.3dl
#25pt 3DLUT created by 3D LUT Creator Pro (c) Oleg Sharonov
#Copyright Oleg Sharonov
#IMAGEPROFILE sRGB IEC61966-2.1 v.2.10
#INPUTGAMMA sRGB IEC61966-2.1 v.2.10
#OUTPUTGAMMA sRGB IEC61966-2.1 v.2.10
0 43 86 128 171 214 256 299 341 384 427 469 512 555 597 640 682 725 768 810 853 896 938 981 1023 
0 0 0
10 29 58
29 71 139
55 132 250
78 217 367
132 304 464
189 383 563
228 458 671
273 538 784
330 627 901
401 719 1022
478 813 1144
562 910 1264
649 1008 1380
742 1106 1490
840 1203 1593
940 1301 1693
1043 1396 1787
1146 1488 1876
1248 1579 1961
1345 1667 2041
1441 1752 2119
1537 1835 2194
1631 1915 2267
1722 1993 2339
78 94 71
16 142 189
3 168 334
13 217 434
52 280 525
100 352 611
136 422 705
174 496 807
222 578 914
284 664 1022
352 753 1134
430 844 1248
513 938 1360
603 1033 1469
698 1129 1570
798 1225 1667
901 1321 1760
1006 1415 1848
1112 1506 1933
1217 1595 2013
1318 1682 2089
1416 1767 2163
1514 1849 2235
1610 1928 2305
1703 2005 2374
183 217 165
161 250 233
36 299 377
13 324 531
16 360 666
68 417 748
100 484 838
139 554 933
189 632 1032
250 713 1132
322 798 1237
399 885 1344
484 976 1449
573 1068 1549
670 1162 1644
772 1255 1735
877 1349 1823
984 1441 1906
1093 1530 1985
1200 1618 2061
1304 1703 2134
1403 1787 2204
1502 1867 2273
1599 1945 2341
1694 2021 2408
297 351 287
289 367 343
214 416 409
32 467 583
13 489 742
19 516 903
58 569 1002
97 634 1087
142 705 1175
206 781 1268
280 860 1365
358 944 1463
446 1030 1560
540 1119 1650
639 1209 1737
743 1300 1822
851 1391 1903
961 1480 1979
1072 1566 2053
1182 1652 2124
1288 1735 2192
1390 1816 2259
1491 1895 2324
1589 1972 2389
1685 2046 2452
383 478 386
377 493 436
349 523 497
212 590 614
45 637 788
39 659 953
36 687 1118
42 727 1254
81 793 1336
139 863 1423
217 938 1512
304 1017 1601
396 1099 1687
494 1184 1769
599 1271 1847
707 1359 1924
819 1446 1997
933 1531 2067
1048 1614 2134
1162 1697 2200
1272 1778 2263
1377 1856 2325
1479 1933 2386
1580 2007 2447
1678 2080 2508
475 620 482
474 630 538
465 650 600
431 694 658
243 765 823
78 812 1003
65 835 1168
52 865 1329
32 899 1489
58 958 1589
126 1028 1670
225 1102 1750
326 1182 1825
434 1262 1897
546 1345 1969
661 1429 2037
779 1512 2103
899 1593 2166
1020 1673 2228
1138 1753 2287
1253 1830 2345
1362 1906 2402
1468 1980 2459
1570 2052 2516
1671 2122 2573
582 763 601
583 771 650
579 785 705
560 815 775
503 874 834
278 946 1041
107 994 1219
87 1019 1383
61 1048 1546
32 1083 1703
26 1129 1834
110 1200 1903
230 1274 1970
354 1351 2036
477 1430 2099
601 1510 2159
728 1589 2218
856 1666 2274
983 1742 2329
1108 1818 2383
1229 1892 2436
1344 1965 2488
1454 2035 2541
1559 2104 2594
1662 2172 2647
695 908 720
696 915 763
696 926 816
686 948 884
659 988 956
527 1067 1061
316 1132 1263
136 1180 1438
100 1207 1601
68 1238 1758
39 1273 1905
10 1314 2040
84 1377 2119
235 1450 2178
383 1525 2233
522 1600 2287
662 1674 2338
802 1748 2388
937 1820 2438
1069 1893 2486
1197 1963 2534
1320 2032 2582
1436 2099 2631
1545 2165 2679
1652 2230 2729
815 1054 847
817 1060 885
820 1068 933
815 1087 997
802 1117 1073
767 1169 1138
570 1257 1293
354 1322 1483
155 1372 1655
116 1400 1812
81 1431 1957
52 1467 2091
32 1508 2217
61 1557 2319
248 1628 2368
419 1698 2416
578 1768 2462
730 1837 2507
877 1906 2551
1020 1974 2595
1156 2041 2638
1288 2106 2683
1411 2170 2727
1527 2233 2772
1638 2295 2817
946 1203 979
948 1208 1013
953 1215 1057
952 1230 1117
944 1254 1189
925 1293 1264
876 1359 1321
623 1451 1516
396 1516 1701
183 1567 1866
145 1594 2010
113 1625 2143
90 1662 2268
84 1701 2383
97 1743 2487
273 1802 2546
465 1868 2588
637 1933 2628
800 1999 2668
955 2063 2707
1103 2126 2748
1245 2187 2788
1379 2248 2829
1502 2307 2870
1618 2366 2912
1085 1353 1113
1088 1358 1144
1091 1364 1183
1094 1375 1238
1091 1396 1304
1079 1429 1378
1052 1478 1448
975 1556 1515
683 1645 1738
443 1710 1913
233 1759 2063
201 1787 2197
177 1819 2320
174 1853 2434
186 1889 2538
220 1928 2635
310 1973 2713
518 2036 2750
702 2097 2787
874 2157 2823
1036 2216 2860
1190 2274 2897
1335 2331 2935
1468 2387 2973
1592 2443 3012
1230 1505 1249
1232 1509 1275
1237 1515 1310
1242 1525 1359
1241 1543 1420
1234 1570 1491
1218 1608 1565
1185 1668 1626
1007 1762 1752
752 1837 1952
506 1900 2111
304 1948 2251
284 1975 2374
278 2005 2487
289 2037 2591
314 2072 2686
354 2109 2776
408 2148 2859
577 2200 2907
771 2256 2941
950 2312 2975
1119 2366 3009
1277 2420 3044
1424 2472 3080
1558 2524 3116
1379 1659 1383
1383 1662 1406
1386 1668 1436
1392 1677 1482
1394 1692 1538
1391 1714 1606
1383 1746 1681
1362 1791 1753
1319 1858 1809
1072 1956 1978
833 2024 2152
582 2086 2302
394 2131 2430
386 2158 2542
391 2186 2645
411 2217 2741
445 2250 2829
489 2284 2913
546 2320 2992
640 2359 3060
842 2411 3091
1029 2462 3124
1202 2512 3157
1364 2562 3190
1511 2611 3224
1534 1812 1516
1536 1816 1538
1541 1820 1566
1545 1828 1607
1551 1840 1661
1550 1859 1725
1546 1886 1796
1533 1923 1870
1509 1973 1937
1452 2046 1994
1159 2141 2184
926 2207 2345
671 2267 2482
503 2309 2599
504 2334 2702
517 2361 2797
543 2390 2885
580 2420 2969
629 2452 3048
687 2485 3124
753 2519 3196
917 2562 3240
1109 2609 3271
1286 2655 3302
1450 2701 3334
1690 1964 1653
1693 1967 1673
1697 1971 1699
1701 1978 1736
1708 1988 1787
1710 2004 1846
1708 2027 1913
1702 2058 1984
1687 2098 2052
1660 2154 2107
1574 2230 2180
1257 2320 2382
1028 2383 2527
775 2441 2653
626 2480 2760
632 2503 2855
651 2528 2943
682 2555 3027
723 2583 3106
773 2613 3182
831 2643 3254
898 2675 3325
992 2709 3387
1189 2752 3417
1369 2795 3447
1849 2114 1792
1851 2117 1809
1854 2121 1833
1859 2127 1868
1866 2135 1914
1870 2148 1969
1871 2168 2030
1868 2193 2096
1859 2227 2163
1842 2271 2226
1811 2331 2274
1623 2420 2398
1366 2492 2567
1141 2551 2699
890 2607 2815
758 2643 2915
770 2665 3003
792 2689 3086
825 2715 3165
868 2741 3241
919 2769 3313
978 2797 3384
1043 2825 3453
1114 2855 3520
1268 2892 3562
2007 2262 1931
2009 2264 1948
2012 2267 1969
2017 2273 2001
2023 2280 2042
2029 2290 2091
2030 2307 2148
2029 2329 2209
2025 2357 2273
2014 2393 2338
1995 2440 2395
1955 2503 2444
1711 2593 2596
1483 2657 2741
1262 2713 2862
1013 2767 2971
896 2801 3064
912 2823 3147
937 2845 3226
972 2869 3301
1015 2893 3374
1066 2919 3445
1125 2945 3514
1189 2972 3581
1257 3000 3647
2161 2405 2071
2163 2408 2085
2166 2411 2104
2170 2415 2132
2175 2422 2169
2182 2430 2214
2184 2445 2266
2185 2463 2323
2183 2487 2385
2177 2518 2447
2165 2556 2507
2144 2606 2555
2089 2669 2611
1817 2756 2776
1604 2815 2906
1387 2869 3018
1142 2922 3120
1039 2953 3208
1057 2974 3287
1084 2995 3363
1119 3017 3435
1164 3040 3506
1215 3064 3575
1272 3088 3643
1334 3114 3709
2312 2547 2208
2314 2548 2221
2316 2551 2238
2319 2555 2263
2324 2561 2296
2331 2568 2337
2335 2580 2385
2337 2596 2439
2338 2617 2496
2335 2643 2556
2328 2674 2614
2315 2714 2667
2293 2766 2707
2210 2831 2778
1930 2912 2943
1730 2968 3062
1517 3021 3168
1276 3071 3265
1186 3101 3349
1206 3120 3425
1234 3140 3498
1271 3160 3569
1314 3182 3639
1364 3205 3706
1418 3229 3772
2461 2684 2344
2463 2686 2355
2465 2688 2370
2469 2692 2393
2473 2697 2424
2480 2704 2462
2486 2713 2506
2489 2727 2556
2490 2745 2608
2490 2767 2664
2486 2794 2719
2478 2827 2773
2464 2869 2820
2435 2922 2859
2267 2999 2964
2046 3063 3102
1857 3117 3213
1650 3166 3313
1413 3215 3408
1336 3243 3489
1355 3261 3562
1383 3280 3633
1420 3300 3702
1462 3322 3769
1509 3344 3835
2609 2818 2479
2611 2820 2490
2613 2822 2504
2616 2825 2525
2620 2830 2552
2626 2836 2586
2633 2844 2627
2637 2855 2671
2639 2871 2720
2640 2890 2771
2638 2913 2824
2634 2942 2875
2624 2977 2924
2609 3020 2963
2571 3073 3007
2357 3153 3134
2164 3209 3255
1983 3259 3360
1783 3307 3457
1551 3355 3548
1484 3381 3626
1504 3399 3697
1533 3418 3766
1567 3438 3833
1608 3459 3899
2754 2949 2613
2756 2951 2623
2758 2953 2635
2760 2955 2654
2764 2960 2678
2769 2965 2709
2776 2972 2746
2781 2982 2787
2784 2995 2831
2786 3012 2879
2786 3033 2928
2784 3057 2977
2778 3087 3025
2767 3123 3068
2750 3169 3101
2698 3222 3153
2461 3298 3292
2284 3350 3404
2108 3398 3503
1915 3446 3597
1688 3493 3686
1632 3518 3761
1652 3536 3830
1679 3554 3897
1714 3573 3964
2897 3077 2744
2898 3079 2752
2899 3081 2763
2902 3083 2780
2906 3087 2802
2910 3092 2830
2916 3099 2862
2922 3107 2900
2925 3119 2941
2928 3133 2985
2929 3151 3031
2929 3173 3077
2925 3199 3124
2919 3230 3168
2907 3267 3207
2886 3312 3240
2812 3367 3302
2570 3438 3445
2404 3488 3548
2232 3535 3643
2045 3582 3733
1824 3629 3821
1778 3652 3894
1798 3670 3962
1826 3687 4028
3036 3203 2872
3037 3205 2879
3038 3206 2889
3041 3209 2903
3044 3212 2923
3048 3217 2948
3054 3223 2978
3060 3230 3012
3064 3240 3050
3067 3253 3091
3069 3269 3134
3070 3288 3177
3068 3311 3222
3064 3337 3266
3056 3368 3307
3043 3406 3341
3015 3452 3377
2867 3519 3471
2679 3576 3591
2522 3624 3689
2356 3670 3781
2171 3716 3869
1957 3763 3954
1922 3785 4026
1945 3802 4078
3173 3327 2997
3174 3328 3003
3175 3330 3012
3177 3332 3025
3180 3335 3043
3184 3339 3065
3189 3345 3092
3195 3351 3123
3200 3360 3158
3203 3372 3196
3206 3385 3236
3207 3402 3277
3207 3421 3320
3205 3444 3363
3200 3471 3404
3191 3504 3442
3177 3544 3471
3139 3590 3514
2951 3661 3626
2789 3713 3734
2639 3759 3828
2479 3804 3916
2298 3849 4002
2090 3894 4087
2067 3916 4095
183 0 0
52 78 87
74 123 139
97 189 233
123 262 347
180 339 443
233 409 545
269 482 653
316 563 767
372 650 888
442 740 1008
518 832 1129
599 927 1250
685 1023 1367
777 1120 1477
872 1216 1581
970 1312 1682
1071 1406 1777
1171 1498 1867
1271 1588 1952
1367 1675 2034
1461 1759 2112
1556 1842 2188
1648 1921 2261
1739 1999 2333
149 155 16
123 168 174
139 206 243
152 257 332
177 320 425
222 384 517
255 451 617
293 525 725
339 604 838
394 688 953
460 774 1069
532 864 1185
610 955 1301
695 1050 1414
784 1144 1520
879 1238 1621
976 1332 1718
1076 1425 1810
1177 1515 1898
1275 1603 1981
1371 1690 2060
1465 1774 2136
1560 1855 2210
1652 1934 2283
1742 2010 2353
217 257 171
217 273 255
139 318 367
123 341 520
142 388 610
168 445 697
203 508 792
240 578 891
284 653 992
339 732 1096
404 815 1203
477 901 1312
556 990 1418
641 1081 1522
733 1174 1618
830 1266 1712
930 1359 1802
1033 1449 1887
1137 1538 1968
1241 1625 2045
1339 1710 2119
1436 1793 2191
1533 1873 2261
1627 1951 2330
1719 2026 2397
314 381 291
316 391 351
293 420 411
136 481 571
123 501 733
126 533 878
155 591 964
195 653 1054
240 723 1144
295 798 1240
362 876 1339
434 958 1439
516 1043 1537
603 1131 1629
696 1220 1718
796 1310 1804
899 1400 1887
1006 1488 1965
1113 1573 2040
1219 1658 2112
1320 1741 2181
1420 1822 2249
1518 1900 2315
1615 1977 2381
1709 2051 2445
393 506 383
394 518 440
386 538 510
293 599 601
149 647 782
132 670 946
119 696 1112
132 744 1227
177 809 1310
238 878 1399
306 952 1490
383 1030 1581
467 1111 1668
558 1195 1751
656 1280 1831
759 1368 1909
866 1454 1984
977 1538 2055
1088 1621 2124
1197 1703 2190
1304 1783 2254
1406 1861 2317
1505 1938 2379
1604 2011 2441
1700 2084 2502
490 643 485
492 652 542
492 665 607
467 701 679
312 773 815
161 821 997
142 845 1164
126 874 1325
103 907 1485
158 971 1568
233 1041 1652
314 1115 1732
404 1192 1809
503 1272 1882
605 1354 1956
714 1437 2025
827 1519 2092
943 1600 2156
1058 1679 2218
1173 1758 2279
1285 1835 2337
1390 1911 2395
1493 1984 2453
1593 2056 2510
1692 2126 2568
595 782 602
599 788 651
601 800 710
587 825 784
545 878 845
337 953 1036
180 1001 1217
158 1026 1381
132 1056 1543
107 1091 1700
126 1142 1817
217 1211 1888
320 1285 1956
428 1360 2023
541 1439 2087
657 1518 2149
779 1595 2208
902 1672 2265
1023 1748 2321
1143 1823 2376
1260 1897 2429
1372 1969 2482
1479 2040 2535
1582 2108 2589
1683 2176 2643
707 924 724
710 931 766
713 940 819
708 959 890
686 995 967
607 1064 1041
372 1137 1259
203 1187 1436
174 1214 1598
145 1244 1755
119 1279 1902
97 1319 2038
201 1386 2106
328 1459 2166
455 1533 2223
584 1607 2277
716 1681 2329
848 1753 2381
979 1825 2430
1106 1897 2480
1230 1967 2528
1349 2036 2577
1461 2103 2626
1568 2169 2675
1673 2233 2725
827 1068 849
830 1074 886
834 1082 935
834 1097 1002
823 1125 1079
793 1173 1151
620 1260 1286
408 1327 1480
225 1378 1653
192 1406 1810
161 1437 1954
139 1472 2089
123 1513 2215
183 1565 2309
339 1634 2359
490 1704 2408
636 1773 2454
781 1842 2500
921 1911 2544
1058 1979 2589
1191 2045 2633
1318 2110 2678
1438 2174 2722
1550 2236 2768
1659 2298 2814
958 1215 981
961 1220 1015
965 1227 1059
969 1239 1120
963 1262 1194
946 1299 1271
904 1362 1328
668 1454 1512
448 1521 1698
255 1571 1864
225 1599 2008
201 1630 2141
183 1667 2266
183 1705 2381
198 1747 2486
365 1808 2539
535 1873 2581
695 1938 2622
849 2003 2662
997 2067 2702
1141 2129 2742
1277 2191 2783
1407 2251 2825
1526 2310 2866
1640 2369 2908
1097 1364 1117
1099 1368 1147
1103 1375 1185
1109 1385 1241
1107 1404 1309
1097 1435 1382
1073 1482 1456
1008 1556 1518
725 1648 1734
494 1714 1910
302 1763 2061
276 1791 2195
260 1823 2319
260 1856 2432
273 1893 2536
306 1931 2633
399 1979 2707
584 2040 2745
756 2101 2782
919 2161 2818
1076 2220 2855
1224 2277 2893
1364 2334 2931
1494 2390 2969
1615 2445 3009
