Toning/Toning-Contrast film emulation.3dl
#25pt 3DLUT created by 3D LUT Creator Pro (c) Oleg Sharonov
#Copyright Oleg Sharonov
#INPUTGAMMA sRGB
#IMAGEPROFILE sRGB
#OUTPUTGAMMA sRGB
0 43 86 128 171 214 256 299 341 384 427 469 512 555 597 640 682 725 768 810 853 896 938 981 1023 
0 0 0
0 0 78
0 0 159
0 0 243
0 0 330
0 0 421
0 0 518
0 0 619
0 0 728
0 0 847
0 0 974
0 0 1111
0 0 1258
0 0 1411
0 0 1572
0 0 1734
0 0 1897
0 0 2063
0 0 2225
0 0 2381
0 0 2530
0 0 2673
711 674 2709
1048 1029 2748
1315 1311 2814
0 66 0
0 63 71
0 36 155
0 0 243
0 0 330
0 0 421
0 0 518
0 0 619
0 0 728
0 0 847
0 0 974
0 0 1111
0 0 1258
0 0 1411
0 0 1572
0 0 1734
0 0 1897
0 0 2063
0 0 2225
0 0 2381
0 0 2530
0 0 2673
711 674 2709
1048 1029 2748
1315 1311 2814
0 132 0
0 131 73
0 129 146
0 103 220
0 49 334
0 0 421
0 0 518
0 0 619
0 0 728
0 0 847
0 0 974
0 0 1111
0 0 1258
0 0 1411
0 0 1572
0 0 1734
0 0 1897
0 0 2063
0 0 2225
0 0 2381
0 0 2530
0 0 2673
711 674 2709
1048 1029 2748
1315 1311 2814
0 201 0
0 202 78
0 202 149
0 200 225
0 177 304
0 133 400
0 52 524
0 0 619
0 0 728
0 0 847
0 0 974
0 0 1111
0 0 1258
0 0 1411
0 0 1572
0 0 1734
0 0 1897
0 0 2063
0 0 2225
0 0 2381
0 0 2530
0 0 2673
711 674 2709
1048 1029 2748
1315 1311 2814
0 273 0
0 275 81
0 276 152
0 277 230
0 276 312
0 254 394
0 216 478
0 156 610
0 38 733
0 0 847
0 0 974
0 0 1111
0 0 1258
0 0 1411
0 0 1572
0 0 1734
0 0 1897
0 0 2063
0 0 2225
0 0 2381
0 0 2530
0 0 2673
711 674 2709
1048 1029 2748
1315 1311 2814
0 349 0
0 352 85
0 354 162
0 356 235
0 358 319
0 358 405
0 337 494
0 301 582
0 247 704
0 165 865
0 0 974
0 0 1111
0 0 1258
0 0 1411
0 0 1572
0 0 1734
0 0 1897
0 0 2063
0 0 2225
0 0 2381
0 0 2530
0 0 2673
711 674 2709
1048 1029 2748
1315 1311 2814
0 428 0
0 432 86
0 436 169
0 438 242
0 442 326
0 444 414
0 445 506
0 424 604
0 388 706
0 337 824
0 265 986
0 172 1150
0 0 1258
0 0 1411
0 0 1572
0 0 1734
0 0 1897
0 0 2063
0 0 2225
0 0 2381
0 0 2530
0 0 2673
711 674 2709
1048 1029 2748
1315 1311 2814
0 511 0
0 514 86
0 520 173
0 524 254
0 529 331
0 534 421
0 540 516
0 543 622
0 524 732
0 492 846
0 446 959
0 384 1120
0 304 1296
0 180 1456
0 0 1572
0 0 1734
0 0 1897
0 0 2063
0 0 2225
0 0 2381
0 0 2530
0 0 2673
711 674 2709
1048 1029 2748
1315 1311 2814
0 602 0
0 607 87
0 613 178
0 620 261
0 628 341
0 636 425
0 646 528
0 653 639
0 660 760
0 644 880
0 613 1001
0 571 1122
0 516 1270
0 441 1454
0 348 1641
0 169 1781
0 0 1897
0 0 2063
0 0 2225
0 0 2381
0 0 2530
0 0 2673
711 674 2709
1048 1029 2748
1315 1311 2814
0 702 0
0 706 84
0 714 181
0 724 265
0 735 349
0 745 434
0 756 540
0 769 658
0 780 783
0 791 914
0 777 1044
0 748 1173
0 709 1304
0 659 1434
0 592 1617
0 505 1807
0 386 2002
0 119 2097
0 0 2225
0 0 2381
0 0 2530
0 0 2673
711 674 2709
1048 1029 2748
1315 1311 2814
0 810 0
0 815 79
0 823 180
0 835 274
0 849 361
0 861 456
0 875 559
0 890 680
0 907 811
0 920 946
0 935 1088
0 924 1226
0 895 1361
0 860 1496
0 814 1632
0 753 1789
0 672 1977
0 571 2166
0 416 2365
0 0 2381
0 0 2530
0 0 2673
711 674 2709
1048 1029 2748
1315 1311 2814
0 926 0
0 932 75
0 942 187
0 954 290
0 971 384
0 986 481
0 1002 586
0 1018 706
0 1037 840
0 1055 980
0 1073 1127
0 1090 1276
0 1080 1421
0 1054 1561
0 1022 1701
0 978 1838
0 923 1969
0 852 2143
0 759 2331
0 633 2517
0 436 2683
0 0 2673
711 674 2709
1048 1029 2748
1315 1311 2814
0 1051 0
0 1057 70
0 1068 195
0 1083 308
0 1100 408
0 1121 508
0 1137 620
0 1155 735
0 1175 874
0 1196 1018
0 1215 1167
0 1237 1322
0 1254 1476
0 1248 1625
0 1223 1769
0 1190 1910
0 1151 2047
0 1100 2177
0 1036 2309
0 955 2483
0 850 2660
0 694 2837
730 819 2728
1048 1029 2748
1315 1311 2814
0 1182 0
0 1187 64
0 1201 205
0 1217 325
0 1236 435
0 1257 541
0 1278 656
0 1296 773
0 1316 909
0 1337 1057
0 1358 1210
0 1380 1366
0 1401 1523
0 1422 1682
0 1418 1834
0 1395 1980
0 1366 2123
0 1331 2257
0 1285 2383
0 1226 2499
0 1153 2624
0 1066 2784
809 1216 2784
1118 1295 2807
1335 1370 2830
0 1313 0
0 1319 56
0 1335 215
0 1353 343
0 1373 462
0 1395 576
0 1418 692
0 1438 819
0 1457 946
0 1481 1099
0 1502 1253
0 1524 1413
0 1547 1572
0 1568 1732
0 1591 1895
0 1588 2047
0 1566 2190
0 1541 2328
0 1509 2456
0 1469 2576
0 1419 2685
0 1357 2786
887 1539 2838
1217 1615 2881
1448 1680 2915
0 1447 0
0 1452 48
0 1471 227
0 1491 363
0 1512 491
0 1534 612
0 1559 732
0 1579 863
0 1599 992
0 1622 1141
0 1646 1300
0 1668 1460
0 1690 1621
0 1711 1782
0 1734 1945
0 1756 2106
0 1755 2255
0 1737 2393
0 1714 2523
0 1686 2644
0 1649 2752
0 1607 2855
956 1816 2891
1314 1898 2955
1561 1963 3001
0 1582 0
0 1586 41
0 1608 239
0 1628 383
0 1651 521
0 1674 650
0 1698 775
0 1722 910
0 1741 1044
0 1763 1187
0 1787 1348
0 1809 1510
0 1832 1675
0 1853 1836
0 1875 2000
0 1896 2159
0 1915 2313
0 1917 2456
0 1901 2583
0 1880 2703
0 1854 2809
0 1823 2914
1023 2065 2977
1416 2150 3029
1680 2217 3085
0 1715 0
0 1719 42
0 1743 253
0 1766 407
0 1789 555
0 1812 691
0 1837 821
0 1862 960
0 1882 1098
0 1902 1235
0 1924 1398
0 1945 1561
0 1968 1726
0 1989 1890
0 2009 2054
0 2028 2211
0 2046 2362
0 2065 2508
0 2068 2639
0 2052 2756
0 2033 2863
0 2011 2969
1096 2284 3056
1525 2383 3120
1801 2446 3166
0 1844 0
0 1851 54
0 1876 268
0 1899 430
0 1924 588
0 1947 730
0 1973 868
0 1997 1010
0 2018 1155
0 2036 1294
0 2057 1450
0 2077 1614
0 2098 1781
0 2119 1946
0 2137 2107
0 2154 2264
0 2169 2411
0 2187 2555
0 2203 2687
0 2204 2805
0 2187 2912
368 2276 3020
1213 2490 3133
1650 2588 3206
1930 2647 3255
0 1969 0
0 1978 74
0 2004 286
0 2029 456
0 2054 620
0 2077 770
0 2103 912
0 2126 1063
0 2145 1212
0 2163 1354
0 2183 1504
0 2201 1669
0 2220 1837
0 2239 2002
0 2255 2161
0 2270 2316
0 2282 2460
0 2298 2601
0 2311 2727
0 2325 2848
652 2513 2973
903 2573 3097
1356 2680 3212
1788 2771 3282
2065 2828 3335
0 2088 0
0 2100 99
0 2126 306
0 2152 481
0 2178 653
0 2201 811
0 2226 963
0 2248 1119
0 2266 1271
0 2282 1418
0 2299 1561
0 2317 1728
0 2332 1895
0 2348 2059
0 2363 2217
0 2375 2366
0 2388 2508
0 2402 2642
284 2498 2765
785 2655 2909
1059 2747 3047
1240 2801 3170
1490 2857 3282
1925 2949 3362
2202 3002 3416
943 2404 652
940 2406 666
937 2413 714
934 2426 793
933 2442 894
928 2459 1009
929 2481 1135
928 2505 1269
926 2531 1407
917 2553 1547
903 2572 1684
886 2594 1824
856 2616 1976
815 2633 2132
759 2644 2284
692 2652 2428
628 2658 2564
619 2676 2695
924 2776 2838
1143 2855 2977
1326 2921 3108
1490 2987 3238
1617 3028 3354
2056 3115 3436
2334 3163 3491
1474 2583 1061
1473 2584 1067
1473 2589 1093
1474 2598 1138
1473 2612 1205
1474 2630 1289
1479 2651 1385
1485 2675 1494
1491 2700 1612
1495 2724 1732
1500 2754 1862
1505 2783 1993
1515 2816 2128
1520 2847 2270
1527 2881 2413
1542 2918 2553
1568 2954 2685
1606 2992 2809
1645 3031 2933
1680 3071 3056
1710 3110 3178
1732 3146 3299
1810 3189 3417
2181 3271 3509
2463 3315 3565
1802 2721 1351
1802 2722 1356
1802 2727 1376
1805 2736 1411
1809 2748 1463
1814 2764 1531
1822 2784 1611
1830 2805 1703
1837 2827 1803
1847 2856 1914
1860 2886 2032
1878 2920 2154
1899 2956 2279
1922 2993 2405
1945 3032 2536
1975 3071 2663
2013 3111 2783
2057 3151 2898
2102 3193 3016
2147 3236 3134
2190 3278 3247
2229 3319 3359
2267 3359 3469
2311 3400 3574
2601 3459 3639
1864 2749 1410
1864 2751 1415
1866 2755 1434
1870 2764 1470
1876 2777 1521
1885 2794 1588
1898 2815 1668
1912 2838 1759
1925 2865 1861
1942 2895 1972
1962 2928 2090
1989 2966 2212
2020 3005 2336
2052 3045 2462
2088 3087 2588
2132 3131 2713
2186 3176 2832
2242 3221 2946
2302 3268 3062
2365 3316 3177
2428 3364 3290
2491 3413 3399
2554 3461 3503
2620 3508 3603
2729 3568 3697
80 0 0
64 0 71
4 0 159
0 0 243
0 0 330
0 0 421
0 0 518
0 0 619
0 0 728
0 0 847
0 0 974
0 0 1111
0 0 1258
0 0 1411
0 0 1572
0 0 1734
0 0 1897
0 0 2063
0 0 2225
0 0 2381
0 0 2530
0 0 2673
711 674 2709
1048 1029 2748
1315 1311 2814
80 65 0
59 61 58
0 34 156
0 0 243
0 0 330
0 0 421
0 0 518
0 0 619
0 0 728
0 0 847
0 0 974
0 0 1111
0 0 1258
0 0 1411
0 0 1572
0 0 1734
0 0 1897
0 0 2063
0 0 2225
0 0 2381
0 0 2530
0 0 2673
711 674 2709
1048 1029 2748
1315 1311 2814
83 129 0
65 130 64
0 129 146
0 102 220
0 47 334
0 0 421
0 0 518
0 0 619
0 0 728
0 0 847
0 0 974
0 0 1111
0 0 1258
0 0 1411
0 0 1572
0 0 1734
0 0 1897
0 0 2063
0 0 2225
0 0 2381
0 0 2530
0 0 2673
711 674 2709
1048 1029 2748
1315 1311 2814
88 201 0
66 204 65
0 202 149
0 200 225
0 176 304
0 133 400
0 51 523
0 0 619
0 0 728
0 0 847
0 0 974
0 0 1111
0 0 1258
0 0 1411
0 0 1572
0 0 1734
0 0 1897
0 0 2063
0 0 2225
0 0 2381
0 0 2530
0 0 2673
711 674 2709
1048 1029 2748
1315 1311 2814
93 278 0
51 283 50
0 276 152
0 277 230
0 276 312
0 253 394
0 215 478
0 155 610
0 36 732
0 0 847
0 0 974
0 0 1111
0 0 1258
0 0 1411
0 0 1572
0 0 1734
0 0 1897
0 0 2063
0 0 2225
0 0 2381
0 0 2530
0 0 2673
711 674 2709
1048 1029 2748
1315 1311 2814
97 359 0
0 357 0
0 354 161
0 356 235
0 358 319
0 358 405
0 337 494
0 300 582
0 247 704
0 165 866
0 0 974
0 0 1111
0 0 1258
0 0 1411
0 0 1572
0 0 1734
0 0 1897
0 0 2063
0 0 2225
0 0 2381
0 0 2530
0 0 2673
711 674 2709
1048 1029 2748
1315 1311 2814
98 440 0
0 435 0
0 436 169
0 438 242
0 441 326
0 444 414
0 445 506
0 424 604
0 387 706
0 336 824
0 264 986
0 171 1150
0 0 1258
0 0 1411
0 0 1572
0 0 1734
0 0 1897
0 0 2063
0 0 2225
0 0 2381
0 0 2530
0 0 2673
711 674 2709
1048 1029 2748
1315 1311 2814
96 525 0
0 517 0
0 520 173
0 524 254
0 529 331
0 534 421
0 540 516
0 543 622
0 524 732
0 492 846
0 445 959
0 384 1120
0 304 1296
0 179 1455
0 0 1572
0 0 1734
0 0 1897
0 0 2063
0 0 2225
0 0 2381
0 0 2530
0 0 2673
711 674 2709
1048 1029 2748
1315 1311 2814
79 616 0
0 607 0
0 613 178
0 620 261
0 628 341
0 635 425
0 646 528
0 653 639
0 660 760
0 644 880
0 613 1001
0 571 1122
0 515 1270
0 440 1454
0 348 1641
0 168 1780
0 0 1897
0 0 2063
0 0 2225
0 0 2381
0 0 2530
0 0 2673
711 674 2709
1048 1029 2748
1315 1311 2814
0 707 0
0 706 0
0 715 180
0 724 265
0 735 349
0 744 434
0 756 540
0 769 658
0 780 783
0 791 914
0 777 1044
0 747 1173
0 709 1304
0 659 1434
0 591 1617
0 504 1807
0 385 2003
0 117 2097
0 0 2225
0 0 2381
0 0 2530
0 0 2673
711 674 2709
1048 1029 2748
1315 1311 2814
0 815 0
0 814 0
0 823 178
0 835 274
0 849 361
0 861 456
0 875 559
0 890 680
0 906 811
0 920 946
0 935 1088
0 924 1226
0 895 1361
0 859 1496
0 814 1631
0 753 1789
0 672 1977
0 570 2166
0 416 2364
0 0 2381
0 0 2530
0 0 2673
711 674 2709
1048 1029 2748
1315 1311 2814
