Toning/Toning-Sunny.3dl
#25pt 3DLUT created by 3D LUT Creator Pro (c) Oleg Sharonov
#Copyright Oleg Sharonov
#IMAGEPROFILE sRGB
#INPUTGAMMA sRGB
#OUTPUTGAMMA sRGB
0 43 86 128 171 214 256 299 341 384 427 469 512 555 597 640 682 725 768 810 853 896 938 981 1023 
171 0 0
183 0 0
199 0 0
201 0 127
202 0 287
204 0 438
206 0 595
207 0 752
209 0 902
210 0 1053
212 0 1202
214 0 1350
215 2 1490
217 7 1624
219 15 1751
222 31 1873
224 50 1987
227 72 2093
231 101 2187
235 134 2273
239 171 2346
243 209 2412
246 244 2467
249 273 2509
251 294 2539
188 141 0
201 148 0
213 150 0
215 148 144
217 150 301
218 151 455
220 153 611
221 154 763
223 156 919
225 157 1070
226 159 1219
228 164 1362
229 165 1502
232 174 1636
233 182 1763
236 194 1882
238 211 1995
241 234 2099
244 255 2193
247 281 2277
250 307 2352
253 332 2414
256 356 2467
258 376 2510
259 391 2541
204 327 0
219 344 0
230 342 28
231 332 178
232 325 326
233 324 477
235 323 629
236 322 781
237 324 933
239 323 1080
240 324 1230
242 328 1373
243 330 1510
245 333 1644
247 339 1770
249 347 1889
251 359 2000
253 373 2104
255 389 2196
258 406 2279
260 422 2351
262 440 2414
264 457 2467
266 470 2508
267 479 2538
220 518 0
235 533 15
248 545 57
248 527 212
248 513 360
249 505 509
250 501 659
251 497 807
252 495 953
253 494 1098
255 493 1241
256 493 1382
258 495 1521
259 498 1653
261 500 1777
262 505 1894
264 513 2004
266 522 2105
267 530 2197
269 541 2278
271 552 2350
272 563 2411
274 572 2463
275 579 2503
275 582 2534
236 708 12
251 724 30
264 736 75
265 729 242
265 712 395
265 697 544
266 688 693
267 680 839
267 674 982
268 670 1125
269 666 1265
271 664 1400
272 663 1532
273 661 1658
274 663 1781
276 665 1896
277 669 2004
278 674 2103
280 678 2193
281 684 2273
282 690 2344
283 694 2405
284 698 2456
285 697 2496
285 694 2526
253 899 27
268 914 45
280 927 91
282 929 266
282 913 427
282 896 579
282 881 729
283 869 874
283 859 1016
284 851 1155
285 845 1293
286 841 1426
287 836 1554
287 833 1677
288 831 1794
289 828 1902
290 827 2004
291 827 2099
292 828 2187
293 830 2267
294 831 2337
295 831 2397
295 828 2447
295 823 2486
295 813 2516
269 1089 42
284 1105 60
296 1117 107
298 1118 281
300 1115 454
300 1098 614
300 1080 764
300 1064 911
300 1050 1053
300 1040 1191
301 1030 1325
301 1021 1454
302 1014 1578
303 1009 1699
303 1003 1813
304 999 1919
305 994 2018
305 989 2108
306 984 2190
306 979 2263
306 973 2327
306 967 2385
306 960 2434
306 948 2473
305 935 2502
285 1279 57
300 1294 74
313 1307 123
314 1308 297
316 1310 475
317 1299 643
317 1280 801
317 1262 949
317 1245 1092
317 1230 1229
317 1217 1361
317 1206 1488
317 1195 1608
318 1187 1724
318 1179 1833
319 1170 1936
319 1163 2033
319 1155 2121
319 1147 2201
319 1137 2271
319 1126 2333
318 1113 2385
318 1096 2427
316 1076 2459
315 1056 2486
301 1467 72
316 1482 89
329 1494 139
331 1496 313
332 1498 489
334 1499 671
334 1480 834
334 1460 988
334 1441 1131
334 1424 1272
333 1408 1403
333 1393 1527
333 1380 1644
334 1368 1756
334 1356 1861
334 1346 1959
334 1335 2050
334 1323 2136
333 1311 2213
333 1298 2282
332 1283 2343
331 1265 2393
330 1244 2435
328 1219 2466
326 1190 2488
318 1654 86
333 1669 104
345 1681 155
347 1682 329
349 1684 504
350 1686 685
352 1680 863
351 1659 1024
351 1639 1176
351 1619 1314
350 1600 1448
350 1582 1572
350 1566 1687
350 1551 1795
349 1537 1897
349 1522 1991
349 1509 2078
348 1494 2156
348 1479 2230
347 1461 2297
346 1442 2355
345 1420 2404
343 1395 2445
341 1366 2476
338 1332 2497
334 1839 101
349 1854 119
361 1866 171
363 1867 345
365 1869 520
367 1871 697
369 1872 884
369 1857 1057
369 1835 1216
368 1813 1362
368 1793 1493
367 1773 1621
367 1753 1738
366 1735 1843
365 1717 1941
365 1700 2031
364 1683 2114
364 1665 2189
363 1646 2256
362 1626 2316
360 1604 2372
359 1578 2420
356 1548 2459
354 1515 2489
351 1477 2509
350 2022 116
365 2036 134
377 2047 187
379 2049 361
381 2050 536
383 2052 713
385 2053 896
387 2053 1086
386 2031 1252
386 2008 1408
385 1985 1547
384 1963 1670
384 1941 1791
383 1919 1900
382 1898 1994
381 1879 2081
380 1858 2160
379 1837 2231
378 1815 2295
376 1791 2351
375 1766 2399
373 1737 2441
370 1704 2478
367 1667 2507
364 1625 2527
367 2201 131
382 2215 149
394 2226 203
396 2228 377
397 2229 554
399 2231 729
401 2232 905
403 2233 1099
404 2224 1283
403 2200 1446
403 2176 1599
402 2152 1729
401 2128 1843
400 2105 1957
399 2080 2058
398 2057 2141
396 2034 2216
395 2009 2283
393 1984 2343
391 1957 2395
389 1928 2440
387 1896 2477
384 1860 2507
381 1820 2530
377 1775 2549
383 2377 146
398 2391 164
410 2402 219
412 2403 394
414 2405 569
416 2406 746
417 2408 921
419 2409 1106
421 2409 1304
421 2390 1479
420 2365 1639
420 2339 1788
418 2314 1907
417 2289 2013
416 2262 2117
414 2235 2211
413 2209 2282
411 2182 2346
409 2153 2401
407 2123 2450
404 2091 2490
402 2055 2524
398 2017 2550
395 1974 2569
391 1927 2581
399 2550 161
415 2563 179
426 2573 235
428 2575 410
430 2576 585
432 2578 762
434 2579 938
436 2580 1113
438 2581 1311
439 2576 1506
438 2552 1674
437 2525 1829
436 2497 1972
435 2470 2080
433 2443 2176
432 2414 2271
430 2383 2358
428 2353 2418
425 2322 2470
423 2289 2514
420 2255 2551
417 2216 2581
413 2174 2603
409 2129 2619
405 2078 2627
416 2718 176
431 2731 194
443 2741 251
445 2742 426
447 2744 602
448 2745 778
450 2746 954
452 2748 1130
454 2749 1311
456 2749 1518
456 2734 1703
455 2708 1866
454 2679 2016
453 2650 2152
451 2621 2247
449 2591 2334
447 2559 2420
445 2524 2498
442 2491 2549
439 2455 2589
436 2418 2623
432 2377 2648
429 2332 2666
424 2284 2678
419 2232 2683
433 2881 191
447 2894 209
459 2904 268
461 2905 443
463 2906 618
465 2908 795
467 2909 970
468 2910 1146
470 2911 1321
472 2912 1520
474 2911 1724
474 2887 1897
472 2858 2054
471 2828 2197
469 2796 2325
467 2765 2407
465 2732 2485
462 2696 2562
459 2659 2630
456 2621 2673
452 2580 2703
448 2538 2725
444 2491 2740
440 2441 2748
435 2387 2750
453 3039 207
464 3051 224
476 3061 282
478 3062 459
479 3063 634
481 3064 810
483 3065 987
485 3067 1162
487 3068 1337
489 3069 1513
491 3069 1727
492 3060 1921
491 3032 2085
489 3002 2236
487 2969 2371
485 2935 2488
482 2902 2560
480 2865 2628
476 2827 2696
473 2785 2755
469 2742 2791
465 2697 2810
460 2650 2822
455 2598 2827
450 2542 2826
469 3190 222
481 3201 239
492 3210 298
494 3211 475
496 3212 651
498 3213 827
500 3214 1003
502 3215 1179
503 3216 1354
505 3217 1527
507 3217 1722
509 3217 1931
509 3198 2111
508 3169 2268
506 3137 2411
503 3103 2538
501 3067 2641
498 3031 2705
494 2992 2765
490 2950 2823
486 2904 2873
482 2857 2902
477 2807 2912
472 2755 2915
466 2698 2911
486 3332 237
497 3343 255
509 3351 315
511 3352 491
513 3353 667
514 3354 843
516 3355 1020
518 3356 1195
520 3357 1370
522 3358 1544
524 3359 1716
526 3358 1928
528 3356 2131
526 3328 2295
524 3297 2444
522 3263 2578
519 3227 2697
516 3190 2787
512 3151 2842
508 3110 2893
504 3065 2943
499 3016 2984
494 2964 3007
489 2911 3009
483 2854 3004
503 3468 252
514 3478 270
526 3486 331
527 3487 507
529 3488 684
531 3489 860
533 3489 1036
535 3490 1212
537 3491 1386
538 3492 1560
540 3493 1731
542 3493 1920
545 3492 2130
545 3480 2316
543 3450 2472
541 3417 2613
538 3382 2738
535 3343 2847
531 3304 2924
527 3263 2971
522 3219 3014
517 3171 3056
512 3120 3088
506 3065 3107
500 3008 3101
519 3599 268
531 3608 285
542 3616 348
544 3617 524
546 3618 701
548 3618 877
550 3619 1053
551 3620 1228
553 3621 1403
555 3621 1576
557 3622 1747
559 3623 1917
561 3622 2124
563 3622 2327
562 3598 2496
560 3566 2642
557 3530 2773
554 3493 2889
550 3452 2988
546 3411 3052
541 3368 3092
536 3321 3127
530 3271 3160
524 3217 3186
518 3160 3201
536 3725 283
548 3735 301
559 3742 364
561 3743 540
563 3744 717
565 3744 893
566 3745 1069
568 3746 1245
570 3747 1419
572 3747 1592
574 3748 1763
576 3749 1933
578 3749 2112
580 3748 2323
581 3743 2514
579 3711 2667
576 3676 2803
573 3638 2925
569 3598 3031
565 3555 3120
560 3512 3171
555 3466 3204
549 3417 3233
543 3365 3259
537 3309 3279
553 3849 299
564 3859 316
576 3866 381
578 3867 557
579 3867 733
581 3868 910
583 3869 1085
585 3869 1261
587 3870 1435
589 3871 1608
591 3872 1780
592 3872 1948
594 3873 2116
597 3873 2314
599 3872 2515
598 3854 2688
596 3820 2830
592 3782 2957
588 3742 3068
584 3699 3163
579 3654 3242
574 3608 3283
568 3560 3309
562 3509 3332
556 3455 3354
573 3973 314
581 3982 331
592 3989 396
594 3990 574
596 3990 750
598 3991 926
600 3992 1102
602 3992 1278
604 3993 1451
605 3994 1624
607 3995 1796
609 3995 1964
611 3996 2131
613 3997 2301
615 3996 2509
618 3995 2702
615 3963 2853
612 3925 2985
608 3885 3101
604 3842 3201
599 3796 3286
594 3749 3356
588 3701 3388
582 3651 3409
575 3598 3428
356 0 0
375 0 0
370 0 0
368 0 130
370 0 287
372 0 440
373 0 596
375 0 754
376 0 905
374 0 1056
376 0 1206
378 0 1355
372 0 1499
366 0 1637
361 0 1771
344 0 1902
328 2 2027
300 2 2143
270 3 2252
228 4 2355
229 44 2423
233 90 2481
238 137 2531
242 180 2569
245 211 2596
377 143 0
392 158 0
374 142 15
278 54 164
202 0 301
204 0 450
206 0 605
207 0 761
209 0 910
210 0 1059
212 0 1208
214 0 1355
215 2 1494
217 7 1627
219 15 1755
222 31 1876
224 50 1990
227 72 2093
231 101 2189
235 134 2273
239 174 2349
243 209 2412
246 244 2467
249 273 2509
251 294 2539
393 331 0
408 344 1
403 352 38
334 331 196
231 311 344
232 303 490
233 300 637
234 299 785
235 298 937
237 299 1088
238 298 1233
240 300 1375
241 303 1512
243 307 1646
245 313 1771
247 322 1890
249 335 2001
251 349 2104
253 366 2197
256 384 2279
258 403 2353
261 421 2416
263 439 2467
264 454 2508
265 463 2539
409 520 0
424 535 16
437 548 61
388 536 221
248 516 374
249 502 520
249 493 666
250 488 812
251 484 959
252 482 1105
254 480 1244
255 480 1386
256 481 1523
258 484 1655
259 487 1779
261 492 1896
263 500 2006
264 507 2106
266 518 2198
268 528 2279
270 541 2351
272 553 2413
273 562 2464
274 569 2505
275 572 2534
426 710 13
441 725 31
453 738 77
437 734 244
355 719 403
265 699 553
266 687 700
266 676 846
267 669 988
268 665 1132
269 660 1270
270 656 1405
271 655 1536
272 653 1660
274 655 1783
275 656 1898
276 660 2006
278 665 2104
279 671 2195
280 675 2275
282 681 2345
283 687 2406
284 690 2457
284 691 2497
284 688 2527
442 901 28
457 917 46
470 928 93
472 931 267
426 920 431
283 902 586
283 883 735
283 870 880
283 859 1022
284 849 1161
285 843 1298
285 837 1430
286 832 1559
287 828 1680
288 826 1797
289 824 1906
290 821 2006
291 821 2101
292 823 2190
293 824 2269
294 826 2339
294 825 2397
295 822 2447
295 817 2487
294 808 2516
458 1091 43
473 1106 60
486 1119 109
488 1120 283
479 1120 457
407 1103 616
300 1084 768
300 1066 916
300 1051 1057
300 1039 1195
301 1028 1329
301 1019 1458
302 1013 1582
302 1006 1702
303 1000 1815
304 995 1921
304 991 2021
305 985 2110
305 980 2192
306 975 2264
306 969 2328
306 963 2386
306 955 2435
305 945 2474
304 930 2503
475 1281 58
490 1296 75
502 1309 125
504 1310 299
502 1312 476
471 1304 646
367 1285 804
317 1265 952
317 1247 1096
317 1231 1233
317 1217 1364
317 1206 1491
317 1195 1612
318 1185 1727
318 1177 1835
318 1169 1939
319 1161 2035
319 1153 2123
319 1144 2203
319 1135 2273
319 1123 2335
318 1110 2387
317 1094 2429
316 1074 2461
315 1053 2487
491 1470 72
506 1484 90
518 1497 141
520 1498 315
522 1500 491
517 1501 671
456 1485 835
334 1464 991
334 1445 1135
334 1426 1274
334 1409 1405
333 1394 1529
333 1380 1647
334 1367 1759
334 1356 1863
334 1345 1961
334 1333 2052
334 1322 2138
333 1310 2215
333 1296 2284
332 1281 2344
331 1263 2394
330 1242 2436
328 1218 2467
326 1188 2489
507 1656 87
523 1671 105
535 1683 157
537 1685 331
538 1686 507
537 1688 686
510 1683 864
420 1664 1025
351 1642 1178
351 1621 1316
351 1602 1450
350 1583 1574
350 1567 1690
350 1551 1798
349 1536 1899
349 1522 1992
349 1508 2079
348 1493 2158
348 1477 2232
347 1460 2298
346 1441 2356
345 1419 2406
343 1394 2446
341 1365 2477
338 1331 2498
524 1841 102
539 1856 120
551 1867 173
553 1869 347
555 1871 523
557 1872 699
544 1874 884
487 1861 1057
369 1840 1217
368 1817 1365
368 1795 1495
367 1774 1624
367 1754 1740
366 1735 1845
366 1718 1943
365 1700 2033
364 1683 2115
364 1665 2191
363 1646 2258
362 1626 2318
360 1603 2373
358 1577 2421
356 1547 2460
354 1514 2490
351 1476 2511
