Toning/Toning-Instagrammish 2.3dl
#25pt 3DLUT created by 3D LUT Creator Pro (c) Oleg Sharonov
#Copyright Oleg Sharonov
#IMAGEPROFILE sRGB IEC61966-2.1 v.2.10
#INPUTGAMMA sRGB IEC61966-2.1 v.2.10
#OUTPUTGAMMA sRGB IEC61966-2.1 v.2.10
0 43 86 128 171 214 256 299 341 384 427 469 512 555 597 640 682 725 768 810 853 896 938 981 1023 
0 339 485
0 327 561
0 314 636
0 299 720
0 285 810
0 274 908
0 271 1012
0 277 1115
0 290 1210
0 304 1298
0 319 1379
0 331 1456
0 342 1528
0 351 1599
0 359 1668
1 365 1736
1 370 1804
0 375 1871
0 379 1937
0 383 2004
0 386 2070
0 388 2136
1 391 2201
0 393 2267
2 395 2333
0 476 481
0 464 554
5 480 627
20 488 714
43 488 806
69 490 902
100 499 1002
132 513 1096
167 530 1185
202 549 1267
236 566 1345
266 583 1419
295 600 1491
319 615 1562
341 630 1631
359 644 1700
374 657 1767
386 668 1835
396 679 1903
402 689 1971
406 696 2038
405 699 2106
400 698 2174
385 687 2244
330 637 2318
0 630 479
5 603 563
0 605 627
4 619 708
17 627 800
40 633 899
73 641 1000
114 656 1097
161 673 1186
212 691 1267
262 709 1343
310 726 1415
353 743 1485
390 760 1553
422 777 1621
449 795 1688
471 812 1755
487 828 1822
499 844 1889
507 858 1956
510 869 2024
510 874 2092
505 872 2162
492 854 2233
442 776 2313
0 788 477
22 757 570
4 744 635
0 746 708
4 753 797
16 763 898
38 773 1002
73 787 1104
118 803 1196
173 819 1278
231 835 1353
289 850 1424
343 866 1492
390 883 1559
431 900 1624
464 920 1690
490 940 1756
509 961 1821
521 982 1887
529 1001 1953
532 1016 2020
532 1026 2088
529 1024 2157
524 1000 2230
496 895 2313
0 944 476
47 913 575
18 894 641
4 885 711
0 883 797
3 889 898
15 902 1006
38 917 1111
74 934 1207
123 949 1291
181 962 1367
241 975 1438
300 988 1505
354 1003 1570
400 1021 1635
438 1042 1698
467 1065 1763
487 1090 1826
499 1115 1891
505 1140 1956
507 1161 2021
506 1175 2088
505 1174 2157
509 1143 2230
515 1009 2316
1 1101 474
77 1069 577
43 1050 644
16 1035 714
3 1025 797
0 1021 899
3 1033 1011
16 1052 1119
40 1070 1217
78 1086 1303
128 1097 1381
185 1107 1452
244 1117 1519
299 1130 1584
348 1147 1647
387 1169 1710
417 1194 1772
437 1223 1834
448 1254 1896
452 1284 1959
451 1311 2023
448 1329 2089
449 1330 2158
462 1294 2232
507 1125 2321
0 1258 472
109 1226 580
77 1208 647
38 1192 715
14 1175 796
3 1164 898
0 1170 1015
4 1191 1127
17 1212 1226
43 1229 1314
82 1240 1393
130 1248 1465
184 1256 1532
236 1267 1597
284 1283 1659
323 1305 1721
352 1333 1781
370 1365 1842
379 1401 1902
380 1437 1963
376 1470 2025
371 1493 2089
372 1496 2157
391 1454 2232
475 1248 2328
0 1415 471
141 1383 582
116 1367 649
70 1352 716
33 1333 795
13 1317 897
3 1318 1017
0 1337 1133
4 1361 1233
19 1379 1321
45 1390 1400
83 1397 1474
128 1404 1542
174 1413 1607
217 1428 1669
253 1451 1729
279 1480 1788
296 1517 1847
302 1557 1905
300 1599 1964
294 1638 2024
285 1667 2086
283 1672 2154
304 1626 2231
423 1383 2332
0 1572 469
172 1539 586
158 1525 654
109 1514 719
60 1496 796
28 1477 896
12 1474 1018
3 1490 1137
0 1515 1238
5 1534 1325
20 1546 1405
46 1553 1478
80 1559 1548
118 1568 1613
154 1583 1675
186 1606 1735
209 1637 1793
222 1676 1849
226 1721 1905
222 1767 1962
212 1813 2019
200 1847 2080
194 1857 2146
211 1810 2226
353 1529 2333
0 1729 468
201 1696 590
202 1683 659
154 1676 724
96 1662 798
51 1642 896
27 1636 1018
13 1649 1139
4 1674 1241
0 1694 1327
5 1706 1406
20 1713 1480
43 1719 1549
71 1728 1615
100 1744 1677
126 1767 1736
145 1799 1793
156 1840 1848
157 1888 1902
151 1939 1956
139 1989 2012
125 2029 2070
113 2045 2136
122 1999 2216
270 1688 2334
0 1886 467
228 1852 594
244 1841 665
202 1837 730
141 1828 804
83 1812 897
48 1803 1016
29 1813 1138
15 1836 1241
4 1856 1327
0 1868 1406
5 1876 1479
18 1882 1549
37 1891 1615
58 1906 1677
78 1930 1735
93 1964 1791
100 2006 1845
101 2056 1897
94 2110 1949
81 2164 2002
63 2209 2059
46 2230 2123
43 2191 2204
179 1860 2335
1 2044 465
252 2009 599
283 1997 672
250 1996 738
190 1993 811
125 1983 900
76 1973 1014
50 1979 1136
33 1999 1240
17 2018 1327
4 2030 1405
1 2037 1478
4 2044 1548
15 2053 1613
29 2069 1675
43 2093 1733
53 2126 1789
59 2169 1841
58 2220 1892
51 2276 1942
37 2332 1993
18 2381 2048
0 2410 2110
1 2380 2189
87 2043 2336
0 2201 464
274 2166 604
319 2153 680
296 2153 746
241 2156 818
173 2152 905
113 2144 1013
77 2146 1133
55 2161 1239
34 2178 1327
16 2190 1405
4 2197 1478
0 2203 1548
3 2212 1613
11 2228 1675
20 2251 1732
27 2285 1787
30 2328 1838
29 2378 1888
22 2434 1937
8 2492 1987
1 2545 2039
1 2579 2098
0 2561 2176
4 2235 2336
1 2358 463
292 2323 609
350 2309 687
337 2310 755
288 2314 826
221 2316 910
154 2312 1012
106 2312 1129
78 2321 1239
54 2336 1329
31 2346 1409
13 2353 1481
3 2358 1550
1 2366 1615
2 2381 1677
7 2404 1734
11 2436 1788
13 2477 1838
11 2527 1887
4 2583 1935
1 2642 1983
1 2697 2034
1 2737 2090
0 2732 2164
0 2425 2312
0 2516 462
308 2479 613
377 2464 694
372 2465 764
329 2471 835
264 2475 916
194 2475 1014
136 2474 1128
100 2479 1240
73 2490 1335
47 2498 1416
25 2503 1489
10 2507 1557
2 2514 1622
0 2527 1682
1 2549 1739
3 2580 1792
4 2620 1842
2 2668 1890
0 2723 1937
0 2781 1984
1 2838 2032
0 2883 2086
1 2890 2156
0 2608 2288
0 2674 461
322 2636 618
398 2620 702
401 2619 772
362 2625 844
299 2631 924
226 2633 1019
161 2632 1130
117 2634 1245
88 2640 1344
60 2645 1427
36 2648 1500
18 2651 1568
6 2656 1632
1 2667 1692
1 2687 1748
1 2716 1801
1 2754 1850
0 2801 1898
1 2854 1944
1 2912 1989
0 2969 2036
1 3019 2087
0 3037 2152
524 2847 2243
0 2831 460
333 2793 622
416 2776 709
423 2774 781
387 2779 853
325 2785 932
250 2787 1026
178 2786 1136
128 2785 1254
96 2787 1357
69 2789 1442
43 2789 1516
23 2789 1584
10 2792 1648
3 2801 1707
0 2819 1762
1 2846 1814
1 2882 1863
0 2926 1910
0 2978 1955
0 3034 1999
0 3092 2044
2 3145 2093
0 3173 2153
730 3010 2216
1 2989 459
342 2951 626
428 2932 715
438 2928 789
404 2932 862
341 2937 942
263 2940 1034
186 2938 1144
130 2935 1266
97 2934 1375
71 2932 1462
46 2927 1536
26 2924 1604
12 2923 1667
4 2930 1726
0 2945 1780
1 2970 1832
2 3003 1880
1 3046 1926
0 3095 1970
1 3150 2013
0 3208 2057
2 3263 2103
1 3299 2159
1009 3157 2192
1 3147 458
347 3108 630
437 3088 721
448 3083 797
413 3086 871
349 3090 951
268 3091 1044
186 3089 1155
125 3085 1280
92 3080 1395
67 3073 1485
44 3065 1559
24 3056 1627
10 3053 1689
2 3056 1747
0 3068 1802
1 3089 1852
0 3120 1900
1 3160 1945
0 3208 1989
1 3261 2031
0 3318 2074
0 3374 2118
0 3418 2169
1283 3284 2174
1 3305 457
351 3266 632
442 3245 725
452 3239 803
417 3240 879
350 3243 961
266 3244 1054
179 3242 1165
114 3237 1295
81 3230 1415
60 3217 1508
37 3202 1583
17 3189 1650
4 3180 1713
0 3180 1771
2 3188 1825
0 3207 1876
0 3235 1923
0 3272 1968
0 3317 2011
0 3368 2052
0 3424 2094
2 3481 2136
0 3529 2184
1586 3395 2161
0 3463 457
352 3425 634
443 3404 729
453 3396 808
416 3396 886
347 3397 968
259 3398 1062
168 3396 1175
101 3393 1307
69 3383 1433
49 3365 1528
26 3342 1604
6 3323 1673
0 3309 1736
0 3304 1795
2 3309 1850
0 3324 1900
1 3348 1948
0 3382 1992
0 3424 2035
0 3473 2076
2 3527 2116
0 3584 2157
1 3636 2202
1815 3496 2155
1 3621 457
349 3584 634
440 3563 730
450 3555 810
413 3554 889
343 3555 973
252 3555 1068
158 3555 1182
91 3553 1316
59 3541 1445
37 3517 1543
13 3488 1621
0 3462 1692
1 3443 1757
1 3432 1817
2 3432 1873
0 3442 1925
0 3463 1973
0 3493 2018
2 3531 2060
0 3577 2101
0 3629 2141
0 3684 2181
0 3738 2223
2036 3591 2155
1 3779 456
342 3744 632
432 3725 727
445 3717 808
410 3716 888
342 3717 973
251 3718 1068
155 3719 1182
86 3718 1318
52 3705 1449
26 3677 1549
1 3643 1629
0 3611 1703
0 3586 1771
2 3570 1834
0 3564 1892
2 3568 1946
2 3583 1996
1 3607 2042
1 3641 2086
1 3683 2127
1 3731 2167
2 3784 2206
0 3839 2247
2232 3689 2162
1 3937 456
326 3907 624
417 3890 717
436 3884 797
411 3884 877
352 3887 961
269 3890 1056
176 3891 1170
101 3891 1304
59 3880 1434
26 3855 1535
0 3821 1617
0 3787 1695
0 3757 1768
0 3734 1836
1 3719 1899
0 3714 1957
0 3720 2010
0 3736 2060
2 3761 2106
0 3796 2150
1 3838 2191
0 3887 2232
0 3940 2272
2395 3808 2182
4 4095 457
273 4076 596
363 4068 679
402 4068 754
409 4074 828
393 4082 907
358 4092 993
309 4095 1087
253 4095 1188
195 4095 1288
134 4095 1383
68 4095 1471
3 4095 1555
776 3960 1682
1529 3863 1805
2045 3838 1888
2468 3857 1949
2788 3896 1993
3042 3941 2030
3248 3982 2064
3389 4011 2096
3507 4034 2126
3560 4043 2151
3468 4026 2172
4 4095 2337
242 333 476
243 321 551
285 309 624
311 298 710
324 300 804
335 316 902
347 340 1001
360 368 1095
373 398 1184
387 427 1266
403 455 1345
419 480 1420
436 503 1494
454 523 1565
471 541 1636
488 555 1705
506 568 1774
522 578 1842
536 587 1910
549 593 1978
558 597 2046
561 599 2115
557 598 2183
535 591 2253
447 561 2328
245 470 472
242 458 546
239 444 624
235 428 709
231 412 802
227 399 904
227 396 1013
228 403 1121
232 417 1220
236 434 1309
240 449 1391
243 463 1468
246 474 1541
248 483 1611
250 491 1680
252 497 1748
253 503 1816
254 507 1883
255 511 1949
256 515 2016
257 518 2081
258 520 2147
258 523 2213
259 525 2279
259 527 2344
292 609 472
242 613 544
238 600 622
234 587 706
230 564 799
233 544 903
240 534 1015
251 536 1126
264 545 1227
280 559 1316
292 569 1398
306 580 1473
315 588 1545
323 595 1615
328 600 1684
331 605 1751
332 609 1819
334 614 1885
337 619 1951
339 623 2017
338 625 2083
339 628 2149
341 630 2214
344 631 2280
352 628 2345
325 764 477
241 771 542
234 755 620
233 740 703
228 721 797
229 696 902
237 678 1017
255 676 1132
280 683 1234
306 691 1324
329 696 1405
350 701 1480
369 706 1550
382 710 1620
402 719 1686
417 727 1752
428 735 1819
436 742 1884
441 748 1950
443 752 2016
443 754 2082
440 755 2149
432 750 2215
418 738 2282
439 728 2345
346 921 485
241 928 540
238 915 616
232 897 700
227 877 793
225 855 900
228 834 1018
244 825 1138
273 827 1244
309 831 1334
343 832 1413
376 832 1486
402 832 1557
423 833 1625
451 841 1690
473 850 1755
490 859 1821
501 867 1886
508 874 1952
512 880 2017
512 883 2084
509 883 2150
502 876 2217
488 857 2284
519 832 2344
359 1077 494
241 1085 538
245 1073 611
239 1058 694
229 1040 790
220 1017 898
220 997 1018
230 984 1141
257 983 1252
296 982 1345
339 978 1424
376 972 1497
412 967 1565
437 963 1634
459 963 1700
488 972 1763
509 982 1828
524 992 1892
533 1001 1957
537 1009 2022
538 1013 2088
536 1012 2153
531 1003 2221
523 977 2289
584 939 2343
367 1233 503
240 1242 536
256 1231 606
250 1219 688
236 1203 784
223 1185 894
216 1168 1015
219 1154 1141
238 1148 1257
271 1143 1354
316 1135 1435
361 1124 1507
401 1113 1576
433 1106 1643
458 1103 1709
473 1103 1774
492 1111 1838
509 1123 1901
519 1135 1965
524 1145 2029
526 1151 2094
526 1150 2159
525 1138 2226
537 1109 2294
637 1051 2342
375 1389 512
240 1400 534
265 1389 602
268 1379 682
252 1369 777
234 1356 888
221 1344 1009
217 1333 1135
227 1325 1253
250 1316 1356
287 1303 1442
331 1288 1517
372 1272 1587
407 1261 1653
436 1256 1718
454 1256 1783
461 1260 1847
466 1269 1911
473 1282 1974
478 1295 2036
480 1303 2100
481 1303 2166
485 1287 2233
533 1258 2299
672 1170 2341
383 1545 520
239 1557 532
272 1547 597
284 1539 677
273 1533 771
256 1527 881
237 1522 1001
224 1517 1124
223 1511 1242
234 1500 1349
261 1484 1441
296 1464 1521
334 1444 1593
370 1430 1661
399 1422 1726
417 1422 1790
428 1428 1853
428 1439 1916
423 1452 1978
416 1465 2041
413 1475 2104
418 1476 2169
442 1462 2235
503 1421 2303
690 1296 2341
392 1700 529
239 1715 530
280 1705 594
298 1699 672
295 1697 767
281 1698 875
261 1700 991
245 1702 1110
233 1700 1225
229 1690 1333
241 1672 1431
265 1650 1517
297 1629 1593
329 1612 1663
357 1603 1729
373 1602 1793
381 1610 1855
379 1623 1917
372 1640 1978
362 1658 2039
352 1670 2102
355 1672 2167
381 1655 2234
455 1603 2305
692 1433 2341
401 1856 536
239 1873 528
283 1862 590
308 1858 669
314 1859 763
309 1865 869
294 1875 982
274 1883 1095
255 1886 1206
239 1880 1313
235 1864 1413
245 1843 1504
268 1821 1585
291 1803 1659
315 1793 1726
329 1793 1791
334 1801 1852
328 1817 1913
317 1839 1973
304 1860 2033
294 1878 2094
293 1883 2158
316 1865 2227
393 1801 2302
676 1580 2341
