Toning/Toning-Blue curves.3dl
#25pt 3DLUT created by 3D LUT Creator Pro (c) Oleg Sharonov
#Copyright Oleg Sharonov
#IMAGEPROFILE sRGB IEC61966-2.1 v.2.10
#INPUTGAMMA sRGB IEC61966-2.1 v.2.10
#OUTPUTGAMMA sRGB IEC61966-2.1 v.2.10
0 128 256 384 512 640 768 896 1023
32 64 64
51 110 359
95 223 852
142 384 1262
167 558 1606
183 753 1848
205 952 2034
233 1150 2201
283 1347 2389
96 576 306
99 586 875
146 603 1304
166 679 1592
179 801 1800
196 946 1971
218 1108 2123
252 1278 2277
312 1448 2471
162 1200 774
162 1206 1086
163 1217 1540
181 1222 1830
201 1264 2007
222 1340 2148
255 1437 2288
308 1547 2461
395 1666 2642
192 1756 1164
192 1758 1357
192 1764 1670
193 1774 1949
222 1773 2149
264 1791 2323
330 1828 2513
422 1880 2690
529 1943 2867
239 2158 1507
239 2159 1619
240 2162 1811
241 2168 2023
243 2176 2241
318 2174 2484
431 2183 2706
559 2204 2918
711 2237 3156
359 2520 1762
360 2522 1823
361 2524 1951
363 2529 2115
367 2536 2316
371 2545 2596
523 2541 2856
706 2548 3148
895 2565 3438
583 2887 1952
583 2888 1992
585 2890 2082
588 2894 2218
592 2899 2423
597 2906 2681
604 2915 2993
830 2911 3340
1054 2914 3676
901 3237 2111
901 3238 2142
903 3239 2215
905 3242 2347
910 3247 2548
915 3252 2780
922 3260 3099
930 3269 3491
1183 3264 3838
1251 3645 2266
1252 3646 2295
1253 3649 2372
1255 3654 2506
1259 3661 2684
1264 3671 2912
1270 3684 3229
1277 3700 3608
1286 3719 3982
149 160 206
156 177 700
155 306 1068
166 446 1399
177 609 1680
193 794 1891
215 986 2063
247 1178 2224
304 1369 2415
171 603 325
171 609 903
174 641 1360
180 721 1642
191 838 1837
208 978 1998
230 1136 2145
269 1303 2299
339 1467 2494
185 1215 784
185 1220 1098
186 1230 1551
200 1240 1844
217 1284 2021
240 1360 2163
276 1456 2305
338 1563 2480
427 1680 2659
214 1763 1170
214 1765 1363
215 1771 1675
216 1780 1953
248 1781 2155
295 1800 2332
370 1837 2524
461 1888 2701
571 1951 2881
273 2162 1510
274 2163 1622
274 2166 1814
276 2171 2025
278 2179 2244
370 2178 2489
482 2187 2712
613 2209 2928
761 2242 3166
419 2524 1763
420 2525 1825
422 2527 1952
424 2532 2116
428 2539 2318
433 2548 2599
587 2545 2860
767 2552 3153
950 2569 3446
656 2890 1953
656 2891 1993
658 2893 2083
661 2896 2219
665 2901 2425
671 2908 2683
679 2917 2996
898 2913 3344
1111 2917 3680
970 3239 2112
971 3240 2143
973 3241 2216
976 3244 2348
980 3248 2549
985 3254 2781
992 3262 3101
1000 3270 3493
1243 3266 3841
1313 3648 2267
1313 3649 2296
1315 3652 2373
1317 3657 2507
1321 3664 2685
1326 3674 2913
1332 3687 3231
1339 3703 3610
1348 3723 3984
198 369 540
201 382 856
208 407 1314
205 555 1602
211 716 1808
225 885 1976
251 1061 2127
295 1242 2281
374 1420 2475
221 681 688
223 689 997
228 708 1452
224 802 1733
230 918 1913
247 1052 2059
277 1201 2197
332 1359 2357
416 1511 2547
254 1246 803
255 1249 1120
257 1257 1574
263 1281 1873
278 1331 2053
307 1406 2197
356 1497 2348
426 1601 2524
515 1713 2700
301 1779 1183
303 1781 1377
305 1785 1686
308 1793 1962
354 1799 2169
412 1821 2355
483 1859 2551
573 1910 2729
686 1971 2919
412 2171 1517
413 2172 1628
415 2175 1820
419 2180 2031
424 2187 2251
516 2188 2501
629 2199 2726
755 2222 2951
891 2255 3192
587 2531 1768
587 2532 1829
590 2535 1956
594 2539 2120
599 2546 2324
607 2554 2605
763 2553 2870
926 2561 3167
1086 2579 3463
842 2896 1956
843 2896 1996
845 2898 2086
849 2902 2222
854 2907 2429
861 2913 2688
869 2921 3002
1064 2919 3354
1255 2924 3691
1140 3244 2114
1141 3244 2144
1143 3246 2218
1146 3249 2351
1150 3253 2552
1156 3259 2785
1164 3266 3106
1173 3274 3499
1391 3271 3848
1460 3656 2269
1460 3657 2298
1462 3660 2375
1464 3665 2509
1468 3672 2688
1473 3682 2917
1479 3695 3235
1486 3711 3615
1495 3730 3989
302 611 905
310 620 1083
328 641 1416
360 675 1762
337 845 1940
347 1008 2082
384 1173 2220
443 1340 2383
526 1499 2571
372 844 994
378 851 1176
393 868 1506
418 895 1823
393 1021 2000
401 1156 2141
434 1298 2280
492 1442 2452
578 1582 2633
492 1303 1112
495 1307 1301
504 1317 1622
519 1334 1910
504 1395 2098
514 1472 2251
551 1562 2419
617 1662 2595
708 1766 2766
610 1802 1202
612 1803 1397
617 1807 1703
624 1813 1975
642 1827 2190
676 1853 2392
731 1893 2594
806 1944 2775
902 2004 2983
738 2185 1530
740 2186 1640
743 2189 1830
749 2193 2041
758 2200 2261
830 2205 2521
915 2218 2750
1011 2243 2990
1117 2277 3238
926 2545 1775
928 2545 1836
931 2548 1963
936 2552 2127
942 2558 2333
952 2566 2616
1069 2567 2888
1193 2577 3192
1321 2596 3494
1158 2906 1960
1159 2906 2000
1161 2908 2091
1165 2911 2228
1171 2916 2436
1178 2922 2695
1188 2930 3013
1342 2929 3370
1491 2935 3710
1423 3252 2118
1423 3253 2148
1425 3254 2222
1428 3257 2356
1433 3261 2558
1439 3267 2791
1446 3273 3114
1456 3282 3509
1623 3279 3860
1692 3670 2272
1692 3671 2301
1693 3674 2379
1696 3679 2513
1699 3686 2692
1704 3696 2923
1710 3709 3243
1717 3725 3623
1726 3744 3997
622 883 1210
633 890 1329
659 906 1563
702 932 1816
762 966 2047
713 1138 2190
714 1300 2339
754 1454 2515
826 1597 2691
719 1053 1271
728 1059 1392
749 1072 1618
786 1095 1859
837 1126 2083
786 1269 2232
783 1409 2394
819 1541 2569
888 1671 2742
904 1416 1377
910 1419 1495
924 1428 1707
948 1443 1932
982 1463 2147
939 1547 2320
934 1640 2508
965 1736 2686
1025 1829 2862
1096 1836 1475
1099 1838 1590
1107 1842 1787
1120 1849 2000
1139 1859 2216
1121 1893 2439
1129 1936 2651
1163 1988 2840
1223 2049 3068
1249 2205 1545
1250 2206 1655
1254 2208 1843
1261 2211 2053
1271 2217 2276
1289 2226 2547
1323 2245 2784
1374 2272 3043
1440 2308 3303
1392 2562 1784
1393 2563 1845
1397 2565 1971
1402 2569 2136
1409 2574 2345
1419 2581 2630
1481 2586 2913
1553 2599 3227
1632 2620 3538
1571 2919 1966
1572 2920 2006
1574 2922 2097
1578 2925 2235
1583 2929 2447
1591 2935 2706
1600 2942 3029
1695 2943 3393
1793 2951 3734
1772 3264 2123
1773 3265 2153
1775 3266 2227
1778 3269 2363
1782 3273 2566
1788 3278 2800
1795 3284 3127
1804 3292 3524
1922 3292 3877
1994 3692 2277
1995 3693 2306
1996 3696 2385
1999 3701 2520
2003 3708 2699
2008 3718 2932
2015 3730 3253
2023 3746 3635
2033 3764 4010
1113 1154 1484
1122 1160 1561
1146 1172 1711
1186 1193 1895
1243 1222 2085
1312 1256 2295
1251 1422 2478
1237 1567 2654
1263 1702 2825
1202 1284 1525
1210 1289 1600
1231 1300 1745
1266 1318 1925
1315 1345 2111
1375 1376 2327
1315 1514 2517
1299 1644 2695
1321 1764 2873
1381 1558 1602
1387 1561 1671
1401 1569 1809
1426 1582 1980
1460 1600 2165
1503 1623 2399
1450 1720 2602
1432 1812 2784
1449 1900 2996
1583 1899 1682
1586 1900 1748
1595 1904 1879
1610 1912 2045
1631 1922 2233
1658 1935 2491
1621 1984 2714
1609 2040 2930
1625 2101 3169
1757 2230 1748
1759 2231 1810
1764 2233 1938
1772 2237 2102
1784 2244 2300
1799 2252 2577
1787 2275 2825
1791 2307 3105
1814 2346 3383
1889 2583 1795
1890 2584 1856
1893 2586 1981
1898 2589 2146
1905 2593 2361
1914 2599 2647
1929 2609 2945
1956 2625 3272
1997 2648 3592
2019 2937 1974
2020 2937 2014
2022 2939 2106
2027 2941 2245
2033 2945 2459
2041 2950 2719
2051 2956 3048
2107 2961 3422
2171 2971 3765
2192 3280 2129
2193 3280 2160
2195 3281 2235
2198 3284 2373
2203 3287 2576
2209 3292 2812
2217 3298 3142
2226 3305 3542
2304 3307 3901
2371 3721 2283
2372 3722 2313
2373 3725 2393
2375 3730 2528
2379 3737 2707
2383 3746 2944
2390 3759 3268
2397 3774 3650
2406 3792 4026
1630 1420 1700
1637 1423 1747
1655 1432 1846
1686 1448 1983
1728 1469 2141
1782 1496 2336
1844 1527 2604
1786 1674 2786
1765 1799 2998
1698 1512 1726
1704 1515 1771
1720 1523 1868
1746 1537 2003
1785 1556 2162
1833 1581 2364
1889 1610 2632
1832 1740 2818
1809 1852 3041
1837 1718 1777
1842 1721 1820
1854 1727 1916
1875 1737 2048
1906 1752 2207
1945 1770 2425
1994 1792 2694
1936 1884 2901
1912 1971 3137
2028 1983 1839
2031 1984 1882
2041 1988 1974
2057 1995 2105
2081 2005 2270
2112 2017 2509
2149 2033 2777
2098 2093 3032
2073 2156 3290
2229 2275 1899
2231 2276 1941
2236 2278 2030
2246 2283 2162
2260 2289 2343
2278 2298 2596
2300 2309 2875
2270 2345 3175
2258 2389 3473
2383 2608 1947
2385 2609 1987
2388 2611 2077
2394 2614 2213
2402 2619 2415
2413 2625 2673
2427 2633 2982
2418 2654 3324
2422 2680 3655
2510 2956 1983
2511 2956 2023
2513 2958 2115
2516 2960 2255
2522 2963 2474
2530 2967 2735
2539 2972 3070
2554 2981 3455
2578 2993 3800
2636 3298 2136
2636 3298 2167
2638 3300 2243
2641 3302 2384
2646 3305 2589
2653 3309 2826
2661 3315 3161
2670 3322 3565
2714 3327 3929
2783 3758 2291
2784 3759 2321
2785 3762 2402
2788 3766 2538
2791 3773 2717
2796 3782 2959
2802 3794 3285
2810 3808 3669
2818 3824 4046
2123 1655 1867
2129 1658 1899
2145 1664 1969
2171 1676 2075
2209 1693 2212
2255 1713 2403
2308 1738 2647
2367 1765 2931
2310 1885 3169
2182 1724 1885
2187 1726 1916
2201 1732 1985
2225 1742 2091
2257 1757 2229
2299 1776 2426
2348 1797 2670
2403 1822 2961
2346 1932 3204
2303 1871 1922
2307 1873 1952
2318 1877 2020
2336 1885 2127
2362 1897 2268
2396 1912 2478
2438 1930 2721
2488 1950 3031
2430 2041 3288
2467 2084 1971
2470 2085 2001
2478 2089 2070
2493 2095 2177
2514 2103 2330
2543 2115 2551
2579 2129 2796
2620 2144 3130
2565 2210 3416
2661 2338 2023
2663 2339 2053
2669 2342 2123
2680 2347 2234
2695 2353 2408
2715 2362 2634
2739 2373 2895
2767 2386 3252
2726 2434 3568
2833 2648 2071
2834 2649 2101
2838 2651 2172
2845 2654 2292
2854 2660 2483
2867 2666 2713
2882 2674 3005
2901 2684 3379
2877 2715 3719
2974 2977 2112
2975 2977 2142
2978 2979 2216
2982 2981 2348
2988 2984 2549
2997 2989 2781
3007 2995 3101
3020 3002 3493
3013 3018 3840
3088 3318 2145
3089 3319 2176
3090 3320 2253
3093 3322 2397
3097 3325 2603
3103 3329 2843
3110 3334 3183
3118 3340 3590
3130 3348 3962
3195 3801 2299
3195 3802 2331
3197 3805 2413
3199 3809 2549
3202 3815 2729
3207 3824 2977
3213 3834 3305
3220 3847 3690
3229 3862 4069
2596 1857 2006
2601 1859 2029
2613 1864 2084
2635 1872 2171
2666 1883 2298
2706 1899 2487
2753 1917 2708
2806 1938 2985
2864 1961 3343
2643 1905 2018
2648 1907 2041
2659 1911 2096
2680 1919 2184
2708 1930 2314
2745 1944 2506
2788 1961 2726
2838 1981 3010
2893 2003 3371
2748 2017 2047
2752 2019 2070
2761 2023 2125
2778 2029 2215
2801 2039 2353
2832 2052 2549
2870 2067 2769
2913 2085 3068
2962 2105 3437
2895 2192 2089
2898 2193 2112
2905 2196 2167
2918 2201 2262
2937 2209 2415
2961 2219 2614
2992 2231 2840
3028 2246 3158
3067 2263 3539
3063 2418 2137
3065 2419 2161
3070 2422 2219
3080 2426 2323
3094 2433 2489
3112 2441 2691
3135 2452 2940
3162 2465 3274
3193 2480 3663
3230 2703 2186
3232 2703 2210
3236 2705 2273
3243 2709 2392
3254 2714 2564
3268 2720 2767
3287 2729 3049
3309 2739 3399
3337 2750 3779
3410 3010 2231
3412 3010 2258
3415 3012 2327
3422 3014 2457
3432 3018 2633
3445 3023 2844
3463 3029 3149
3484 3036 3518
3511 3045 3888
3638 3341 2272
3640 3341 2301
3644 3342 2380
3652 3345 2514
3662 3348 2693
3677 3352 2923
3697 3358 3243
3721 3364 3624
3749 3372 3998
3902 3849 2309
3903 3849 2341
3907 3852 2425
3912 3855 2561
3920 3861 2741
3932 3868 2995
3946 3878 3327
3963 3889 3712
3982 3902 4095
