Toning/Toning-2 Strip Teal Orange.3dl
#25pt 3DLUT created by 3D LUT Creator Pro (c) Oleg Sharonov
#Copyright Oleg Sharonov
#INPUTGAMMA sRGB
#IMAGEPROFILE sRGB
#OUTPUTGAMMA sRGB
0 43 86 128 171 214 256 299 341 384 427 469 512 555 597 640 682 725 768 810 853 896 938 981 1023 
249 249 249
304 333 335
355 413 417
408 499 504
464 588 596
521 685 696
581 788 801
643 900 918
709 1029 1052
777 1173 1201
847 1328 1362
924 1491 1530
1007 1658 1701
1095 1826 1871
1188 1989 2038
1282 2146 2196
1377 2292 2342
1470 2425 2475
1561 2544 2593
1648 2648 2693
1732 2736 2779
1811 2812 2855
1889 2884 2926
1968 2954 2996
2051 3026 3068
249 263 299
249 350 392
297 431 476
347 516 567
401 608 664
455 706 767
512 811 879
572 925 1008
634 1059 1154
699 1205 1311
766 1363 1479
836 1528 1650
910 1695 1823
990 1862 1993
1076 2025 2157
1165 2181 2310
1255 2326 2451
1345 2457 2576
1433 2573 2684
1519 2674 2775
1600 2760 2854
1679 2835 2927
1757 2906 2996
1836 2975 3063
1921 3046 3133
249 281 356
249 367 448
249 448 537
291 535 632
341 629 735
393 727 843
447 834 966
504 952 1107
563 1088 1261
624 1238 1426
688 1397 1598
754 1564 1773
823 1732 1946
895 1899 2113
973 2062 2273
1054 2216 2420
1139 2359 2553
1224 2488 2668
1309 2602 2766
1391 2700 2851
1471 2783 2927
1549 2858 2997
1625 2927 3063
1704 2995 3128
1789 3066 3195
249 295 411
249 383 508
249 465 601
249 554 701
282 649 808
333 750 925
385 857 1061
440 980 1212
495 1119 1375
554 1271 1545
615 1432 1720
678 1600 1895
743 1769 2067
810 1936 2231
879 2098 2384
953 2251 2524
1031 2392 2647
1110 2519 2752
1190 2630 2842
1269 2725 2923
1346 2806 2997
1421 2880 3065
1495 2948 3128
1573 3016 3190
1657 3086 3255
249 312 469
249 400 571
249 484 670
249 574 774
249 669 886
276 771 1016
327 882 1163
378 1008 1323
431 1150 1491
487 1305 1666
545 1468 1842
604 1636 2017
666 1806 2185
730 1973 2344
795 2134 2491
861 2285 2621
931 2424 2733
1004 2549 2829
1078 2658 2915
1152 2750 2993
1225 2829 3065
1297 2901 3130
1369 2970 3191
1444 3036 3251
1526 3105 3313
249 327 529
249 417 637
249 503 739
249 594 850
249 690 973
249 794 1115
270 907 1272
318 1037 1438
370 1182 1612
423 1339 1788
478 1504 1965
535 1673 2136
594 1843 2300
654 2009 2452
716 2169 2589
779 2319 2709
842 2456 2811
907 2578 2902
975 2684 2986
1043 2773 3061
1111 2851 3129
1179 2923 3192
1248 2991 3251
1319 3056 3309
1399 3125 3370
249 344 594
249 436 708
249 521 814
249 613 933
249 711 1069
249 817 1222
249 933 1385
262 1066 1557
312 1214 1733
362 1374 1911
414 1539 2085
469 1710 2253
524 1879 2410
582 2045 2554
641 2204 2681
701 2353 2789
761 2487 2885
821 2607 2973
881 2710 3053
942 2796 3126
1005 2874 3192
1068 2944 3252
1132 3011 3310
1200 3076 3366
1276 3144 3424
249 360 662
249 452 779
249 540 893
249 633 1025
249 733 1172
249 840 1333
249 960 1502
249 1097 1679
255 1247 1856
304 1408 2033
355 1576 2203
406 1746 2365
459 1916 2515
514 2081 2648
570 2239 2763
626 2385 2864
684 2518 2957
740 2635 3041
797 2735 3119
852 2819 3189
908 2896 3252
965 2966 3311
1025 3031 3366
1088 3096 3420
1159 3163 3477
249 378 733
249 470 855
249 559 981
249 653 1124
249 755 1281
249 864 1449
249 987 1623
249 1127 1801
249 1281 1978
249 1444 2152
295 1613 2318
346 1783 2472
396 1953 2612
448 2118 2734
502 2274 2840
556 2418 2936
610 2548 3026
664 2662 3107
718 2759 3182
770 2842 3249
822 2917 3310
872 2987 3367
925 3052 3420
984 3115 3473
1050 3182 3510
249 394 807
249 489 940
249 579 1078
249 674 1230
249 777 1396
249 888 1568
249 1015 1745
249 1159 1923
249 1315 2099
249 1479 2268
249 1649 2427
289 1820 2573
337 1990 2702
387 2153 2812
438 2307 2913
488 2450 3006
540 2577 3092
592 2688 3170
642 2782 3242
692 2864 3307
741 2939 3367
789 3007 3421
837 3072 3473
889 3135 3510
949 3200 3510
249 411 884
249 507 1032
249 598 1182
249 696 1343
249 800 1513
249 913 1689
249 1044 1867
249 1191 2044
249 1349 2217
249 1515 2379
249 1686 2530
249 1857 2666
279 2026 2782
327 2188 2886
375 2341 2983
425 2481 3073
474 2606 3156
523 2714 3232
571 2805 3301
619 2886 3364
665 2960 3421
710 3028 3474
756 3091 3510
805 3154 3510
857 3218 3510
249 429 973
249 526 1133
249 618 1290
249 717 1459
249 822 1633
249 940 1812
249 1074 1989
249 1223 2163
249 1383 2330
249 1551 2486
249 1722 2626
249 1894 2749
249 2062 2857
271 2224 2958
317 2374 3051
363 2512 3138
411 2634 3217
458 2739 3291
504 2828 3358
549 2908 3418
592 2981 3474
636 3048 3510
679 3111 3510
725 3173 3510
775 3236 3510
249 446 1068
249 545 1241
249 638 1404
249 738 1578
249 846 1756
249 967 1934
249 1105 2110
249 1256 2279
249 1418 2439
249 1588 2585
249 1759 2714
249 1931 2826
249 2098 2930
249 2258 3027
260 2407 3117
305 2542 3200
350 2661 3277
395 2762 3348
439 2850 3412
482 2929 3471
523 3002 3510
565 3068 3510
606 3130 3510
649 3191 3510
697 3254 3510
249 464 1170
249 564 1352
249 659 1522
249 761 1700
249 870 1878
249 995 2055
249 1136 2227
249 1290 2390
249 1454 2541
249 1624 2677
249 1796 2794
249 1967 2900
249 2134 3000
249 2292 3093
249 2439 3180
249 2572 3260
292 2688 3334
335 2786 3403
377 2872 3465
418 2951 3510
459 3022 3510
496 3088 3510
537 3149 3510
577 3209 3510
624 3272 3510
249 482 1278
249 583 1468
249 680 1643
249 783 1822
249 895 2000
249 1023 2174
249 1167 2341
249 1324 2496
249 1489 2637
249 1660 2760
249 1833 2869
249 2004 2971
249 2169 3067
249 2326 3157
249 2471 3240
249 2600 3318
249 2713 3390
278 2809 3456
318 2895 3510
358 2972 3510
396 3043 3510
432 3107 3510
470 3168 3510
508 3228 3510
552 3290 3510
249 500 1393
249 603 1588
249 701 1766
249 805 1945
249 920 2120
249 1052 2290
249 1199 2449
249 1358 2595
249 1525 2724
249 1697 2836
249 1870 2941
249 2040 3039
249 2205 3132
249 2359 3218
249 2502 3299
249 2629 3374
249 2738 3444
249 2832 3508
263 2916 3510
299 2993 3510
337 3062 3510
371 3126 3510
408 3187 3510
445 3246 3510
487 3307 3510
249 519 1511
249 623 1710
249 722 1887
249 828 2065
249 947 2237
249 1082 2400
249 1232 2551
249 1393 2686
249 1561 2803
249 1734 2909
249 1906 3010
249 2076 3105
249 2239 3194
249 2392 3278
249 2532 3356
249 2656 3428
249 2762 3496
249 2854 3510
249 2938 3510
249 3013 3510
279 3082 3510
310 3145 3510
347 3205 3510
384 3263 3510
421 3324 3510
249 538 1631
249 643 1832
249 744 2010
249 852 2184
249 974 2350
249 1112 2505
249 1265 2646
249 1428 2768
249 1598 2877
249 1770 2980
249 1943 3077
249 2112 3169
249 2274 3254
249 2425 3335
249 2562 3411
249 2683 3481
249 2785 3510
249 2876 3510
249 2959 3510
249 3034 3510
249 3102 3510
257 3165 3510
289 3223 3510
322 3281 3510
360 3341 3510
249 557 1751
249 664 1955
249 766 2129
249 876 2299
249 1001 2457
249 1144 2603
249 1299 2732
249 1463 2843
249 1634 2949
249 1807 3048
249 1980 3142
249 2148 3230
249 2308 3313
249 2457 3391
249 2591 3464
249 2708 3510
249 2808 3510
249 2898 3510
251 2980 3510
251 3054 3510
249 3121 3510
249 3183 3510
251 3241 3510
265 3299 3510
304 3358 3510
249 577 1876
249 685 2075
249 788 2246
249 900 2409
249 1030 2559
249 1175 2693
249 1333 2810
249 1499 2917
249 1671 3018
249 1844 3114
249 2016 3204
249 2183 3289
249 2342 3369
249 2488 3444
249 2619 3510
249 2733 3510
249 2831 3510
249 2920 3510
249 3000 3510
249 3074 3510
249 3140 3510
249 3202 3510
251 3259 3510
249 3316 3510
249 3375 3510
249 596 1997
249 706 2193
249 811 2359
249 926 2514
249 1060 2653
249 1208 2774
249 1367 2884
249 1535 2987
249 1708 3085
249 1881 3177
249 2053 3264
249 2218 3346
249 2375 3424
249 2519 3497
251 2647 3510
249 2757 3510
249 2853 3510
251 2941 3510
249 3021 3510
249 3094 3510
251 3159 3510
251 3220 3510
249 3277 3510
251 3333 3510
249 3391 3510
249 615 2116
249 727 2307
249 834 2467
249 953 2611
249 1089 2738
249 1240 2850
249 1402 2956
249 1571 3055
249 1744 3149
249 1918 3238
249 2089 3322
249 2253 3401
249 2408 3476
249 2549 3510
249 2674 3510
249 2781 3510
249 2876 3510
249 2962 3510
249 3041 3510
249 3113 3510
249 3178 3510
249 3238 3510
249 3294 3510
249 3350 3510
251 3408 3510
249 636 2233
249 750 2418
249 857 2567
249 980 2700
249 1121 2816
249 1273 2923
249 1437 3024
249 1607 3120
249 1781 3211
249 1955 3297
249 2124 3377
249 2287 3454
251 2440 3510
249 2578 3510
249 2700 3510
249 2804 3510
249 2897 3510
249 2983 3510
251 3061 3510
251 3132 3510
251 3197 3510
249 3256 3510
249 3312 3510
249 3367 3510
249 3424 3510
249 656 2348
249 771 2521
249 882 2660
249 1009 2781
249 1152 2890
249 1307 2993
249 1472 3091
249 1644 3183
249 1818 3270
249 1991 3353
249 2160 3432
249 2321 3506
251 2471 3510
249 2607 3510
251 2725 3510
249 2826 3510
249 2919 3510
249 3004 3510
249 3081 3510
249 3151 3510
249 3215 3510
249 3274 3510
251 3329 3510
251 3383 3510
252 3440 3510
249 677 2456
249 794 2619
249 907 2745
249 1037 2856
249 1184 2962
249 1341 3061
249 1508 3155
249 1681 3244
249 1855 3328
249 2028 3408
249 2195 3484
249 2355 3510
249 2502 3510
249 2635 3510
249 2749 3510
249 2849 3510
249 2941 3510
249 3025 3510
249 3101 3510
249 3170 3510
249 3233 3510
249 3291 3510
251 3346 3510
249 3400 3510
249 3456 3510
327 251 249
383 335 307
438 414 387
494 500 472
553 590 562
614 687 658
678 791 762
746 903 873
816 1033 1001
890 1177 1144
971 1332 1301
1059 1495 1466
1152 1663 1636
1250 1830 1806
1349 1994 1974
1449 2150 2133
1548 2296 2283
1645 2429 2419
1738 2547 2541
1826 2650 2647
1910 2739 2737
1989 2815 2815
2065 2886 2887
2142 2956 2959
2223 3028 3032
268 265 273
325 352 362
375 432 444
429 519 533
486 610 627
544 708 729
606 813 837
669 929 959
735 1061 1098
805 1209 1252
878 1366 1416
957 1531 1586
1043 1700 1758
1134 1867 1929
1228 2029 2094
1324 2185 2250
1420 2329 2394
1515 2461 2523
1607 2577 2636
1694 2677 2733
1778 2763 2814
1857 2838 2889
1935 2908 2959
2013 2977 3027
2096 3048 3098
249 281 325
268 369 417
317 450 504
369 537 597
422 631 696
478 730 802
536 837 919
596 955 1053
659 1092 1204
725 1242 1365
794 1401 1534
865 1568 1707
942 1736 1880
1026 1904 2050
1114 2066 2212
1205 2220 2362
1297 2363 2499
1388 2492 2620
1477 2605 2723
1564 2703 2810
1646 2786 2889
1725 2860 2960
1803 2929 3028
1882 2998 3094
1966 3069 3162
249 297 382
249 385 475
260 468 567
310 557 664
360 650 767
414 752 881
470 860 1009
527 983 1155
588 1122 1314
650 1275 1482
715 1437 1655
782 1604 1830
852 1773 2002
927 1940 2169
1007 2102 2326
1092 2255 2470
1179 2396 2598
1266 2522 2709
1352 2633 2802
1435 2728 2885
1516 2809 2960
1594 2882 3029
1671 2951 3094
1750 3018 3157
1835 3088 3223
249 313 437
249 402 537
249 486 632
254 576 735
304 671 843
353 774 967
407 885 1108
462 1012 1263
519 1154 1429
578 1309 1602
640 1472 1777
704 1641 1952
770 1810 2122
839 1977 2284
911 2138 2434
987 2289 2570
1067 2428 2688
1149 2552 2788
1231 2661 2877
1311 2753 2956
1389 2832 3029
1465 2904 3095
1541 2972 3158
1618 3039 3219
1702 3108 3283
249 330 497
249 420 603
249 504 701
249 596 809
249 692 926
295 797 1062
346 910 1213
399 1040 1376
453 1186 1548
510 1343 1723
569 1508 1899
629 1677 2073
692 1847 2239
757 2013 2395
824 2173 2537
892 2323 2663
965 2460 2770
1040 2582 2863
1116 2687 2948
1192 2776 3025
1266 2854 3095
1340 2926 3159
1413 2993 3219
1489 3059 3278
1572 3127 3340
249 346 559
249 438 671
249 523 774
249 615 887
249 714 1017
249 819 1164
289 936 1324
338 1070 1493
392 1218 1669
445 1377 1846
501 1543 2021
559 1714 2191
619 1884 2352
680 2050 2501
743 2208 2633
807 2356 2748
872 2491 2846
940 2610 2936
1010 2713 3018
1080 2799 3092
1150 2876 3159
1219 2947 3221
1290 3013 3279
1363 3079 3336
1443 3146 3395
249 363 627
249 455 742
249 542 850
249 636 974
249 735 1116
249 843 1273
249 963 1440
282 1100 1614
332 1251 1791
383 1413 1968
437 1580 2141
492 1750 2306
549 1920 2460
607 2086 2599
667 2243 2720
727 2389 2824
789 2521 2919
850 2638 3006
912 2737 3084
976 2822 3155
1041 2898 3220
1106 2968 3280
1172 3034 3336
1241 3098 3391
1318 3165 3449
249 379 695
249 473 815
249 561 933
249 656 1070
249 757 1223
249 866 1386
249 991 1559
249 1131 1736
274 1285 1913
323 1447 2088
375 1617 2257
427 1788 2416
482 1957 2561
537 2122 2690
594 2278 2799
652 2422 2898
710 2551 2989
768 2665 3073
825 2761 3148
883 2845 3217
940 2920 3280
1000 2989 3337
1061 3054 3391
1127 3118 3445
1200 3184 3501
249 396 765
249 491 895
249 581 1025
249 677 1174
249 780 1335
249 891 1503
249 1018 1680
249 1163 1858
249 1319 2035
266 1483 2206
317 1653 2369
366 1824 2520
418 1994 2655
471 2157 2771
525 2311 2874
580 2454 2969
635 2581 3057
691 2692 3137
745 2785 3210
798 2867 3277
851 2941 3337
903 3009 3393
959 3074 3445
1018 3137 3497
1088 3202 3510
249 413 843
249 509 983
249 600 1125
249 697 1281
249 802 1449
249 916 1625
249 1048 1802
249 1195 1980
249 1353 2154
249 1519 2321
260 1690 2476
308 1861 2617
358 2030 2740
408 2192 2847
460 2345 2946
512 2485 3038
565 2609 3122
617 2717 3199
668 2807 3270
719 2889 3334
768 2962 3392
818 3030 3446
866 3094 3497
921 3156 3510
983 3220 3510
