Toning/Toning-Warm&Soft&Colorful.3dl
#25pt 3DLUT created by 3D LUT Creator Pro (c) Oleg Sharonov
#Copyright Oleg Sharonov
#IMAGEPROFILE sRGB IEC61966-2.1 v.2.10
#INPUTGAMMA sRGB IEC61966-2.1 v.2.10
#OUTPUTGAMMA sRGB IEC61966-2.1 v.2.10
0 256 512 768 1023
0 0 324
1 1 935
3 3 1547
6 6 2160
9 9 2772
0 1021 321
1 1024 933
3 1027 1545
6 1030 2157
9 1033 2769
0 2045 318
1 2048 930
3 2051 1542
6 2054 2154
9 2057 2766
0 3069 315
1 3072 927
4 3075 1539
6 3078 2151
9 3080 2763
1 4093 314
1 4095 924
4 4095 1536
6 4095 2148
12 4095 2761
1353 167 392
1301 127 850
1325 303 1693
1437 498 2472
1544 673 3099
1366 1041 422
1314 1050 951
1345 1160 1724
1448 1317 2488
1552 1473 3097
1378 2053 562
1339 2050 1131
1396 2111 1815
1481 2213 2543
1575 2329 3095
1410 3030 812
1423 3041 1332
1467 3079 1953
1534 3142 2634
1616 3224 3093
1504 4001 1041
1516 4010 1542
1548 4034 2121
1601 4076 2632
1671 4095 3091
2583 717 805
2542 675 1073
2393 572 1416
2271 841 2537
2513 1250 3427
2601 1335 832
2560 1302 1103
2425 1221 1510
2298 1479 2581
2530 1835 3426
2633 2119 923
2592 2099 1200
2435 2142 1789
2376 2287 2715
2581 2541 3425
2664 2978 1037
2652 3022 1411
2431 3094 2154
2494 3153 2936
2667 3323 3424
2647 3982 1530
2587 3978 1941
2551 3948 2517
2640 4019 3117
2782 4094 3424
3688 1629 1564
3651 1595 1685
3524 1476 1724
3269 1324 2022
2941 1627 3434
3693 1990 1603
3668 1949 1711
3543 1840 1753
3299 1707 2110
2939 1984 3508
3707 2528 1730
3672 2504 1854
3589 2395 1844
3389 2290 2359
2981 2592 3650
3727 3172 1989
3694 3154 2116
3626 3080 2052
3362 3183 2836
3093 3308 3756
3757 3849 2464
3738 3834 2541
3735 3909 2399
3283 4062 3402
3288 4066 3757
4095 2856 2668
4095 2827 2638
4095 2733 2539
4095 2534 2336
3933 2360 2666
4095 2947 2708
4095 2921 2678
4095 2832 2581
4095 2648 2383
3961 2474 2749
4095 3205 2847
4095 3183 2819
4095 3110 2727
4095 2961 2542
4045 2786 2995
4095 3599 3159
4095 3582 3133
4095 3525 3047
4095 3411 2877
4095 3234 3399
4095 4038 3864
4095 4037 3859
4095 4010 3778
4095 3930 3572
4095 4095 4095
