Toning/Toning-Cooler.3dl
#25pt 3DLUT created by 3D LUT Creator Pro (c) Oleg Sharonov
#Copyright Oleg Sharonov
#IMAGEPROFILE sRGB IEC61966-2.1 v.2.10
#INPUTGAMMA sRGB IEC61966-2.1 v.2.10
#OUTPUTGAMMA sRGB IEC61966-2.1 v.2.10
0 256 512 768 1023
0 0 0
0 419 537
0 928 1141
0 1296 1577
0 1341 1631
0 989 0
0 1050 1096
0 1328 1424
0 1600 1740
0 1635 1784
0 1988 0
0 1988 1549
0 2093 2173
0 2259 2382
0 2282 2409
0 3016 0
0 3016 1548
3 3016 2954
0 3112 3202
0 3127 3225
0 4095 0
0 4095 1548
3 4095 2954
3 4095 3971
3 4095 4095
708 0 0
158 506 944
0 974 1400
0 1325 1786
0 1369 1835
783 969 107
332 1096 1151
0 1375 1500
0 1634 1831
0 1668 1873
707 1988 0
707 1988 1549
0 2121 2207
0 2284 2413
0 2307 2441
707 3016 3
706 3016 1548
707 3016 2954
0 3129 3222
0 3144 3245
708 4095 3
706 4095 1548
708 4095 2954
708 4095 3971
708 4095 4095
1515 0 0
1149 563 1396
520 1099 1926
260 1432 2222
217 1473 2263
1952 681 68
1325 1079 1497
778 1412 2104
481 1685 2391
442 1720 2429
1667 1949 386
1515 1988 1549
872 2177 2274
78 2368 2525
0 2392 2553
1515 3016 3
1515 3016 1548
1515 3016 2954
644 3174 3275
490 3194 3304
1516 4095 3
1515 4095 1548
1515 4095 2953
1515 4095 3971
1515 4095 4095
2615 3 0
2618 0 1541
1703 1267 2595
1375 1555 3164
1334 1602 3185
2915 585 0
2619 987 1540
1829 1532 2687
1522 1772 3243
1472 1815 3263
3433 1489 471
3032 1767 1698
2181 2161 2841
1842 2354 3324
1799 2381 3366
2913 2929 735
2966 2915 1652
2616 3016 2954
1974 3224 3333
1902 3248 3368
2758 4066 673
2663 4086 1590
2617 4095 2954
2617 4095 3971
2618 4095 4095
4094 6 0
4095 0 1519
4095 0 2950
3424 1522 3682
3282 1652 3751
4095 857 635
4095 972 1516
4095 988 2949
3494 1732 3733
3348 1851 3796
4095 1887 1602
4095 1935 1855
4095 1987 2947
3679 2283 3850
3520 2382 3900
4095 2897 2632
4095 2916 2789
4095 3001 2992
3943 3081 3975
3772 3161 4010
4095 3944 3654
4095 3955 3797
4095 4008 3943
4095 4082 4067
4095 4095 4095
