Toning/Toning-ShapedSkin&Cyan.3dl
#25pt 3DLUT created by 3D LUT Creator Pro (c) Oleg Sharonov
#Copyright Oleg Sharonov
#IMAGEPROFILE 
#INPUTGAMMA 
#OUTPUTGAMMA 
0 43 86 128 171 214 256 299 341 384 427 469 512 555 597 640 682 725 768 810 853 896 938 981 1023 
0 0 0
0 3 44
0 3 104
0 10 189
0 43 291
0 96 384
0 153 487
0 212 587
0 272 686
0 332 787
0 391 886
0 449 983
0 507 1078
0 565 1172
0 620 1260
0 672 1345
0 723 1427
0 770 1504
0 815 1575
0 858 1642
0 897 1704
0 933 1763
0 969 1820
0 1006 1877
0 1046 1940
4 178 0
0 150 218
0 141 287
0 149 356
0 172 431
0 208 510
0 249 596
0 294 681
0 341 770
0 393 860
0 446 951
0 499 1041
0 550 1130
0 604 1217
0 655 1303
0 704 1384
0 752 1462
0 799 1537
0 841 1605
0 882 1671
0 919 1731
0 956 1789
0 990 1844
0 1026 1901
0 1065 1963
12 363 0
0 374 107
0 321 411
0 312 487
0 323 549
0 338 626
0 361 702
0 391 781
0 429 863
0 470 943
0 514 1027
0 560 1110
0 608 1194
0 655 1276
0 702 1356
0 748 1433
0 792 1507
0 835 1578
0 876 1645
0 914 1708
0 951 1767
0 986 1822
0 1019 1877
0 1053 1932
0 1091 1993
30 553 0
0 569 0
0 569 314
0 501 610
0 488 689
0 497 752
0 509 820
0 523 896
0 547 971
0 576 1048
0 611 1125
0 649 1201
0 687 1278
0 729 1354
0 769 1428
0 810 1501
0 850 1571
0 889 1638
0 927 1702
0 963 1761
0 996 1818
0 1029 1872
0 1061 1925
0 1094 1979
0 1130 2037
56 743 0
0 758 0
0 763 190
0 762 526
0 681 810
0 664 890
0 667 953
0 681 1014
0 693 1088
0 709 1160
0 732 1233
0 758 1305
0 789 1377
0 821 1447
0 855 1515
0 890 1584
0 925 1649
0 960 1713
0 994 1773
0 1026 1830
0 1058 1884
0 1088 1936
0 1117 1987
0 1148 2039
0 1182 2096
94 931 0
27 942 0
0 954 74
0 954 402
0 953 746
0 856 1007
0 838 1088
0 838 1151
0 846 1210
0 860 1272
0 871 1344
0 887 1413
0 907 1481
0 931 1547
0 959 1613
0 986 1677
0 1016 1739
0 1046 1799
0 1076 1856
0 1105 1911
0 1133 1963
0 1160 2013
0 1188 2062
0 1216 2112
0 1248 2167
136 1114 0
76 1123 0
0 1135 47
0 1140 289
0 1141 613
0 1139 960
0 1028 1200
0 1005 1280
0 1002 1343
0 1009 1401
0 1021 1456
0 1030 1520
0 1041 1586
0 1057 1652
0 1077 1715
0 1098 1777
0 1122 1837
0 1146 1895
0 1172 1950
0 1197 2002
0 1222 2053
0 1246 2101
0 1271 2147
0 1297 2196
0 1326 2250
178 1293 0
125 1300 5
48 1310 66
0 1322 184
0 1321 502
0 1321 821
0 1319 1170
0 1191 1387
0 1168 1466
0 1162 1527
0 1166 1584
0 1175 1638
0 1188 1690
0 1195 1755
0 1207 1819
0 1222 1880
0 1240 1938
0 1260 1995
0 1281 2049
0 1302 2101
0 1323 2150
0 1345 2196
0 1367 2243
0 1391 2290
0 1417 2342
219 1464 0
173 1470 40
108 1479 92
0 1491 167
0 1495 400
0 1496 712
0 1495 1024
0 1479 1358
0 1350 1566
0 1324 1645
0 1317 1706
0 1319 1762
0 1326 1815
0 1337 1866
0 1349 1921
0 1358 1983
0 1370 2042
0 1385 2099
0 1401 2153
0 1419 2204
0 1437 2252
0 1455 2298
0 1474 2344
0 1495 2391
0 1519 2442
260 1629 44
219 1634 80
164 1641 127
70 1651 191
0 1662 306
0 1662 612
0 1662 916
0 1661 1226
0 1631 1539
0 1504 1741
0 1477 1822
0 1470 1882
0 1471 1938
0 1476 1991
0 1486 2042
0 1500 2091
0 1510 2146
0 1520 2204
0 1532 2258
0 1546 2310
0 1561 2359
0 1576 2405
0 1593 2450
0 1611 2497
0 1632 2549
299 1788 94
263 1793 126
215 1798 166
136 1807 224
4 1818 298
0 1823 520
0 1823 818
0 1823 1115
0 1822 1425
0 1778 1714
0 1656 1913
0 1629 1997
0 1622 2058
0 1622 2114
0 1627 2167
0 1636 2217
0 1648 2266
0 1662 2312
0 1673 2364
0 1683 2417
0 1695 2467
0 1707 2514
0 1721 2561
0 1737 2608
0 1756 2660
340 1942 146
307 1946 174
263 1951 210
194 1959 261
89 1969 328
0 1979 438
0 1979 729
0 1979 1019
0 1979 1308
0 1978 1619
0 1923 1886
0 1808 2084
0 1781 2172
0 1774 2234
0 1775 2291
0 1780 2344
0 1788 2394
0 1799 2442
0 1812 2487
0 1826 2529
0 1838 2576
0 1848 2625
0 1859 2672
0 1872 2721
0 1888 2774
379 2094 202
350 2098 226
309 2102 258
248 2109 304
158 2118 363
12 2129 438
0 2134 649
0 2134 933
0 2134 1216
0 2134 1498
0 2132 1808
0 2068 2057
0 1962 2255
0 1934 2350
0 1929 2412
0 1930 2470
0 1935 2523
0 1943 2573
0 1953 2620
0 1965 2664
0 1978 2706
0 1991 2745
0 2006 2785
0 2017 2836
0 2031 2891
420 2245 258
393 2248 281
356 2252 310
299 2258 351
221 2267 406
106 2277 472
0 2288 579
0 2288 857
0 2288 1134
0 2288 1410
0 2288 1685
0 2286 1994
0 2216 2228
0 2120 2427
0 2091 2530
0 2088 2594
0 2089 2652
0 2094 2706
0 2102 2756
0 2112 2802
0 2123 2845
0 2135 2886
0 2148 2926
0 2163 2967
0 2180 3011
462 2396 320
437 2399 339
402 2403 365
351 2408 403
278 2416 452
179 2426 514
22 2437 587
0 2442 789
0 2442 1062
0 2442 1333
0 2442 1602
0 2442 1875
0 2440 2176
0 2368 2399
0 2282 2599
0 2252 2715
0 2250 2779
0 2252 2837
0 2258 2891
0 2266 2940
0 2275 2986
0 2286 3029
0 2297 3071
0 2310 3113
0 2326 3159
505 2549 383
482 2552 400
450 2555 425
402 2560 458
334 2567 504
245 2577 561
121 2588 628
0 2599 731
0 2599 998
0 2599 1265
0 2599 1530
0 2599 1793
0 2598 2065
0 2596 2355
0 2525 2570
0 2450 2770
0 2417 2903
0 2417 2968
0 2421 3027
0 2427 3080
0 2435 3129
0 2444 3175
0 2454 3219
0 2467 3264
0 2481 3313
551 2704 450
528 2707 466
499 2710 487
453 2715 519
390 2722 561
307 2730 613
199 2741 676
34 2753 748
0 2758 943
0 2758 1206
0 2758 1467
0 2758 1726
0 2758 1982
0 2757 2252
0 2755 2532
0 2689 2740
0 2624 2940
0 2589 3095
0 2590 3161
0 2594 3220
0 2601 3273
0 2609 3323
0 2619 3370
0 2630 3418
0 2644 3469
598 2863 520
577 2865 534
549 2868 554
506 2873 583
446 2879 623
369 2887 671
270 2897 729
138 2909 797
0 2921 895
0 2921 1155
0 2921 1413
0 2921 1669
0 2921 1922
0 2921 2171
0 2919 2437
0 2917 2705
0 2859 2909
0 2805 3106
0 2766 3292
0 2769 3357
0 2774 3416
0 2781 3470
0 2790 3522
0 2800 3573
0 2814 3628
647 3025 593
628 3028 607
602 3031 625
560 3035 652
503 3041 689
430 3049 734
337 3059 789
220 3070 852
46 3083 924
0 3088 1112
0 3088 1367
0 3088 1620
0 3088 1871
0 3088 2117
0 3088 2358
0 3087 2619
0 3084 2874
0 3037 3074
0 2992 3268
0 2959 3458
0 2954 3558
0 2961 3618
0 2969 3674
0 2979 3731
0 2991 3790
699 3193 671
681 3195 684
656 3198 700
617 3202 726
563 3208 760
492 3216 803
404 3225 854
296 3236 913
155 3249 981
0 3261 1077
0 3261 1330
0 3262 1580
0 3262 1828
0 3262 2072
0 3262 2311
0 3262 2543
0 3259 2796
0 3257 3038
0 3221 3235
0 3186 3423
0 3160 3608
0 3147 3763
0 3154 3826
0 3164 3887
0 3176 3953
754 3366 752
736 3368 764
713 3371 780
676 3375 804
625 3380 836
558 3388 876
472 3397 924
369 3408 981
243 3420 1045
59 3434 1117
0 3440 1299
0 3440 1548
0 3440 1794
0 3440 2037
0 3440 2274
0 3440 2504
0 3440 2726
0 3438 2969
0 3436 3196
0 3412 3390
0 3385 3572
0 3365 3752
0 3352 3934
0 3356 4043
150 3362 4095
812 3545 839
795 3547 850
773 3550 864
738 3554 887
689 3559 917
625 3567 955
543 3575 1001
443 3586 1054
324 3598 1115
174 3612 1184
0 3626 1276
0 3626 1523
0 3626 1768
0 3626 2009
0 3626 2245
0 3626 2474
0 3626 2695
0 3626 2908
0 3624 3136
0 3622 3349
0 3609 3537
0 3588 3715
0 3574 3896
0 3566 4087
1015 3507 4095
873 3731 929
857 3733 939
836 3736 954
803 3740 975
756 3745 1003
695 3752 1039
617 3761 1083
520 3771 1134
406 3784 1192
268 3797 1258
76 3812 1330
0 3819 1506
0 3819 1750
0 3819 1990
0 3819 2225
0 3819 2453
0 3819 2673
0 3819 2883
0 3819 3084
0 3817 3298
0 3815 3497
0 3811 3681
0 3796 3858
0 3787 4047
1146 3713 4095
938 3924 1025
923 3926 1035
902 3929 1048
871 3933 1068
827 3938 1095
768 3945 1130
693 3954 1171
600 3964 1220
488 3976 1276
357 3990 1339
196 4005 1408
0 4020 1496
0 4020 1739
0 4020 1978
0 4020 2213
0 4020 2440
0 4020 2660
0 4020 2870
0 4020 3069
0 4020 3255
0 4018 3456
0 4016 3644
0 4014 3825
0 4007 4009
1167 3931 4095
1660 4044 1614
1642 4047 1613
1618 4051 1613
1579 4057 1613
1524 4066 1612
1451 4077 1611
1354 4092 1609
1228 4093 1607
1067 4094 1604
860 4094 1602
589 4095 1600
232 4095 1600
0 4095 1735
0 4095 1974
0 4095 2209
0 4095 2436
0 4095 2655
0 4095 2865
0 4095 3064
0 4095 3251
0 4095 3426
0 4095 3612
0 4095 3795
0 4095 3980
1165 4095 4095
75 0 0
27 0 107
0 0 230
0 0 287
0 44 358
0 101 444
0 160 533
0 220 628
0 276 722
0 334 816
0 395 912
0 454 1007
0 512 1100
0 567 1190
0 622 1278
0 674 1361
0 725 1441
0 772 1516
0 818 1587
0 859 1653
0 899 1715
0 935 1773
0 972 1830
0 1008 1886
0 1048 1949
140 178 0
105 171 192
48 152 293
26 163 378
13 186 454
5 219 534
0 257 614
0 301 699
0 351 787
0 400 875
0 453 965
0 504 1054
0 556 1143
0 609 1230
0 659 1315
0 708 1395
0 756 1472
0 801 1546
0 844 1615
0 884 1679
0 922 1740
0 958 1797
0 993 1852
0 1028 1909
0 1067 1971
133 363 0
88 376 106
77 334 399
32 324 486
15 331 566
3 342 643
0 367 722
0 397 800
0 435 878
0 477 961
0 519 1043
0 565 1125
0 612 1207
0 658 1287
0 704 1368
0 750 1444
0 796 1518
0 838 1589
0 878 1655
0 916 1718
0 953 1776
0 987 1832
0 1021 1886
0 1055 1942
0 1093 2002
124 556 0
89 566 33
72 571 313
58 507 605
12 496 693
0 505 760
0 510 837
0 528 915
0 550 990
0 580 1066
0 614 1142
0 651 1218
0 690 1293
0 730 1368
0 770 1442
0 811 1513
0 851 1582
0 891 1649
0 928 1712
0 965 1772
0 998 1828
0 1030 1881
0 1063 1934
0 1096 1988
0 1132 2046
115 750 0
115 752 9
63 763 190
63 762 524
42 683 810
0 671 898
0 674 967
0 685 1029
0 694 1106
0 710 1180
0 732 1252
0 760 1322
0 789 1391
0 823 1460
0 856 1529
0 891 1595
0 927 1660
0 961 1723
0 995 1783
0 1028 1840
0 1058 1893
0 1089 1945
0 1119 1995
0 1150 2047
0 1184 2104
140 938 0
144 938 10
66 951 97
54 954 402
54 953 743
25 857 1012
0 842 1099
0 842 1165
0 851 1223
0 861 1287
0 871 1359
0 888 1428
0 908 1494
0 932 1560
0 959 1625
0 988 1688
0 1017 1749
0 1047 1809
0 1077 1866
0 1106 1920
0 1134 1972
0 1161 2021
0 1188 2070
0 1217 2120
0 1249 2175
173 1120 0
179 1120 20
106 1133 94
47 1141 289
47 1140 612
45 1139 958
5 1028 1205
0 1010 1291
0 1006 1353
0 1012 1411
0 1024 1466
0 1032 1532
0 1042 1599
0 1058 1663
0 1077 1726
0 1099 1787
0 1123 1846
0 1147 1904
0 1173 1959
0 1198 2011
0 1223 2061
0 1247 2108
0 1272 2156
0 1299 2204
0 1328 2258
210 1297 0
215 1297 42
150 1307 105
45 1321 192
40 1322 503
40 1322 820
34 1320 1169
0 1192 1393
0 1171 1474
0 1165 1535
0 1168 1592
0 1177 1645
0 1189 1700
0 1196 1765
0 1208 1828
0 1224 1889
0 1242 1948
0 1261 2004
0 1282 2058
0 1303 2109
0 1325 2158
0 1346 2204
0 1368 2250
0 1391 2297
0 1418 2349
247 1468 0
252 1469 72
193 1477 126
102 1488 201
37 1496 401
34 1495 712
34 1496 1023
25 1480 1359
0 1350 1573
0 1327 1652
0 1320 1713
0 1321 1769
0 1328 1822
0 1339 1873
0 1350 1929
0 1359 1991
0 1371 2051
0 1386 2107
0 1402 2161
0 1420 2212
0 1438 2260
0 1457 2306
0 1476 2351
0 1496 2398
0 1520 2450
284 1632 23
288 1633 108
235 1640 155
154 1649 220
31 1662 308
29 1662 612
29 1662 916
29 1662 1225
11 1632 1539
0 1504 1749
0 1480 1828
0 1472 1888
0 1473 1944
0 1478 1997
0 1488 2048
0 1502 2097
0 1511 2153
0 1521 2211
0 1533 2266
0 1547 2317
0 1562 2366
0 1578 2412
0 1594 2458
0 1612 2505
0 1633 2556
322 1790 75
325 1791 149
277 1797 190
205 1805 248
100 1817 323
26 1823 520
24 1823 818
24 1823 1114
24 1822 1424
0 1779 1715
0 1657 1920
0 1631 2002
0 1624 2063
0 1624 2119
0 1629 2172
0 1638 2223
0 1650 2271
0 1664 2317
0 1674 2371
0 1684 2424
0 1696 2474
0 1709 2521
0 1723 2567
0 1738 2615
0 1757 2667
