Toning/Toning-Contrast film emulation.3dl
#25pt 3DLUT created by 3D LUT Creator Pro (c) Oleg Sharonov
#Copyright Oleg Sharonov
#INPUTGAMMA sRGB
#IMAGEPROFILE sRGB
#OUTPUTGAMMA sRGB
0 128 256 384 512 640 768 896 1023
0 0 0
0 0 243
0 0 518
0 0 847
0 0 1258
0 0 1734
0 0 2225
0 0 2673
1315 1311 2814
0 201 0
0 200 225
0 52 524
0 0 847
0 0 1258
0 0 1734
0 0 2225
0 0 2673
1315 1311 2814
0 428 0
0 438 242
0 445 506
0 337 824
0 0 1258
0 0 1734
0 0 2225
0 0 2673
1315 1311 2814
0 702 0
0 724 265
0 756 540
0 791 914
0 709 1304
0 505 1807
0 0 2225
0 0 2673
1315 1311 2814
0 1051 0
0 1083 308
0 1137 620
0 1196 1018
0 1254 1476
0 1190 1910
0 1036 2309
0 694 2837
1315 1311 2814
0 1447 0
0 1491 363
0 1559 732
0 1622 1141
0 1690 1621
0 1756 2106
0 1714 2523
0 1607 2855
1561 1963 3001
0 1844 0
0 1899 430
0 1973 868
0 2036 1294
0 2098 1781
0 2154 2264
0 2203 2687
368 2276 3020
1930 2647 3255
943 2404 652
934 2426 793
929 2481 1135
917 2553 1547
856 2616 1976
692 2652 2428
924 2776 2838
1490 2987 3238
2334 3163 3491
1864 2749 1410
1870 2764 1470
1898 2815 1668
1942 2895 1972
2020 3005 2336
2132 3131 2713
2302 3268 3062
2491 3413 3399
2729 3568 3697
242 0 0
205 0 225
0 0 518
0 0 847
0 0 1258
0 0 1734
0 0 2225
0 0 2673
1315 1311 2814
256 208 0
197 200 188
0 46 523
0 0 847
0 0 1258
0 0 1734
0 0 2225
0 0 2673
1315 1311 2814
289 440 0
231 458 212
0 445 506
0 335 825
0 0 1258
0 0 1734
0 0 2225
0 0 2673
1315 1311 2814
330 749 0
0 756 0
0 756 540
0 790 914
0 707 1304
0 503 1807
0 0 2225
0 0 2673
1315 1311 2814
369 1135 0
0 1100 0
0 1137 620
0 1196 1018
0 1254 1476
0 1188 1910
0 1035 2309
0 691 2837
1315 1311 2814
414 1547 0
0 1489 0
0 1559 732
0 1622 1141
0 1689 1621
0 1756 2105
0 1714 2523
0 1605 2855
1561 1962 3000
531 1966 0
0 1880 0
0 1973 868
0 2036 1294
0 2098 1781
0 2154 2264
0 2203 2687
365 2275 3020
1929 2647 3255
1191 2452 659
1134 2463 788
929 2481 1135
916 2553 1546
856 2615 1976
691 2652 2427
924 2776 2838
1490 2987 3238
2333 3163 3490
1954 2776 1428
1947 2787 1485
1898 2815 1668
1942 2895 1972
2020 3005 2336
2132 3131 2713
2302 3268 3062
2491 3413 3399
2729 3568 3697
513 0 0
461 0 231
454 0 488
159 0 858
0 0 1258
0 0 1734
0 0 2225
0 0 2673
1315 1311 2814
540 230 0
487 196 203
455 0 489
160 0 858
0 0 1258
0 0 1734
0 0 2225
0 0 2673
1315 1311 2814
616 488 0
568 491 187
499 488 449
0 314 858
0 0 1258
0 0 1734
0 0 2225
0 0 2673
1315 1311 2814
717 811 0
702 837 0
588 885 494
0 800 927
0 704 1302
0 497 1807
0 0 2225
0 0 2673
1315 1311 2814
871 1212 0
834 1238 0
561 1331 437
0 1210 1023
0 1253 1476
0 1185 1909
0 1031 2309
0 684 2838
1315 1311 2814
1091 1663 0
1024 1683 0
93 1655 0
0 1637 1138
0 1689 1621
0 1756 2105
0 1711 2522
0 1603 2854
1559 1959 2999
1352 2106 0
1259 2119 0
31 2011 0
0 2051 1287
0 2097 1781
0 2154 2263
0 2203 2687
357 2271 3020
1928 2645 3254
1716 2558 699
1679 2576 821
1595 2627 1156
1059 2589 1556
853 2615 1976
688 2651 2427
923 2776 2838
1490 2986 3238
2333 3161 3490
2211 2857 1489
2203 2868 1547
2192 2908 1736
2001 2914 1986
2020 3005 2336
2132 3131 2713
2302 3268 3062
2491 3413 3399
2729 3568 3697
843 0 0
791 0 237
790 0 501
804 0 845
562 0 1227
0 0 1734
0 0 2225
0 0 2673
1315 1311 2814
920 243 0
895 0 125
790 0 501
805 0 845
562 0 1227
0 0 1734
0 0 2225
0 0 2673
1315 1311 2814
1028 545 0
1056 533 0
955 500 468
853 0 892
563 0 1227
0 0 1734
0 0 2225
0 0 2673
1315 1311 2814
1215 923 0
1236 940 0
1159 981 464
1063 997 917
467 720 1393
0 488 1808
0 0 2225
0 0 2673
1315 1311 2814
1449 1353 0
1453 1373 0
1388 1466 347
1266 1535 1026
292 1388 1548
0 1180 1907
0 1024 2310
0 672 2840
1315 1311 2814
1727 1802 0
1715 1820 0
1639 1889 0
1439 2045 1107
0 1794 1669
0 1755 2105
0 1707 2521
0 1598 2853
1557 1954 2998
2027 2224 0
2000 2239 0
1877 2307 0
1654 2495 1235
295 2262 1769
0 2153 2263
0 2202 2686
342 2265 3019
1926 2642 3253
2290 2698 754
2265 2720 874
2211 2790 1218
2126 2875 1667
1569 2815 2057
682 2649 2427
922 2775 2837
1489 2986 3238
2331 3160 3489
2563 2978 1596
2557 2992 1653
2550 3035 1838
2529 3101 2126
2299 3106 2409
2132 3131 2713
2302 3268 3062
2491 3413 3399
2729 3568 3697
1261 0 0
1229 0 265
1194 0 538
1237 0 896
1270 0 1290
1023 0 1672
179 0 2254
0 0 2673
1315 1311 2814
1392 241 0
1310 0 174
1194 0 538
1237 0 896
1270 0 1290
1023 0 1672
181 0 2254
0 0 2673
1315 1311 2814
1540 646 0
1556 615 0
1480 363 374
1297 0 902
1271 0 1290
1024 0 1672
188 0 2254
0 0 2673
1315 1311 2814
1796 1075 0
1821 1077 0
1816 1077 318
1690 1084 977
1536 796 1443
1019 0 1764
198 0 2254
0 0 2673
1315 1311 2814
2091 1537 0
2111 1552 0
2194 1612 0
1984 1693 1067
1864 1718 1612
1272 1438 2066
0 1000 2347
0 655 2841
1315 1311 2814
2397 1998 0
2407 2014 0
2445 2080 0
2244 2232 1155
2118 2300 1789
1500 2205 2270
0 1709 2541
0 1591 2851
1554 1946 2995
2693 2414 0
2693 2428 0
2689 2485 0
2469 2693 1326
2354 2776 1973
1766 2690 2428
0 2213 2702
317 2254 3017
1923 2638 3251
2833 2853 810
2814 2876 928
2769 2956 1287
2706 3058 1748
2606 3151 2224
2129 3094 2617
1168 2849 2866
1488 2985 3238
2328 3157 3487
2938 3128 1746
2934 3141 1800
2922 3182 1977
2903 3250 2257
2882 3332 2586
2676 3333 2846
2362 3291 3077
2491 3413 3399
2729 3568 3697
1737 0 0
1732 0 300
1638 0 604
1694 0 958
1744 0 1354
1780 0 1753
1542 0 2109
1122 0 2511
1315 1311 2814
1841 141 0
1782 0 241
1638 0 604
1694 0 958
1744 0 1354
1780 0 1753
1542 0 2109
1122 0 2511
1315 1311 2814
2108 774 0
2121 722 0
1924 0 304
1742 0 941
1745 0 1354
1781 0 1753
1543 0 2109
1123 0 2510
1315 1311 2814
2389 1242 0
2407 1232 0
2475 1172 0
2280 1149 1012
2072 774 1479
1825 0 1790
1544 0 2109
1125 0 2510
1315 1311 2814
2697 1730 0
2717 1737 0
2798 1761 0
2611 1849 1121
2513 1878 1729
2347 1681 2192
1825 1217 2484
1188 740 2668
1315 1311 2814
2983 2189 0
2997 2201 0
3056 2247 0
2869 2409 1253
2761 2479 1903
2654 2522 2427
2186 2301 2779
1409 1941 2977
1550 1935 2992
3224 2585 0
3231 2597 0
3157 2719 604
3041 2861 1482
2947 2937 2108
2859 2990 2620
2493 2938 2967
1762 2682 3181
1918 2632 3248
3277 3019 902
3265 3046 1027
3228 3123 1377
3176 3222 1834
3098 3301 2357
3032 3361 2798
2727 3325 3119
2199 3214 3363
2325 3152 3486
3249 3281 1953
3246 3292 2000
3237 3330 2161
3221 3394 2417
3210 3470 2716
3204 3546 3017
3030 3553 3264
2781 3529 3481
2729 3568 3697
2203 0 0
2229 0 339
2108 0 680
2124 0 1032
2175 0 1427
2212 0 1807
2235 0 2145
2048 0 2426
2171 1663 2945
2219 0 0
2243 0 320
2108 0 680
2124 0 1032
2175 0 1427
2212 0 1807
2235 0 2145
2048 0 2426
2172 1663 2945
2657 934 0
2657 858 0
2351 0 392
2157 0 1007
2175 0 1427
2212 0 1807
2235 0 2145
2049 0 2426
2172 1664 2945
2933 1442 0
2944 1423 0
2977 1324 0
2778 1276 1109
2546 905 1559
2252 0 1821
2236 0 2145
2049 0 2426
2173 1664 2945
3205 1939 0
3219 1938 0
3230 1944 240
3088 2040 1270
3005 2053 1866
2855 1876 2299
2695 1589 2600
2222 854 2668
2174 1665 2945
3425 2381 0
3436 2388 0
3375 2481 645
3286 2591 1468
3204 2651 2070
3124 2694 2559
3027 2595 2907
2681 2338 3136
2394 2254 3179
3590 2734 0
3540 2797 383
3459 2914 1141
3401 3011 1754
3336 3076 2292
3281 3131 2739
3232 3169 3107
2931 3028 3360
2675 2895 3438
3569 3201 1171
3559 3223 1292
3530 3288 1642
3488 3358 2079
3448 3427 2519
3413 3485 2910
3379 3529 3268
3145 3509 3544
2922 3377 3651
3504 3439 2209
3503 3449 2250
3501 3483 2386
3500 3538 2600
3502 3605 2857
3507 3680 3141
3514 3752 3429
3368 3760 3652
3193 3748 3830
2810 975 757
2803 980 837
2788 995 1075
2764 1006 1390
2765 990 1735
2760 903 2076
2779 887 2392
2912 1412 2833
2940 2189 3205
2816 989 758
2803 980 838
2788 995 1075
2764 1006 1390
2765 990 1735
2760 903 2076
2780 887 2392
2912 1413 2833
2940 2189 3205
2998 1395 834
2981 1373 903
2923 1290 1125
2818 1118 1416
2766 990 1735
2760 904 2076
2780 887 2392
2912 1413 2834
2940 2190 3205
3178 1820 933
3174 1821 1005
3165 1840 1255
3130 1796 1590
3030 1612 1912
2866 1188 2161
2780 887 2392
2913 1414 2834
2941 2190 3205
3378 2263 1053
3374 2271 1124
3365 2305 1382
3353 2345 1744
3337 2334 2133
3249 2157 2459
3143 1958 2736
3000 1668 2922
2941 2191 3206
3539 2689 1215
3537 2701 1291
3533 2741 1538
3528 2784 1889
3524 2830 2292
3482 2858 2698
3411 2773 3009
3328 2649 3270
3108 2634 3391
3655 3055 1485
3655 3067 1546
3658 3108 1754
3661 3159 2063
3637 3220 2489
3612 3268 2869
3588 3305 3217
3534 3252 3489
3330 3173 3625
3757 3392 1765
3758 3403 1808
3752 3440 2008
3741 3495 2333
3733 3553 2686
3721 3606 3041
3709 3650 3373
3702 3696 3669
3526 3610 3825
3730 3599 2486
3731 3608 2517
3736 3636 2624
3744 3680 2796
3758 3740 3022
3776 3806 3278
3796 3873 3541
3817 3940 3795
3706 3949 3984
3020 1519 1256
3024 1534 1313
3037 1582 1494
3057 1665 1771
3104 1792 2111
3177 1961 2469
3273 2179 2810
3380 2428 3148
3504 2718 3463
3020 1519 1256
3024 1534 1313
3037 1582 1494
3057 1665 1771
3104 1792 2111
3177 1961 2469
3273 2179 2810
3380 2428 3148
3504 2718 3464
3129 1771 1338
3122 1759 1386
3106 1737 1545
3072 1700 1783
3104 1792 2111
3177 1961 2469
3273 2179 2810
3380 2428 3148
3504 2718 3464
3270 2113 1467
3271 2122 1521
3276 2151 1698
3267 2146 1951
3237 2106 2232
3209 2043 2497
3273 2179 2810
3380 2428 3148
3504 2718 3464
3422 2485 1634
3421 2493 1685
3423 2526 1860
3437 2582 2133
3442 2614 2433
3429 2588 2703
3417 2545 2952
3408 2499 3176
3505 2719 3464
3553 2844 1854
3553 2851 1902
3557 2882 2065
3570 2935 2319
3588 2998 2616
3606 3042 2898
3603 3025 3153
3608 2999 3390
3620 3002 3590
3664 3170 2123
3666 3179 2165
3672 3211 2307
3687 3261 2528
3709 3319 2787
3737 3382 3069
3772 3439 3350
3784 3432 3585
3802 3433 3788
3764 3478 2416
3766 3486 2449
3776 3514 2562
3794 3559 2743
3817 3614 2975
3851 3675 3235
3893 3739 3502
3939 3799 3757
3961 3798 3957
3834 3690 2680
3837 3697 2707
3848 3723 2799
3869 3768 2957
3898 3824 3161
3937 3890 3396
3985 3961 3641
4039 4030 3877
4095 4095 4095
