Toning/Toning-Instagrammish 2.3dl
#25pt 3DLUT created by 3D LUT Creator Pro (c) Oleg Sharonov
#Copyright Oleg Sharonov
#IMAGEPROFILE sRGB IEC61966-2.1 v.2.10
#INPUTGAMMA sRGB IEC61966-2.1 v.2.10
#OUTPUTGAMMA sRGB IEC61966-2.1 v.2.10
0 128 256 384 512 640 768 896 1023
0 339 485
0 299 720
0 271 1012
0 304 1298
0 342 1528
1 365 1736
0 379 1937
0 388 2136
2 395 2333
0 788 477
0 746 708
38 773 1002
173 819 1278
343 866 1492
464 920 1690
521 982 1887
532 1026 2088
496 895 2313
0 1258 472
38 1192 715
0 1170 1015
43 1229 1314
184 1256 1532
323 1305 1721
379 1401 1902
371 1493 2089
475 1248 2328
0 1729 468
154 1676 724
27 1636 1018
0 1694 1327
43 1719 1549
126 1767 1736
157 1888 1902
125 2029 2070
270 1688 2334
0 2201 464
296 2153 746
113 2144 1013
34 2178 1327
0 2203 1548
20 2251 1732
29 2378 1888
1 2545 2039
4 2235 2336
0 2674 461
401 2619 772
226 2633 1019
88 2640 1344
18 2651 1568
1 2687 1748
0 2801 1898
0 2969 2036
524 2847 2243
1 3147 458
448 3083 797
268 3091 1044
92 3080 1395
24 3056 1627
0 3068 1802
1 3160 1945
0 3318 2074
1283 3284 2174
1 3621 457
450 3555 810
252 3555 1068
59 3541 1445
0 3462 1692
2 3432 1873
0 3493 2018
0 3629 2141
2036 3591 2155
4 4095 457
402 4068 754
358 4092 993
195 4095 1288
3 4095 1555
2045 3838 1888
3042 3941 2030
3507 4034 2126
4 4095 2337
735 326 467
711 291 714
782 298 1001
814 405 1274
854 523 1501
930 607 1707
1027 651 1908
1097 665 2112
872 648 2341
732 778 460
702 742 705
682 718 1013
706 746 1315
734 781 1554
753 803 1766
764 817 1969
772 826 2169
779 833 2366
816 1226 476
696 1214 698
671 1189 1014
761 1160 1331
875 1149 1563
929 1151 1773
947 1163 1975
957 1173 2173
1020 1145 2364
819 1699 512
689 1689 692
746 1713 989
695 1694 1327
804 1617 1593
904 1590 1797
928 1610 1992
941 1623 2186
1146 1496 2360
838 2162 552
683 2166 686
817 2200 974
786 2246 1262
729 2197 1566
779 2153 1795
784 2190 1983
771 2227 2172
1127 1922 2360
896 2622 583
678 2645 680
838 2675 971
855 2725 1240
761 2713 1534
750 2683 1775
749 2739 1955
703 2832 2125
1300 2492 2316
979 3084 603
673 3127 676
831 3149 974
853 3183 1251
748 3162 1554
734 3115 1802
763 3158 1976
747 3282 2121
1637 3019 2247
1037 3554 609
671 3611 673
825 3625 976
850 3649 1257
726 3620 1573
683 3536 1846
737 3525 2034
771 3628 2173
2128 3447 2197
818 4067 574
671 4095 673
883 4095 964
1444 4095 1262
2207 4018 1655
2960 4017 1897
3494 4068 2060
3775 4089 2190
778 4095 2370
1442 322 462
1366 303 734
1397 287 1011
1427 315 1297
1440 415 1546
1513 512 1754
1662 559 1944
1802 565 2135
1434 624 2389
1395 823 468
1403 753 714
1386 743 1012
1288 777 1330
1264 847 1585
1272 890 1803
1296 910 2008
1315 923 2208
1271 963 2401
1435 1248 453
1397 1227 711
1379 1217 1012
1402 1230 1309
1440 1251 1563
1470 1268 1786
1491 1279 1995
1507 1288 2199
1518 1294 2399
1444 1718 465
1273 1714 708
1371 1693 1012
1397 1705 1312
1488 1670 1573
1549 1671 1792
1564 1690 2000
1572 1705 2202
1666 1654 2395
1424 2195 495
1209 2181 705
1363 2171 1013
1457 2211 1282
1435 2197 1568
1486 2177 1799
1491 2217 1998
1477 2253 2195
1689 2077 2387
1471 2651 530
1193 2656 700
1358 2651 1013
1482 2683 1276
1455 2692 1551
1467 2680 1791
1471 2745 1977
1428 2837 2156
1733 2578 2351
1600 3096 557
1197 3136 697
1354 3131 1013
1468 3152 1284
1432 3145 1572
1443 3108 1823
1490 3156 2000
1480 3283 2151
1914 3057 2294
1726 3547 568
1201 3619 695
1351 3613 1013
1455 3625 1291
1401 3609 1591
1383 3538 1869
1458 3524 2061
1506 3627 2202
2294 3459 2248
1362 4092 543
1162 4095 692
1350 4095 1013
1543 4095 1259
2104 4056 1597
2749 4018 1871
3353 4058 2054
3724 4088 2208
1518 4095 2401
2060 315 451
2001 380 740
2009 298 1013
2030 298 1303
2047 323 1571
2120 390 1789
2278 425 1969
2445 420 2145
2056 499 2430
2022 819 493
2019 753 714
2058 792 984
2022 754 1307
1900 801 1618
1886 863 1851
1931 888 2054
1961 904 2253
1794 1023 2438
2047 1250 457
2053 1167 730
1996 1220 1012
2018 1230 1310
1975 1270 1594
1998 1305 1823
2042 1315 2033
2075 1321 2237
2015 1379 2437
2048 1718 441
2009 1704 709
1991 1698 1012
2013 1705 1312
2053 1720 1576
2090 1733 1808
2118 1743 2024
2139 1750 2231
2154 1756 2434
2031 2201 448
1846 2219 704
1896 2185 1023
2009 2182 1314
2051 2194 1578
2089 2205 1810
2090 2246 2021
2081 2280 2226
2189 2190 2427
2070 2659 471
1792 2688 703
1874 2659 1028
2005 2660 1315
2049 2669 1579
2088 2677 1811
2093 2754 2002
2052 2847 2190
2202 2673 2399
2203 3085 494
1808 3160 704
1889 3137 1026
2003 3138 1317
2016 3133 1600
2056 3102 1850
2116 3154 2027
2111 3284 2182
2308 3121 2350
2354 3507 504
1818 3636 704
1901 3618 1025
2001 3616 1317
1984 3604 1617
1991 3540 1897
2081 3525 2091
2138 3626 2234
2552 3494 2311
1953 4095 479
1938 4095 821
1815 4095 1037
2001 4095 1318
2084 4085 1562
2596 4037 1860
3199 4048 2062
3636 4083 2226
2154 4095 2436
2548 297 425
2497 435 734
2511 348 1009
2526 286 1313
2552 300 1593
2623 325 1818
2766 347 1993
2931 362 2154
2659 364 2472
2514 813 501
2500 735 699
2533 807 974
2593 792 1268
2546 757 1598
2523 788 1865
2586 802 2070
2641 804 2269
2348 1025 2479
2542 1226 462
2519 1126 725
2475 1204 1013
2536 1248 1299
2543 1233 1601
2549 1259 1855
2616 1264 2061
2671 1257 2263
2505 1384 2472
2545 1697 426
2559 1606 717
2491 1642 1023
2493 1692 1329
2539 1709 1604
2582 1724 1843
2649 1715 2054
2701 1702 2260
2624 1777 2472
2531 2184 411
2483 2170 692
2462 2164 1013
2488 2171 1332
2537 2185 1606
2581 2197 1845
2614 2207 2064
2639 2214 2273
2658 2219 2477
2563 2641 419
2417 2676 687
2419 2656 1017
2484 2651 1333
2535 2662 1608
2580 2672 1847
2589 2737 2050
2567 2802 2252
2648 2701 2464
2675 3057 439
2444 3142 688
2453 3128 1014
2520 3125 1322
2533 3139 1610
2547 3115 1881
2613 3151 2066
2612 3270 2231
2699 3153 2426
2822 3455 454
2474 3613 688
2486 3604 1008
2550 3602 1310
2532 3617 1611
2499 3577 1915
2577 3541 2126
2638 3625 2275
2857 3524 2388
2526 4095 407
3006 4028 1111
2673 4065 1145
2445 4087 1351
2532 4095 1611
2588 4072 1859
3064 4047 2088
3538 4075 2259
2657 4095 2478
2959 268 384
2918 443 727
2914 359 1019
2916 281 1349
2941 267 1652
3007 301 1881
3125 329 2054
3269 348 2204
3156 435 2441
2933 816 482
2899 701 670
2923 775 979
2987 793 1285
2998 754 1609
3003 759 1887
3079 773 2086
3171 760 2267
2862 1012 2493
2944 1229 443
2901 1104 693
2865 1170 1015
2929 1229 1328
2974 1224 1628
3001 1235 1890
3085 1242 2085
3179 1221 2268
2966 1391 2489
2940 1702 396
2933 1571 694
2863 1613 1027
2890 1667 1363
2949 1690 1651
2999 1710 1893
3095 1709 2083
3191 1675 2269
3063 1773 2493
2921 2190 367
2909 2115 669
2863 2123 1018
2883 2150 1366
2946 2170 1654
2998 2187 1896
3086 2176 2093
3160 2142 2292
3094 2205 2513
2936 2649 362
2871 2634 657
2843 2627 1016
2878 2635 1369
2943 2651 1657
2996 2664 1898
3035 2673 2117
3062 2679 2325
3082 2684 2528
3014 3069 378
2907 3099 661
2889 3094 1012
2937 3093 1352
2992 3108 1637
2996 3140 1899
3034 3147 2118
3037 3225 2304
3087 3148 2513
3137 3461 405
2979 3550 665
2967 3552 1001
3016 3550 1323
3042 3578 1609
2995 3618 1900
3003 3581 2159
3062 3623 2326
3159 3551 2478
3434 3891 993
3408 4040 1349
3250 4045 1368
3061 4055 1473
2969 4076 1665
2995 4095 1900
3103 4072 2124
3486 4071 2315
3082 4095 2529
3324 226 323
3300 402 713
3271 301 1039
3250 215 1420
3262 209 1766
3320 263 1998
3411 303 2165
3529 330 2304
3481 660 2434
3316 817 440
3261 652 630
3274 708 992
3320 734 1342
3336 710 1691
3347 725 1979
3408 761 2170
3508 771 2324
3282 1068 2489
3309 1256 395
3255 1084 642
3233 1126 1018
3277 1174 1383
3317 1180 1715
3340 1199 1990
3407 1237 2174
3511 1240 2325
3341 1422 2496
3290 1741 341
3265 1568 640
3224 1593 1025
3253 1632 1409
3300 1646 1739
3333 1673 2002
3406 1713 2177
3514 1708 2326
3409 1809 2507
3263 2230 304
3248 2107 621
3220 2110 1018
3247 2138 1406
3308 2148 1726
3342 2150 1999
3405 2189 2179
3508 2175 2335
3445 2230 2535
3260 2686 285
3224 2631 612
3201 2624 1017
3228 2645 1412
3294 2671 1719
3366 2653 1967
3405 2665 2181
3482 2644 2360
3446 2686 2572
3295 3118 286
3235 3106 613
3211 3101 1018
3240 3107 1418
3303 3120 1733
3365 3133 1969
3404 3142 2182
3431 3147 2387
3449 3151 2588
3375 3530 313
3291 3557 623
3270 3559 1014
3306 3554 1396
3371 3555 1701
3411 3581 1945
3404 3618 2183
3431 3621 2387
3477 3571 2573
3700 4020 1350
3709 4085 1594
3580 4081 1574
3387 4077 1639
3338 4072 1883
3376 4077 2011
3404 4095 2183
3537 4080 2377
3449 4095 2588
3692 178 255
3678 332 685
3656 226 1049
3634 141 1474
3628 151 1869
3642 213 2142
3690 271 2307
3771 307 2440
3727 883 2457
3690 795 381
3656 611 595
3662 649 1002
3685 677 1394
3691 658 1780
3683 670 2101
3703 725 2302
3770 765 2445
3632 1154 2488
3680 1267 337
3650 1065 598
3638 1088 1020
3663 1128 1429
3681 1134 1801
3681 1146 2115
3701 1201 2309
3770 1240 2447
3656 1482 2507
3661 1780 292
3652 1559 595
3630 1570 1024
3651 1601 1449
3675 1609 1821
3679 1620 2130
3700 1676 2317
3769 1715 2450
3692 1868 2528
3638 2284 267
3644 2095 581
3630 2091 1019
3651 2122 1440
3683 2125 1799
3695 2106 2114
3707 2151 2316
3769 2191 2452
3717 2288 2562
3631 2741 247
3630 2633 579
3622 2622 1015
3639 2655 1432
3676 2680 1767
3722 2640 2049
3727 2630 2296
3768 2667 2453
3735 2727 2603
3645 3170 222
3625 3124 576
3614 3111 1019
3629 3133 1451
3660 3164 1792
3707 3175 2033
3750 3136 2255
3768 3143 2455
3749 3183 2640
3675 3601 215
3638 3594 574
3620 3590 1021
3642 3594 1461
3680 3602 1808
3720 3610 2054
3750 3615 2256
3768 3619 2455
3781 3621 2653
3938 4090 1610
3953 4095 1705
3889 4095 1715
3769 4095 1767
3670 4093 2045
3708 4089 2336
3749 4085 2359
3768 4095 2456
3781 4095 2653
4095 149 214
4088 260 629
4094 229 1009
4095 183 1417
4095 155 1812
4038 416 2067
3984 744 2224
3964 1007 2353
4095 312 2704
4088 676 295
4095 589 576
4095 635 1002
4095 724 1376
4093 846 1688
4064 977 1950
4016 1134 2162
3973 1320 2327
4095 770 2708
4094 1112 267
4095 1048 577
4095 1067 1021
4095 1131 1435
4091 1204 1768
4068 1299 2030
4025 1441 2222
3984 1592 2374
4095 1244 2711
4095 1590 225
4095 1527 586
4095 1544 1025
4095 1585 1470
4093 1632 1823
4075 1690 2099
4038 1798 2280
4002 1935 2417
4095 1719 2713
4095 2108 184
4095 2029 593
4095 2048 1024
4094 2075 1482
4095 2112 1842
4088 2136 2123
4060 2209 2313
4027 2318 2452
4095 2194 2714
4054 2686 285
4079 2582 638
4091 2566 1029
4088 2583 1484
4090 2612 1842
4095 2629 2120
4084 2658 2319
4057 2736 2474
4095 2669 2716
4005 3239 578
4055 3102 714
4082 3082 1047
4084 3084 1508
4078 3104 1871
4086 3114 2127
4095 3130 2325
4085 3178 2491
4095 3144 2717
4011 3629 829
4041 3564 868
4072 3572 1102
4089 3580 1532
4076 3575 1935
4075 3573 2195
4086 3577 2353
4095 3617 2522
4095 3620 2717
4095 4095 175
4095 4095 553
4095 4095 1024
4095 4095 1484
4095 4095 1851
4095 4095 2125
4095 4095 2326
4095 4095 2522
4095 4095 2717
