Toning/Toning-Dark & Warm.3dl
#25pt 3DLUT created by 3D LUT Creator Pro (c) Oleg Sharonov
#Copyright Oleg Sharonov
#IMAGEPROFILE sRGB IEC61966-2.1 v.2.10
#INPUTGAMMA sRGB IEC61966-2.1 v.2.10
#OUTPUTGAMMA sRGB IEC61966-2.1 v.2.10
0 128 256 384 512 640 768 896 1023
0 1 0
58 44 29
209 108 231
450 203 491
658 299 724
816 402 951
949 517 1204
1080 639 1481
1214 770 1771
225 400 93
248 420 237
430 410 467
612 424 663
766 471 857
890 547 1073
1010 638 1320
1133 744 1587
1263 863 1869
489 773 160
504 787 289
516 800 555
735 789 798
887 806 1033
1007 847 1281
1125 909 1541
1245 990 1808
1374 1090 2080
809 1197 257
816 1206 392
829 1220 638
845 1238 925
1008 1251 1224
1145 1276 1531
1273 1317 1824
1399 1373 2098
1526 1444 2332
1086 1710 445
1090 1716 566
1101 1728 793
1114 1745 1077
1125 1763 1421
1277 1777 1771
1418 1799 2089
1552 1830 2347
1680 1869 2546
1341 2200 657
1345 2204 758
1353 2213 959
1362 2223 1234
1368 2231 1573
1374 2239 1931
1522 2244 2254
1661 2254 2495
1789 2270 2683
1567 2581 851
1570 2584 932
1576 2590 1108
1582 2596 1366
1587 2600 1689
1591 2604 2029
1594 2608 2350
1741 2612 2592
1875 2620 2784
1777 2867 1031
1780 2869 1100
1784 2873 1255
1788 2877 1498
1791 2879 1800
1794 2881 2121
1797 2884 2421
1802 2887 2661
1941 2891 2858
1966 3092 1202
1968 3093 1262
1970 3096 1402
1973 3098 1627
1976 3099 1905
1977 3100 2205
1979 3101 2484
1982 3103 2710
1986 3105 2905
571 3 0
622 25 52
642 108 292
731 214 540
824 314 762
926 421 989
1034 535 1239
1150 655 1514
1274 784 1801
768 356 49
549 493 469
756 410 549
845 426 681
912 484 888
996 560 1108
1093 651 1355
1202 757 1620
1301 855 1955
861 754 137
811 811 304
822 821 615
950 793 805
1028 818 1052
1114 860 1306
1209 921 1568
1316 1003 1835
1409 1087 2150
1027 1204 259
1027 1214 390
1039 1228 640
1054 1247 933
1154 1263 1238
1256 1289 1549
1362 1329 1843
1473 1384 2117
1555 1447 2379
1244 1720 452
1242 1727 568
1253 1739 798
1266 1756 1086
1279 1773 1432
1394 1788 1784
1511 1808 2102
1629 1838 2357
1701 1874 2576
1467 2207 662
1464 2211 758
1472 2220 961
1481 2230 1238
1488 2238 1579
1493 2246 1938
1617 2250 2260
1737 2259 2501
1804 2275 2703
1668 2586 855
1666 2589 932
1672 2594 1109
1678 2601 1368
1682 2605 1692
1686 2609 2034
1690 2613 2354
1817 2616 2597
1884 2624 2796
1858 2871 1035
1856 2873 1100
1860 2877 1256
1865 2881 1499
1868 2883 1803
1871 2885 2125
1873 2887 2425
1878 2890 2665
1946 2894 2865
2030 3096 1206
1970 3096 1206
1973 3099 1354
1976 3101 1589
1978 3103 1880
1980 3103 2191
1982 3104 2479
1985 3106 2710
1988 3108 2908
1014 117 5
1036 134 119
1060 147 377
1065 255 623
1097 357 845
1149 463 1071
1222 574 1322
1311 691 1591
1417 820 1873
1131 384 88
1131 415 259
1143 426 567
1159 456 723
1176 520 944
1217 598 1174
1280 688 1424
1365 792 1689
1455 888 2018
1217 772 147
1198 825 316
1054 993 960
1148 916 1169
1247 874 1251
1336 890 1364
1399 952 1631
1481 1033 1900
1507 1058 2326
1347 1231 274
1353 1240 408
1200 1389 833
1209 1398 1233
1362 1330 1399
1487 1317 1592
1559 1357 1889
1641 1411 2160
1636 1443 2502
1531 1744 468
1534 1751 585
1454 1810 845
1466 1824 1174
1477 1838 1552
1635 1810 1812
1713 1830 2130
1797 1858 2382
1757 1880 2656
1716 2222 674
1715 2226 770
1714 2235 966
1723 2245 1247
1730 2252 1591
1736 2259 1953
1817 2263 2276
1902 2273 2516
1841 2286 2754
1876 2596 865
1875 2599 942
1873 2606 1111
1879 2612 1373
1884 2616 1701
1887 2620 2044
1891 2624 2365
1981 2628 2609
1908 2635 2828
2029 2881 1046
2028 2883 1110
2024 2887 1258
2028 2891 1503
2031 2893 1809
2034 2895 2133
2037 2897 2435
2041 2900 2675
1960 2903 2883
2169 3105 1216
2124 3106 1216
1979 3107 1214
1984 3111 1481
1986 3112 1810
1988 3112 2151
1989 3113 2465
1992 3114 2710
1994 3115 2916
1377 257 103
1391 266 210
1413 281 431
1442 296 701
1442 410 944
1459 519 1186
1500 632 1444
1562 750 1712
1644 878 1989
1465 459 158
1481 464 269
1497 477 499
1520 493 773
1512 567 1019
1524 650 1271
1558 743 1532
1616 850 1799
1693 943 2118
1579 816 221
1590 823 344
1573 925 794
1583 934 1188
1614 910 1297
1646 938 1439
1680 1004 1718
1735 1088 1991
1785 1103 2388
1716 1272 296
1725 1281 434
1642 1410 849
1565 1505 1462
1628 1457 1768
1706 1424 1981
1837 1401 1962
1887 1456 2231
1806 1367 2744
1876 1784 492
1880 1790 611
1831 1842 869
1677 1959 1380
1681 1964 1833
1797 1918 2108
1983 1865 2176
2030 1892 2424
1873 1869 2816
2017 2247 695
2019 2251 791
2022 2260 988
1850 2374 1362
1853 2379 1769
1857 2382 2186
2079 2288 2303
2127 2298 2544
1915 2298 2856
2138 2617 884
2138 2620 961
2139 2626 1131
2138 2633 1386
2142 2637 1717
2146 2640 2064
2149 2644 2386
2204 2649 2631
1954 2652 2891
2254 2900 1064
2254 2902 1129
2254 2906 1277
2250 2910 1513
2253 2912 1823
2255 2914 2150
2257 2916 2453
2261 2919 2693
1985 2918 2916
2363 3122 1233
2332 3123 1233
2240 3124 1232
1994 3125 1229
2000 3129 1646
2001 3129 2062
2002 3128 2432
2003 3127 2708
2005 3127 2930
1726 411 226
1735 419 325
1753 431 517
1780 448 763
1813 469 1050
1814 590 1324
1832 708 1597
1870 831 1872
1926 962 2140
1791 573 267
1803 575 365
1819 589 565
1843 606 818
1872 627 1112
1869 719 1394
1884 820 1672
1919 931 1948
1979 1022 2247
1909 896 340
1919 902 443
1955 929 712
1972 945 1018
1993 963 1365
1983 1008 1543
1998 1080 1837
2027 1165 2113
2087 1167 2472
2062 1342 435
2070 1348 548
2078 1388 809
2069 1474 1348
2076 1481 1794
2098 1465 2032
2141 1468 2050
2166 1525 2314
2202 1409 2786
2208 1840 531
2213 1846 652
2195 1888 905
2120 1979 1398
2074 2025 1979
2126 1990 2316
2220 1943 2420
2290 1938 2478
2252 1891 2868
2313 2284 726
2316 2288 823
2322 2296 1020
2227 2397 1383
2154 2467 1897
2156 2469 2354
2285 2375 2503
2377 2332 2581
2271 2321 2909
2407 2647 912
2409 2650 990
2412 2656 1159
2414 2663 1416
2333 2757 1811
2335 2759 2197
2337 2762 2562
2450 2677 2661
2251 2678 2948
2499 2925 1090
2499 2927 1154
2501 2931 1303
2500 2935 1540
2498 2938 1843
2499 2939 2173
2501 2941 2477
2504 2943 2719
2084 2939 2969
2583 3144 1256
2564 3145 1256
2507 3148 1257
2376 3151 1257
2017 3151 1252
2022 3154 1859
2021 3151 2355
2021 3148 2698
2020 3145 2950
2051 593 382
2058 597 465
2074 610 635
2099 628 863
2130 650 1142
2166 674 1481
2174 803 1776
2195 933 2058
2229 1064 2303
2106 728 418
2115 729 499
2130 742 675
2153 760 909
2182 783 1197
2215 807 1541
2219 917 1840
2237 1031 2118
2280 1117 2386
2221 1022 494
2229 1025 579
2247 1033 759
2267 1052 1007
2291 1073 1314
2317 1096 1669
2318 1171 1975
2331 1258 2247
2395 1246 2570
2371 1439 594
2377 1443 685
2392 1453 873
2465 1492 1279
2476 1503 1675
2487 1515 2093
2447 1548 2151
2454 1602 2403
2543 1449 2826
2512 1904 691
2517 1908 786
2526 1916 981
2546 1970 1355
2555 2006 1879
2558 2009 2336
2557 1982 2463
2561 1988 2529
2597 1918 2899
2602 2323 758
2605 2327 856
2612 2334 1054
2598 2420 1406
2584 2480 1910
2569 2531 2490
2593 2466 2752
2627 2352 2703
2620 2343 2951
2679 2679 942
2681 2682 1019
2685 2687 1190
2690 2693 1447
2663 2781 1835
2621 2900 2358
2622 2902 2784
2658 2710 2733
2616 2706 2991
2753 2951 1115
2754 2953 1180
2757 2957 1330
2758 2961 1567
2758 2963 1869
2682 2976 2095
2681 2975 2474
2681 2975 2753
2510 2972 3015
2820 3165 1278
2808 3167 1279
2775 3171 1282
2702 3178 1286
2542 3186 1290
2054 3187 1288
2049 3184 2145
2046 3177 2663
2041 3170 2977
2380 801 564
2386 805 634
2400 817 784
2423 834 1000
2452 855 1276
2484 878 1606
2520 902 1955
2529 1038 2233
2549 1172 2457
2428 917 595
2436 918 664
2449 930 818
2471 947 1038
2497 968 1321
2526 989 1654
2560 1014 2004
2566 1133 2278
2597 1216 2519
2533 1177 666
2539 1179 737
2556 1185 892
2574 1201 1123
2595 1219 1421
2619 1240 1763
2647 1263 2112
2647 1352 2372
2702 1318 2656
2671 1555 759
2676 1558 833
2689 1565 994
2707 1574 1235
2720 1588 1551
2734 1602 1896
2748 1617 2236
2742 1671 2480
2841 1477 2854
2787 1969 842
2791 1972 919
2799 1978 1085
2810 1986 1334
2876 2004 1744
2881 2010 2128
2886 2016 2500
2827 2035 2575
2897 1931 2922
2868 2362 908
2871 2364 985
2878 2370 1154
2885 2377 1409
2931 2421 1805
2990 2479 2340
2991 2481 2767
2925 2372 2722
2932 2355 2974
2936 2707 967
2939 2710 1045
2944 2715 1216
2949 2721 1474
2979 2801 1857
3017 2912 2371
3056 3025 2990
2999 2861 3101
2947 2718 3030
2994 2973 1137
2996 2975 1202
2999 2979 1352
3002 2983 1590
3003 2985 1893
2980 2996 2115
2971 3235 2660
2961 3231 3097
2882 2995 3059
3045 3184 1298
3040 3186 1299
3025 3190 1302
2993 3198 1308
2926 3210 1317
2758 3227 1328
2489 3234 1813
2370 3221 2595
2146 3202 3013
2709 1021 754
2713 1026 814
2725 1035 949
2742 1050 1153
2764 1067 1426
2788 1086 1743
2815 1107 2075
2844 1130 2374
2847 1264 2578
2747 1120 782
2753 1122 840
2763 1131 977
2779 1145 1186
2799 1162 1463
2821 1180 1782
2845 1200 2112
2870 1221 2404
2882 1296 2621
2828 1346 841
2833 1347 900
2845 1350 1036
2858 1363 1255
2872 1377 1541
2888 1392 1861
2905 1408 2186
2923 1426 2464
2963 1372 2718
2924 1670 914
2929 1672 975
2938 1676 1115
2951 1680 1336
2959 1690 1633
2969 1700 1956
2979 1712 2275
2991 1725 2539
3079 1493 2868
3013 2036 984
3016 2038 1047
3023 2042 1191
3032 2046 1418
3040 2050 1717
3045 2056 2044
3051 2063 2359
3058 2072 2612
3137 1925 2935
3086 2401 1046
3089 2403 1110
3095 2408 1257
3101 2412 1491
3107 2415 1792
3164 2381 2078
3163 2381 2455
3163 2381 2731
3180 2349 2987
3154 2732 1107
3156 2734 1171
3160 2738 1320
3165 2742 1557
3168 2744 1860
3197 2741 2107
3366 2861 2704
3365 2856 3105
3217 2711 3044
3203 2989 1153
3205 2991 1218
3209 2994 1369
3212 2998 1607
3213 2999 1909
3219 3006 2124
3365 3235 2639
3533 3504 3474
3239 3044 3186
3244 3198 1313
3242 3199 1313
3238 3203 1316
3229 3209 1321
3211 3220 1329
3170 3236 1342
3051 3263 1363
2892 3350 2387
2668 3326 3155
2989 1236 939
2992 1239 992
2999 1246 1113
3010 1256 1309
3022 1268 1570
3036 1281 1865
3052 1296 2171
3069 1312 2439
3088 1330 2660
3013 1317 959
3032 1272 971
3039 1280 1104
3049 1289 1313
3059 1300 1588
3071 1311 1894
3084 1323 2206
3098 1338 2471
3114 1353 2690
3064 1503 1001
3082 1470 1013
3129 1358 1045
3137 1367 1297
3144 1375 1614
3150 1383 1954
3157 1391 2282
3166 1400 2546
3175 1410 2762
3131 1779 1058
3146 1758 1069
3186 1691 1099
3265 1491 1162
3269 1497 1592
3269 1499 2016
3269 1500 2384
3269 1502 2655
3269 1504 2877
3201 2105 1120
3212 2094 1129
3244 2059 1153
3307 1967 1206
3332 1930 1590
3332 1928 2046
3332 1922 2435
3332 1916 2716
3333 1907 2946
3268 2446 1182
3276 2441 1188
3299 2426 1206
3343 2389 1244
3374 2364 1573
3382 2352 2043
3381 2346 2462
3382 2339 2758
3382 2328 2998
3331 2758 1242
3337 2757 1246
3351 2753 1258
3379 2743 1283
3416 2729 1468
3426 2723 1981
3436 2708 2446
3435 2698 2789
3435 2685 3053
3379 3005 1289
3382 3006 1291
3389 3006 1298
3404 3006 1310
3429 3005 1332
3458 3002 1643
3470 2993 2258
3540 3029 2820
3538 3011 3194
3415 3210 1326
3416 3211 1327
3418 3213 1328
3421 3217 1331
3427 3222 1336
3434 3230 1342
3443 3240 1350
3512 3328 1561
4004 3977 3950
