Toning/Toning-Blue curves with skintone mask.3dl
#25pt 3DLUT created by 3D LUT Creator Pro (c) Oleg Sharonov
#Copyright Oleg Sharonov
#IMAGEPROFILE sRGB IEC61966-2.1 v.2.10
#INPUTGAMMA sRGB IEC61966-2.1 v.2.10
#OUTPUTGAMMA sRGB IEC61966-2.1 v.2.10
0 43 86 128 171 214 256 299 341 384 427 469 512 555 597 640 682 725 768 810 853 896 938 981 1023 
13 27 27
25 51 145
29 62 265
35 78 413
43 99 579
54 126 756
67 158 914
79 196 1064
90 233 1211
99 271 1356
106 307 1494
111 347 1626
115 389 1749
119 433 1863
122 478 1970
126 524 2073
131 569 2172
136 614 2266
141 660 2360
147 706 2452
153 751 2542
161 797 2633
171 842 2726
183 887 2821
196 932 2923
40 200 132
33 211 277
41 211 445
51 220 609
60 235 757
71 255 893
81 279 1027
90 306 1160
97 335 1290
104 367 1421
110 401 1548
114 439 1670
117 477 1783
121 519 1891
124 561 1993
128 604 2092
133 647 2189
138 690 2280
143 734 2372
149 778 2463
155 822 2552
164 866 2643
174 910 2735
185 954 2832
199 997 2933
63 364 253
53 374 369
47 380 530
60 381 704
73 387 858
83 397 996
92 413 1127
99 431 1252
105 456 1376
110 484 1498
114 514 1613
117 547 1722
120 583 1827
123 620 1928
127 659 2024
131 698 2120
136 739 2211
141 780 2302
146 821 2392
152 862 2480
159 904 2569
168 947 2659
178 989 2752
190 1031 2850
205 1072 2951
88 537 406
82 545 507
74 554 627
68 562 777
82 562 935
92 565 1081
100 574 1217
106 589 1344
111 606 1464
114 627 1574
118 653 1680
120 681 1781
123 711 1877
127 742 1971
131 776 2064
135 811 2154
140 848 2242
145 884 2330
150 922 2418
156 961 2505
164 1000 2593
174 1040 2683
185 1080 2778
198 1119 2876
215 1157 2976
106 726 558
103 732 640
98 741 735
92 751 855
88 759 998
99 760 1149
106 762 1289
111 769 1419
115 779 1536
118 794 1642
121 812 1742
124 833 1837
128 856 1929
132 882 2019
136 911 2107
140 941 2193
145 973 2279
150 1005 2365
156 1039 2450
164 1074 2537
173 1110 2625
183 1146 2717
195 1182 2813
210 1217 2911
230 1251 3009
116 918 689
115 924 764
113 930 846
109 939 947
105 950 1068
103 957 1208
110 958 1347
115 960 1475
118 964 1591
122 973 1696
125 984 1794
129 1000 1888
133 1017 1978
137 1038 2064
142 1060 2150
146 1085 2235
151 1112 2319
157 1140 2403
165 1170 2488
173 1201 2575
183 1231 2666
195 1262 2760
210 1292 2856
228 1323 2952
249 1354 3049
123 1110 812
122 1114 881
121 1119 956
119 1127 1046
116 1138 1151
113 1148 1269
112 1155 1398
117 1156 1520
121 1157 1635
125 1160 1739
129 1167 1838
134 1177 1931
138 1189 2019
143 1204 2106
148 1222 2192
153 1241 2276
159 1263 2360
167 1285 2445
176 1308 2531
186 1333 2622
197 1358 2715
212 1384 2810
230 1411 2904
250 1438 2999
272 1466 3094
133 1300 929
132 1304 994
130 1308 1065
128 1315 1145
125 1324 1237
122 1333 1338
119 1343 1447
119 1349 1562
123 1349 1669
128 1350 1776
133 1353 1873
138 1358 1967
144 1365 2057
149 1374 2145
155 1386 2231
162 1400 2316
170 1415 2402
179 1432 2490
189 1451 2582
202 1470 2675
217 1492 2769
235 1514 2862
255 1536 2955
277 1559 3049
300 1582 3142
145 1479 1036
144 1481 1097
142 1484 1164
140 1490 1237
137 1497 1318
133 1505 1406
129 1514 1501
125 1523 1600
125 1528 1704
130 1529 1805
136 1529 1904
143 1531 1997
149 1535 2090
155 1541 2179
163 1548 2268
172 1558 2356
181 1569 2447
192 1582 2540
206 1596 2635
222 1611 2729
241 1628 2822
262 1645 2915
284 1662 3008
306 1680 3100
331 1698 3192
159 1648 1127
158 1650 1186
156 1653 1249
153 1657 1317
150 1662 1390
146 1670 1469
142 1678 1553
137 1685 1643
133 1693 1737
133 1697 1835
139 1698 1930
146 1698 2026
153 1699 2118
162 1702 2210
171 1706 2303
182 1712 2396
194 1719 2494
209 1727 2591
227 1737 2686
247 1748 2781
268 1760 2874
291 1773 2968
314 1786 3059
338 1801 3151
365 1816 3249
181 1802 1205
180 1804 1262
178 1806 1323
174 1809 1386
169 1814 1454
164 1819 1527
157 1826 1605
151 1832 1688
147 1839 1774
143 1846 1864
143 1849 1958
149 1849 2052
158 1850 2146
168 1851 2241
180 1853 2336
193 1856 2437
210 1861 2538
229 1866 2637
250 1873 2734
273 1881 2830
296 1890 2925
321 1900 3017
346 1911 3111
374 1923 3211
404 1936 3316
215 1946 1271
212 1947 1328
209 1949 1386
204 1951 1448
197 1955 1513
190 1960 1583
182 1965 1656
173 1971 1732
165 1978 1812
158 1985 1897
153 1991 1985
153 1994 2078
162 1994 2172
174 1994 2269
188 1995 2373
206 1997 2475
226 2000 2578
250 2003 2680
274 2008 2779
299 2014 2876
325 2021 2971
352 2029 3068
381 2038 3172
414 2047 3278
447 2057 3384
265 2085 1332
262 2086 1388
258 2087 1445
252 2090 1505
243 2093 1568
233 2097 1633
220 2102 1702
207 2107 1775
194 2113 1852
183 2119 1932
173 2125 2016
167 2130 2105
168 2133 2200
180 2133 2300
197 2134 2405
218 2134 2513
243 2136 2614
270 2138 2718
297 2141 2819
325 2145 2918
354 2150 3018
385 2155 3125
419 2162 3235
454 2170 3342
490 2178 3448
325 2218 1386
322 2219 1441
318 2220 1498
311 2222 1557
302 2225 1618
291 2228 1682
277 2232 1749
261 2237 1819
243 2243 1892
224 2249 1969
207 2255 2051
194 2261 2137
186 2266 2230
189 2269 2334
205 2269 2440
230 2269 2544
258 2270 2652
288 2271 2755
319 2273 2855
350 2275 2959
384 2279 3069
420 2283 3183
457 2289 3293
495 2295 3402
533 2302 3515
396 2350 1437
393 2351 1492
388 2352 1549
381 2354 1607
371 2357 1667
358 2360 1730
343 2364 1795
326 2368 1863
306 2374 1934
285 2379 2009
263 2386 2088
243 2392 2174
225 2398 2268
213 2403 2369
218 2405 2474
242 2406 2580
273 2406 2683
305 2406 2789
338 2407 2894
375 2409 3002
414 2411 3120
454 2414 3235
494 2418 3348
534 2423 3464
575 2429 3580
483 2483 1487
480 2484 1542
474 2485 1598
467 2487 1656
456 2489 1716
442 2492 1777
425 2496 1841
405 2501 1908
382 2506 1979
357 2512 2053
332 2518 2133
308 2525 2219
285 2531 2311
265 2538 2407
251 2543 2508
259 2546 2613
287 2546 2718
321 2546 2819
357 2546 2931
398 2547 3052
443 2549 3166
486 2551 3283
529 2554 3403
573 2558 3524
617 2563 3643
576 2622 1538
573 2622 1593
568 2624 1649
561 2625 1706
550 2628 1766
536 2631 1827
519 2634 1891
498 2638 1958
475 2643 2029
448 2649 2105
418 2654 2184
387 2660 2269
358 2667 2357
333 2673 2449
311 2678 2546
296 2683 2647
306 2685 2750
337 2686 2857
377 2686 2969
421 2686 3094
468 2687 3215
516 2688 3332
563 2690 3455
610 2692 3579
655 2696 3701
675 2756 1592
672 2756 1647
667 2757 1704
660 2758 1761
650 2760 1821
637 2763 1884
620 2766 1948
600 2769 2016
576 2774 2087
548 2778 2161
518 2784 2239
485 2789 2320
451 2795 2405
418 2801 2494
388 2807 2587
363 2813 2682
346 2818 2784
359 2820 2897
395 2820 3019
443 2821 3133
492 2821 3257
542 2821 3385
593 2822 3510
644 2824 3631
692 2827 3756
775 2888 1656
773 2888 1711
768 2889 1767
761 2890 1825
752 2892 1885
739 2895 1946
723 2898 2011
704 2901 2077
682 2906 2147
656 2910 2219
626 2916 2294
593 2921 2373
557 2928 2455
520 2934 2541
486 2940 2630
453 2946 2723
424 2952 2824
406 2957 2940
422 2959 3060
464 2959 3181
515 2960 3300
568 2960 3430
621 2960 3560
672 2961 3688
726 2963 3806
879 3023 1721
876 3023 1776
872 3024 1832
865 3025 1889
856 3027 1949
844 3029 2010
829 3032 2073
811 3035 2138
789 3039 2206
764 3043 2277
736 3048 2351
704 3053 2427
669 3058 2507
632 3064 2589
594 3069 2675
557 3075 2771
522 3080 2876
493 3085 2987
474 3090 3103
493 3091 3225
538 3091 3354
592 3092 3476
647 3092 3604
701 3092 3735
754 3093 3857
981 3151 1785
979 3151 1840
975 3152 1896
969 3153 1953
961 3154 2012
950 3156 2072
936 3159 2135
919 3161 2199
899 3165 2266
875 3169 2335
848 3173 2407
817 3178 2481
783 3183 2558
747 3189 2641
708 3195 2731
669 3201 2828
632 3207 2932
597 3213 3038
567 3218 3149
547 3223 3273
569 3225 3399
616 3225 3529
671 3225 3652
727 3225 3777
782 3225 3896
1080 3281 1850
1078 3281 1904
1075 3282 1960
1069 3283 2016
1062 3285 2075
1052 3286 2134
1040 3289 2196
1024 3292 2259
1006 3295 2325
985 3299 2393
960 3303 2463
931 3308 2538
899 3313 2619
863 3319 2705
825 3325 2796
785 3331 2891
746 3337 2989
709 3344 3093
673 3350 3205
644 3355 3323
624 3360 3448
649 3362 3575
696 3362 3705
751 3362 3818
809 3362 3934
1176 3414 1911
1174 3415 1966
1171 3415 2021
1166 3416 2078
1159 3418 2136
1150 3420 2196
1139 3422 2257
1125 3425 2321
1108 3428 2388
1089 3432 2458
1067 3436 2531
1041 3441 2609
1012 3446 2690
979 3452 2775
944 3458 2863
905 3464 2954
865 3470 3051
825 3477 3155
787 3483 3265
751 3489 3379
722 3495 3498
702 3500 3623
730 3501 3745
777 3501 3863
834 3502 3982
1269 3550 1981
1267 3550 2036
1264 3551 2091
1260 3552 2149
1253 3553 2208
1245 3555 2268
1235 3557 2332
1222 3560 2397
1207 3563 2465
1190 3567 2535
1169 3571 2609
1145 3575 2684
1119 3581 2763
1089 3586 2845
1057 3592 2931
1021 3598 3023
983 3604 3120
944 3611 3221
905 3617 3328
866 3624 3439
830 3630 3553
802 3636 3671
782 3641 3785
812 3643 3905
861 3643 4035
1363 3688 2064
1361 3688 2118
1358 3689 2174
1353 3690 2231
1347 3691 2290
1339 3693 2351
1329 3695 2413
1317 3698 2477
1303 3701 2544
1286 3705 2613
1267 3709 2684
1246 3714 2759
1222 3719 2837
1195 3725 2920
1165 3732 3007
1132 3739 3097
1096 3747 3192
1059 3756 3291
1021 3767 3393
983 3777 3502
946 3789 3612
911 3801 3717
884 3812 3828
863 3822 3953
896 3825 4080
151 16 18
106 62 209
106 76 347
108 92 492
115 115 657
124 140 807
133 176 958
142 211 1100
150 245 1240
156 280 1378
162 316 1512
166 356 1640
170 397 1761
173 440 1872
177 486 1978
181 530 2079
186 576 2178
191 620 2271
196 665 2363
202 711 2455
208 755 2545
217 801 2636
227 846 2728
238 891 2824
252 935 2926
130 206 100
141 200 236
124 223 464
128 233 637
133 247 784
138 267 917
144 291 1050
151 316 1181
156 346 1312
161 376 1439
165 410 1565
169 447 1682
172 485 1793
175 526 1899
179 567 1999
183 610 2097
188 653 2193
193 696 2284
198 739 2376
204 783 2466
210 827 2555
219 870 2646
229 914 2738
241 958 2835
256 1001 2936
138 374 266
138 375 389
134 385 542
138 389 719
143 395 874
148 406 1012
153 421 1142
158 440 1267
162 463 1391
166 491 1511
169 521 1624
172 555 1732
175 590 1835
178 627 1935
181 666 2031
186 704 2125
190 744 2216
195 785 2306
201 825 2395
207 867 2484
214 909 2573
223 951 2663
234 993 2756
246 1035 2854
262 1076 2954
150 548 396
153 545 538
148 556 641
145 564 784
150 567 943
156 573 1090
160 582 1228
164 594 1354
167 614 1473
170 635 1584
173 660 1688
175 687 1788
178 717 1884
182 748 1977
186 782 2070
190 817 2159
195 852 2247
200 890 2335
205 927 2422
212 965 2509
220 1004 2597
230 1044 2687
241 1084 2782
255 1122 2881
272 1160 2980
163 736 552
164 733 662
162 742 748
157 753 864
155 761 1004
160 763 1157
165 767 1295
168 773 1425
171 785 1541
174 800 1648
176 817 1747
179 837 1841
183 862 1934
187 888 2024
191 916 2111
195 946 2197
200 977 2283
205 1010 2368
212 1044 2454
219 1078 2540
228 1114 2628
239 1150 2721
252 1185 2817
268 1220 2915
287 1254 3013
171 925 682
172 924 780
170 931 859
168 941 956
165 952 1075
164 960 1213
168 960 1352
171 963 1478
174 968 1595
177 976 1700
180 989 1797
184 1004 1891
188 1021 1981
192 1042 2067
197 1065 2153
202 1089 2238
207 1116 2322
213 1143 2406
220 1174 2492
229 1204 2578
239 1234 2669
252 1264 2764
267 1295 2860
286 1326 2955
307 1357 3052
178 1116 806
179 1114 894
178 1120 968
176 1129 1054
173 1139 1156
170 1150 1275
170 1157 1403
173 1157 1523
177 1159 1637
181 1163 1741
185 1171 1840
189 1180 1933
194 1193 2022
199 1208 2109
203 1225 2194
209 1245 2278
215 1266 2363
223 1288 2447
232 1312 2534
242 1336 2625
254 1361 2718
270 1386 2813
288 1414 2907
308 1441 3002
331 1468 3097
188 1305 924
189 1304 1005
188 1308 1074
185 1316 1154
182 1324 1242
179 1334 1342
176 1344 1450
175 1350 1564
179 1350 1671
184 1351 1778
189 1355 1875
194 1360 1968
199 1367 2059
204 1377 2147
211 1388 2233
218 1402 2318
226 1418 2405
236 1434 2492
246 1453 2584
259 1473 2678
275 1494 2771
293 1516 2864
314 1538 2958
335 1561 3051
358 1584 3144
200 1482 1032
201 1481 1106
199 1485 1171
197 1490 1244
194 1498 1322
190 1506 1409
186 1515 1503
182 1524 1602
182 1529 1706
187 1530 1807
193 1530 1906
199 1533 1998
204 1537 2091
211 1542 2181
219 1550 2269
228 1560 2358
238 1571 2448
250 1584 2543
264 1598 2637
281 1613 2731
300 1630 2824
321 1646 2917
342 1664 3010
365 1682 3102
389 1700 3194
215 1651 1125
216 1650 1193
214 1653 1255
211 1657 1322
207 1663 1394
203 1670 1472
199 1678 1555
194 1686 1645
190 1694 1739
190 1698 1837
196 1698 1931
202 1699 2028
210 1700 2119
219 1703 2211
229 1707 2304
240 1713 2398
252 1720 2495
268 1729 2592
286 1738 2688
306 1749 2782
328 1761 2876
350 1774 2970
373 1788 3061
398 1802 3154
425 1817 3251
238 1804 1203
239 1804 1267
237 1806 1327
233 1809 1390
228 1814 1458
222 1819 1530
215 1826 1607
209 1833 1689
203 1840 1776
199 1846 1865
200 1850 1960
206 1850 2053
215 1851 2147
226 1852 2242
238 1854 2337
252 1857 2438
269 1861 2539
289 1867 2638
310 1874 2736
333 1882 2832
356 1891 2926
380 1901 3019
406 1912 3113
434 1924 3214
465 1937 3319
