Toning/Toning-Purple Shadows.3dl
#25pt 3DLUT created by 3D LUT Creator Pro (c) Oleg Sharonov
#Copyright Oleg Sharonov
#IMAGEPROFILE ProPhoto RGB v.2.10
#INPUTGAMMA ProPhoto RGB v.2.10
#OUTPUTGAMMA ProPhoto RGB v.2.10
0 128 256 384 512 640 768 896 1023
298 0 549
298 0 553
190 0 801
168 4 1269
159 45 1765
155 69 2271
152 85 2780
151 96 3292
151 106 3804
306 259 408
347 244 643
297 363 920
237 440 1333
203 486 1802
184 516 2293
174 539 2794
168 556 3301
164 571 3811
340 855 342
374 837 672
326 880 1016
297 929 1422
261 967 1871
233 995 2345
212 1016 2833
198 1034 3330
189 1049 3834
352 1408 324
385 1395 703
360 1408 1075
318 1439 1493
299 1465 1940
275 1489 2406
252 1507 2884
233 1523 3373
219 1537 3868
357 1944 321
390 1936 730
381 1938 1127
350 1955 1546
317 1976 1998
303 1992 2464
285 2007 2938
266 2020 3420
249 2031 3909
360 2472 323
391 2468 753
392 2466 1170
373 2474 1597
346 2489 2044
318 2504 2513
308 2515 2988
293 2524 3469
276 2532 3954
361 2996 327
391 2994 773
399 2992 1206
389 2996 1642
370 3006 2090
346 3018 2554
322 3029 3032
313 3035 3514
300 3040 3997
362 3517 333
390 3516 790
402 3516 1237
400 3519 1682
388 3526 2133
370 3535 2596
350 3544 3070
328 3552 3554
320 3555 4039
363 4038 340
389 4038 806
405 4039 1263
409 4042 1717
403 4048 2174
392 4056 2638
376 4064 3110
357 4071 3590
336 4077 4077
441 0 546
486 0 601
521 0 840
550 34 1284
569 62 1771
583 80 2273
594 93 2780
602 104 3291
609 112 3804
622 277 433
655 258 677
621 369 930
607 445 1332
604 490 1799
607 520 2290
611 543 2791
616 561 3298
621 575 3809
695 844 380
734 837 711
698 880 1027
686 928 1422
669 966 1866
656 995 2338
649 1017 2827
645 1036 3326
644 1052 3830
746 1397 363
788 1395 744
766 1410 1092
729 1440 1498
721 1465 1939
706 1488 2401
693 1507 2879
682 1523 3367
675 1538 3863
778 1937 356
819 1937 770
813 1942 1150
781 1957 1555
750 1978 2000
743 1992 2462
731 2006 2935
718 2019 3416
707 2031 3905
798 2468 355
836 2469 790
842 2470 1197
821 2478 1610
793 2492 2050
766 2506 2515
760 2515 2988
749 2523 3466
737 2531 3950
812 2994 357
847 2995 807
859 2996 1234
849 3000 1659
828 3009 2099
803 3020 2558
779 3030 3033
774 3035 3513
764 3039 3995
822 3517 361
854 3518 821
870 3519 1264
868 3522 1702
855 3529 2146
836 3538 2603
815 3546 3073
792 3553 3555
787 3554 4038
831 4038 367
860 4040 835
878 4041 1290
883 4045 1738
877 4051 2189
864 4059 2647
847 4067 3115
828 4073 3592
806 4077 4078
876 22 341
876 35 610
938 49 928
972 76 1341
1001 91 1808
1025 100 2297
1043 108 2797
1058 115 3303
1071 121 3812
979 404 368
986 394 664
1008 432 977
1012 482 1374
1026 514 1828
1042 537 2309
1056 556 2805
1069 571 3308
1081 584 3816
1071 892 347
1088 887 695
1086 913 1041
1081 948 1443
1081 979 1882
1084 1005 2351
1089 1025 2836
1095 1043 3333
1102 1059 3836
1132 1414 351
1155 1414 739
1151 1431 1099
1135 1454 1508
1136 1474 1949
1134 1494 2408
1131 1512 2884
1130 1529 3371
1131 1544 3867
1182 1941 357
1212 1944 775
1213 1954 1158
1194 1968 1562
1174 1984 2007
1175 1997 2468
1172 2010 2938
1167 2023 3418
1163 2036 3907
1221 2468 364
1252 2472 802
1259 2477 1209
1245 2486 1619
1224 2497 2055
1204 2510 2519
1204 2517 2990
1200 2525 3467
1194 2534 3951
1249 2994 370
1280 2997 822
1293 3000 1249
1285 3005 1670
1268 3014 2106
1248 3024 2562
1228 3033 3036
1228 3036 3514
1222 3040 3995
1271 3517 376
1301 3520 839
1316 3522 1281
1316 3525 1715
1304 3532 2154
1287 3540 2608
1268 3548 3076
1249 3554 3556
1248 3555 4038
1289 4040 383
1317 4042 854
1335 4044 1308
1339 4047 1753
1334 4053 2199
1322 4061 2653
1307 4069 3119
1290 4075 3594
1270 4078 4079
1366 108 276
1360 119 624
1392 115 983
1437 111 1406
1460 118 1858
1484 122 2335
1504 125 2826
1522 128 3326
1538 132 3830
1414 501 309
1410 501 660
1433 510 1011
1466 523 1427
1479 546 1873
1497 561 2345
1514 574 2832
1531 585 3330
1546 595 3833
1494 956 325
1499 953 699
1508 962 1059
1520 980 1474
1522 1004 1914
1530 1024 2378
1541 1041 2859
1553 1056 3351
1565 1070 3851
1557 1451 320
1567 1451 716
1570 1460 1100
1570 1474 1521
1571 1490 1968
1574 1507 2427
1578 1523 2900
1584 1539 3386
1592 1554 3880
1604 1963 337
1619 1965 757
1622 1973 1154
1617 1984 1568
1610 1996 2016
1615 2007 2479
1617 2018 2949
1619 2031 3428
1622 2044 3916
1648 2480 353
1667 2484 792
1673 2489 1205
1667 2498 1621
1657 2507 2061
1646 2517 2525
1650 2523 2997
1651 2531 3474
1652 2540 3957
1686 3001 367
1707 3004 820
1717 3008 1249
1713 3013 1672
1702 3021 2109
1689 3029 2566
1677 3037 3040
1680 3040 3518
1680 3044 3999
1717 3522 379
1740 3525 842
1752 3528 1285
1752 3531 1718
1743 3537 2157
1731 3545 2610
1718 3552 3078
1703 3557 3559
1706 3556 4041
1743 4045 390
1766 4047 862
1781 4048 1316
1785 4051 1759
1780 4055 2203
1770 4063 2656
1759 4071 3120
1746 4077 3595
1730 4079 4080
1869 148 247
1862 160 637
1878 156 1027
1910 147 1451
1943 140 1909
1960 142 2379
1978 142 2862
1995 143 3355
2011 144 3854
1892 561 274
1886 567 663
1901 569 1046
1929 571 1464
1957 573 1920
1970 585 2387
1986 594 2867
2002 601 3359
2018 609 3857
1948 1010 298
1946 1011 697
1955 1014 1082
1972 1021 1497
1991 1029 1950
1996 1045 2413
2007 1059 2889
2020 1071 3376
2034 1083 3872
2007 1489 310
2011 1489 723
2016 1493 1120
2024 1501 1538
2032 1510 1990
2033 1525 2452
2039 1539 2924
2048 1552 3407
2058 1566 3898
2055 1990 311
2062 1991 736
2066 1996 1147
2067 2003 1574
2068 2011 2028
2070 2020 2495
2074 2030 2966
2079 2042 3445
2087 2055 3932
2094 2499 333
2104 2502 773
2108 2506 1195
2107 2512 1621
2104 2519 2067
2101 2527 2534
2106 2532 3008
2110 2540 3486
2115 2549 3969
2132 3014 353
2145 3017 806
2151 3020 1240
2150 3025 1670
2144 3030 2111
2139 3037 2571
2133 3043 3046
2138 3046 3526
2141 3050 4007
2167 3532 371
2182 3535 835
2190 3537 1279
2190 3540 1716
2185 3544 2157
2178 3550 2612
2170 3556 3081
2162 3561 3562
2166 3560 4045
2199 4053 387
2216 4056 859
2226 4057 1314
2228 4058 1759
2224 4060 2203
2217 4066 2656
2210 4073 3121
2202 4079 3597
2191 4081 4082
2377 172 232
2371 183 648
2379 181 1061
2400 174 1491
2427 165 1946
2452 158 2422
2465 158 2901
2479 157 3388
2493 156 3883
2389 601 254
2383 609 668
2391 610 1076
2411 609 1501
2436 607 1953
2460 605 2428
2470 612 2905
2483 617 3391
2497 622 3885
2426 1052 277
2422 1055 696
2427 1057 1103
2443 1060 1526
2462 1062 1975
2481 1065 2448
2487 1077 2922
2498 1086 3406
2511 1096 3898
2475 1525 296
2474 1526 723
2478 1528 1136
2487 1532 1560
2499 1537 2007
2511 1542 2478
2514 1554 2951
2521 1566 3432
2532 1578 3921
2521 2016 307
2523 2017 743
2527 2019 1164
2531 2023 1593
2537 2028 2042
2543 2034 2512
2544 2044 2986
2549 2055 3465
2558 2067 3951
2559 2519 310
2564 2521 753
2567 2524 1184
2569 2528 1620
2570 2532 2073
2572 2537 2543
2574 2543 3021
2578 2551 3500
2585 2561 3984
2593 3030 334
2600 3032 788
2603 3035 1228
2604 3038 1665
2602 3042 2113
2601 3046 2576
2600 3051 3053
2604 3054 3535
2610 3059 4018
2627 3544 357
2636 3547 820
2641 3549 1268
2641 3551 1710
2638 3554 2156
2634 3557 2614
2631 3562 3085
2628 3566 3567
2633 3566 4052
2660 4064 378
2671 4067 850
2678 4068 1307
2678 4068 1754
2675 4069 2201
2671 4071 2655
2667 4076 3121
2663 4082 3598
2657 4084 4084
2887 187 225
2882 197 658
2886 198 1088
2900 193 1526
2921 186 1981
2942 178 2452
2963 171 2938
2972 170 3423
2983 169 3914
2893 629 243
2888 638 675
2892 640 1101
2906 638 1535
2926 635 1986
2947 632 2456
2967 629 2941
2975 633 3425
2985 636 3915
2919 1084 264
2913 1089 698
2916 1092 1122
2928 1093 1554
2945 1093 2003
2964 1093 2471
2981 1093 2955
2986 1101 3437
2996 1109 3926
2956 1555 284
2953 1558 722
2955 1560 1149
2963 1562 1582
2976 1564 2030
2989 1567 2496
3002 1569 2978
3006 1579 3458
3013 1590 3946
2997 2041 299
2996 2042 744
2998 2043 1176
3003 2046 1611
3011 2049 2060
3020 2053 2525
3028 2057 3005
3030 2066 3486
3036 2078 3972
3035 2538 309
3037 2540 760
3038 2541 1198
3041 2543 1638
3045 2546 2089
3050 2550 2555
3054 2554 3034
3056 2562 3516
3061 2572 4001
3068 3045 314
3071 3047 769
3073 3048 1214
3074 3050 1660
3076 3053 2114
3077 3056 2582
3078 3059 3061
3081 3063 3546
3086 3070 4031
3098 3557 340
3103 3560 804
3105 3561 1256
3106 3563 1703
3105 3564 2155
3103 3566 2616
3103 3568 3089
3103 3571 3573
3107 3573 4059
3130 4075 365
3136 4078 837
3140 4079 1296
3140 4080 1747
3138 4079 2198
3134 4079 2656
3132 4080 3122
3131 4085 3600
3129 4087 4087
3399 197 221
3394 208 667
3396 210 1109
3406 208 1556
3422 202 2013
3440 195 2482
3458 189 2964
3475 182 3456
3481 181 3945
3402 649 237
3397 659 682
3399 662 1121
3409 662 1564
3425 659 2018
3443 655 2486
3461 651 2966
3477 647 3458
3483 650 3947
3419 1109 255
3414 1116 701
3415 1119 1139
3424 1121 1580
3438 1120 2032
3455 1119 2498
3471 1118 2977
3486 1116 3468
3490 1123 3955
3448 1581 274
3443 1585 722
3444 1587 1162
3451 1589 1603
3462 1591 2054
3476 1592 2518
3490 1593 2995
3502 1593 3485
3504 1602 3971
3482 2063 291
3479 2065 743
3480 2067 1186
3484 2069 1628
3492 2072 2080
3502 2075 2543
3513 2077 3019
3522 2078 3507
3523 2088 3993
3518 2557 304
3517 2558 761
3517 2559 1208
3519 2560 1653
3524 2562 2106
3531 2566 2570
3538 2569 3045
3544 2572 3532
3545 2581 4018
3550 3059 315
3551 3060 776
3552 3061 1227
3553 3062 1676
3555 3063 2130
3558 3065 2595
3562 3069 3071
3566 3072 3556
3568 3079 4044
3579 3569 320
3581 3571 785
3582 3572 1241
3583 3572 1694
3584 3573 2152
3584 3574 2618
3585 3576 3094
3586 3578 3579
3589 3582 4067
3608 4085 350
3611 4088 822
3613 4088 1283
3613 4089 1739
3612 4089 2195
3610 4089 2656
3608 4088 3126
3608 4088 3603
3608 4091 4091
3912 205 220
3907 215 676
3908 220 1128
3916 219 1581
3928 216 2042
3943 211 2511
3960 205 2990
3975 199 3479
3989 193 3976
3913 665 235
3908 675 690
3909 679 1139
3916 680 1590
3929 679 2048
3944 676 2515
3961 672 2993
3976 668 3480
3990 664 3977
3925 1130 251
3920 1138 706
3920 1142 1155
3927 1144 1604
3939 1144 2060
3954 1143 2525
3969 1142 3001
3984 1140 3488
3996 1137 3984
3947 1603 268
3942 1608 724
3942 1612 1174
3947 1614 1623
3957 1616 2078
3970 1617 2542
3984 1617 3017
3997 1616 3501
4008 1616 3997
3976 2084 284
3972 2087 743
3971 2090 1195
3974 2092 1645
3982 2095 2100
3992 2098 2564
4004 2099 3038
4014 2100 3520
4023 2100 4015
4007 2574 299
4004 2575 761
4003 2577 1215
4005 2578 1667
4010 2581 2123
4017 2585 2588
4026 2588 3061
4035 2590 3542
4041 2591 4035
4038 3073 312
4036 3074 778
4036 3074 1234
4037 3074 1689
4039 3076 2146
4043 3078 2611
4049 3083 3084
4055 3086 3566
4060 3087 4056
4067 3580 323
4067 3581 792
4067 3581 1252
4068 3580 1709
4068 3581 2168
4070 3581 2633
4072 3583 3106
4075 3587 3588
4078 3589 4076
4092 4092 340
4093 4093 832
4094 4093 1313
4094 4093 1763
4094 4093 2205
4094 4094 2655
4094 4094 3128
4094 4094 3608
4095 4095 4095
