Toning/Toning-Green.3dl
#25pt 3DLUT created by 3D LUT Creator Pro (c) Oleg Sharonov
#Copyright Oleg Sharonov
#IMAGEPROFILE sRGB IEC61966-2.1 v.2.10
#INPUTGAMMA sRGB IEC61966-2.1 v.2.10
#OUTPUTGAMMA sRGB IEC61966-2.1 v.2.10
0 256 512 768 1023
0 0 0
0 0 544
0 2 1165
3 4 1813
3 2 2776
120 737 104
0 722 751
0 586 1721
2 344 2485
1 168 3457
222 1430 101
55 1399 612
0 1505 1438
0 1536 2798
1 1221 3681
655 3273 223
244 3236 937
131 3175 2027
0 2876 2805
0 2563 3739
2480 4093 2454
2467 4093 2528
2362 4093 2828
1979 4095 3301
0 3950 3964
972 0 33
843 0 753
693 0 1331
684 1 2060
705 0 2920
621 759 266
1078 1011 959
626 573 1809
353 237 2685
275 0 3058
502 1447 235
873 1679 758
857 1736 1659
584 1574 2941
1 1105 3822
1229 3361 182
1267 3272 999
1096 3205 2049
809 2974 2899
0 2615 3804
2608 4093 2481
2608 4093 2558
2502 4093 2834
2383 4085 3355
0 3987 3998
2193 193 0
2233 0 821
1950 0 1773
1755 0 2493
1646 1 3221
2211 999 0
2322 960 778
1693 689 2074
1146 264 3041
1596 1 3329
1690 1940 234
2062 2084 757
2198 2095 1989
1611 1637 3053
1029 1066 3990
2465 3573 274
2362 3528 837
2337 3247 2058
2112 3094 3017
1432 2763 3968
3098 4093 2580
3075 4093 2648
3023 4094 2921
2907 4094 3391
1945 4052 4057
3222 696 0
3465 0 305
3340 0 1824
2960 0 2813
2760 0 3553
3267 1179 0
3493 1010 0
3356 430 2071
2436 319 3350
2780 0 3622
3300 2133 23
3512 2225 1
3319 2163 1873
2854 1751 3181
2630 1131 4069
3559 3490 233
3699 3547 204
3478 3355 1919
3222 3138 3050
2886 2782 4047
3644 4094 2661
3638 4094 2739
3656 4094 3104
3576 4094 3479
3173 4083 4085
4095 1322 613
4095 1371 1005
4095 1223 1942
4095 404 3334
3820 0 3820
4095 1599 734
4095 1638 1101
4095 1637 1950
4095 990 3241
3857 0 3857
4094 2314 1042
4094 2331 1338
4093 2464 2144
4093 2278 3089
4062 1028 4095
4095 3238 1269
4095 3233 1502
4093 3217 2213
4094 3314 3197
4085 2828 4088
4094 4086 3051
4094 4087 3096
4094 4089 3275
4095 4092 3605
4095 4095 4095
