Toning/Toning-Green&Red.3dl
#25pt 3DLUT created by 3D LUT Creator Pro (c) Oleg Sharonov
#Copyright Oleg Sharonov
#IMAGEPROFILE sRGB IEC61966-2.1 v.2.10
#INPUTGAMMA sRGB IEC61966-2.1 v.2.10
#OUTPUTGAMMA sRGB IEC61966-2.1 v.2.10
0 128 256 384 512 640 768 896 1023
0 0 4
6 58 18
25 196 59
193 375 119
368 563 190
523 766 275
693 958 366
878 1138 472
1065 1317 595
0 513 4
39 522 98
208 560 146
367 649 199
486 792 264
622 946 339
788 1094 426
960 1250 530
1133 1412 651
0 1026 4
34 1043 110
81 1070 254
391 1161 323
636 1215 392
806 1288 469
964 1386 559
1119 1501 662
1279 1628 781
0 1538 4
28 1560 109
74 1597 283
143 1652 442
527 1788 548
888 1772 646
1132 1802 752
1303 1868 864
1465 1953 990
0 2048 4
16 2080 107
43 2132 281
81 2190 493
195 2333 695
702 2366 843
1117 2330 973
1425 2323 1117
1647 2356 1267
0 2556 4
6 2599 106
23 2660 280
45 2734 492
74 2832 771
259 3023 1018
882 2952 1225
1346 2882 1398
1690 2853 1576
0 3069 4
0 3116 104
0 3195 279
0 3291 491
12 3406 770
38 3540 1125
449 3606 1426
1095 3505 1692
1578 3423 1919
0 3582 4
44 3585 103
121 3587 278
139 3663 490
163 3766 770
183 3904 1125
226 4051 1562
898 3945 1925
1523 3855 2287
0 4095 4
43 4095 102
121 4095 277
213 4095 490
337 4095 770
493 4095 1125
686 4095 1563
929 4095 2120
2230 4064 2813
358 1 4
273 110 76
252 284 104
343 441 165
467 615 234
594 809 310
760 982 398
934 1158 502
1111 1335 623
345 537 4
387 544 115
419 600 177
490 697 230
574 835 292
707 968 363
857 1113 450
1016 1268 553
1178 1427 679
285 1111 4
318 1126 113
393 1145 272
544 1192 341
741 1224 413
885 1299 491
1027 1399 581
1171 1513 684
1320 1640 809
221 1683 4
249 1704 111
295 1733 292
382 1787 468
687 1775 565
989 1769 664
1195 1806 770
1354 1875 883
1500 1961 1017
150 2260 4
169 2287 110
202 2329 290
249 2371 513
441 2392 724
832 2355 863
1201 2323 991
1488 2320 1137
1677 2362 1292
82 2837 4
97 2868 108
122 2919 289
152 2977 513
225 3019 800
541 2986 1053
996 2935 1246
1417 2873 1416
1723 2855 1598
17 3415 4
24 3454 107
35 3517 288
49 3592 512
117 3641 800
277 3621 1170
676 3576 1465
1195 3488 1716
1603 3426 1937
160 3784 4
169 3820 105
177 3883 286
180 3970 511
217 4049 800
342 4064 1170
527 4053 1623
1082 3919 1970
1542 3856 2303
362 4095 4
401 4095 104
472 4095 285
557 4095 510
671 4095 799
812 4095 1170
989 4095 1623
1210 4095 2202
2281 4064 2838
880 1 4
907 25 117
773 327 214
704 541 243
742 705 300
825 866 383
944 1028 484
1080 1199 585
1232 1372 700
909 515 4
951 514 121
896 602 259
847 734 307
856 869 370
925 1004 453
1027 1150 538
1154 1304 634
1298 1459 755
813 1118 4
858 1116 118
932 1110 310
953 1160 400
1008 1230 475
1089 1319 553
1188 1423 641
1309 1538 741
1432 1664 886
700 1742 4
743 1740 117
818 1733 308
921 1723 511
1026 1747 610
1219 1760 715
1353 1815 820
1483 1888 936
1596 1978 1091
588 2360 4
629 2358 115
702 2350 306
791 2341 540
938 2326 776
1119 2326 908
1402 2307 1040
1636 2314 1188
1758 2375 1358
473 2977 4
514 2975 113
584 2968 304
671 2960 538
786 2946 843
990 2922 1114
1247 2897 1292
1589 2855 1462
1811 2856 1659
361 3599 4
401 3597 111
471 3591 303
557 3582 537
668 3566 841
811 3549 1232
1087 3500 1539
1418 3451 1769
1668 3432 1985
403 4064 4
440 4065 110
513 4056 301
613 4034 536
753 3989 841
935 3932 1232
1108 3911 1709
1425 3867 2055
1593 3858 2345
883 4095 4
916 4095 108
977 4095 299
1053 4095 535
1149 4095 840
1272 4095 1232
1425 4095 1710
1614 4095 2323
2401 4065 2897
1403 1 4
1433 3 125
1448 226 292
1336 506 398
1232 745 429
1210 935 482
1257 1103 568
1344 1264 686
1459 1424 825
1523 448 4
1558 447 124
1575 491 313
1417 697 436
1324 886 480
1298 1054 538
1334 1206 630
1415 1353 749
1521 1499 900
1446 1040 4
1480 1039 123
1542 1034 326
1483 1110 501
1462 1206 582
1451 1326 665
1486 1441 776
1553 1561 905
1646 1685 1051
1328 1658 4
1364 1655 121
1427 1650 323
1503 1641 571
1525 1686 704
1568 1744 815
1632 1814 926
1717 1895 1041
1793 1989 1250
1212 2269 4
1246 2265 119
1310 2258 321
1386 2248 568
1497 2235 846
1550 2268 981
1736 2270 1130
1860 2312 1277
1918 2384 1498
1097 2888 4
1131 2884 117
1195 2875 319
1275 2861 565
1375 2843 889
1526 2824 1201
1627 2842 1370
1875 2818 1544
1987 2850 1786
981 3503 4
1016 3499 115
1080 3489 317
1161 3474 563
1262 3456 887
1392 3432 1296
1585 3399 1634
1747 3394 1853
1799 3436 2078
1078 3911 4
1113 3906 114
1178 3895 315
1256 3882 562
1351 3870 885
1472 3857 1295
1629 3828 1798
1849 3804 2169
1688 3860 2425
1404 4095 4
1430 4095 111
1483 4095 313
1546 4095 560
1627 4095 885
1731 4095 1295
1858 4095 1798
2013 4095 2441
2595 4063 2998
1925 1 4
1951 2 128
1992 4 336
2021 419 510
1880 696 635
1740 956 673
1693 1158 730
1709 1332 819
1768 1490 944
2118 400 4
2148 399 127
2197 396 338
2098 601 534
1924 846 674
1809 1062 722
1759 1249 783
1770 1410 873
1831 1555 1013
2070 963 4
2098 962 126
2148 957 338
2141 1004 573
1995 1170 750
1936 1308 830
1892 1457 904
1900 1593 1006
1968 1710 1197
1960 1566 4
1989 1565 123
2038 1559 335
2101 1553 596
2054 1620 841
2061 1687 972
2045 1788 1085
2065 1889 1238
2139 1965 1535
1853 2168 4
1882 2165 121
1933 2158 333
1997 2150 593
2078 2139 935
2097 2178 1117
2137 2230 1279
2193 2292 1433
2227 2358 1793
1747 2771 4
1776 2768 120
1828 2760 331
1893 2750 590
1975 2737 932
2086 2720 1301
2104 2762 1481
2271 2757 1676
2231 2841 2012
1638 3372 4
1667 3369 117
1719 3361 329
1785 3349 588
1871 3334 928
1975 3316 1361
2117 3287 1756
2161 3322 1972
2036 3420 2253
1704 3811 4
1731 3810 115
1776 3806 327
1838 3799 586
1923 3784 927
2024 3767 1358
2139 3753 1888
2309 3729 2312
1832 3871 2558
1925 4095 4
1946 4095 112
1988 4095 325
2040 4095 584
2106 4095 925
2187 4095 1357
2286 4095 1886
2416 4095 2559
2840 4062 3140
2439 1 0
2460 2 129
2494 3 348
2652 217 583
2551 617 805
2390 895 944
2250 1154 988
2181 1364 1049
2175 1544 1146
2716 345 0
2739 346 128
2775 345 349
2811 407 602
2581 761 831
2425 1006 982
2302 1235 1036
2233 1434 1101
2236 1599 1213
2689 888 0
2711 888 127
2749 887 349
2796 882 624
2638 1072 883
2494 1260 1064
2411 1430 1147
2347 1602 1224
2377 1730 1380
2590 1476 0
2612 1476 125
2652 1473 347
2700 1469 622
2688 1511 943
2567 1643 1179
2545 1744 1309
2502 1875 1412
2569 1950 1673
2490 2062 0
2513 2062 123
2553 2058 344
2601 2052 618
2662 2044 977
2620 2103 1301
2647 2152 1492
2635 2240 1650
2737 2259 2164
2394 2650 0
2416 2649 120
2458 2643 342
2507 2636 615
2569 2625 973
2648 2612 1425
2666 2650 1665
2695 2694 1948
2698 2745 2532
2297 3237 0
2319 3235 118
2361 3229 340
2410 3222 612
2474 3211 969
2554 3196 1420
2660 3179 1898
2568 3264 2143
2484 3342 2617
2317 3716 0
2339 3713 116
2381 3707 338
2428 3700 610
2487 3695 968
2558 3688 1418
2656 3671 1974
2822 3640 2489
2073 3876 2778
2439 4094 0
2457 4094 114
2490 4094 335
2529 4094 608
2580 4095 965
2643 4095 1415
2723 4095 1971
2819 4095 2681
3116 4068 3317
2961 0 0
2975 2 134
3000 3 363
3028 3 644
3303 388 916
3026 826 1189
2888 1087 1338
2753 1346 1393
2672 1562 1460
3315 294 0
3330 293 132
3359 292 363
3392 290 648
3312 566 934
3053 933 1218
2917 1173 1377
2793 1410 1442
2732 1604 1531
3312 812 0
3326 813 131
3353 813 364
3385 811 651
3331 915 974
3110 1177 1279
2979 1376 1465
2884 1566 1556
2874 1707 1706
3224 1386 0
3238 1386 129
3264 1386 362
3299 1382 649
3342 1377 1023
3182 1539 1360
3055 1696 1598
3007 1826 1734
3084 1885 2014
3135 1959 0
3150 1959 128
3177 1958 359
3211 1954 646
3256 1948 1020
3239 1985 1441
3126 2100 1751
3126 2175 1947
3302 2142 2466
3044 2533 0
3057 2533 126
3087 2530 357
3121 2526 643
3167 2518 1015
3220 2510 1489
3176 2565 1908
3270 2566 2262
3311 2605 2760
2956 3108 0
2969 3107 123
3000 3103 354
3034 3098 640
3080 3090 1011
3134 3079 1484
3200 3068 2064
3202 3107 2435
3209 3153 2947
2934 3624 0
2947 3624 121
2977 3621 353
3011 3616 638
3055 3609 1009
3108 3600 1480
3172 3589 2060
3246 3591 2685
2961 3730 3120
2961 4095 0
2972 4095 120
2995 4095 351
3023 4095 636
3059 4095 1006
3102 4095 1478
3156 4095 2056
3220 4095 2799
3416 4072 3527
3482 1 0
3492 3 135
3505 5 374
3519 6 669
3701 212 1020
3752 638 1336
3497 1024 1680
3373 1268 1835
3240 1524 1901
3834 294 0
3836 299 133
3841 306 373
3845 314 671
3914 355 1035
3762 763 1359
3518 1109 1711
3396 1337 1874
3299 1557 1976
3912 760 0
3915 765 131
3921 773 374
3927 779 675
3935 786 1064
3783 1038 1412
3563 1310 1779
3445 1508 1966
3431 1640 2171
3810 1339 0
3815 1343 130
3821 1350 373
3828 1356 673
3839 1362 1064
3793 1440 1478
3614 1632 1879
3502 1794 2106
3617 1804 2514
3711 1917 0
3717 1921 128
3725 1926 371
3735 1930 671
3749 1934 1061
3764 1940 1551
3650 2049 1987
3547 2172 2285
3757 2085 3018
3611 2493 0
3618 2496 126
3630 2499 368
3641 2502 667
3657 2504 1058
3676 2506 1550
3664 2529 2091
3598 2608 2528
3707 2594 3129
3509 3072 0
3518 3074 124
3531 3076 365
3544 3077 664
3563 3078 1053
3586 3077 1546
3612 3074 2146
3573 3122 2695
3650 3126 3256
3472 3606 0
3481 3608 122
3495 3610 363
3509 3611 662
3528 3611 1051
3551 3611 1544
3579 3608 2145
3616 3605 2918
3618 3638 3459
3482 4095 0
3491 4095 122
3505 4095 364
3519 4095 663
3538 4095 1051
3561 4095 1542
3588 4094 2143
3624 4095 2917
3721 4084 3782
4004 1 0
4006 3 140
4010 5 389
4014 6 694
4017 7 1093
4028 627 1481
3984 995 1856
3857 1274 2267
3784 1488 2417
4004 514 0
4007 516 138
4011 519 387
4015 520 693
4017 521 1093
4057 641 1521
4007 1036 1915
3883 1318 2343
3809 1530 2500
4076 981 0
4077 985 136
4078 989 386
4078 993 693
4079 995 1095
4074 1045 1547
4040 1181 2032
3945 1421 2539
3870 1633 2722
4061 1505 0
4061 1508 135
4063 1512 385
4064 1514 692
4066 1516 1095
4065 1524 1593
4029 1610 2071
3978 1706 2711
3923 1859 3028
4047 2023 0
4048 2026 133
4050 2029 384
4052 2031 691
4054 2033 1094
4056 2034 1604
4029 2071 2130
3959 2152 2759
3902 2265 3145
4026 2545 0
4028 2548 132
4031 2550 382
4034 2552 690
4036 2553 1093
4039 2554 1604
4036 2557 2216
3969 2617 2831
3897 2713 3305
4015 3066 0
4017 3069 129
4021 3070 379
4024 3072 689
4027 3073 1093
4030 3073 1604
4032 3071 2228
3994 3098 2939
3910 3177 3513
4003 3586 0
4006 3589 126
4010 3590 377
4014 3592 687
4017 3592 1092
4020 3592 1604
4022 3591 2229
4025 3588 3038
3964 3636 3771
4005 4095 0
4007 4095 126
4011 4095 376
4015 4095 686
4018 4095 1091
4021 4095 1603
4024 4095 2229
4026 4094 3040
4033 4095 4068
