Toning/Toning-Instagrammish.3dl
#25pt 3DLUT created by 3D LUT Creator Pro (c) Oleg Sharonov
#Copyright Oleg Sharonov
#IMAGEPROFILE sRGB IEC61966-2.1 v.2.10
#INPUTGAMMA sRGB IEC61966-2.1 v.2.10
#OUTPUTGAMMA sRGB IEC61966-2.1 v.2.10
0 128 256 384 512 640 768 896 1023
0 0 270
0 0 590
0 0 1025
0 0 1493
0 0 1842
0 0 2068
0 0 2251
0 0 2429
0 0 2601
0 508 270
0 510 590
3 515 1026
52 526 1473
183 546 1779
326 588 1982
408 645 2176
440 689 2367
424 559 2572
0 1033 270
14 1019 603
0 1024 1025
11 1029 1491
87 1028 1826
218 1053 2025
293 1135 2199
306 1226 2374
406 985 2584
0 1555 270
64 1536 617
4 1538 1027
0 1543 1492
19 1546 1845
82 1574 2056
120 1680 2209
103 1820 2360
229 1493 2596
0 2073 271
141 2048 646
34 2056 1030
10 2061 1488
1 2070 1841
13 2106 2053
22 2221 2195
0 2386 2329
0 2097 2600
0 2587 271
212 2554 676
86 2567 1037
27 2569 1489
8 2571 1853
0 2596 2067
0 2695 2204
0 2857 2327
452 2753 2506
0 3095 271
250 3057 700
110 3067 1050
29 3066 1502
10 3049 1886
0 3043 2116
0 3111 2251
0 3252 2365
1135 3232 2409
1 3598 270
255 3560 710
105 3567 1060
19 3567 1515
0 3526 1917
1 3480 2173
0 3503 2315
0 3611 2428
1844 3577 2352
0 4095 270
211 4081 665
158 4094 1031
73 4095 1459
1 4095 1842
1794 3864 2001
2792 3951 2137
3263 4038 2240
0 4095 2601
604 0 213
571 0 585
580 0 1029
600 24 1474
653 78 1844
744 149 2113
861 208 2310
948 234 2505
792 225 2730
604 508 213
571 510 585
547 509 1032
548 506 1502
553 489 1923
523 444 2265
383 315 2492
185 185 2654
510 364 2759
649 1017 236
558 1029 577
539 1027 1029
567 1004 1494
612 963 1890
608 906 2221
547 822 2465
542 777 2651
678 750 2747
657 1537 263
544 1545 569
553 1551 1023
538 1543 1498
572 1496 1909
587 1435 2231
483 1362 2472
472 1322 2656
895 1257 2730
672 2048 295
527 2058 558
560 2067 1017
556 2085 1468
537 2065 1897
516 2030 2231
380 2018 2445
247 2007 2620
992 1811 2723
710 2554 327
506 2569 547
537 2576 1014
552 2604 1454
515 2605 1870
494 2589 2203
341 2623 2390
178 2688 2545
1142 2425 2676
765 3057 354
462 3083 547
517 3083 1014
506 3116 1446
439 3120 1849
385 3088 2190
346 3108 2398
176 3206 2525
1433 2987 2591
804 3559 368
394 3594 550
515 3590 1015
506 3617 1447
386 3629 1823
288 3575 2170
229 3545 2410
181 3612 2565
1873 3450 2508
665 4081 312
394 4095 549
509 4095 1010
1061 4095 1407
1823 4035 1781
2581 4029 2028
3123 4071 2204
3415 4090 2351
151 4095 2743
1182 0 191
1126 0 592
1124 0 1033
1140 0 1481
1165 29 1893
1239 76 2224
1382 117 2459
1538 134 2643
1307 186 2920
1162 529 191
1158 506 592
1137 506 1035
1085 515 1502
1078 521 1947
1070 503 2338
1036 452 2657
1024 427 2877
1130 569 2947
1182 1030 191
1143 1029 587
1125 1028 1033
1132 1027 1486
1157 1025 1909
1186 1018 2283
1207 1002 2599
1209 970 2854
1316 1003 2928
1189 1548 201
1083 1554 573
1111 1545 1030
1121 1546 1485
1171 1523 1902
1218 1510 2262
1240 1506 2569
1251 1493 2814
1450 1464 2905
1184 2065 217
1052 2066 564
1098 2059 1028
1139 2072 1471
1139 2065 1904
1173 2052 2271
1183 2071 2567
1169 2094 2799
1489 1965 2891
1211 2570 242
1030 2577 554
1082 2570 1026
1138 2583 1467
1137 2589 1894
1159 2584 2264
1165 2624 2542
1125 2701 2742
1529 2510 2857
1283 3066 273
1013 3087 546
1064 3080 1023
1119 3090 1470
1113 3092 1903
1124 3076 2286
1169 3100 2554
1145 3193 2728
1673 3027 2789
1360 3559 296
1012 3594 545
1046 3588 1021
1099 3596 1472
1090 3597 1908
1077 3568 2310
1109 3551 2604
1157 3607 2772
1986 3474 2706
1162 4094 241
979 4095 551
1031 4095 1021
1150 4095 1455
1603 4074 1832
2242 4040 2099
2855 4066 2290
3241 4089 2461
1106 4095 2949
1713 0 168
1667 22 589
1662 0 1033
1673 0 1484
1695 0 1913
1756 16 2285
1885 28 2569
2053 22 2780
1841 77 3118
1702 528 184
1701 498 586
1709 515 1025
1689 498 1484
1638 504 1949
1642 493 2365
1656 425 2724
1671 402 3015
1657 615 3152
1712 1032 173
1713 998 594
1677 1025 1032
1683 1025 1484
1671 1034 1931
1702 1036 2329
1749 1024 2676
1789 1002 2977
1805 1086 3128
1713 1548 168
1679 1546 579
1666 1545 1031
1674 1545 1484
1700 1546 1915
1735 1546 2307
1774 1543 2655
1810 1535 2953
1888 1547 3109
1708 2067 171
1607 2077 565
1622 2065 1031
1663 2061 1484
1691 2063 1914
1725 2067 2304
1746 2088 2647
1759 2113 2941
1919 2055 3095
1728 2573 185
1574 2586 555
1606 2575 1030
1653 2574 1483
1682 2577 1914
1718 2581 2302
1744 2623 2626
1741 2692 2896
1940 2583 3067
1792 3062 208
1551 3093 540
1597 3084 1028
1641 3084 1483
1659 3084 1922
1689 3072 2324
1748 3095 2638
1769 3178 2881
2018 3078 3012
1875 3545 229
1547 3598 537
1583 3591 1025
1629 3592 1484
1639 3590 1929
1648 3568 2350
1708 3554 2681
1774 3603 2918
2197 3513 2942
1681 4095 182
1665 4095 625
1593 4095 1033
1615 4095 1484
1714 4092 1900
2032 4067 2250
2584 4065 2451
3035 4087 2623
1791 4095 3133
2193 0 136
2157 39 577
2154 16 1030
2165 0 1492
2185 0 1936
2233 0 2334
2331 0 2660
2467 0 2919
2348 0 3296
2187 528 163
2185 490 568
2190 517 1018
2215 503 1473
2199 486 1936
2207 467 2364
2266 392 2724
2318 329 3045
2190 628 3326
2198 1026 153
2198 982 581
2169 1022 1029
2188 1031 1484
2195 1020 1936
2218 1016 2356
2282 995 2719
2350 959 3042
2269 1091 3310
2198 1542 141
2205 1505 577
2172 1526 1032
2169 1542 1491
2191 1542 1936
2226 1540 2348
2286 1525 2712
2348 1500 3037
2330 1566 3297
2193 2060 136
2164 2058 563
2155 2057 1028
2162 2058 1491
2185 2060 1936
2216 2062 2348
2252 2063 2723
2289 2062 3057
2343 2069 3298
2206 2566 142
2132 2582 553
2135 2575 1027
2156 2571 1491
2178 2574 1935
2210 2577 2346
2234 2607 2712
2245 2650 3038
2338 2595 3289
2251 3055 156
2118 3091 541
2136 3083 1024
2160 3081 1487
2172 3085 1935
2188 3076 2362
2239 3091 2716
2265 3156 3015
2377 3095 3255
2317 3532 173
2105 3599 534
2130 3591 1021
2160 3589 1483
2165 3593 1935
2161 3580 2378
2210 3563 2749
2269 3600 3039
2471 3544 3206
2193 4095 136
2420 4069 764
2233 4086 1073
2150 4093 1498
2157 4095 1934
2222 4087 2346
2482 4074 2663
2858 4084 2871
2297 4095 3311
2659 0 105
2634 41 565
2626 23 1030
2631 6 1506
2645 0 1967
2678 0 2389
2742 1 2753
2835 0 3059
2813 32 3396
2656 533 135
2653 482 550
2655 505 1015
2676 500 1481
2682 479 1948
2691 468 2389
2748 407 2765
2820 353 3096
2683 609 3445
2661 1032 127
2665 978 562
2641 1018 1026
2653 1028 1495
2669 1018 1956
2688 1013 2392
2746 995 2771
2825 955 3103
2726 1088 3436
2659 1547 113
2671 1495 561
2641 1524 1030
2643 1538 1501
2660 1538 1961
2686 1538 2391
2746 1526 2768
2822 1494 3103
2769 1566 3431
2654 2064 105
2652 2040 550
2637 2047 1026
2639 2054 1501
2658 2055 1959
2682 2057 2390
2736 2047 2773
2796 2022 3120
2781 2065 3439
2659 2570 105
2635 2568 545
2628 2567 1025
2635 2568 1501
2654 2570 1959
2679 2572 2389
2707 2574 2786
2736 2576 3149
2774 2580 3448
2683 3062 113
2635 3076 536
2637 3073 1022
2649 3071 1496
2667 3074 1950
2674 3084 2388
2702 3086 2784
2722 3124 3133
2778 3089 3438
2724 3543 127
2641 3581 531
2649 3577 1018
2666 3574 1487
2680 3580 1939
2670 3593 2386
2683 3579 2803
2727 3596 3141
2814 3563 3412
2888 4017 392
2857 4075 819
2759 4080 1134
2686 4085 1529
2660 4090 1962
2665 4095 2385
2733 4088 2778
2928 4085 3086
2751 4095 3454
3127 0 78
3112 34 554
3102 17 1031
3099 5 1522
3107 0 2000
3125 0 2444
3161 0 2840
3216 1 3185
3221 130 3490
3126 537 108
3126 471 534
3122 497 1015
3141 484 1491
3146 461 1969
3147 448 2427
3174 432 2835
3229 385 3188
3146 623 3526
3126 1044 99
3132 979 545
3113 1016 1024
3121 1023 1507
3131 1012 1983
3139 1006 2440
3169 1004 2845
3227 978 3200
3167 1095 3528
3122 1561 87
3135 1496 542
3112 1527 1026
3116 1535 1511
3127 1531 1987
3136 1529 2442
3168 1532 2845
3226 1518 3200
3192 1579 3530
3117 2077 79
3118 2040 531
3108 2049 1024
3113 2055 1510
3128 2052 1981
3138 2046 2438
3166 2053 2844
3220 2041 3202
3204 2074 3542
3117 2582 77
3106 2567 528
3102 2569 1023
3107 2572 1511
3123 2576 1979
3144 2568 2425
3164 2570 2842
3206 2559 3212
3203 2581 3559
3127 3078 78
3107 3076 528
3104 3075 1023
3110 3076 1511
3124 3078 1981
3142 3080 2424
3161 3082 2840
3181 3084 3225
3203 3087 3566
3147 3567 86
3117 3577 525
3117 3576 1021
3125 3575 1505
3140 3574 1971
3154 3580 2414
3158 3592 2838
3177 3593 3222
3215 3574 3557
3292 4068 486
3274 4092 862
3204 4091 1173
3147 4091 1565
3132 4090 2015
3143 4091 2438
3155 4095 2835
3217 4090 3210
3193 4095 3568
3606 0 58
3598 25 545
3591 9 1029
3588 1 1532
3590 0 2023
3594 0 2484
3607 0 2906
3633 0 3284
3630 205 3564
3605 536 85
3607 474 524
3599 503 1018
3610 494 1505
3619 459 1983
3614 450 2457
3619 433 2892
3643 412 3278
3599 646 3587
3604 1051 78
3607 992 534
3597 1017 1023
3602 1020 1517
3608 1010 2001
3608 999 2472
3616 996 2907
3641 992 3292
3606 1111 3598
3600 1573 69
3608 1508 532
3596 1530 1024
3600 1533 1520
3606 1527 2004
3607 1520 2476
3615 1524 2909
3640 1526 3293
3617 1597 3607
3595 2091 66
3599 2042 521
3593 2049 1023
3598 2053 1518
3608 2049 1999
3610 2037 2470
3615 2042 2907
3639 2049 3292
3625 2092 3620
3594 2596 63
3592 2566 518
3592 2568 1022
3596 2575 1516
3605 2580 1991
3617 2564 2454
3619 2558 2899
3637 2566 3290
3630 2593 3636
3598 3092 59
3591 3079 518
3590 3079 1022
3594 3083 1518
3600 3090 1995
3611 3091 2448
3625 3079 2883
3635 3080 3287
3634 3096 3651
3606 3586 58
3593 3585 518
3592 3584 1023
3596 3585 1520
3604 3586 1997
3614 3588 2451
3623 3589 2881
3633 3590 3284
3643 3591 3656
3699 4093 530
3688 4095 851
3656 4095 1190
3626 4095 1589
3603 4095 2048
3611 4094 2513
3621 4093 2911
3630 4095 3281
3640 4095 3656
4095 0 46
4094 16 532
4095 9 1024
4095 5 1525
4095 0 2012
4085 36 2478
4071 114 2893
4060 212 3263
4095 0 3721
4093 517 67
4095 484 521
4095 513 1023
4095 526 1517
4095 544 1992
4089 569 2449
4077 611 2876
4063 678 3261
4095 467 3718
4095 1020 66
4095 986 530
4095 1021 1023
4095 1028 1524
4094 1038 2003
4090 1052 2463
4080 1083 2893
4067 1131 3283
4095 1016 3721
4095 1532 57
4095 1506 537
4095 1529 1025
4095 1535 1527
4095 1540 2010
4091 1548 2473
4083 1569 2906
4072 1607 3299
4095 1535 3721
4095 2052 47
4095 2032 539
4095 2043 1025
4095 2046 1527
4095 2049 2011
4093 2052 2476
4087 2066 2913
4078 2095 3310
4095 2055 3721
4086 2582 71
4091 2559 547
4094 2560 1026
4094 2561 1529
4094 2564 2010
4095 2564 2473
4093 2570 2913
4086 2591 3316
4095 2570 3721
4074 3107 142
4086 3075 565
4092 3073 1032
4093 3073 1533
4092 3075 2016
4093 3076 2475
4095 3077 2913
4092 3091 3321
4095 3080 3721
4075 3592 209
4082 3577 602
4089 3579 1046
4094 3582 1536
4091 3581 2028
4091 3580 2488
4093 3580 2920
4095 3588 3329
4095 3589 3721
4095 4095 46
4095 4095 515
4095 4095 1023
4095 4095 1524
4095 4095 2006
4095 4095 2468
4095 4095 2908
4095 4095 3326
4095 4095 3721
