Toning/Toning-Film-Warm.3dl
#25pt 3DLUT created by 3D LUT Creator Pro (c) Oleg Sharonov
#Copyright Oleg Sharonov
#IMAGEPROFILE sRGB IEC61966-2.1 v.2.10
#INPUTGAMMA sRGB IEC61966-2.1 v.2.10
#OUTPUTGAMMA sRGB IEC61966-2.1 v.2.10
0 128 256 384 512 640 768 896 1023
538 430 312
557 441 414
608 472 650
698 530 982
825 612 1357
979 722 1746
1147 847 2119
1323 985 2446
1502 1130 2749
590 677 365
592 684 581
671 694 891
765 719 1313
890 763 1746
1047 852 2046
1210 961 2339
1381 1084 2611
1553 1219 2887
725 1148 506
727 1151 701
730 1161 1088
874 1164 1489
1009 1194 1837
1149 1224 2268
1297 1268 2628
1453 1329 2962
1633 1434 3187
940 1695 728
941 1697 888
944 1704 1223
949 1715 1676
1127 1713 2084
1288 1734 2393
1438 1769 2682
1587 1799 3038
1736 1840 3366
1193 2222 995
1194 2224 1124
1195 2227 1409
1199 2233 1806
1205 2243 2238
1400 2240 2581
1574 2250 2873
1730 2276 3128
1876 2304 3411
1462 2664 1288
1462 2665 1393
1464 2667 1630
1467 2671 1970
1471 2677 2343
1478 2686 2709
1677 2682 3041
1853 2688 3322
2009 2705 3558
1732 3084 1592
1733 3085 1677
1734 3086 1871
1736 3089 2153
1740 3094 2466
1745 3100 2804
1752 3109 3158
1947 3104 3463
2116 3107 3713
1995 3465 1893
1995 3466 1960
1996 3467 2115
1998 3469 2341
2001 3472 2609
2004 3477 2918
2010 3482 3245
2017 3489 3563
2405 3465 3781
2713 3723 2739
2716 3723 2766
2723 3724 2832
2737 3725 2941
2757 3727 3090
2786 3730 3267
2824 3733 3458
2872 3739 3649
2932 3745 3835
812 429 311
813 428 595
798 459 926
847 532 1186
949 618 1511
1081 729 1861
1232 855 2202
1394 992 2506
1562 1137 2798
814 693 356
815 698 596
857 705 976
932 739 1328
1033 803 1669
1158 889 2002
1300 994 2313
1454 1114 2594
1613 1224 2933
920 1159 509
922 1163 709
927 1171 1099
1019 1178 1510
1126 1199 1924
1249 1225 2340
1382 1267 2690
1544 1354 2929
1695 1437 3224
1095 1702 731
1098 1705 892
1101 1711 1229
1106 1721 1684
1244 1722 2094
1379 1744 2404
1513 1772 2725
1652 1801 3077
1772 1829 3451
1315 2227 996
1317 2228 1127
1319 2231 1412
1323 2238 1811
1329 2247 2242
1494 2245 2586
1647 2256 2880
1788 2282 3136
1901 2304 3467
1557 2667 1289
1559 2668 1396
1561 2670 1633
1564 2674 1973
1568 2680 2346
1575 2689 2712
1751 2685 3044
1912 2692 3327
2026 2711 3583
1807 3086 1593
1809 3087 1679
1810 3088 1873
1812 3091 2155
1816 3096 2468
1821 3102 2806
1828 3110 3160
2005 3106 3465
2127 3113 3729
2052 3467 1893
2054 3467 1962
2055 3468 2116
2057 3470 2343
2059 3474 2611
2063 3478 2920
2068 3484 3246
2075 3491 3564
2435 3467 3783
2741 3724 2750
2737 3725 2769
2745 3726 2834
2758 3727 2944
2778 3729 3093
2806 3732 3270
2843 3736 3461
2891 3741 3652
2950 3747 3838
1307 427 309
1309 426 595
1309 423 1117
1296 445 1645
1285 587 1867
1346 723 2127
1447 859 2392
1573 1000 2652
1713 1148 2920
1318 688 360
1311 697 596
1312 696 1121
1314 717 1625
1342 796 1929
1409 892 2210
1507 1002 2467
1627 1124 2724
1765 1230 3045
1311 1182 477
1330 1182 645
1312 1191 1121
1358 1195 1597
1425 1217 1998
1512 1262 2324
1615 1328 2595
1731 1414 2857
1853 1435 3317
1417 1720 739
1419 1722 903
1423 1727 1243
1429 1736 1699
1502 1742 2118
1591 1761 2459
1700 1775 2832
1814 1801 3178
1879 1779 3678
1579 2238 1003
1580 2239 1135
1583 2242 1422
1588 2248 1822
1594 2256 2252
1705 2257 2601
1817 2270 2898
1929 2294 3173
1968 2298 3619
1772 2675 1294
1772 2675 1401
1776 2677 1639
1778 2681 1981
1783 2687 2353
1790 2695 2719
1923 2693 3054
2049 2701 3338
2070 2723 3647
1979 3092 1597
1980 3092 1683
1982 3094 1877
1985 3097 2160
1988 3101 2473
1993 3107 2811
2000 3115 3166
2141 3112 3472
2175 3125 3764
2187 3471 1897
2188 3471 1964
2190 3472 2120
2192 3474 2346
2194 3477 2614
2198 3482 2924
2203 3487 3250
2208 3494 3568
2506 3473 3790
2809 3726 2777
2806 3728 2795
2797 3731 2840
2810 3733 2950
2829 3735 3099
2856 3737 3277
2891 3741 3468
2937 3746 3658
2994 3753 3843
1847 424 306
1849 423 594
1848 421 1118
1848 418 1720
1848 415 2287
1808 613 2501
1821 812 2687
1880 983 2898
1969 1145 3125
1865 679 351
1851 696 595
1851 696 1120
1850 694 1722
1850 693 2289
1835 832 2516
1860 975 2724
1921 1116 2945
2021 1221 3236
1847 1182 503
1853 1187 657
1850 1191 1122
1851 1191 1724
1858 1198 2240
1888 1250 2533
1934 1325 2788
2002 1417 3031
2117 1410 3476
1851 1745 675
1868 1745 791
1871 1748 1182
1850 1758 1724
1892 1759 2190
1948 1774 2544
2017 1804 2849
2097 1849 3125
2176 1742 3796
1946 2254 1004
1944 2256 1144
1945 2259 1436
1949 2263 1838
1955 2271 2268
2008 2276 2622
2072 2291 2934
2160 2297 3296
2175 2276 3809
2076 2687 1304
2077 2688 1411
2079 2689 1650
2081 2693 1992
2086 2698 2363
2093 2706 2730
2173 2707 3070
2254 2717 3357
2168 2739 3764
2228 3101 1605
2229 3102 1691
2231 3103 1886
2233 3106 2169
2236 3110 2481
2241 3116 2820
2246 3123 3174
2340 3122 3483
2361 3135 3777
2384 3478 1904
2385 3478 1971
2386 3479 2126
2388 3481 2352
2390 3484 2621
2393 3488 2931
2397 3493 3258
2403 3500 3575
2626 3483 3802
2921 3730 2826
2918 3732 2843
2911 3735 2885
2898 3742 2961
2915 3744 3111
2940 3747 3288
2972 3751 3479
3015 3756 3669
3068 3762 3854
2339 422 304
2340 421 595
2339 419 1120
2338 416 1721
2338 413 2288
2337 412 2766
2310 586 3071
2290 870 3228
2310 1088 3399
2352 676 345
2341 696 595
2340 695 1122
2339 694 1724
2339 693 2290
2338 693 2767
2318 830 3066
2310 1034 3244
2357 1154 3492
2356 1168 488
2351 1178 679
2340 1192 1122
2339 1191 1724
2338 1191 2290
2338 1191 2767
2338 1267 3057
2351 1380 3274
2449 1323 3694
2323 1752 724
2331 1753 830
2339 1759 1122
2337 1759 1725
2337 1759 2289
2344 1762 2735
2371 1792 3043
2404 1843 3305
2516 1710 3877
2338 2277 917
2348 2277 1013
2367 2277 1254
2354 2281 1786
2336 2290 2289
2369 2290 2682
2408 2298 3029
2456 2315 3330
2509 2271 3853
2413 2703 1283
2416 2703 1389
2416 2705 1642
2407 2710 2008
2411 2714 2379
2416 2721 2747
2450 2726 3091
2491 2739 3383
2508 2734 3812
2501 3115 1618
2502 3116 1703
2503 3117 1898
2505 3119 2181
2507 3123 2494
2511 3129 2832
2517 3135 3186
2571 3137 3498
2582 3149 3797
2617 3488 1913
2617 3488 1981
2618 3489 2135
2620 3490 2361
2636 3490 2648
2647 3493 2955
2664 3496 3273
2684 3501 3575
2790 3497 3819
3067 3737 2901
3066 3738 2917
3061 3742 2956
3052 3749 3025
3035 3759 3126
3056 3762 3305
3085 3765 3496
3123 3770 3685
3170 3777 3869
2743 420 303
2744 420 595
2743 418 1121
2741 414 1723
2740 411 2289
2740 409 2766
2739 408 3222
2729 490 3584
2693 887 3710
2753 673 342
2745 696 596
2743 695 1123
2742 694 1725
2741 693 2290
2740 693 2767
2740 693 3223
2729 775 3573
2739 940 3787
2763 1159 473
2756 1171 683
2743 1192 1123
2742 1192 1726
2741 1192 2291
2740 1192 2768
2739 1193 3223
2732 1254 3551
2828 1121 3941
2751 1737 721
2751 1741 857
2746 1754 1173
2740 1760 1727
2739 1760 2290
2738 1761 2766
2738 1761 3222
2746 1800 3523
2837 1714 3927
2714 2289 973
2721 2289 1051
2735 2290 1244
2739 2291 1726
2738 2291 2290
2737 2291 2766
2744 2291 3199
2772 2307 3494
2846 2264 3907
2740 2725 1188
2746 2724 1266
2763 2724 1445
2767 2725 1853
2754 2730 2341
2737 2739 2767
2767 2738 3146
2801 2733 3540
2843 2728 3876
2809 3131 1572
2811 3131 1655
2818 3131 1847
2817 3133 2157
2800 3139 2508
2805 3144 2848
2810 3150 3203
2829 3156 3527
2842 3167 3825
2884 3501 1926
2885 3501 1993
2886 3502 2147
2887 3503 2372
2911 3499 2691
2940 3496 3012
2953 3500 3302
2970 3506 3581
2990 3515 3844
3235 3747 3010
3234 3748 3023
3232 3752 3057
3227 3758 3117
3218 3767 3205
3199 3781 3323
3223 3785 3516
3255 3790 3707
3296 3796 3890
3125 420 302
3125 419 596
3124 417 1122
3122 414 1724
3121 410 2290
3120 408 2767
3120 406 3223
3119 405 3629
3119 404 3991
3132 673 340
3126 696 596
3124 696 1124
3123 694 1727
3122 693 2291
3121 693 2768
3120 693 3224
3120 694 3629
3120 694 3992
3143 1153 463
3137 1167 684
3124 1193 1124
3122 1193 1727
3121 1193 2291
3120 1193 2768
3120 1194 3223
3119 1195 3629
3120 1195 3991
3143 1725 698
3140 1731 855
3131 1747 1199
3121 1761 1728
3120 1761 2291
3119 1761 2768
3118 1762 3223
3118 1763 3628
3133 1753 3981
3122 2276 998
3123 2277 1097
3124 2282 1331
3120 2292 1727
3117 2291 2291
3117 2291 2767
3116 2292 3221
3116 2292 3625
3150 2278 3966
3084 2740 1235
3090 2740 1295
3103 2740 1441
3119 2740 1728
3117 2740 2292
3117 2740 2767
3116 2739 3221
3125 2737 3618
3169 2726 3943
3119 3152 1472
3123 3151 1537
3135 3151 1686
3155 3150 1930
3144 3153 2392
3131 3159 2815
3116 3167 3222
3142 3164 3578
3173 3161 3906
3181 3514 1859
3183 3514 1922
3190 3514 2070
3199 3513 2298
3198 3512 2673
3199 3511 3060
3192 3522 3313
3202 3528 3605
3214 3535 3876
3405 3762 3149
3405 3763 3163
3405 3766 3196
3404 3772 3245
3401 3781 3317
3395 3793 3413
3377 3810 3537
3403 3815 3733
3437 3821 3916
3466 419 301
3466 418 597
3464 415 1125
3462 412 1727
3460 410 2291
3460 407 2768
3459 405 3223
3458 403 3629
3457 403 3991
3471 673 339
3466 698 598
3464 697 1126
3462 696 1729
3461 695 2293
3460 694 2769
3459 693 3225
3458 694 3630
3458 695 3992
3479 1151 457
3475 1166 685
3463 1195 1126
3461 1194 1729
3460 1194 2293
3458 1195 2769
3458 1195 3224
3457 1197 3629
3456 1199 3991
3483 1716 677
3480 1724 849
3471 1742 1211
3460 1762 1729
3458 1762 2292
3457 1763 2768
3456 1763 3223
3455 1764 3628
3455 1767 3990
3475 2264 977
3474 2267 1092
3470 2274 1358
3462 2287 1766
3455 2293 2293
3455 2293 2768
3454 2293 3222
3453 2293 3626
3453 2294 3989
3449 2728 1295
3451 2729 1369
3455 2731 1546
3457 2736 1834
3455 2741 2292
3454 2740 2768
3453 2740 3222
3452 2740 3626
3452 2741 3988
3416 3170 1500
3420 3170 1547
3432 3169 1661
3449 3169 1854
3455 3168 2292
3453 3168 2768
3452 3168 3222
3452 3168 3626
3458 3166 3982
3455 3533 1759
3458 3532 1811
3467 3532 1933
3482 3531 2120
3482 3529 2537
3468 3531 2994
3462 3539 3299
3451 3547 3626
3474 3545 3943
3565 3788 3287
3566 3789 3298
3567 3792 3325
3569 3796 3372
3572 3803 3440
3574 3813 3530
3574 3826 3638
3561 3846 3758
3590 3852 3949
3770 418 300
3770 417 599
3768 416 1127
3766 413 1729
3764 409 2292
3763 407 2769
3762 404 3224
3762 402 3630
3761 401 3992
3769 701 375
3770 698 598
3769 698 1129
3767 697 1731
3765 696 2294
3764 696 2771
3763 693 3225
3762 695 3630
3761 695 3993
3762 1204 573
3763 1203 759
3767 1197 1129
3765 1197 1732
3763 1197 2294
3762 1197 2770
3761 1198 3225
3760 1198 3629
3760 1200 3992
3748 1777 885
3750 1776 1021
3755 1771 1315
3763 1765 1731
3762 1765 2294
3760 1765 2770
3759 1766 3224
3759 1767 3628
3758 1769 3990
3728 2309 1272
3730 2308 1369
3736 2305 1591
3746 2300 1917
3760 2294 2294
3759 2294 2769
3758 2293 3223
3757 2294 3627
3757 2295 3989
3699 2758 1705
3702 2757 1773
3708 2756 1932
3719 2752 2170
3737 2747 2447
3758 2741 2769
3757 2741 3223
3756 2741 3627
3756 2742 3989
3670 3182 2125
3672 3182 2172
3677 3182 2281
3687 3181 2447
3703 3179 2665
3727 3174 2925
3756 3168 3223
3755 3168 3626
3755 3169 3988
3656 3551 2468
3658 3551 2501
3661 3552 2585
3667 3552 2723
3678 3553 2911
3693 3553 3134
3718 3552 3375
3755 3548 3626
3754 3548 3988
3701 3822 3548
3702 3823 3556
3704 3826 3574
3707 3830 3607
3712 3837 3654
3719 3845 3717
3729 3857 3793
3740 3871 3884
3754 3888 3988
