Toning/Toning-Cool Shadows.3dl
#25pt 3DLUT created by 3D LUT Creator Pro (c) Oleg Sharonov
#Copyright Oleg Sharonov
#IMAGEPROFILE sRGB IEC61966-2.1 v.2.10
#INPUTGAMMA sRGB IEC61966-2.1 v.2.10
#OUTPUTGAMMA sRGB IEC61966-2.1 v.2.10
0 128 256 384 512 640 768 896 1023
0 0 0
0 0 290
0 0 772
0 0 1304
0 0 1800
0 0 2268
0 0 2771
0 0 3293
8 268 3800
0 409 0
0 413 413
0 411 871
0 406 1322
0 396 1791
0 397 2283
0 401 2797
0 421 3321
59 545 3820
0 866 0
0 866 409
0 868 868
0 870 1338
0 876 1827
0 890 2335
0 910 2856
0 940 3381
172 1042 3860
0 1375 0
0 1377 428
0 1384 901
0 1393 1393
0 1406 1901
0 1426 2421
0 1453 2947
0 1486 3468
333 1588 3912
0 1944 0
0 1949 445
0 1958 947
0 1971 1461
0 1986 1986
0 2006 2518
0 2032 3047
0 2070 3555
531 2160 3959
0 2564 0
0 2570 470
0 2578 1000
0 2589 1535
0 2601 2076
0 2616 2616
0 2636 3146
306 2667 3611
774 2728 3991
0 3213 0
0 3217 505
0 3221 1060
0 3224 1614
0 3228 2167
0 3231 2712
268 3220 3220
683 3219 3650
1092 3231 4015
75 3837 331
93 3836 645
142 3826 1174
226 3809 1730
352 3782 2283
530 3746 2815
797 3711 3283
1118 3685 3685
1433 3670 4041
1102 4095 1292
1112 4095 1391
1129 4095 1665
1151 4095 2052
1177 4095 2493
1231 4095 2931
1324 4095 3344
1515 4095 3723
1725 4076 4076
91 1 1
108 0 363
135 0 831
162 0 1336
148 0 1797
144 0 2276
149 0 2784
168 0 3305
289 291 3805
163 414 0
328 569 569
231 478 983
178 428 1404
106 360 1872
0 256 2369
0 154 2879
12 272 3381
339 578 3841
159 870 0
235 989 481
234 991 991
176 927 1428
99 896 1909
0 875 2417
0 872 2931
77 918 3431
415 1065 3879
180 1381 0
198 1460 447
189 1468 954
155 1477 1477
78 1453 1976
0 1446 2493
0 1455 3009
176 1496 3502
539 1608 3926
200 1953 0
139 2024 391
127 2031 958
95 2039 1501
40 2049 2049
0 2043 2576
83 2052 3092
328 2087 3572
705 2177 3969
227 2574 0
69 2641 326
62 2644 976
49 2648 1547
39 2652 2107
96 2656 2656
250 2656 3170
543 2682 3622
919 2740 3997
265 3220 0
122 3266 375
134 3264 1032
158 3261 1615
213 3254 2181
324 3245 2727
534 3233 3233
852 3228 3657
1211 3237 4019
411 3837 348
429 3842 662
458 3832 1187
509 3814 1741
594 3786 2294
731 3750 2824
955 3715 3289
1240 3689 3689
1523 3673 4044
1209 4095 1303
1227 4095 1409
1243 4095 1680
1265 4095 2064
1291 4095 2502
1343 4095 2936
1430 4095 3346
1601 4095 3725
1794 4078 4078
650 0 0
653 0 414
651 0 872
641 0 1326
639 0 1797
651 0 2290
672 0 2803
703 0 3324
792 350 3813
642 406 0
769 476 476
771 477 983
699 421 1412
665 348 1885
640 247 2385
635 160 2894
680 302 3394
829 612 3847
655 876 0
781 993 482
944 1145 1145
841 1049 1614
756 969 2059
709 925 2533
697 914 3019
748 961 3496
919 1121 3916
690 1393 0
742 1472 439
854 1632 1061
850 1637 1637
775 1551 2105
736 1510 2592
737 1503 3083
810 1539 3553
1007 1655 3954
737 1967 0
745 2035 381
803 2142 1013
800 2149 1585
797 2154 2154
773 2111 2655
796 2100 3150
904 2129 3606
1130 2216 3986
794 2586 0
765 2648 321
798 2712 1008
801 2714 1592
807 2714 2162
834 2715 2715
888 2698 3210
1044 2716 3642
1297 2764 4006
858 3227 0
825 3268 389
850 3300 1057
862 3294 1642
886 3286 2211
941 3271 2758
1064 3257 3257
1266 3243 3667
1527 3247 4023
978 3830 397
991 3834 691
1022 3839 1217
1051 3819 1766
1101 3790 2316
1190 3752 2839
1348 3718 3297
1558 3693 3693
1767 3677 4046
1505 4095 1324
1520 4095 1428
1547 4095 1709
1565 4095 2087
1588 4095 2515
1632 4095 2941
1697 4095 3347
1833 4095 3724
1987 4078 4078
1129 0 0
1130 0 405
1135 0 861
1142 0 1331
1154 0 1818
1176 0 2321
1206 0 2837
1245 0 3355
1333 446 3824
1136 407 0
1227 431 431
1235 422 920
1245 391 1428
1216 318 1908
1209 222 2412
1218 184 2920
1259 352 3415
1367 677 3855
1170 883 0
1260 936 429
1448 1051 1051
1454 1048 1623
1352 970 2075
1306 930 2552
1296 928 3037
1331 987 3508
1448 1163 3916
1226 1410 0
1310 1488 407
1472 1640 1059
1594 1754 1754
1516 1681 2271
1441 1611 2736
1414 1585 3195
1450 1618 3625
1574 1735 3992
1295 1987 0
1333 2051 351
1417 2153 1012
1529 2287 1693
1532 2287 2287
1476 2212 2769
1464 2178 3235
1525 2199 3653
1668 2279 4008
1371 2604 0
1380 2659 308
1425 2719 1013
1495 2808 1661
1503 2804 2243
1525 2801 2801
1539 2763 3265
1632 2766 3668
1796 2799 4017
1453 3237 0
1451 3269 415
1478 3299 1070
1526 3343 1689
1543 3328 2260
1581 3307 2806
1671 3289 3289
1794 3264 3680
1952 3263 4029
1575 3816 482
1587 3820 743
1611 3823 1247
1653 3823 1808
1685 3791 2351
1747 3753 2860
1853 3720 3306
1985 3699 3699
2117 3682 4049
1923 4095 1354
1935 4095 1458
1956 4095 1732
1986 4095 2120
2003 4095 2533
2029 4095 2948
2068 4095 3348
2168 4092 3723
2273 4078 4078
1653 0 0
1658 0 405
1668 0 875
1683 0 1358
1703 0 1857
1730 0 2368
1764 0 2884
1805 0 3397
1889 576 3834
1673 409 0
1757 365 365
1766 354 899
1778 322 1415
1793 263 1941
1788 186 2448
1800 227 2955
1835 434 3441
1923 776 3861
1719 901 0
1800 915 360
1942 980 980
1950 978 1537
1959 974 2096
1904 942 2576
1889 953 3060
1912 1034 3520
1999 1229 3912
1789 1435 0
1862 1475 339
1986 1564 996
2150 1684 1684
2151 1687 2275
2059 1623 2743
2016 1606 3200
2032 1654 3618
2113 1781 3975
1872 2015 0
1932 2071 305
2033 2166 1013
2166 2290 1698
2241 2359 2359
2194 2315 2877
2154 2277 3318
2172 2295 3698
2245 2363 4031
1960 2626 0
1988 2672 310
2041 2727 1023
2120 2809 1671
2205 2888 2325
2216 2882 2882
2204 2835 3316
2244 2824 3694
2321 2845 4032
2052 3249 0
2063 3270 472
2092 3297 1097
2140 3333 1709
2204 3364 2325
2231 3337 2858
2287 3320 3320
2336 3291 3696
2413 3286 4039
2173 3794 607
2183 3797 829
2203 3797 1300
2237 3794 1842
2284 3785 2400
2316 3751 2886
2370 3724 3320
2444 3708 3708
2515 3691 4055
2398 4095 1395
2407 4095 1497
2418 4095 1765
2433 4095 2143
2456 4095 2560
2466 4095 2960
2490 4095 3351
2549 4089 3722
2613 4080 4080
2226 0 0
2234 0 415
2245 0 903
2262 0 1400
2282 0 1908
2307 0 2423
2338 0 2938
2377 242 3432
2448 747 3839
2251 419 0
2335 271 271
2341 263 891
2352 238 1427
2364 202 1959
2378 215 2489
2384 336 2992
2411 573 3463
2479 916 3860
2301 928 0
2379 907 273
2480 948 948
2486 949 1509
2493 952 2061
2501 971 2603
2476 1002 3084
2488 1114 3526
2546 1329 3902
2376 1469 0
2444 1482 269
2532 1537 969
2663 1623 1623
2661 1631 2198
2661 1650 2753
2604 1646 3204
2600 1714 3605
2636 1856 3955
2463 2049 0
2517 2079 281
2588 2137 1000
2692 2224 1652
2796 2317 2317
2790 2328 2874
2730 2306 3299
2711 2335 3672
2731 2404 4007
2555 2654 0
2589 2687 374
2643 2737 1055
2723 2811 1696
2800 2883 2338
2833 2914 2914
2815 2897 3352
2806 2888 3720
2822 2903 4053
2646 3259 168
2658 3269 588
2686 3290 1157
2729 3316 1750
2777 3340 2353
2822 3359 2904
2839 3347 3347
2843 3323 3715
2868 3316 4055
2749 3764 786
2757 3766 969
2769 3765 1391
2785 3761 1906
2807 3754 2433
2841 3750 2920
2860 3730 3338
2893 3719 3719
2921 3703 4065
2869 4095 1473
2873 4095 1570
2876 4095 1825
2880 4095 2180
2888 4095 2576
2903 4095 2978
2914 4095 3358
2942 4088 3725
2973 4083 4083
2836 0 0
2844 0 434
2852 0 942
2864 0 1451
2880 0 1968
2898 0 2485
2919 35 2996
2938 569 3453
2972 981 3840
2860 436 0
2933 230 230
2936 235 908
2941 247 1460
2946 279 1997
2951 365 2524
2958 524 3031
2968 784 3478
2996 1123 3858
2907 962 0
2972 923 258
3041 957 957
3041 965 1521
3041 981 2069
3040 1019 2603
3041 1101 3109
3030 1254 3529
3043 1488 3892
2977 1512 0
3030 1511 304
3088 1549 988
3178 1614 1614
3171 1628 2174
3158 1658 2714
3145 1730 3207
3111 1822 3594
3107 1969 3938
3058 2091 0
3095 2105 387
3141 2143 1037
3209 2205 1656
3277 2289 2289
3251 2312 2824
3234 2366 3289
3191 2398 3654
3178 2464 3989
3143 2689 0
3157 2702 538
3188 2734 1121
3231 2786 1722
3271 2844 2334
3302 2898 2898
3290 2914 3342
3257 2911 3703
3245 2928 4037
3199 3257 573
3209 3267 806
3226 3283 1288
3250 3304 1844
3273 3326 2409
3297 3348 2920
3308 3359 3359
3302 3352 3731
3297 3348 4073
3256 3737 1051
3260 3739 1194
3263 3738 1551
3266 3734 2013
3274 3731 2488
3288 3732 2941
3306 3735 3357
3315 3729 3729
3318 3718 4078
3309 4095 1598
3311 4095 1686
3311 4095 1912
3309 4095 2235
3308 4095 2605
3311 4095 2991
3320 4095 3370
3329 4090 3729
3339 4088 4088
3461 0 0
3464 0 468
3468 0 990
3472 0 1512
3473 104 2036
3460 371 2555
3442 623 3047
3432 940 3475
3431 1280 3844
3480 472 0
3516 410 410
3515 428 986
3511 467 1528
3502 535 2061
3486 649 2582
3466 827 3072
3454 1094 3496
3448 1396 3860
3518 1008 0
3546 1004 453
3586 1041 1041
3577 1061 1584
3561 1099 2121
3539 1164 2644
3514 1286 3124
3498 1479 3537
3483 1697 3889
3572 1566 80
3586 1580 533
3617 1614 1090
3660 1676 1676
3636 1703 2214
3604 1751 2732
3575 1843 3191
3556 1978 3591
3532 2104 3932
3614 2151 383
3625 2165 661
3645 2196 1171
3671 2249 1738
3696 2325 2325
3661 2356 2819
3633 2409 3258
3618 2482 3649
3589 2541 3982
3644 2736 645
3651 2748 847
3661 2771 1296
3674 2804 1830
3686 2845 2384
3702 2896 2896
3680 2915 3315
3669 2947 3696
3642 2964 4030
3667 3267 979
3671 3273 1128
3675 3281 1499
3678 3291 1975
3684 3307 2465
3694 3329 2929
3706 3353 3353
3700 3361 3726
3683 3359 4068
3693 3719 1367
3695 3721 1476
3694 3720 1759
3692 3719 2144
3693 3719 2562
3698 3723 2974
3705 3730 3365
3709 3733 3733
3705 3730 4089
3720 4095 1755
3721 4095 1831
3719 4095 2026
3715 4095 2311
3709 4095 2659
3705 4095 3020
3706 4092 3379
3709 4093 3733
3710 4093 4093
3998 573 573
3997 584 753
3989 615 1170
3973 672 1657
3948 759 2161
3916 886 2657
3883 1080 3107
3856 1329 3502
3839 1588 3856
4007 764 597
4018 786 786
4009 812 1198
3992 857 1682
3966 929 2185
3932 1040 2679
3897 1213 3124
3870 1441 3517
3853 1675 3869
4023 1201 658
4032 1219 837
4047 1261 1261
4027 1292 1739
3997 1342 2238
3960 1424 2724
3925 1558 3158
3898 1731 3545
3882 1910 3896
4041 1722 760
4048 1738 924
4057 1771 1326
4069 1829 1829
4035 1863 2319
3997 1925 2785
3963 2015 3206
3939 2126 3586
3925 2246 3937
4054 2273 905
4059 2286 1051
4063 2312 1421
4066 2355 1901
4069 2412 2412
4035 2442 2853
4006 2490 3260
3986 2553 3633
3976 2623 3985
4061 2812 1106
4064 2819 1232
4063 2832 1564
4062 2851 2007
4062 2881 2472
4068 2922 2922
4046 2941 3311
4033 2970 3678
4027 3004 4032
4069 3289 1380
4070 3292 1484
4068 3296 1759
4065 3301 2136
4064 3312 2549
4067 3330 2960
4077 3353 3353
4069 3362 3712
4067 3372 4069
4085 3714 1666
4086 3716 1746
4083 3714 1963
4079 3712 2277
4075 3712 2636
4076 3715 3006
4081 3722 3371
4089 3731 3731
4090 3731 4090
4095 4095 1933
4095 4095 1999
4095 4095 2161
4095 4095 2412
4095 4095 2721
4093 4094 3052
4092 4093 3390
4093 4094 3734
4095 4095 4095
