Toning/Toning-2 Strip Teal Orange.3dl
#25pt 3DLUT created by 3D LUT Creator Pro (c) Oleg Sharonov
#Copyright Oleg Sharonov
#INPUTGAMMA sRGB
#IMAGEPROFILE sRGB
#OUTPUTGAMMA sRGB
0 128 256 384 512 640 768 896 1023
249 249 249
408 499 504
581 788 801
777 1173 1201
1007 1658 1701
1282 2146 2196
1561 2544 2593
1811 2812 2855
2051 3026 3068
249 295 411
249 554 701
385 857 1061
554 1271 1545
743 1769 2067
953 2251 2524
1190 2630 2842
1421 2880 3065
1657 3086 3255
249 344 594
249 613 933
249 933 1385
362 1374 1911
524 1879 2410
701 2353 2789
881 2710 3053
1068 2944 3252
1276 3144 3424
249 394 807
249 674 1230
249 1015 1745
249 1479 2268
337 1990 2702
488 2450 3006
642 2782 3242
789 3007 3421
949 3200 3510
249 446 1068
249 738 1578
249 1105 2110
249 1588 2585
249 2098 2930
305 2542 3200
439 2850 3412
565 3068 3510
697 3254 3510
249 500 1393
249 805 1945
249 1199 2449
249 1697 2836
249 2205 3132
249 2629 3374
263 2916 3510
371 3126 3510
487 3307 3510
249 557 1751
249 876 2299
249 1299 2732
249 1807 3048
249 2308 3313
249 2708 3510
251 2980 3510
249 3183 3510
304 3358 3510
249 615 2116
249 953 2611
249 1402 2956
249 1918 3238
249 2408 3476
249 2781 3510
249 3041 3510
249 3238 3510
251 3408 3510
249 677 2456
249 1037 2856
249 1508 3155
249 2028 3408
249 2502 3510
249 2849 3510
249 3101 3510
249 3291 3510
249 3456 3510
519 255 249
715 505 400
934 797 674
1213 1185 1022
1531 1672 1489
1854 2159 1987
2144 2555 2414
2377 2821 2719
2581 3034 2948
330 302 313
500 562 582
686 866 899
898 1283 1339
1164 1783 1853
1462 2264 2338
1751 2640 2705
2002 2888 2945
2235 3093 3148
249 349 483
315 620 792
476 943 1190
657 1386 1696
860 1893 2213
1103 2365 2643
1364 2719 2932
1607 2952 3145
1848 3151 3327
249 400 677
249 682 1048
294 1026 1532
451 1493 2062
626 2003 2539
815 2462 2882
1020 2791 3134
1231 3015 3325
1456 3207 3489
249 453 905
249 747 1371
249 1116 1897
273 1601 2406
424 2112 2801
587 2553 3089
753 2859 3315
912 3075 3487
1098 3261 3510
249 508 1196
249 814 1729
249 1211 2255
249 1710 2698
249 2218 3016
390 2639 3274
534 2924 3478
669 3134 3510
812 3314 3510
249 564 1539
249 885 2095
249 1311 2575
249 1821 2927
249 2321 3209
249 2718 3441
346 2988 3510
461 3190 3510
583 3364 3510
249 623 1904
249 963 2436
249 1415 2828
249 1931 3129
249 2419 3382
251 2789 3510
249 3049 3510
279 3245 3510
389 3414 3510
249 685 2262
249 1048 2721
249 1522 3041
249 2041 3310
249 2513 3510
249 2857 3510
249 3108 3510
251 3298 3510
249 3462 3510
872 260 249
1149 512 299
1465 805 552
1807 1198 859
2143 1686 1276
2441 2173 1761
2674 2567 2208
2838 2830 2551
2980 3041 2813
634 308 249
849 570 467
1107 876 756
1417 1297 1137
1751 1797 1627
2073 2277 2125
2351 2651 2534
2565 2896 2810
2741 3101 3027
432 356 377
616 629 659
818 953 1003
1064 1400 1473
1364 1908 1994
1679 2378 2462
1972 2729 2797
2216 2961 3024
2436 3158 3219
255 408 556
416 690 881
590 1038 1316
786 1507 1837
1020 2018 2344
1297 2474 2742
1577 2800 3013
1827 3023 3216
2067 3214 3391
249 460 761
249 755 1166
393 1128 1671
562 1615 2198
752 2126 2649
965 2565 2964
1204 2867 3206
1436 3083 3389
1673 3268 3510
249 514 1007
249 823 1505
249 1224 2038
370 1725 2526
533 2231 2886
710 2650 3163
892 2933 3380
1081 3141 3510
1290 3320 3510
249 572 1323
249 895 1871
249 1325 2384
249 1836 2791
344 2334 3093
497 2728 3341
652 2996 3510
799 3197 3510
960 3371 3510
249 631 1679
249 974 2230
249 1429 2680
249 1946 3007
249 2432 3278
312 2798 3501
446 3057 3510
574 3252 3510
706 3420 3510
249 693 2045
249 1060 2553
249 1536 2913
249 2055 3201
249 2525 3445
249 2866 3510
268 3116 3510
378 3304 3510
495 3468 3510
1381 266 249
1736 520 249
2080 815 439
2403 1210 720
2676 1701 1079
2884 2186 1535
3051 2578 1987
3182 2839 2357
3300 3049 2662
1035 315 249
1349 577 360
1686 885 626
2031 1310 957
2353 1812 1406
2624 2291 1901
2821 2662 2338
2970 2905 2659
3103 3109 2898
764 363 276
1008 636 537
1303 964 843
1636 1414 1260
1975 1922 1767
2287 2391 2259
2543 2739 2643
2730 2969 2894
2880 3166 3103
543 414 443
743 699 740
970 1049 1115
1258 1521 1610
1580 2032 2131
1903 2486 2577
2191 2809 2882
2421 3031 3100
2619 3221 3287
353 467 631
525 764 981
714 1140 1448
933 1630 1977
1207 2139 2468
1509 2576 2830
1801 2876 3089
2051 3091 3284
2282 3275 3453
249 522 848
338 832 1290
500 1237 1811
685 1739 2329
894 2245 2746
1144 2660 3043
1411 2941 3274
1656 3149 3450
1897 3327 3510
249 579 1121
249 905 1644
315 1338 2173
475 1850 2636
653 2347 2968
846 2737 3233
1059 3004 3441
1276 3205 3510
1504 3377 3510
249 639 1455
249 985 2010
249 1443 2505
294 1960 2876
447 2445 3166
614 2807 3404
782 3065 3510
948 3259 3510
1140 3426 3510
249 701 1818
249 1072 2360
249 1550 2775
249 2070 3084
270 2537 3344
414 2875 3510
560 3123 3510
697 3311 3510
842 3474 3510
2006 273 249
2351 527 249
2639 824 332
2865 1224 591
3059 1716 903
3227 2201 1314
3365 2590 1755
3475 2848 2139
3510 3058 2480
1611 320 249
1972 585 260
2306 896 504
2600 1324 802
2831 1827 1194
3020 2304 1669
3175 2672 2119
3298 2914 2475
3408 3116 2755
1236 370 249
1578 644 423
1923 975 702
2259 1428 1061
2556 1937 1537
2787 2404 2035
2962 2748 2457
3100 2977 2752
3224 3173 2976
916 421 335
1205 708 609
1529 1061 935
1873 1535 1385
2205 2046 1903
2497 2499 2382
2720 2818 2738
2877 3039 2973
3017 3229 3173
671 474 508
892 773 822
1162 1153 1233
1480 1644 1745
1816 2154 2260
2137 2588 2679
2409 2885 2961
2616 3099 3170
2783 3282 3350
464 530 707
652 842 1088
859 1250 1581
1118 1754 2110
1425 2259 2579
1744 2671 2911
2037 2950 3160
2278 3156 3347
2492 3334 3510
282 587 939
446 915 1417
624 1352 1947
827 1865 2449
1072 2360 2831
1357 2747 3115
1642 3012 3338
1893 3212 3508
2131 3384 3510
249 647 1239
270 996 1778
423 1457 2301
597 1975 2732
792 2457 3044
1015 2817 3298
1263 3073 3499
1499 3266 3510
1738 3433 3510
249 710 1588
249 1084 2143
249 1565 2613
400 2084 2956
567 2549 3233
748 2884 3463
938 3131 3510
1135 3318 3510
1351 3480 3510
2607 279 249
2850 535 249
3049 834 249
3227 1237 466
3387 1732 749
3510 2215 1099
3510 2601 1513
3510 2857 1900
3510 3066 2262
2267 328 249
2580 593 249
2819 907 388
3021 1338 658
3200 1842 993
3354 2318 1430
3483 2684 1879
3510 2923 2257
3510 3125 2580
1882 377 249
2235 653 312
2541 987 568
2788 1443 880
2990 1952 1305
3163 2417 1793
3307 2758 2237
3421 2986 2576
3510 3181 2832
1487 428 249
1847 716 482
2188 1074 776
2499 1550 1164
2752 2062 1659
2949 2512 2155
3110 2827 2559
3238 3048 2829
3351 3236 3045
1126 482 392
1455 782 677
1797 1167 1027
2139 1660 1504
2451 2169 2025
2704 2600 2489
2889 2894 2816
3032 3107 3042
3160 3289 3235
832 537 572
1097 851 903
1408 1265 1346
1746 1770 1869
2084 2273 2373
2388 2682 2762
2630 2959 3030
2801 3164 3232
2945 3341 3405
602 596 780
811 926 1193
1057 1366 1703
1360 1881 2228
1690 2374 2672
2014 2757 2982
2295 3021 3222
2516 3220 3403
2700 3391 3510
403 656 1033
583 1008 1536
780 1472 2069
1016 1991 2552
1307 2471 2905
1619 2826 3179
1912 3081 3394
2159 3273 3510
2382 3440 3510
249 719 1353
388 1097 1902
557 1580 2412
750 2100 2810
973 2562 3110
1242 2893 3355
1517 3139 3510
1767 3325 3510
2008 3487 3510
3060 287 249
3246 544 249
3406 844 249
3510 1253 341
3510 1749 598
3510 2232 897
3510 2615 1261
3510 2867 1632
3510 3075 2004
2832 335 249
3042 602 249
3222 918 270
3384 1354 516
3510 1859 810
3510 2334 1186
3510 2696 1612
3510 2933 1999
3510 3133 2354
2557 385 249
2811 663 249
3015 1000 435
3197 1460 715
3358 1969 1072
3500 2432 1527
3510 2769 1978
3510 2996 2349
3510 3190 2656
2207 437 249
2529 726 356
2780 1088 622
2986 1567 950
3168 2078 1398
3325 2526 1893
3456 2838 2330
3510 3057 2652
3510 3244 2893
1818 490 273
2175 793 533
2489 1181 838
2748 1677 1253
2954 2185 1759
3131 2613 2251
3277 2904 2637
3393 3116 2889
3497 3298 3099
1427 546 439
1784 862 735
2127 1280 1108
2445 1787 1602
2710 2289 2123
2912 2694 2571
3077 2968 2877
3207 3173 3096
3323 3349 3283
1074 605 626
1394 938 975
1734 1383 1441
2078 1898 1969
2396 2389 2461
2659 2768 2825
2851 3030 3085
2997 3228 3280
3128 3399 3449
793 665 843
1046 1022 1283
1348 1489 1803
1683 2008 2321
2022 2485 2741
2331 2837 3038
2582 3090 3270
2761 3281 3447
2908 3447 3510
568 730 1115
772 1111 1636
1007 1597 2166
1301 2116 2630
1627 2575 2963
1951 2903 3229
2236 3148 3438
2463 3333 3510
2655 3494 3510
3448 295 249
3510 554 249
3510 856 249
3510 1270 249
3510 1767 448
3510 2249 713
3510 2629 1012
3510 2879 1348
3510 3085 1710
3268 343 249
3433 612 249
3510 932 249
3510 1372 374
3510 1878 637
3510 2351 948
3510 2709 1328
3510 2944 1705
3510 3143 2076
3067 394 249
3252 674 249
3412 1014 302
3510 1478 553
3510 1988 856
3510 2449 1250
3510 2781 1684
3510 3006 2071
3510 3199 2418
2840 445 249
3048 738 249
3228 1103 470
3389 1586 759
3510 2097 1132
3510 2541 1599
3510 2849 2050
3510 3067 2414
3510 3254 2708
2567 499 249
2818 804 390
3021 1198 662
3202 1696 1005
3364 2203 1468
3505 2627 1965
3510 2915 2396
3510 3126 2704
3510 3306 2936
2219 556 305
2540 875 571
2788 1297 885
2993 1806 1319
3174 2307 1832
3331 2707 2318
3461 2979 2690
3510 3182 2932
3510 3357 3137
1830 615 474
2186 952 778
2499 1401 1171
2756 1916 1675
2961 2406 2193
3137 2780 2627
3283 3041 2920
3398 3237 3134
3502 3407 3317
1438 676 666
1796 1036 1032
2139 1507 1511
2456 2026 2041
2718 2501 2522
2919 2848 2869
3083 3100 3123
3213 3290 3315
3328 3455 3480
1083 740 890
1406 1127 1350
1746 1616 1876
2089 2134 2387
2406 2590 2787
2668 2914 3078
2858 3158 3305
3004 3342 3478
3134 3502 3510
3510 304 249
3510 564 249
3510 869 249
3510 1287 249
3510 1786 312
3510 2267 550
3510 2643 807
3510 2890 1086
3510 3095 1419
3510 352 249
3510 623 249
3510 946 249
3510 1390 249
3510 1897 482
3510 2368 755
3510 2722 1068
3510 2955 1414
3510 3153 1781
3456 402 249
3510 685 251
3510 1030 251
3510 1496 407
3510 2007 677
3510 2465 1001
3510 2793 1394
3510 3017 1776
3510 3209 2144
3277 454 249
3441 749 249
3510 1120 333
3510 1604 590
3510 2115 903
3510 2556 1314
3510 2861 1754
3510 3077 2139
3510 3263 2479
3077 509 249
3260 816 260
3420 1215 504
3510 1714 801
3510 2221 1194
3510 2642 1669
3510 2926 2119
3510 3136 2475
3510 3315 2755
2851 566 249
3058 887 423
3237 1315 702
3397 1825 1061
3510 2324 1537
3510 2720 2035
3510 2990 2457
3510 3192 2752
3510 3366 2976
2581 626 335
2830 966 608
3031 1418 934
3211 1936 1385
3372 2423 1902
3510 2792 2382
3510 3051 2738
3510 3246 2973
3510 3415 3173
2237 687 508
2554 1051 822
2799 1526 1233
3003 2045 1745
3183 2517 2260
3339 2860 2679
3469 3110 2961
3510 3299 3170
3510 3463 3350
1849 752 707
2204 1143 1088
2514 1635 1580
2767 2152 2110
2971 2605 2578
3147 2925 2911
3291 3167 3160
3406 3351 3347
3510 3510 3510
