Toning/Toning-Twist Oranges.3dl
#25pt 3DLUT created by 3D LUT Creator Pro (c) Oleg Sharonov
#Copyright Oleg Sharonov
#IMAGEPROFILE sRGB IEC61966-2.1 v.2.10
#INPUTGAMMA sRGB IEC61966-2.1 v.2.10
#OUTPUTGAMMA sRGB IEC61966-2.1 v.2.10
0 128 256 384 512 640 768 896 1023
0 0 0
17 42 272
54 150 613
126 311 951
224 475 1293
328 651 1637
429 816 1973
531 979 2312
633 1138 2659
272 467 209
0 517 529
57 531 935
161 593 1247
266 699 1540
364 817 1833
461 949 2137
559 1087 2455
658 1229 2783
605 944 464
542 963 647
0 1039 1019
30 1062 1461
261 1088 1835
386 1149 2140
497 1232 2438
600 1329 2738
700 1444 3046
927 1420 701
853 1442 774
740 1474 1162
0 1563 1526
0 1583 1979
276 1598 2393
488 1631 2762
614 1693 3079
729 1766 3383
1252 1902 960
1179 1923 986
1173 1934 1256
896 1990 1686
0 2075 2049
0 2093 2517
213 2109 2963
534 2126 3362
712 2165 3722
1579 2385 1235
1527 2400 1255
1473 2421 1412
1416 2437 1813
1026 2501 2227
0 2581 2597
0 2597 3075
39 2615 3547
518 2626 3969
1904 2871 1521
1864 2883 1537
1767 2909 1600
1795 2911 1927
1619 2943 2387
1134 3013 2794
0 3085 3174
0 3097 3661
620 3099 4095
2229 3348 1819
2196 3357 1832
2104 3381 1866
2088 3390 2105
2065 3401 2509
1790 3447 2974
1225 3518 3383
0 3579 3773
1498 3533 4095
2933 3729 2679
2930 3731 2701
2922 3739 2754
2926 3746 2862
2962 3749 3047
2885 3777 3291
2606 3849 3573
1877 3967 3943
2486 3921 4095
545 0 68
502 35 511
365 176 884
283 285 1319
330 482 1536
403 661 1812
488 827 2110
579 987 2426
673 1146 2754
530 501 33
440 527 563
457 553 906
460 623 1237
490 726 1543
538 841 1842
601 970 2149
675 1106 2468
697 1237 2875
763 956 432
691 976 681
470 1033 1025
496 1057 1459
548 1095 1823
598 1160 2134
660 1245 2438
730 1342 2741
735 1451 3128
1031 1427 679
954 1449 815
897 1474 1161
415 1562 1536
464 1578 1984
589 1598 2395
689 1637 2755
769 1699 3075
758 1771 3452
1328 1907 946
1275 1923 1048
1236 1942 1267
1027 1990 1687
299 2079 2062
381 2092 2532
570 2106 2963
741 2125 3363
736 2171 3778
1638 2389 1224
1597 2402 1302
1520 2427 1423
1493 2439 1807
1141 2502 2228
49 2592 2615
203 2602 3098
505 2611 3546
549 2632 4015
1950 2873 1512
1918 2883 1575
1808 2914 1615
1832 2917 1933
1687 2945 2385
1239 3013 2795
0 3095 3190
0 3106 3686
811 3098 4095
2268 3351 1812
2241 3357 1864
2152 3380 1896
2118 3394 2111
2112 3402 2502
1851 3448 2974
1321 3519 3384
0 3587 3786
1568 3534 4095
2956 3732 2682
2954 3735 2705
2946 3741 2759
2941 3752 2858
2978 3754 3045
2917 3779 3288
2650 3849 3570
1952 3966 3938
2519 3924 4095
1093 0 237
1094 0 617
1011 127 1017
813 398 1323
757 501 1782
675 630 2229
657 813 2498
711 990 2733
782 1156 3008
1108 464 0
1004 532 406
975 549 1023
861 645 1449
790 721 1909
737 836 2235
754 976 2470
799 1115 2737
803 1245 3120
1048 999 109
1040 1000 509
891 1050 1075
928 1078 1409
930 1126 1780
934 1194 2113
952 1279 2431
985 1375 2745
835 1453 3351
1234 1451 617
1199 1464 779
1142 1490 1225
968 1553 1539
973 1575 1979
1006 1603 2385
1024 1652 2734
1056 1718 3062
845 1780 3644
1487 1923 900
1456 1935 1016
1384 1961 1323
1296 1995 1697
939 2068 2059
948 2085 2525
1016 2103 2959
1091 2129 3357
803 2182 3932
1768 2401 1192
1740 2412 1277
1635 2443 1464
1650 2449 1806
1386 2504 2233
886 2582 2612
900 2596 3093
995 2610 3542
912 2634 4058
2058 2881 1488
2033 2889 1555
1952 2912 1710
1923 2928 1954
1844 2950 2381
1466 3015 2798
800 3092 3193
819 3103 3687
1156 3101 4095
2360 3359 1792
2338 3364 1847
2270 3381 1975
2194 3404 2130
2215 3408 2495
1994 3450 2973
1537 3520 3386
674 3592 3797
1729 3540 4095
3013 3740 2691
3011 3743 2713
3005 3749 2769
2991 3762 2861
3019 3767 3038
2995 3784 3280
2755 3850 3563
2127 3964 3926
2601 3931 4095
1642 0 428
1642 0 719
1643 0 1154
1513 271 1518
1276 609 1772
1209 734 2216
1146 842 2678
1067 962 3137
1002 1110 3509
1806 263 0
1704 387 437
1590 490 1075
1489 608 1512
1299 801 1841
1243 883 2309
1171 975 2770
1083 1077 3225
1021 1201 3609
1543 1004 53
1539 1000 423
1475 1041 906
1420 1087 1538
1338 1145 1995
1284 1195 2479
1218 1267 2889
1202 1378 3150
1047 1417 3814
1546 1507 203
1515 1508 485
1503 1521 994
1345 1582 1603
1390 1605 1913
1404 1640 2315
1402 1691 2685
1406 1757 3031
1071 1765 4005
1715 1954 783
1698 1964 945
1632 1994 1231
1582 2015 1795
1452 2067 2071
1452 2089 2517
1482 2112 2952
1483 2151 3325
1241 2187 4026
1959 2425 1127
1942 2433 1222
1886 2457 1435
1842 2473 1892
1717 2512 2256
1443 2578 2612
1440 2595 3086
1483 2612 3536
1474 2631 4049
2223 2899 1438
2206 2905 1511
2154 2922 1681
2078 2946 2019
2078 2956 2380
1785 3021 2811
1408 3089 3188
1404 3102 3680
1587 3102 4091
2505 3375 1753
2489 3379 1812
2441 3392 1950
2326 3422 2183
2347 3426 2531
2219 3453 2974
1844 3525 3393
1352 3591 3792
1979 3550 4095
3108 3755 2708
3107 3758 2729
3104 3764 2785
3094 3775 2881
3087 3790 3023
3119 3795 3262
2928 3852 3551
2402 3963 3905
2740 3942 4095
2191 0 621
2191 0 848
2192 0 1235
2184 16 1698
2011 423 2012
1771 795 2253
1653 959 2658
1603 1060 3131
1537 1169 3596
2428 0 292
2316 216 574
2208 363 1149
2105 515 1633
1995 698 2006
1789 942 2300
1683 1071 2729
1627 1162 3203
1560 1221 3770
2214 895 0
2197 897 389
2017 1032 807
2056 1036 1513
1960 1122 2017
1807 1251 2399
1733 1323 2876
1668 1394 3353
1606 1418 3974
2000 1532 82
1969 1528 386
1996 1520 820
1968 1561 1444
1847 1621 2085
1799 1660 2567
1763 1695 3069
1706 1751 3496
1709 1782 3996
2023 2015 269
1994 2016 493
2020 2013 962
1933 2056 1557
1798 2107 2151
1848 2128 2443
1871 2156 2860
1875 2194 3259
1824 2197 4014
2202 2465 906
2197 2469 1044
2170 2484 1346
2048 2530 1731
2013 2540 2383
1932 2585 2635
1927 2608 3074
1961 2625 3530
1954 2644 4042
2434 2929 1361
2424 2934 1441
2394 2948 1628
2302 2980 1911
2295 2983 2500
2144 3029 2847
1937 3090 3193
1929 3106 3672
2061 3107 4079
2693 3402 1689
2682 3405 1752
2650 3414 1903
2571 3440 2143
2591 3437 2661
2563 3453 2999
2201 3530 3410
2104 3566 3738
2296 3560 4094
3237 3780 2737
3238 3782 2758
3238 3788 2811
3236 3798 2905
3225 3814 3042
3235 3826 3245
3154 3860 3534
2748 3960 3876
2933 3958 4094
2738 0 813
2738 0 995
2738 0 1339
2740 0 1748
2677 144 2190
2491 574 2495
2261 965 2747
2092 1185 3103
2043 1278 3578
2920 0 626
2928 0 750
2875 81 1252
2734 352 1721
2612 562 2161
2490 801 2501
2275 1087 2782
2118 1273 3159
2087 1322 3714
2886 684 0
2946 613 223
2735 859 827
2659 963 1548
2577 1055 2107
2471 1179 2515
2296 1353 2859
2166 1481 3285
2163 1476 3939
2640 1466 58
2588 1465 379
2578 1475 812
2434 1590 1254
2523 1570 1978
2413 1645 2550
2293 1736 2979
2213 1799 3463
2232 1823 3960
2460 2056 67
2405 2055 333
2429 2041 773
2494 2042 1285
2398 2095 2046
2261 2151 2689
2246 2176 3168
2233 2204 3623
2334 2221 3992
2482 2530 307
2467 2529 515
2490 2530 946
2538 2529 1492
2277 2613 2132
2250 2629 2726
2303 2650 3002
2336 2660 3553
2446 2656 4028
2688 2974 1029
2689 2977 1150
2685 2984 1420
2645 3002 1822
2429 3069 2258
2482 3052 2990
2407 3098 3227
2459 3111 3620
2560 3111 4062
2914 3439 1606
2908 3442 1674
2890 3449 1836
2841 3467 2097
2810 3481 2570
2857 3474 3042
2666 3533 3396
2654 3558 3685
2672 3577 4095
3397 3816 2793
3398 3818 2812
3400 3823 2859
3403 3832 2944
3405 3845 3074
3393 3864 3249
3409 3878 3508
3134 3959 3840
3173 3982 4094
3286 0 1002
3286 0 1146
3286 0 1437
3287 0 1817
3287 0 2243
3157 288 2692
2971 736 2992
2741 1130 3245
2539 1388 3567
3433 0 873
3440 0 959
3434 0 1345
3426 0 1803
3241 369 2241
3097 619 2684
2971 914 3000
2754 1234 3273
2585 1432 3665
3625 272 0
3774 0 162
3344 706 958
3267 849 1619
3173 980 2150
3086 1086 2664
2967 1254 3019
2777 1469 3336
2683 1549 3890
3326 1336 0
3315 1318 262
3244 1356 783
3042 1542 1226
3128 1517 1949
3059 1580 2618
2943 1687 3053
2792 1815 3434
2735 1879 3912
3041 2018 160
2984 2016 371
2998 2007 782
3023 2029 1250
2930 2104 1802
3000 2090 2560
2862 2168 3115
2767 2233 3571
2809 2262 3944
2935 2580 26
2852 2580 267
2853 2570 698
2944 2557 1243
2974 2568 1842
2824 2620 2749
2680 2684 3295
2776 2695 3570
2910 2682 3992
2940 3042 353
2939 3041 553
2962 3042 955
3010 3040 1472
3008 3053 2033
2728 3131 2877
2749 3143 3294
2909 3135 3567
3021 3126 4046
3170 3489 1153
3172 3490 1261
3177 3495 1506
3173 3501 1875
3159 3506 2512
3082 3535 2943
3099 3544 3387
3067 3577 3665
3098 3593 4092
3574 3863 2866
3576 3864 2894
3581 3867 2960
3587 3875 3029
3595 3887 3137
3602 3903 3289
3596 3927 3497
3530 3965 3807
3453 4012 4095
3796 0 1184
3796 0 1302
3796 0 1556
3796 0 1907
3796 0 2308
3796 0 2762
3637 422 3214
3454 889 3493
3221 1295 3751
3855 0 1088
3858 0 1154
3856 0 1467
3854 0 1875
3850 0 2320
3713 400 2759
3590 706 3214
3455 1039 3501
3277 1329 3830
4000 0 611
4001 0 758
3873 438 1097
3807 626 1692
3735 819 2213
3653 992 2708
3583 1124 3212
3452 1341 3523
3351 1488 3933
3920 1067 0
3974 979 0
3902 1043 708
3721 1344 1237
3702 1415 1985
3629 1528 2607
3571 1597 3201
3438 1745 3559
3361 1848 3938
3732 1900 0
3643 1900 311
3614 1898 745
3609 1948 1239
3393 2141 1616
3593 2048 2357
3540 2100 3155
3383 2210 3594
3380 2260 3946
3447 2562 188
3384 2560 336
3405 2549 745
3464 2542 1231
3476 2573 1689
3528 2576 2232
3550 2582 3104
3321 2706 3554
3406 2706 3960
3413 3114 0
3310 3113 193
3283 3105 611
3365 3091 1185
3471 3065 1749
3501 3076 2304
3506 3094 2975
3343 3167 3593
3455 3161 3993
3407 3562 430
3409 3561 609
3432 3558 983
3473 3556 1472
3534 3540 2214
3520 3560 2733
3470 3590 3211
3444 3614 3675
3565 3606 4066
3742 3943 2633
3745 3943 2664
3752 3945 2742
3764 3949 2875
3782 3956 3064
3804 3963 3305
3826 3976 3559
3829 4002 3777
3761 4049 4094
4065 0 1369
4065 0 1470
4065 0 1694
4065 0 2014
4065 0 2395
4066 0 2823
4065 0 3292
4002 433 3688
3874 987 3956
4094 182 1304
4095 184 1409
4095 185 1646
4095 186 1981
4095 187 2374
4095 184 2812
4095 156 3298
4054 425 3732
3875 1115 3957
4087 751 1236
4092 757 1341
4095 769 1572
4095 779 1910
4095 795 2306
4095 809 2744
4095 821 3222
4072 874 3740
3880 1393 3960
4035 1334 1142
4041 1338 1250
4053 1347 1484
4067 1357 1826
4089 1369 2247
4095 1382 2698
4095 1398 3187
4075 1431 3718
3890 1767 3967
3976 1893 949
3985 1895 1089
4003 1901 1377
4026 1914 1750
4052 1925 2170
4080 1935 2650
4095 1946 3146
4079 1970 3687
3909 2192 3979
3912 2464 335
3900 2462 588
3935 2464 1042
3980 2468 1573
4015 2471 2093
4047 2481 2582
4081 2492 3101
4088 2503 3650
3937 2649 3997
3834 3078 177
3853 3071 180
3904 3051 189
3890 3034 904
3953 3030 1796
4017 3023 2481
4055 3027 3044
4093 3035 3601
3976 3120 4021
3866 3639 0
3875 3639 0
3900 3638 0
3950 3635 0
4009 3621 32
3936 3598 1703
4013 3575 2858
4072 3565 3552
4030 3604 4054
3935 4037 2472
3937 4038 2503
3944 4040 2580
3956 4044 2713
3974 4050 2902
3997 4058 3141
4025 4068 3425
4058 4080 3745
4095 4095 4095
