Toning/Toning-Cool-Seperate warms.3dl
#25pt 3DLUT created by 3D LUT Creator Pro (c) Oleg Sharonov
#Copyright Oleg Sharonov
#IMAGEPROFILE sRGB IEC61966-2.1 v.2.10
#INPUTGAMMA sRGB IEC61966-2.1 v.2.10
#OUTPUTGAMMA sRGB IEC61966-2.1 v.2.10
0 128 256 384 512 640 768 896 1023
0 0 0
0 0 212
0 0 559
16 85 871
35 153 1166
46 208 1396
57 254 1627
60 297 1886
73 338 2158
117 352 327
83 290 721
29 190 1107
40 194 1266
43 221 1424
53 253 1600
58 288 1810
66 327 2042
67 358 2312
333 817 700
310 753 948
194 593 1394
62 398 1733
55 351 1892
62 354 2045
64 364 2224
61 385 2432
63 432 2650
600 1388 1076
526 1374 1195
536 1268 1575
305 1054 2045
93 739 2412
62 613 2607
55 582 2765
53 597 2951
45 638 3159
940 1978 1379
881 1977 1451
878 1920 1709
810 1833 2086
507 1615 2604
109 1189 3175
39 1029 3393
23 998 3580
14 1039 3749
1307 2518 1700
1265 2518 1755
1204 2500 1919
1248 2413 2249
1109 2351 2608
794 2147 3166
294 1891 3771
123 1805 4003
233 1842 4024
1696 3035 2020
1664 3036 2062
1580 3040 2163
1616 2975 2442
1627 2905 2777
1482 2864 3146
1164 2730 3687
969 2671 4015
1094 2600 4082
2114 3496 2335
2089 3498 2370
2022 3505 2455
1990 3488 2649
2053 3433 2957
2021 3394 3306
1899 3375 3669
2003 3288 3910
2170 3180 4018
2886 3776 2965
2887 3773 2995
2888 3769 3064
2891 3761 3172
2954 3731 3350
3002 3702 3537
3018 3708 3697
3138 3692 3831
3218 3659 3952
230 0 94
52 0 283
16 29 704
32 107 999
44 167 1228
50 214 1445
63 259 1668
64 301 1925
75 340 2198
298 417 204
277 401 681
135 250 925
90 231 1163
86 248 1358
76 275 1572
81 305 1796
81 342 2044
69 359 2349
451 904 549
425 837 929
298 651 1337
127 433 1656
94 378 1837
80 372 2013
84 382 2200
77 399 2427
63 436 2682
710 1432 977
701 1390 1202
644 1320 1544
408 1102 1971
148 774 2383
87 647 2560
69 605 2753
60 618 2940
44 640 3190
1014 2008 1315
1014 1982 1462
943 1951 1678
899 1861 2069
600 1624 2533
178 1219 3133
67 1052 3392
31 1019 3572
15 1052 3770
1364 2538 1654
1365 2520 1762
1258 2521 1891
1300 2437 2232
1154 2366 2590
867 2152 3109
358 1926 3723
168 1832 3993
253 1858 4027
1738 3048 1985
1741 3035 2066
1661 3038 2167
1654 2990 2423
1672 2920 2765
1522 2873 3130
1220 2727 3656
1019 2670 4003
1120 2602 4083
2150 3503 2308
2152 3494 2372
2088 3500 2458
2021 3497 2629
2085 3441 2943
2063 3399 3295
1934 3378 3658
2026 3291 3899
2188 3185 4019
2908 3781 2956
2909 3779 2986
2910 3774 3058
2912 3766 3168
2970 3737 3344
3022 3707 3533
3041 3712 3695
3154 3697 3832
3235 3665 3952
658 133 251
555 142 507
245 168 638
139 167 960
95 178 1365
79 221 1571
81 266 1775
79 312 2014
82 345 2290
841 424 261
690 420 609
344 325 858
184 256 1140
127 253 1464
105 285 1665
97 315 1887
97 347 2132
77 367 2434
865 980 308
867 965 660
715 920 1365
343 549 1569
235 459 1755
182 429 1974
157 428 2191
135 457 2417
67 443 2763
1026 1541 652
986 1500 962
933 1433 1473
703 1226 1859
318 882 2296
198 733 2509
152 670 2736
123 675 2940
44 645 3269
1229 2072 1133
1212 2051 1307
1189 2004 1651
1109 1936 2019
847 1694 2441
408 1357 2962
215 1136 3331
112 1079 3572
17 1085 3825
1519 2582 1530
1509 2569 1647
1507 2527 1911
1426 2500 2179
1322 2410 2553
1065 2193 3019
556 1954 3617
324 1896 3934
307 1900 4037
1851 3078 1893
1848 3068 1977
1853 3036 2177
1746 3028 2367
1780 2957 2731
1616 2897 3093
1370 2733 3596
1141 2672 3968
1189 2609 4084
2239 3522 2233
2240 3513 2302
2245 3490 2463
2136 3504 2602
2163 3461 2907
2162 3414 3268
2019 3386 3631
2094 3297 3871
2232 3197 4020
2963 3796 2929
2964 3794 2962
2966 3788 3039
2969 3780 3159
3008 3754 3329
3071 3720 3523
3097 3721 3690
3192 3712 3832
3277 3679 3953
1236 271 336
1248 240 494
802 299 867
373 282 933
232 262 1185
166 259 1598
124 274 1961
112 309 2209
101 351 2465
1410 445 322
1276 462 601
958 423 969
460 370 1107
269 324 1331
191 305 1735
142 318 2070
125 346 2311
98 366 2603
1559 931 328
1515 913 597
1217 843 1174
754 668 1454
386 485 1721
251 432 2090
204 440 2315
167 476 2541
83 459 2896
1562 1586 369
1549 1575 638
1436 1544 1240
1288 1546 1864
813 1106 2088
551 941 2334
419 843 2609
333 813 2874
54 650 3410
1634 2166 748
1602 2150 979
1541 2100 1417
1469 2057 1949
1215 1832 2323
789 1496 2755
560 1345 3078
442 1241 3383
28 1140 3917
1803 2661 1264
1793 2641 1418
1757 2608 1722
1726 2564 2134
1610 2494 2488
1376 2277 2904
919 2009 3440
668 1950 3795
390 1963 4056
2064 3124 1706
2060 3111 1809
2041 3091 2029
2034 3044 2358
1950 3028 2661
1815 2948 3043
1632 2776 3511
1335 2684 3901
1311 2622 4084
2415 3550 2099
2409 3544 2171
2397 3526 2341
2405 3491 2612
2297 3498 2834
2327 3445 3218
2161 3401 3585
2281 3312 3816
2309 3218 4024
3066 3819 2882
3065 3818 2915
3063 3814 2995
3067 3804 3130
3074 3787 3293
3151 3748 3504
3191 3742 3681
3260 3738 3833
3353 3703 3955
1858 380 409
1914 327 480
1609 359 930
1046 404 1206
548 390 1266
352 360 1487
262 349 1896
188 339 2358
147 346 2731
1995 500 399
1851 523 639
1721 462 975
1196 478 1310
646 454 1381
393 406 1617
287 385 2026
204 364 2489
138 367 2870
2231 897 359
2116 902 619
1818 875 1124
1443 776 1456
904 670 1620
543 572 1872
378 515 2304
247 489 2766
124 457 3173
2272 1535 371
2236 1533 602
2042 1484 1120
1740 1421 1659
1328 1216 1945
870 965 2200
623 888 2610
484 865 2938
80 680 3634
2233 2178 434
2189 2177 663
2102 2162 1162
1981 2148 1747
1838 2134 2346
1369 1721 2593
1087 1506 2873
896 1425 3148
69 1248 4022
2259 2725 847
2238 2710 1034
2177 2686 1411
2108 2640 1905
2023 2609 2426
1796 2431 2810
1382 2136 3269
1127 2008 3612
656 2009 4087
2393 3194 1369
2384 3181 1501
2357 3153 1779
2315 3117 2160
2289 3075 2603
2166 3024 2973
1963 2859 3384
1636 2724 3816
1481 2637 4084
2673 3600 1857
2670 3590 1950
2652 3573 2148
2626 3544 2447
2610 3515 2805
2585 3492 3149
2391 3438 3536
2540 3338 3747
2412 3250 4037
3214 3854 2795
3215 3853 2830
3214 3848 2921
3209 3842 3065
3219 3826 3253
3255 3796 3468
3327 3777 3662
3358 3778 3835
3457 3742 3962
2466 468 502
2491 424 561
2320 414 925
1882 465 1325
1305 507 1525
822 494 1579
558 477 1824
428 467 2249
327 463 2735
2549 597 498
2410 621 711
2395 520 954
1982 558 1381
1412 597 1593
908 560 1657
620 536 1895
476 526 2322
344 493 2850
2771 931 452
2640 945 684
2391 944 1109
2181 855 1451
1662 848 1744
1124 760 1838
780 702 2069
604 685 2498
379 571 3153
2905 1485 428
2833 1482 644
2642 1460 1096
2333 1437 1597
1976 1318 1910
1472 1176 2110
1066 1019 2364
838 969 2786
391 760 3707
2880 2122 463
2849 2126 648
2778 2119 1085
2563 2079 1608
2296 2027 2139
1896 1828 2442
1445 1555 2728
1190 1448 3139
512 1323 4034
2855 2723 535
2829 2719 724
2760 2704 1151
2652 2689 1690
2531 2681 2249
2397 2677 2807
1974 2342 3100
1560 2070 3537
1062 1973 4085
2898 3230 954
2875 3220 1108
2823 3206 1429
2756 3174 1883
2676 3146 2377
2596 3124 2893
2405 2996 3289
1959 2797 3794
1693 2638 4085
3048 3641 1488
3035 3637 1592
3012 3621 1839
2966 3596 2190
2924 3563 2612
2905 3528 3082
2819 3471 3453
2775 3391 3711
2550 3287 4056
3403 3905 2637
3400 3904 2680
3396 3900 2782
3398 3892 2946
3401 3880 3165
3416 3858 3409
3476 3831 3644
3472 3834 3848
3579 3799 3983
3012 620 626
3042 566 675
2986 502 932
2676 542 1380
2137 651 1672
1585 696 1812
1137 674 1879
862 670 2109
715 691 2527
3080 740 617
2976 758 793
3039 623 944
2733 658 1393
2217 741 1708
1669 774 1867
1211 741 1940
922 725 2171
747 723 2610
3258 1017 584
3159 1028 770
2945 1042 1128
2863 937 1419
2409 974 1787
1878 982 1996
1393 915 2090
1070 876 2329
823 804 2824
3493 1467 520
3402 1472 712
3184 1479 1106
2907 1490 1564
2658 1396 1878
2184 1356 2184
1696 1245 2333
1325 1160 2585
946 947 3228
3511 2056 528
3465 2055 695
3352 2050 1075
3120 2036 1557
2842 2024 2050
2536 1894 2386
2073 1761 2633
1674 1595 2913
1083 1271 3809
3479 2665 557
3462 2662 711
3406 2656 1085
3294 2641 1588
3121 2616 2110
2868 2589 2610
2513 2431 2949
2020 2106 3355
1615 1860 4061
3478 3215 651
3460 3209 803
3400 3196 1167
3316 3182 1663
3212 3172 2193
3091 3174 2716
2965 3188 3241
2436 2823 3703
1967 2577 4082
3515 3656 1126
3497 3652 1249
3464 3641 1514
3410 3628 1896
3351 3597 2364
3273 3585 2852
3209 3557 3343
3059 3467 3671
2730 3314 4083
3626 3983 2387
3624 3980 2435
3614 3974 2558
3599 3968 2751
3589 3958 3012
3590 3943 3314
3613 3916 3616
3669 3893 3857
3730 3872 4012
3558 795 745
3583 746 787
3616 636 936
3357 681 1373
2955 777 1749
2447 879 1999
1906 916 2112
1488 901 2199
1220 908 2444
3614 893 739
3533 908 882
3601 787 983
3404 785 1379
3026 863 1772
2514 954 2030
1978 981 2159
1554 959 2252
1265 942 2505
3696 1171 736
3649 1163 869
3476 1170 1171
3511 1035 1391
3183 1083 1817
2660 1146 2103
2148 1154 2273
1717 1109 2384
1376 1027 2653
3844 1610 693
3770 1588 878
3656 1565 1173
3462 1565 1559
3342 1471 1847
2888 1480 2211
2417 1466 2454
1974 1395 2598
1550 1192 2916
3914 2134 711
3867 2115 882
3807 2092 1195
3628 2064 1582
3421 2053 2017
3187 1946 2328
2740 1911 2652
2316 1835 2866
1793 1436 3333
3916 2672 771
3871 2656 935
3828 2633 1240
3746 2601 1635
3606 2573 2072
3552 2504 2445
3235 2382 2857
2739 2286 3191
2125 1868 3829
3870 3193 827
3841 3184 972
3820 3168 1274
3788 3148 1702
3719 3131 2148
3677 3100 2548
3533 3036 2998
3181 2838 3480
2498 2533 3979
3853 3672 1024
3847 3667 1141
3824 3659 1416
3795 3640 1819
3751 3623 2266
3675 3611 2822
3626 3618 3220
3570 3619 3660
2950 3290 4082
3877 4044 2080
3873 4043 2137
3862 4039 2279
3845 4033 2502
3827 4029 2794
3806 4023 3132
3803 4012 3501
3839 3992 3847
3900 3972 4049
3873 1115 977
3875 1077 1029
3894 984 1148
3832 951 1450
3667 935 1808
3246 1033 2091
2748 1122 2315
2263 1160 2437
1878 1162 2550
3887 1204 996
3899 1165 1055
3917 1075 1174
3882 1005 1470
3739 1002 1818
3355 1060 2113
2834 1156 2353
2327 1196 2479
1929 1199 2596
3917 1424 1037
3931 1393 1088
3975 1296 1225
3998 1140 1479
3881 1139 1880
3608 1126 2181
3056 1236 2441
2489 1287 2585
2055 1290 2712
3982 1775 1091
3992 1751 1134
4021 1684 1245
4093 1519 1504
4072 1390 1943
3895 1348 2350
3454 1365 2581
2784 1444 2762
2284 1453 2911
4051 2217 1148
4059 2200 1183
4085 2156 1272
4092 2109 1599
4088 2027 2037
4046 1849 2455
3875 1635 2823
3244 1660 3002
2617 1684 3202
4067 2704 1196
4079 2696 1218
4087 2680 1426
4093 2661 1811
4093 2618 2176
4074 2530 2556
4001 2302 2942
3798 1982 3337
3073 2004 3565
4077 3201 1248
4078 3194 1314
4083 3184 1537
4088 3167 1897
4091 3147 2268
4093 3126 2707
4069 3033 3075
3918 2755 3414
3507 2574 3755
4079 3683 1306
4083 3683 1315
4084 3672 1417
4087 3659 1815
4091 3639 2278
4092 3629 2744
4091 3620 3197
4070 3539 3604
3736 3331 3869
4091 4057 2620
4091 4058 2651
4090 4058 2726
4090 4061 2854
4089 4063 3032
4089 4068 3253
4089 4074 3510
4091 4083 3792
4095 4095 4095
