Toning/Toning-Goldie.3dl
#25pt 3DLUT created by 3D LUT Creator Pro (c) Oleg Sharonov
#Copyright Oleg Sharonov
#IMAGEPROFILE sRGB IEC61966-2.1 v.2.10
#INPUTGAMMA sRGB IEC61966-2.1 v.2.10
#OUTPUTGAMMA sRGB IEC61966-2.1 v.2.10
0 43 86 128 171 214 256 299 341 384 427 469 512 555 597 640 682 725 768 810 853 896 938 981 1023 
0 0 0
34 0 36
47 0 52
63 13 71
97 49 107
136 90 147
183 146 203
242 205 261
301 264 314
362 327 377
424 387 435
489 451 497
559 525 565
634 596 634
709 671 705
790 751 780
872 831 856
957 914 935
1048 1002 1018
1141 1093 1103
1238 1188 1191
1337 1284 1280
1436 1381 1370
1531 1476 1458
1621 1566 1539
183 143 103
166 102 147
208 169 222
225 191 244
253 221 274
287 253 305
324 290 340
368 332 382
413 378 423
460 424 470
514 479 522
574 537 577
636 598 636
701 662 696
769 730 761
841 802 828
917 874 898
998 953 972
1085 1038 1052
1174 1125 1133
1268 1217 1219
1364 1311 1306
1460 1406 1393
1555 1500 1479
1645 1589 1561
317 277 183
321 268 226
365 298 332
407 362 407
421 385 430
444 412 457
477 443 487
514 479 522
553 519 560
598 564 601
645 609 645
694 657 690
746 709 740
805 766 794
864 824 850
928 886 909
997 952 971
1070 1024 1038
1150 1102 1111
1234 1184 1187
1322 1270 1267
1414 1360 1350
1506 1451 1435
1597 1541 1517
1682 1627 1596
462 425 284
471 427 321
527 469 414
586 512 528
623 569 600
632 592 624
656 621 654
689 654 686
724 688 719
760 724 754
800 764 792
844 806 832
889 850 874
937 896 917
989 946 965
1045 1000 1015
1105 1060 1071
1172 1124 1131
1243 1193 1196
1319 1267 1265
1399 1347 1338
1485 1431 1416
1571 1516 1494
1657 1602 1572
1734 1677 1645
609 575 391
637 598 434
677 625 501
720 655 595
810 731 727
843 780 796
848 803 822
871 831 851
898 861 881
933 896 914
968 929 946
1005 965 980
1045 1003 1016
1087 1044 1055
1132 1088 1097
1182 1136 1142
1235 1188 1190
1293 1243 1242
1356 1305 1299
1423 1372 1361
1496 1443 1427
1574 1520 1497
1654 1600 1570
1729 1673 1640
1795 1738 1705
806 775 534
828 793 568
855 811 619
898 841 700
988 921 829
1081 1002 968
1058 993 985
1064 1015 1015
1085 1044 1045
1109 1070 1072
1140 1099 1102
1172 1130 1133
1207 1164 1165
1245 1200 1199
1285 1238 1236
1328 1281 1276
1375 1326 1318
1427 1376 1364
1482 1431 1414
1543 1491 1470
1608 1556 1529
1677 1625 1592
1743 1688 1654
1807 1749 1716
1869 1809 1777
1065 1044 720
1084 1058 749
1103 1071 790
1133 1090 855
1269 1223 1017
1338 1283 1138
1352 1277 1207
1276 1204 1176
1274 1227 1201
1289 1246 1227
1311 1269 1254
1337 1295 1282
1369 1325 1312
1403 1358 1343
1440 1393 1377
1478 1431 1412
1520 1472 1451
1566 1517 1492
1616 1566 1537
1670 1619 1586
1725 1672 1638
1779 1724 1690
1836 1779 1746
1894 1835 1802
1951 1890 1859
1317 1308 900
1331 1320 925
1345 1329 959
1401 1382 1038
1498 1477 1163
1603 1579 1309
1668 1636 1430
1556 1483 1384
1486 1409 1359
1473 1427 1375
1483 1441 1400
1505 1463 1428
1530 1489 1456
1561 1518 1486
1593 1549 1516
1628 1584 1550
1666 1621 1585
1707 1660 1622
1746 1696 1659
1789 1737 1701
1834 1780 1745
1884 1827 1793
1935 1877 1844
1988 1927 1896
2040 1978 1947
1570 1582 1081
1595 1608 1110
1625 1639 1155
1673 1685 1222
1742 1755 1321
1837 1850 1454
1916 1926 1585
1852 1826 1589
1752 1683 1554
1690 1610 1537
1671 1620 1549
1673 1634 1570
1692 1654 1596
1715 1677 1625
1739 1699 1651
1767 1724 1680
1797 1752 1711
1831 1783 1743
1867 1816 1779
1906 1853 1816
1948 1892 1857
1992 1934 1900
2038 1979 1946
2086 2025 1993
2133 2070 2041
1856 1907 1279
1873 1925 1302
1898 1950 1340
1933 1985 1396
1984 2037 1477
2053 2108 1585
2142 2197 1721
2101 2126 1752
2027 2012 1745
1941 1885 1725
1865 1783 1696
1843 1789 1707
1835 1797 1724
1849 1812 1750
1871 1831 1777
1896 1853 1805
1924 1879 1834
1955 1907 1865
1988 1937 1898
2024 1970 1934
2062 2006 1971
2102 2044 2011
2144 2084 2052
2187 2125 2095
2230 2167 2138
2023 2094 1406
2037 2109 1424
2057 2130 1456
2084 2158 1503
2124 2198 1570
2177 2252 1658
2245 2327 1771
2315 2409 1897
2255 2312 1909
2193 2210 1912
2103 2065 1885
2015 1934 1844
1993 1941 1856
1987 1949 1874
2003 1964 1902
2026 1984 1929
2049 2006 1957
2078 2031 1987
2109 2059 2018
2141 2089 2051
2176 2121 2086
2213 2155 2123
2251 2192 2161
2289 2229 2200
2328 2266 2239
2184 2277 1528
2195 2289 1543
2212 2307 1571
2234 2329 1611
2264 2361 1666
2305 2407 1741
2359 2474 1837
2424 2556 1953
2455 2587 2046
2403 2496 2064
2344 2390 2067
2242 2208 2027
2161 2083 1990
2139 2089 2001
2140 2100 2024
2156 2115 2052
2177 2134 2080
2200 2156 2109
2228 2181 2138
2257 2208 2169
2289 2237 2202
2323 2268 2236
2357 2301 2271
2393 2335 2307
2428 2368 2343
2336 2453 1646
2346 2465 1660
2360 2480 1683
2378 2502 1718
2402 2532 1766
2435 2574 1831
2476 2628 1912
2528 2695 2010
2589 2776 2126
2589 2763 2191
2539 2664 2210
2467 2517 2201
2375 2346 2166
2301 2228 2134
2285 2237 2148
2289 2248 2173
2304 2262 2202
2324 2282 2230
2347 2303 2258
2373 2327 2288
2401 2353 2318
2432 2382 2350
2464 2411 2383
2497 2441 2415
2528 2471 2448
2481 2637 1762
2490 2649 1774
2502 2664 1795
2517 2683 1826
2536 2708 1867
2562 2742 1922
2594 2786 1991
2635 2841 2074
2684 2907 2173
2742 2987 2287
2710 2912 2327
2652 2780 2340
2586 2643 2333
2500 2479 2303
2438 2372 2278
2425 2383 2294
2430 2393 2321
2443 2407 2349
2463 2425 2377
2486 2446 2406
2514 2470 2435
2542 2496 2465
2571 2522 2495
2600 2550 2525
2629 2576 2555
2612 2791 1868
2619 2799 1878
2630 2812 1897
2642 2828 1924
2658 2849 1960
2679 2878 2007
2705 2914 2066
2739 2958 2138
2779 3012 2223
2825 3075 2321
2855 3108 2417
2809 2996 2443
2754 2871 2452
2689 2733 2444
2612 2584 2422
2569 2513 2420
2557 2524 2437
2565 2533 2468
2579 2548 2496
2601 2568 2524
2624 2589 2553
2650 2611 2581
2677 2635 2609
2703 2658 2636
2729 2682 2663
2731 2911 1969
2738 2918 1978
2747 2929 1995
2758 2943 2018
2771 2962 2049
2789 2986 2091
2812 3016 2142
2839 3053 2204
2872 3097 2278
2902 3137 2360
2938 3182 2454
2948 3178 2529
2903 3070 2552
2852 2953 2561
2792 2826 2558
2732 2710 2559
2695 2653 2560
2689 2662 2583
2698 2673 2614
2715 2689 2643
2737 2708 2670
2758 2727 2697
2782 2748 2723
2805 2769 2748
2828 2789 2771
2847 3026 2068
2853 3034 2076
2862 3044 2091
2871 3056 2112
2883 3072 2140
2898 3092 2176
2916 3118 2221
2934 3141 2274
2956 3169 2336
2982 3202 2409
3013 3241 2491
3048 3287 2583
3039 3249 2640
2996 3145 2661
2953 3046 2676
2905 2946 2692
2848 2833 2694
2817 2791 2699
2819 2799 2728
2831 2812 2759
2848 2828 2787
2868 2845 2813
2887 2862 2837
2908 2880 2860
2928 2897 2881
2958 3138 2165
2963 3144 2173
2970 3151 2187
2976 3159 2205
2984 3169 2229
2994 3182 2260
3007 3198 2299
3022 3218 2346
3041 3242 2401
3063 3271 2464
3090 3305 2537
3120 3344 2619
3155 3389 2711
3131 3320 2750
3096 3239 2782
3061 3160 2809
3014 3062 2826
2960 2952 2828
2940 2927 2840
2950 2936 2874
2960 2948 2903
2975 2961 2928
2992 2976 2951
3007 2990 2972
3025 3005 2991
3051 3224 2258
3057 3229 2266
3063 3236 2279
3069 3243 2295
3076 3253 2317
3085 3264 2345
3096 3278 2379
3109 3296 2420
3126 3317 2469
3146 3342 2525
3169 3371 2590
3195 3405 2663
3227 3445 2745
3253 3477 2831
3224 3410 2869
3190 3332 2901
3152 3247 2924
3102 3141 2936
3062 3057 2954
3063 3058 2984
3070 3067 3016
3078 3077 3042
3092 3089 3064
3109 3102 3084
3124 3113 3101
3147 3317 2349
3152 3322 2356
3158 3329 2368
3164 3337 2383
3171 3345 2403
3179 3356 2428
3189 3368 2459
3201 3384 2496
3216 3403 2540
3233 3425 2590
3254 3452 2648
3278 3482 2713
3302 3513 2785
3320 3534 2860
3325 3529 2928
3296 3463 2964
3261 3384 2995
3223 3298 3016
3191 3223 3050
3175 3179 3094
3181 3186 3126
3186 3194 3154
3196 3204 3178
3210 3214 3196
3223 3223 3212
3242 3412 2439
3247 3417 2446
3253 3424 2457
3259 3431 2471
3265 3439 2489
3273 3448 2512
3282 3460 2540
3293 3474 2573
3306 3491 2613
3322 3511 2658
3339 3535 2710
3352 3550 2764
3366 3566 2825
3383 3585 2892
3401 3606 2968
3396 3583 3024
3367 3516 3060
3334 3438 3088
3315 3385 3135
3299 3339 3191
3293 3306 3235
3295 3312 3265
3303 3320 3290
3313 3328 3309
3324 3335 3324
3335 3505 2528
3340 3510 2534
3346 3517 2545
3352 3524 2558
3358 3532 2575
3365 3541 2596
3373 3552 2622
3383 3565 2652
3390 3573 2685
3398 3582 2723
3408 3593 2767
3419 3606 2816
3432 3620 2870
3446 3637 2931
3464 3657 2999
3484 3679 3075
3468 3637 3121
3439 3570 3156
3433 3541 3216
3422 3502 3277
3404 3454 3330
3407 3431 3375
3414 3438 3402
3419 3444 3423
3426 3449 3438
3423 3593 2615
3427 3596 2621
3431 3601 2631
3435 3604 2642
3438 3608 2657
3443 3613 2675
3447 3618 2697
3452 3625 2723
3459 3632 2753
3466 3641 2788
3475 3651 2827
3486 3663 2871
3498 3676 2920
3511 3692 2975
3527 3709 3037
3546 3730 3106
3564 3750 3181
3552 3715 3232
3547 3689 3297
3539 3656 3356
3523 3608 3412
3508 3554 3465
3523 3558 3513
3526 3562 3536
3527 3565 3553
3492 3654 2695
3496 3657 2701
3500 3661 2710
3504 3665 2721
3507 3669 2735
3512 3674 2752
3517 3680 2772
3523 3687 2796
3530 3695 2824
3538 3705 2856
3548 3716 2892
3559 3729 2932
3572 3743 2978
3587 3761 3029
3604 3780 3087
3623 3803 3151
3639 3819 3219
3644 3817 3285
3637 3791 3344
3628 3757 3404
3618 3719 3461
3605 3678 3523
3630 3679 3625
3633 3683 3651
3632 3685 3669
3580 3740 2782
3585 3746 2789
3591 3752 2798
3596 3757 2809
3600 3762 2822
3605 3768 2838
3611 3774 2858
3617 3781 2880
3624 3789 2906
3632 3799 2935
3642 3810 2968
3652 3822 3006
3665 3836 3048
3679 3853 3095
3695 3872 3148
3704 3879 3201
3713 3886 3261
3723 3893 3327
3725 3885 3390
3719 3858 3450
3710 3824 3510
3709 3802 3580
3720 3811 3675
3745 3808 3769
3742 3810 3788
273 0 13
291 0 114
200 41 131
174 78 151
196 114 183
230 162 226
272 211 271
314 264 320
362 314 367
418 371 424
472 429 476
534 492 536
602 561 601
670 629 667
743 701 734
819 778 805
897 854 879
981 936 955
1069 1022 1036
1162 1113 1122
1257 1205 1208
1355 1301 1297
1452 1398 1386
1547 1492 1472
1637 1581 1554
364 197 69
294 138 140
330 208 281
324 243 302
334 270 326
349 295 348
376 327 380
410 364 414
447 403 451
491 451 497
542 501 545
598 557 598
658 618 654
722 682 715
787 747 776
859 818 844
933 890 912
1014 968 986
1099 1052 1064
1189 1139 1146
1282 1230 1230
1377 1324 1318
1475 1420 1406
1569 1513 1492
1658 1603 1573
371 296 116
385 320 207
410 340 340
469 401 446
477 426 470
491 445 489
512 471 513
545 503 545
578 537 577
617 577 616
661 621 658
709 668 702
760 720 752
816 774 803
876 834 859
938 894 916
1008 963 980
1082 1035 1048
1162 1112 1121
1245 1194 1196
1334 1281 1278
1425 1370 1360
1517 1462 1445
1609 1554 1528
1695 1639 1607
474 439 227
500 462 303
559 500 414
609 533 524
680 610 639
679 627 659
696 651 683
717 675 706
745 704 734
778 737 766
813 773 800
852 811 837
896 854 877
943 900 921
994 950 968
1050 1004 1019
1110 1063 1074
1177 1128 1135
1249 1197 1200
1325 1273 1270
1407 1354 1345
1492 1438 1423
1580 1525 1501
1667 1612 1581
1743 1686 1653
614 592 347
635 603 398
702 652 502
761 693 603
834 753 727
891 819 828
888 833 850
901 855 873
925 882 900
953 911 928
983 941 956
1016 972 988
1052 1008 1021
1093 1048 1059
1136 1090 1098
1184 1136 1143
1237 1188 1191
1295 1244 1243
1358 1306 1301
1427 1374 1363
1501 1447 1430
1579 1525 1501
1660 1606 1575
1735 1679 1646
1804 1745 1713
801 781 487
846 817 551
899 857 635
944 890 716
1047 980 858
1130 1052 993
1106 1028 1020
1099 1045 1041
1115 1069 1067
1133 1089 1090
1158 1114 1116
1186 1141 1143
1217 1171 1171
1251 1204 1203
1289 1241 1239
1331 1281 1276
1377 1326 1318
1427 1376 1364
1483 1431 1414
1544 1491 1470
1610 1557 1531
1681 1627 1594
1747 1691 1658
1812 1754 1721
1876 1816 1783
1064 1052 680
1102 1083 733
1143 1113 806
1177 1137 870
1301 1256 1024
1393 1340 1167
1427 1358 1260
1319 1234 1206
1306 1255 1224
1315 1269 1247
1331 1286 1269
1355 1310 1295
1382 1337 1322
1413 1366 1350
1446 1398 1381
1483 1433 1415
1523 1473 1452
1567 1517 1492
1617 1566 1537
1671 1619 1586
1726 1672 1638
1781 1725 1691
1839 1781 1748
1899 1839 1806
1957 1895 1863
1318 1318 868
1349 1344 911
1385 1370 975
1441 1425 1052
1533 1515 1171
1658 1640 1336
1717 1691 1457
1618 1551 1427
1525 1438 1387
1503 1454 1397
1508 1463 1420
1525 1481 1444
1546 1503 1468
1573 1529 1495
1603 1558 1524
1635 1589 1555
1671 1624 1588
1710 1662 1624
1748 1697 1660
1790 1737 1701
1836 1781 1746
1885 1828 1794
1938 1878 1845
1992 1930 1898
2045 1982 1951
1561 1577 1046
1601 1616 1091
1665 1682 1171
1714 1732 1238
1781 1799 1332
1873 1892 1464
1965 1983 1609
1907 1889 1624
1806 1742 1591
1724 1638 1561
1701 1644 1571
1695 1655 1587
1712 1672 1612
1728 1688 1636
1750 1708 1660
1775 1731 1687
1804 1757 1716
1836 1786 1747
1870 1819 1781
1908 1854 1817
1949 1893 1858
1994 1935 1902
2041 1980 1948
2090 2027 1996
2138 2075 2044
1840 1892 1244
1871 1923 1280
1917 1969 1344
1953 2007 1400
2002 2057 1476
2068 2124 1580
2154 2212 1715
2153 2192 1783
2076 2073 1779
1987 1940 1759
1892 1805 1717
1866 1807 1726
1853 1813 1740
1865 1825 1764
1883 1841 1788
1906 1862 1814
1933 1886 1841
1961 1911 1870
1993 1941 1902
2027 1972 1936
2064 2007 1972
2105 2045 2012
2147 2086 2054
2191 2128 2098
2235 2171 2142
2013 2085 1378
2038 2111 1408
2076 2150 1463
2105 2181 1509
2144 2220 1572
2195 2273 1657
2262 2346 1769
2343 2446 1907
2300 2370 1938
2236 2266 1942
2145 2117 1918
2040 1955 1864
2015 1958 1874
2004 1964 1889
2018 1977 1915
2038 1995 1940
2060 2014 1966
2086 2038 1994
2115 2064 2023
2146 2092 2055
2179 2123 2089
2216 2158 2125
2254 2194 2163
2293 2232 2203
2332 2270 2243
