Toning/Toning-Saturate Blues.3dl
#25pt 3DLUT created by 3D LUT Creator Pro (c) Oleg Sharonov
#Copyright Oleg Sharonov
#INPUTGAMMA sRGB IEC61966-2.1 v.2.10
#IMAGEPROFILE sRGB IEC61966-2.1 v.2.10
#OUTPUTGAMMA sRGB IEC61966-2.1 v.2.10
0 128 256 384 512 640 768 896 1023
0 0 0
5 4 470
11 10 876
28 20 1266
62 40 1669
118 75 2078
213 128 2430
348 210 2708
527 324 2935
15 468 15
15 414 414
22 340 796
42 316 1151
80 302 1573
142 298 1996
242 310 2350
384 349 2626
569 420 2850
40 1132 40
28 1042 378
29 836 836
98 595 1230
122 332 1384
200 320 1819
318 318 2158
480 342 2419
668 411 2664
104 2008 104
49 1952 376
43 1801 927
44 1486 1486
214 1113 1833
306 527 2133
378 227 2065
519 313 2382
679 419 2684
183 2637 183
114 2600 456
44 2506 1037
44 2339 1690
44 2097 2097
299 1851 2352
563 1370 2583
545 528 2836
697 430 2714
290 3179 290
214 3154 564
55 3090 1144
44 2977 1802
44 2807 2251
44 2583 2583
391 2374 2816
768 2067 3026
875 1524 3270
434 3671 434
356 3653 694
175 3606 1260
44 3524 1888
44 3401 2346
44 3234 2729
44 3025 3025
483 2839 3240
955 2583 3436
601 4095 602
532 4095 853
344 4079 1386
53 4015 1964
44 3920 2421
44 3791 2824
44 3628 3164
44 3432 3432
575 3264 3632
793 4095 795
727 4095 1034
553 4095 1525
233 4095 2041
44 4095 2488
44 4095 2897
44 4095 3258
44 3999 3564
44 3812 3812
462 13 9
449 9 449
389 14 834
365 24 1226
355 45 1640
367 81 2056
415 136 2407
505 219 2685
636 335 2911
484 458 26
419 419 419
325 319 767
319 302 1162
323 291 1582
349 292 2003
411 307 2344
512 350 2618
653 425 2838
449 1142 47
349 1115 349
196 909 909
251 601 1294
249 316 1420
301 306 1841
390 308 2165
518 336 2420
678 418 2682
471 2020 118
276 2037 277
95 1885 925
44 1563 1563
228 1152 1886
318 546 2174
388 233 2092
530 321 2405
689 426 2702
547 2640 194
353 2649 354
164 2552 997
44 2381 1707
44 2136 2136
313 1877 2385
576 1392 2611
554 542 2865
707 437 2732
647 3181 301
464 3187 464
267 3122 1089
44 3007 1796
44 2836 2265
44 2609 2609
401 2391 2839
781 2080 3045
886 1539 3287
775 3672 445
598 3676 598
410 3630 1199
105 3547 1871
44 3422 2348
44 3254 2741
44 3044 3044
493 2853 3257
968 2593 3451
931 4095 614
758 4095 759
582 4095 1327
260 4033 1943
44 3937 2415
44 3808 2828
44 3643 3174
44 3446 3446
583 3275 3645
1105 4095 807
944 4095 945
774 4095 1467
468 4095 2017
46 4095 2478
44 4095 2896
44 4095 3262
44 4011 3572
44 3823 3823
951 68 35
988 27 410
906 19 906
726 28 1333
550 59 1566
537 98 1990
557 156 2336
614 244 2610
710 365 2831
1119 460 51
987 431 385
937 271 937
682 251 1347
483 258 1534
486 267 1955
521 290 2288
592 342 2555
701 425 2771
1268 1136 145
1203 1097 407
930 930 930
568 519 1475
331 271 1520
368 269 1897
436 280 2181
547 331 2440
706 437 2731
1267 2042 148
1165 2047 273
901 1945 902
364 1711 1710
273 1205 2005
345 553 2270
419 251 2164
559 339 2461
718 444 2748
1323 2645 221
1203 2651 369
900 2618 900
400 2493 1713
82 2227 2227
349 1927 2464
607 1432 2680
582 565 2916
734 455 2775
1397 3185 332
1274 3190 485
900 3195 900
526 3086 1747
119 2908 2292
44 2674 2674
432 2432 2896
817 2109 3094
913 1568 3330
1487 3675 475
1368 3678 621
985 3690 985
665 3605 1803
219 3478 2343
44 3306 2769
44 3091 3091
517 2886 3299
999 2618 3489
1591 4095 642
1482 4095 785
1127 4095 1128
828 4078 1872
379 3981 2393
44 3849 2834
44 3682 3198
44 3482 3482
604 3301 3678
1704 4095 833
1603 4095 968
1285 4095 1286
1011 4095 1946
577 4095 2447
44 4095 2890
44 4095 3271
44 4041 3593
44 3852 3852
1582 225 104
1701 97 356
1633 59 912
1505 28 1505
1239 35 1971
802 119 2095
581 188 2245
622 284 2506
698 413 2716
1751 570 127
1654 525 380
1703 286 892
1557 177 1557
1237 162 1998
757 226 2087
523 266 2209
578 330 2462
692 428 2707
2078 1140 205
2035 1092 387
1762 1007 879
1695 436 1695
1207 119 2080
616 189 2063
420 252 2168
561 340 2466
721 446 2753
2179 2013 439
2164 2004 517
2024 1914 1074
1711 1711 1711
1258 1184 2180
567 417 2251
476 286 2292
611 373 2563
768 478 2830
2101 2652 324
2056 2656 409
1948 2619 900
1711 2502 1711
1168 2302 2302
694 1963 2604
651 1428 2801
644 563 2936
782 487 2852
2119 3192 387
2075 3194 520
1948 3195 900
1711 3120 1711
1166 2997 2302
416 2781 2781
498 2486 2992
886 2140 3176
956 1590 3404
2159 3680 527
2112 3682 659
1972 3692 997
1710 3655 1710
1165 3571 2302
562 3398 2802
100 3171 3171
568 2936 3372
1057 2652 3553
2209 4095 693
2161 4095 827
2022 4095 1152
1711 4095 1711
1270 4062 2323
725 3924 2831
120 3751 3234
44 3544 3544
645 3344 3736
2265 4095 882
2218 4095 1011
2083 4095 1311
1746 4095 1747
1430 4095 2366
916 4095 2865
240 4095 3282
44 4095 3626
44 3902 3902
2175 534 249
2279 355 373
2289 180 885
2223 100 1597
2092 37 2092
1877 39 2494
1369 179 2572
737 328 2526
700 432 2720
2301 822 282
2230 773 468
2356 405 831
2270 181 1613
2130 85 2130
1892 62 2524
1366 191 2580
754 333 2547
709 439 2736
2607 1344 367
2555 1295 502
2351 1201 889
2411 534 1620
2230 89 2230
1935 44 2611
1404 206 2638
785 352 2599
737 457 2780
2865 1966 509
2840 1945 616
2709 1891 1062
2383 1791 1660
2302 1178 2302
1963 368 2712
1406 245 2717
793 385 2669
785 489 2856
2809 2620 777
2799 2614 848
2736 2574 1245
2576 2472 1863
2302 2302 2302
2012 1966 2718
1425 1235 2938
705 436 2729
859 538 2967
2736 3191 655
2711 3192 730
2639 3191 971
2505 3120 1711
2303 2997 2303
1959 2810 2810
1463 2514 3128
1064 2122 3292
1002 1530 3512
2723 3687 601
2698 3689 719
2629 3693 1014
2504 3655 1710
2303 3571 2303
1958 3447 2810
1114 3271 3271
913 2990 3480
1157 2679 3645
2755 4095 767
2728 4095 887
2652 4095 1183
2505 4095 1714
2302 4079 2303
1957 3988 2810
1194 3856 3269
576 3633 3633
720 3398 3820
2792 4095 951
2763 4095 1069
2685 4095 1350
2516 4095 1750
2303 4095 2303
1958 4095 2810
1396 4095 3278
707 4095 3668
105 3974 3974
2706 1032 502
2789 845 529
2903 430 837
2830 318 1633
2751 136 2203
2587 44 2586
2382 44 2937
2045 187 3082
1560 417 3080
2814 1244 544
2752 1198 649
2962 646 749
2859 336 1619
2776 144 2215
2613 44 2612
2400 44 2962
2057 191 3100
1574 422 3096
3018 1604 572
2972 1564 688
2828 1458 973
2956 819 1551
2842 274 2236
2677 44 2676
2440 44 3022
2085 202 3145
1605 438 3135
3264 2061 628
3235 2039 747
3145 1980 1068
2887 1916 1661
2933 1290 2243
2783 426 2783
2493 44 3130
2112 232 3215
1636 470 3195
3469 2553 890
3455 2540 983
3405 2505 1254
3215 2449 1860
2894 2356 2262
2810 1965 2810
2519 1167 3237
2102 420 3302
1614 527 3260
3368 3160 1190
3361 3156 1250
3338 3142 1443
3235 3075 1981
3067 2969 2422
2810 2810 2810
2560 2521 3195
2177 2065 3460
1559 1225 3567
3298 3680 1064
3283 3681 1128
3242 3683 1285
3147 3649 1785
3000 3571 2304
2811 3447 2811
2517 3271 3271
2181 3012 3574
1700 2653 3843
3262 4095 864
3247 4095 970
3206 4095 1223
3124 4095 1714
3000 4079 2303
2810 3988 2810
2516 3864 3271
2023 3695 3695
1286 3463 3973
3288 4095 1046
3271 4095 1149
3224 4095 1394
3129 4095 1756
3000 4095 2303
2810 4095 2810
2517 4095 3271
2024 4095 3695
1206 4069 4069
3169 1503 773
3228 1349 770
3419 766 783
3344 564 1636
3266 411 2224
3194 137 2696
3029 44 3029
2848 44 3350
2570 158 3551
3242 1618 787
3195 1582 883
3364 1127 893
3369 656 1607
3285 423 2223
3213 143 2706
3047 44 3047
2861 44 3368
2581 161 3566
3402 1870 814
3364 1842 920
3256 1760 1154
3448 1123 1491
3341 653 2212
3259 160 2729
3094 44 3094
2894 44 3413
2604 171 3601
3620 2203 852
3593 2183 966
3518 2128 1225
3324 2065 1707
3450 1460 2160
3342 743 2755
3174 117 3174
2944 44 3492
2636 192 3660
3840 2618 972
3824 2604 1075
3778 2565 1317
3632 2515 1835
3365 2445 2250
3395 2021 2761
3271 1148 3271
2996 347 3610
2657 240 3736
3984 3089 1608
3975 3081 1653
3954 3058 1754
3867 3011 2023
3668 2947 2426
3356 2856 2772
3271 2522 3270
3017 2045 3674
2732 989 4004
3876 3650 1610
3871 3647 1653
3860 3640 1755
3799 3601 2101
3683 3527 2525
3507 3420 2952
3271 3271 3271
3049 3013 3655
2725 2619 4023
3836 4045 2358
3827 4046 2362
3803 4049 2373
3747 4057 2412
3621 4061 2525
3450 3988 2810
3271 3863 3271
3014 3695 3695
2679 3468 4015
3854 4044 2421
3843 4046 2425
3811 4050 2429
3746 4057 2429
3620 4078 2523
3450 4095 2811
3271 4095 3271
3013 4095 3695
2620 4095 4095
3627 1756 753
3680 1648 785
3804 1298 934
3811 857 1620
3741 710 2234
3669 490 2717
3603 123 3142
3436 44 3436
3272 44 3734
3684 1839 744
3665 1788 775
3813 1459 861
3836 1035 1576
3756 723 2224
3683 501 2718
3617 128 3151
3450 44 3450
3283 44 3748
3816 2018 710
3801 1978 741
3759 1861 828
4008 1183 1166
3807 1050 2195
3719 530 2719
3653 142 3173
3485 44 3485
3309 44 3783
4006 2297 632
3997 2265 657
3973 2174 734
3940 1990 938
3996 1529 2034
3798 1187 2712
3714 297 3202
3547 44 3547
3352 44 3844
4062 2752 1598
4061 2729 1578
4058 2665 1532
4049 2546 1553
4012 2404 1902
3936 2055 2683
3807 1365 3228
3636 598 3636
3405 44 3935
4069 3222 2465
4069 3209 2451
4069 3173 2414
4070 3104 2371
4055 3007 2423
3929 2866 2634
3836 2550 3235
3696 2040 3696
3456 1130 4062
4062 3661 3229
4062 3655 3219
4063 3638 3194
4066 3602 3146
4064 3535 3087
3990 3429 3072
3821 3296 3208
3695 3017 3695
3472 2629 4090
4070 4008 3684
4070 4008 3686
4071 4009 3691
4071 4013 3708
4068 4007 3710
4013 3936 3547
3900 3835 3513
3695 3695 3695
3495 3462 4056
4070 4009 3689
4071 4009 3692
4071 4011 3699
4072 4013 3712
4073 4021 3730
4056 4049 3322
3906 4075 3407
3695 4095 3695
3462 4095 4095
3674 1794 780
3730 1687 813
3887 1287 904
3937 906 1664
3898 808 2286
3934 688 2758
3989 485 3174
3987 92 3554
3816 44 3816
3730 1874 768
3712 1824 801
3864 1494 892
3990 947 1546
3904 814 2274
3934 689 2757
3990 481 3179
3999 96 3561
3827 44 3827
3856 2048 729
3842 2007 762
3803 1894 854
4019 1337 1322
4023 931 2210
3937 694 2750
3991 475 3190
4027 107 3580
3855 44 3855
4039 2324 642
4030 2291 670
4007 2199 752
3955 2001 947
4023 1661 2084
4034 1181 2744
4047 498 3232
4072 123 3610
3905 44 3905
4063 2789 1725
4062 2764 1705
4059 2698 1657
4049 2558 1597
4023 2404 1895
4032 2069 2662
4055 1535 3228
4089 760 3664
3977 139 3977
4069 3248 2521
4069 3233 2505
4070 3192 2462
4070 3110 2386
4064 3008 2419
4035 2868 2600
4050 2570 3206
4086 2053 3689
4071 1226 4071
4062 3681 3263
4062 3672 3253
4064 3649 3218
4066 3604 3150
4072 3536 3087
4076 3438 3058
4052 3302 3164
4076 3031 3678
4095 2633 4095
4070 4009 3689
4071 4009 3692
4071 4011 3699
4072 4013 3712
4072 4008 3724
4071 3940 3667
4079 3839 3642
4071 3708 3652
4095 3466 4095
4071 4010 3695
4071 4010 3697
4071 4011 3702
4072 4013 3712
4074 4022 3756
4078 4035 3818
4082 4051 3897
4088 4071 3989
4095 4095 4095
