Toning/Toning-Golden Sunset.3dl
#25pt 3DLUT created by 3D LUT Creator Pro (c) Oleg Sharonov
#Copyright Oleg Sharonov
#IMAGEPROFILE ProPhoto RGB v.2.10
#INPUTGAMMA ProPhoto RGB v.2.10
#OUTPUTGAMMA ProPhoto RGB v.2.10
0 128 256 384 512 640 768 896 1023
383 0 0
385 7 241
606 32 323
751 95 412
852 183 525
970 266 718
1122 312 883
1344 347 1103
1564 378 1586
384 386 0
487 382 249
420 388 358
700 399 421
832 414 521
957 426 713
1108 440 879
1331 456 1098
1554 472 1572
387 617 0
389 618 255
694 609 355
396 622 480
645 635 630
945 656 745
1089 691 879
1284 722 1090
1522 747 1545
388 1029 0
390 1031 253
394 1033 363
825 1019 461
400 1037 692
438 1041 883
1091 1055 956
1411 1082 1138
1593 1120 1592
388 1573 0
395 1575 250
394 1578 360
398 1581 475
963 1559 652
831 1573 873
406 1589 1166
1296 1588 1357
1712 1608 1868
389 2120 0
391 2122 247
399 2124 356
398 2127 473
401 2129 687
1159 2104 849
1182 2105 1110
801 2125 1879
1497 2113 2243
389 2695 0
392 2698 244
395 2702 354
398 2705 470
401 2708 684
404 2711 881
1438 2673 1091
1648 2660 1723
1052 2700 2337
389 3298 0
392 3299 241
395 3301 350
399 3303 467
401 3304 682
404 3306 878
407 3306 1161
1689 3272 1733
2108 3250 2271
391 3616 2
394 3616 240
397 3618 349
401 3619 466
403 3620 682
406 3621 878
409 3621 1161
407 3617 1940
1935 3585 2300
845 0 0
845 0 253
861 38 340
914 108 422
996 197 538
1112 273 729
1290 315 889
1491 350 1113
1677 380 1620
844 384 0
844 384 253
850 392 339
901 403 418
980 415 533
1099 427 724
1277 441 886
1481 456 1108
1668 473 1606
845 617 0
844 618 252
903 612 357
848 622 478
903 641 612
1078 665 743
1226 700 881
1444 724 1100
1640 749 1580
844 1029 0
844 1031 250
845 1033 360
992 1020 462
846 1037 690
869 1045 871
1260 1061 953
1528 1089 1141
1680 1128 1612
841 1574 0
843 1576 247
844 1579 357
844 1582 473
1134 1560 654
949 1579 878
845 1589 1166
1459 1592 1349
1802 1613 1873
837 2121 0
839 2122 245
844 2124 354
844 2127 470
843 2129 685
1357 2104 850
1321 2109 1117
939 2127 1901
1623 2115 2241
836 2696 0
836 2699 242
836 2703 351
842 2706 468
843 2709 682
841 2712 880
1587 2674 1092
1736 2663 1743
1199 2703 2340
834 3298 0
834 3299 238
835 3301 348
833 3303 465
837 3304 680
841 3305 877
838 3306 1160
1808 3272 1738
2161 3253 2277
834 3615 2
835 3616 237
835 3617 346
835 3618 464
831 3619 680
834 3620 877
841 3620 1161
833 3617 1942
2033 3585 2301
1328 0 0
1330 0 253
1334 0 363
1352 98 444
1425 207 568
1527 280 753
1646 320 906
1782 354 1138
1928 384 1703
1329 382 0
1332 382 251
1337 383 360
1347 399 440
1413 413 564
1519 427 749
1639 441 903
1775 457 1134
1922 474 1690
1333 616 0
1336 617 250
1340 619 360
1335 635 447
1385 657 568
1485 680 746
1610 701 898
1752 726 1126
1900 751 1666
1334 1029 0
1337 1031 247
1340 1033 358
1450 1024 464
1349 1037 688
1388 1055 843
1619 1076 946
1771 1107 1148
1878 1147 1660
1335 1574 0
1338 1577 245
1342 1580 354
1345 1583 471
1577 1564 659
1351 1588 883
1356 1590 1164
1765 1604 1331
2004 1627 1886
1334 2120 0
1338 2122 242
1345 2124 351
1348 2127 468
1350 2129 683
1726 2106 851
1604 2117 1134
1355 2130 1940
1902 2122 2230
1334 2697 0
1337 2700 239
1339 2704 348
1351 2707 465
1352 2710 680
1353 2713 877
1892 2676 1096
1935 2673 1790
1542 2709 2347
1335 3297 0
1338 3298 236
1341 3300 345
1342 3302 463
1352 3303 678
1357 3304 874
1356 3305 1159
2068 3273 1753
2278 3259 2294
1338 3614 1
1341 3614 235
1345 3616 343
1347 3617 461
1345 3618 678
1353 3618 874
1362 3618 1159
1357 3615 1944
2252 3585 2303
1968 0 0
1970 0 249
1973 0 359
1976 0 475
1984 162 622
2029 276 790
2098 321 940
2186 357 1185
2287 387 1826
1969 379 0
1972 379 247
1975 379 357
1978 380 472
1983 403 618
2026 422 787
2095 440 937
2182 458 1180
2283 476 1817
1971 614 0
1974 615 246
1977 617 356
1979 620 470
1977 648 614
2011 674 783
2080 701 931
2169 727 1172
2270 753 1799
1972 1028 0
1975 1029 244
1978 1032 354
1982 1034 470
1971 1053 635
1990 1075 798
2052 1103 933
2135 1131 1167
2241 1154 1782
1972 1574 0
1975 1576 241
1978 1579 351
1981 1583 467
2070 1571 668
1987 1588 880
1999 1605 1100
2167 1626 1302
2299 1653 1906
1972 2119 0
1975 2121 238
1979 2123 348
1982 2126 464
1983 2128 680
2175 2109 855
1988 2131 1161
1988 2129 1941
2276 2135 2211
1972 2697 0
1974 2700 235
1978 2704 344
1983 2707 462
1985 2710 677
1986 2713 874
2295 2680 1104
2226 2689 1857
1988 2716 2354
1971 3296 0
1974 3297 232
1977 3299 341
1979 3300 459
1987 3301 675
1988 3303 871
1988 3303 1157
2416 3274 1778
2478 3268 2313
1973 3612 0
1976 3612 231
1979 3613 340
1981 3615 458
1982 3615 675
1989 3616 871
1992 3616 1157
1988 3613 1945
2537 3586 2306
2527 0 0
2528 0 246
2531 0 356
2533 0 472
2534 0 685
2538 220 836
2561 309 1000
2600 353 1260
2651 387 1957
2527 376 0
2529 376 244
2531 377 354
2533 377 470
2534 378 684
2537 409 833
2560 433 997
2599 454 1256
2648 475 1951
2529 613 0
2530 614 243
2533 616 353
2535 618 469
2536 622 680
2533 659 830
2555 691 991
2594 723 1247
2642 752 1937
2529 1027 0
2531 1029 241
2533 1031 350
2535 1034 467
2535 1037 678
2527 1068 826
2543 1097 986
2579 1126 1240
2628 1153 1923
2528 1574 0
2529 1576 238
2532 1579 347
2534 1583 464
2536 1585 680
2525 1607 842
2530 1632 1022
2566 1660 1266
2606 1691 1929
2527 2119 0
2529 2120 235
2531 2123 344
2533 2125 462
2535 2127 678
2599 2117 862
2538 2130 1160
2537 2140 1816
2636 2156 2181
2526 2698 0
2527 2701 232
2530 2704 341
2533 2708 459
2534 2711 675
2535 2714 872
2670 2688 1116
2540 2714 1940
2534 2717 2351
2525 3294 0
2526 3295 229
2528 3297 338
2531 3299 456
2534 3300 673
2535 3301 869
2535 3302 1156
2748 3277 1811
2713 3280 2330
2525 3610 0
2527 3610 227
2529 3612 336
2531 3613 455
2532 3614 673
2537 3614 868
2537 3615 1156
2533 3611 1946
2843 3587 2312
2974 0 0
2974 0 244
2977 0 353
2980 0 470
2981 0 684
2983 0 881
2983 264 1077
3000 335 1414
3029 379 2102
2974 375 0
2975 374 242
2978 375 351
2980 375 468
2981 375 683
2983 375 880
2984 414 1075
3000 443 1407
3028 468 2098
2975 612 0
2977 614 241
2979 616 350
2982 618 467
2983 619 682
2983 623 877
2982 668 1070
2997 709 1393
3024 745 2088
2976 1027 0
2977 1029 239
2980 1031 348
2982 1033 465
2983 1035 681
2983 1041 873
2977 1079 1064
2990 1113 1380
3017 1146 2075
2975 1575 0
2976 1577 235
2979 1580 345
2981 1584 462
2982 1586 678
2982 1591 871
2971 1626 1061
2977 1658 1376
3000 1686 2069
2974 2119 0
2975 2120 232
2978 2123 342
2980 2125 459
2982 2127 676
2983 2129 873
2971 2147 1094
2969 2166 1534
2995 2187 2131
2973 2699 0
2974 2702 229
2976 2706 339
2979 2709 457
2980 2712 673
2982 2715 870
3043 2701 1134
2981 2717 1945
2979 2732 2330
2971 3294 0
2973 3295 225
2975 3297 335
2978 3299 454
2979 3300 671
2981 3301 867
2981 3302 1155
3104 3281 1850
2996 3296 2344
2972 3609 0
2973 3609 225
2976 3611 334
2978 3612 453
2980 3613 671
2982 3614 866
2983 3614 1156
2980 3610 1948
3176 3590 2319
3392 0 0
3393 0 242
3395 0 351
3397 0 468
3398 0 682
3400 0 880
3401 0 1161
3397 284 1705
3408 356 2224
3392 373 0
3393 372 240
3395 373 349
3397 374 466
3398 374 681
3400 373 878
3401 372 1161
3398 418 1701
3408 452 2222
3393 612 0
3394 614 239
3396 616 348
3398 618 465
3400 618 681
3401 621 878
3402 622 1159
3397 677 1688
3406 725 2216
3393 1027 0
3394 1029 237
3396 1032 346
3399 1034 463
3400 1036 679
3401 1038 876
3400 1043 1152
3394 1086 1672
3402 1127 2208
3392 1576 0
3393 1578 234
3395 1581 343
3398 1584 460
3399 1586 677
3401 1589 874
3399 1596 1148
3388 1635 1663
3393 1670 2201
3391 2119 0
3392 2121 230
3394 2123 340
3396 2126 458
3398 2128 675
3399 2130 871
3398 2133 1149
3383 2160 1669
3382 2188 2200
3389 2701 0
3391 2704 227
3393 2707 336
3395 2711 455
3397 2714 672
3398 2717 868
3399 2719 1157
3383 2740 1794
3379 2764 2258
3388 3294 0
3389 3295 224
3392 3297 333
3394 3298 452
3395 3299 670
3397 3301 865
3398 3301 1155
3453 3288 1897
3395 3298 2342
3388 3608 0
3390 3609 222
3392 3610 331
3394 3611 450
3396 3612 669
3397 3613 865
3398 3613 1155
3395 3610 1950
3516 3594 2326
3775 0 0
3776 0 240
3777 0 350
3778 0 466
3778 0 681
3779 0 878
3780 1 1161
3776 0 1938
3773 301 2310
3775 371 0
3775 371 238
3777 372 348
3778 373 464
3778 373 680
3779 373 877
3779 372 1161
3776 368 1941
3773 422 2309
3775 612 0
3776 613 237
3777 616 346
3778 618 464
3779 618 680
3779 621 877
3780 621 1162
3776 619 1942
3772 687 2304
3775 1028 0
3775 1030 235
3776 1033 344
3777 1035 462
3778 1036 678
3779 1038 875
3779 1040 1161
3775 1041 1931
3770 1094 2298
3773 1577 0
3773 1579 232
3775 1583 341
3776 1586 459
3777 1588 676
3777 1590 872
3777 1593 1160
3772 1597 1921
3766 1643 2292
3771 2120 0
3771 2121 229
3773 2124 338
3774 2126 456
3775 2128 673
3776 2130 870
3776 2131 1158
3770 2134 1920
3761 2167 2288
3769 2702 0
3769 2705 225
3771 2709 334
3772 2713 453
3773 2716 671
3773 2719 867
3773 2721 1156
3768 2723 1929
3756 2759 2288
3767 3294 0
3767 3295 222
3769 3297 331
3770 3298 450
3770 3299 668
3771 3300 864
3771 3301 1155
3768 3298 1950
3757 3309 2314
3766 3608 0
3767 3608 220
3768 3610 329
3769 3611 449
3770 3612 668
3771 3612 863
3771 3612 1155
3767 3609 1953
3805 3600 2333
4094 0 0
4095 0 239
4095 0 348
4095 0 465
4095 6 680
4095 5 877
4095 3 1161
4095 2 1941
4095 7 2358
4094 371 0
4094 370 237
4095 371 346
4095 372 464
4095 373 679
4095 372 876
4095 371 1161
4095 367 1944
4095 366 2356
4094 613 0
4095 614 236
4095 615 345
4095 618 463
4095 620 679
4095 622 875
4095 622 1162
4095 620 1947
4095 620 2355
4094 1029 0
4095 1030 234
4095 1033 343
4095 1036 461
4095 1038 678
4095 1039 874
4095 1041 1161
4095 1039 1949
4095 1042 2351
4093 1578 0
4093 1581 230
4095 1584 339
4095 1588 458
4095 1590 675
4095 1592 871
4095 1594 1160
4095 1593 1950
4095 1600 2346
4091 2121 0
4092 2122 227
4094 2125 336
4095 2127 455
4095 2129 673
4095 2131 869
4095 2133 1158
4094 2131 1952
4092 2137 2342
4090 2705 0
4090 2708 224
4092 2711 333
4094 2715 452
4094 2718 670
4095 2720 866
4095 2723 1157
4093 2722 1952
4090 2729 2339
4088 3294 0
4089 3295 221
4090 3297 330
4092 3299 449
4093 3300 668
4094 3301 863
4094 3301 1155
4091 3298 1953
4089 3300 2336
4088 3607 67
4089 3608 220
4090 3610 328
4092 3611 448
4093 3611 667
4094 3612 862
4094 3612 1155
4091 3609 1956
4091 3608 2337
