Toning/Toning-Warm-2DCurves.3dl
#25pt 3DLUT created by 3D LUT Creator Pro (c) Oleg Sharonov
#Copyright Oleg Sharonov
#IMAGEPROFILE 
#INPUTGAMMA 
#OUTPUTGAMMA 
0 128 256 384 512 640 768 896 1023
0 0 0
0 0 513
0 0 1024
0 0 1538
0 0 2047
0 0 2555
0 0 3069
0 0 3582
0 0 4095
0 513 0
0 513 513
0 513 1026
0 513 1538
0 513 2047
0 513 2555
0 513 3069
0 513 3582
0 513 4095
0 1025 0
0 1027 513
0 1027 1027
0 1026 1539
0 1025 2048
0 1026 2557
0 1026 3070
0 1025 3582
0 1026 4095
0 1538 0
0 1539 513
0 1540 1026
0 1540 1540
0 1539 2048
0 1538 2557
0 1539 3073
0 1539 3584
0 1539 4095
0 2048 0
0 2048 513
0 2048 1025
0 2048 1539
0 2047 2047
0 2047 2556
0 2047 3072
0 2047 3585
0 2048 4095
0 2556 0
0 2556 513
0 2557 1026
0 2557 1538
0 2556 2047
0 2556 2556
0 2556 3072
0 2556 3584
0 2556 4094
0 3069 0
0 3069 513
0 3071 1027
0 3073 1539
0 3072 2047
0 3072 2556
0 3072 3072
0 3069 3584
0 3069 4095
0 3582 0
0 3582 513
0 3582 1026
0 3584 1539
0 3585 2047
0 3584 2556
0 3584 3069
0 3585 3585
3 3582 4095
4 4095 2
4 4095 513
0 4095 1026
0 4095 1539
0 4095 2048
0 4094 2556
0 4095 3069
3 4095 3582
3 4095 4095
542 0 0
630 0 326
666 0 891
704 0 1457
746 0 2023
783 0 2588
824 0 3160
734 0 3662
513 0 4095
437 301 0
535 276 237
568 299 649
610 305 1165
659 307 1724
702 307 2305
750 306 2915
646 301 3464
409 296 4002
417 912 0
490 792 259
529 862 700
574 898 1198
623 907 1742
667 906 2307
716 902 2902
609 877 3423
395 900 3949
404 1518 0
473 1426 290
515 1507 792
560 1559 1316
611 1591 1866
656 1610 2429
706 1611 3025
597 1533 3513
382 1505 3981
387 2130 0
454 2068 305
493 2143 839
537 2208 1386
586 2247 1950
630 2268 2521
681 2242 3109
574 2168 3597
365 2119 4041
370 2735 0
434 2708 314
471 2777 868
512 2858 1437
558 2903 2006
602 2878 2571
652 2845 3151
549 2791 3652
351 2728 4095
353 3359 0
414 3348 324
450 3410 893
490 3496 1467
535 3504 2031
577 3473 2592
622 3450 3162
524 3413 3662
334 3346 4095
408 3819 0
455 3866 327
502 3884 897
549 3899 1464
587 3902 2030
618 3901 2594
658 3901 3165
563 3889 3664
391 3801 4095
544 4095 2
626 4086 327
665 4095 892
704 4095 1457
746 4095 2023
783 4095 2588
824 4095 3160
736 4095 3662
514 4095 4095
1084 0 0
1162 0 220
1212 0 742
1255 0 1343
1299 0 1944
1340 0 2544
1382 0 3150
1326 0 3691
1026 0 4095
1056 313 0
1149 289 197
1201 299 647
1245 313 1181
1295 320 1743
1341 323 2339
1390 324 2963
1325 319 3524
988 306 3948
1032 895 0
1122 768 192
1184 808 641
1240 890 1194
1292 928 1782
1342 946 2391
1393 953 3020
1324 927 3566
961 867 3935
1031 1578 0
1127 1410 204
1192 1478 701
1247 1583 1302
1305 1654 1923
1357 1689 2550
1413 1708 3193
1339 1662 3724
956 1531 4039
1015 2238 0
1127 2078 214
1190 2142 739
1243 2253 1366
1295 2331 2004
1345 2381 2643
1397 2417 3254
1330 2321 3724
941 2179 4095
967 2841 0
1079 2679 217
1140 2737 746
1187 2851 1375
1233 2941 2009
1278 2997 2615
1332 2969 3200
1270 2891 3708
896 2791 4095
923 3441 0
1029 3291 221
1087 3339 757
1131 3450 1386
1173 3547 1998
1222 3545 2589
1276 3509 3181
1214 3461 3704
855 3407 4095
936 3901 0
1007 3854 225
1071 3865 764
1140 3901 1379
1196 3920 1976
1236 3912 2574
1277 3904 3171
1214 3897 3701
869 3899 4095
1085 4095 0
1130 4063 220
1191 4072 744
1256 4095 1344
1299 4095 1944
1339 4095 2545
1382 4095 3150
1326 4095 3691
1026 4095 4095
1612 0 0
1676 0 202
1717 0 665
1744 0 1274
1774 0 1889
1798 0 2496
1826 0 3106
1779 0 3666
1539 0 4095
1656 321 0
1732 307 190
1781 306 622
1813 318 1188
1849 326 1781
1878 331 2377
1907 333 2985
1855 330 3561
1571 317 3981
1681 928 0
1755 831 188
1804 831 623
1843 894 1220
1879 940 1834
1910 966 2457
1944 979 3088
1886 963 3649
1588 898 4039
1707 1652 0
1779 1512 198
1831 1503 665
1870 1592 1311
1911 1675 1980
1945 1720 2628
1982 1745 3278
1920 1718 3838
1613 1609 4095
1703 2322 0
1798 2180 206
1853 2174 696
1882 2273 1373
1916 2362 2069
1946 2421 2738
1982 2456 3390
1920 2421 3808
1609 2269 4095
1634 2899 0
1738 2735 208
1789 2739 699
1812 2836 1360
1835 2926 2027
1858 2988 2686
1887 3031 3259
1837 2959 3728
1547 2851 4095
1558 3446 0
1654 3288 210
1705 3286 698
1725 3380 1347
1747 3475 1999
1768 3543 2613
1803 3529 3183
1753 3473 3699
1472 3417 4095
1532 3884 0
1593 3825 210
1641 3816 694
1675 3858 1323
1713 3898 1947
1743 3907 2544
1774 3895 3141
1718 3885 3681
1449 3882 4095
1613 4095 0
1654 4049 203
1692 4045 669
1736 4079 1277
1773 4095 1889
1798 4095 2496
1827 4095 3106
1779 4095 3666
1539 4095 4095
2109 0 0
2154 0 280
2185 0 744
2204 0 1332
2223 0 1916
2240 0 2502
2258 0 3090
2229 0 3645
2047 0 4095
2225 330 0
2273 324 269
2306 322 715
2330 328 1283
2353 333 1857
2375 337 2441
2396 339 3035
2362 338 3593
2155 329 4039
2270 932 0
2319 878 270
2354 869 722
2381 899 1313
2401 923 1902
2422 941 2502
2442 953 3088
2409 949 3640
2198 920 4095
2307 1660 0
2355 1575 285
2391 1559 769
2415 1611 1401
2436 1652 2037
2457 1684 2664
2478 1699 3290
2445 1693 3730
2236 1641 4095
2334 2370 0
2388 2275 296
2424 2256 804
2445 2313 1472
2462 2365 2146
2481 2404 2800
2499 2425 3421
2469 2419 3992
2264 2349 4095
2250 2913 0
2320 2832 297
2361 2817 803
2374 2874 1460
2384 2926 2112
2396 2972 2760
2411 3000 3383
2380 2991 3786
2179 2896 4095
2159 3440 0
2229 3352 298
2269 3334 798
2282 3405 1443
2293 3462 2070
2304 3516 2702
2317 3547 3240
2294 3495 3715
2087 3429 4095
2087 3865 0
2141 3820 294
2177 3814 787
2197 3845 1401
2215 3872 2001
2233 3899 2587
2252 3888 3154
2223 3873 3676
2018 3865 4095
2108 4095 0
2145 4057 281
2179 4050 751
2202 4080 1337
2222 4095 1916
2241 4095 2502
2257 4095 3090
2228 4095 3644
2047 4095 4095
2600 0 0
2635 0 355
2653 0 831
2663 0 1396
2675 0 1954
2686 0 2507
2693 0 3077
2676 0 3622
2556 0 4094
2788 338 0
2827 336 347
2847 335 817
2859 337 1379
2875 340 1936
2889 342 2490
2897 344 3064
2877 343 3614
2737 338 4095
2837 903 0
2877 882 351
2898 875 827
2911 887 1404
2924 900 1975
2937 909 2522
2946 917 3084
2925 918 3623
2786 900 4095
2853 1598 0
2890 1551 364
2910 1541 860
2921 1563 1459
2934 1584 2057
2947 1600 2646
2956 1614 3177
2936 1615 3667
2804 1592 4095
2855 2263 0
2892 2213 375
2912 2196 889
2921 2224 1512
2933 2251 2127
2945 2274 2738
2954 2293 3348
2934 2292 3759
2808 2263 4095
2804 2851 0
2845 2799 379
2865 2781 897
2872 2812 1520
2881 2844 2137
2890 2874 2757
2897 2895 3360
2877 2894 3909
2758 2853 4095
2726 3401 0
2770 3350 381
2792 3333 897
2799 3372 1515
2809 3408 2123
2819 3440 2726
2823 3471 3331
2802 3467 3755
2677 3402 4095
2642 3846 0
2688 3821 378
2711 3813 888
2716 3832 1485
2725 3848 2067
2732 3867 2635
2735 3884 3185
2722 3861 3679
2594 3846 4095
2601 4095 3
2636 4071 357
2654 4063 836
2663 4083 1399
2675 4095 1954
2686 4095 2507
2693 4095 3077
2676 4095 3622
2557 4095 4094
3097 0 0
3114 0 433
3125 0 914
3126 0 1454
3130 0 1989
3129 0 2524
3133 0 3058
3132 0 3602
3069 0 4095
3357 350 0
3376 349 433
3388 348 917
3389 349 1460
3394 350 1994
3394 351 2527
3399 352 3059
3398 352 3602
3326 349 4095
3410 881 0
3430 874 436
3443 870 925
3446 874 1482
3448 878 2015
3448 882 2542
3452 885 3069
3450 888 3607
3378 880 4095
3393 1526 0
3412 1512 447
3426 1505 948
3427 1513 1517
3429 1519 2082
3429 1526 2606
3433 1531 3116
3430 1536 3629
3363 1525 4095
3377 2160 0
3395 2142 460
3407 2129 976
3408 2141 1558
3410 2151 2133
3410 2161 2711
3416 2168 3205
3413 2175 3672
3349 2164 4095
3337 2767 0
3357 2749 465
3370 2736 987
3370 2748 1576
3372 2761 2161
3372 2773 2740
3377 2783 3310
3372 2792 3755
3307 2768 4095
3293 3362 0
3313 3340 470
3325 3325 995
3326 3344 1585
3330 3360 2168
3330 3376 2753
3335 3391 3334
3329 3397 3878
3262 3364 4095
3196 3832 0
3221 3823 464
3238 3815 981
3235 3823 1556
3234 3831 2119
3231 3837 2681
3230 3846 3229
3225 3853 3712
3165 3833 4095
3097 4095 3
3116 4086 435
3129 4079 917
3128 4087 1456
3130 4095 1989
3129 4095 2524
3133 4095 3059
3132 4095 3602
3069 4095 4095
3596 0 0
3602 0 485
3605 0 987
3602 0 1507
3600 0 2026
3597 0 2542
3595 0 3060
3593 0 3582
3582 0 4095
3785 410 0
3787 412 486
3789 413 991
3787 412 1512
3786 411 2030
3785 411 2545
3784 410 3062
3784 410 3583
3780 407 4095
3871 905 0
3874 905 492
3877 905 1005
3874 904 1530
3873 905 2047
3871 905 2560
3871 905 3073
3869 905 3589
3864 902 4095
3844 1491 0
3847 1490 498
3850 1489 1015
3850 1489 1553
3846 1490 2075
3845 1491 2585
3844 1493 3093
3842 1494 3599
3837 1491 4095
3819 2072 0
3823 2068 504
3825 2065 1027
3824 2067 1570
3821 2069 2110
3819 2071 2628
3819 2072 3125
3818 2074 3615
3811 2073 4095
3791 2655 0
3795 2650 511
3798 2646 1042
3796 2648 1592
3793 2651 2135
3791 2654 2675
3792 2655 3188
3790 2658 3646
3782 2658 4095
3766 3232 0
3770 3226 515
3774 3221 1050
3772 3228 1601
3770 3231 2149
3769 3235 2695
3770 3237 3236
3764 3238 3718
3756 3238 4095
3745 3812 0
3749 3806 518
3751 3800 1054
3749 3804 1608
3747 3807 2156
3746 3810 2702
3744 3813 3244
3743 3818 3786
3735 3818 4095
3595 4095 0
3602 4093 482
3608 4091 990
3604 4092 1509
3600 4093 2027
3597 4095 2542
3595 4095 3060
3592 4095 3582
3582 4095 4095
4095 0 0
4095 0 513
4095 0 1025
4095 0 1539
4095 0 2047
4094 0 2556
4094 0 3069
4095 0 3582
4095 0 4095
4095 513 0
4095 513 513
4095 514 1027
4095 514 1539
4095 514 2048
4094 514 2556
4095 511 3069
4095 513 3582
4095 513 4095
4095 1025 0
4095 1026 513
4095 1027 1027
4095 1026 1539
4095 1026 2048
4095 1026 2556
4095 1027 3070
4095 1025 3582
4095 1025 4095
4095 1539 0
4095 1539 514
4095 1539 1026
4095 1539 1539
4095 1539 2048
4095 1539 2556
4095 1539 3072
4095 1539 3584
4095 1539 4095
4095 2048 0
4095 2047 513
4095 2048 1026
4095 2048 1539
4095 2048 2048
4094 2047 2556
4095 2047 3072
4095 2047 3585
4095 2047 4095
4094 2556 0
4094 2556 513
4095 2556 1026
4095 2556 1538
4094 2556 2047
4093 2556 2556
4095 2556 3072
4095 2556 3584
4094 2556 4094
4095 3069 0
4095 3069 513
4095 3070 1026
4095 3072 1539
4095 3072 2047
4095 3072 2556
4095 3072 3072
4095 3069 3584
4094 3069 4094
4095 3582 0
4095 3582 514
4095 3582 1025
4095 3584 1539
4095 3585 2047
4095 3584 2556
4095 3584 3069
4095 3584 3584
4095 3582 4095
4095 4095 0
4095 4095 511
4095 4095 1024
4095 4095 1537
4095 4095 2046
4094 4094 2555
4094 4094 3069
4095 4095 3582
4095 4095 4095
