Toning/Toning-Cinematic.3dl
#25pt 3DLUT created by 3D LUT Creator Pro (c) Oleg Sharonov
#Copyright Oleg Sharonov
#IMAGEPROFILE sRGB IEC61966-2.1 v.2.10
#INPUTGAMMA sRGB IEC61966-2.1 v.2.10
#OUTPUTGAMMA sRGB IEC61966-2.1 v.2.10
0 256 512 768 1023
259 259 259
0 0 760
0 0 1924
0 0 3123
0 0 4095
0 672 0
0 791 792
0 914 1980
0 1012 3141
0 1024 4095
0 1800 0
0 1957 924
0 2075 2075
0 2096 3164
0 2048 4095
0 3279 0
0 3292 1060
0 3261 2211
0 3183 3183
0 3071 4095
1404 4095 1404
1096 4095 1637
811 4095 2411
494 4095 3178
0 4095 4095
672 0 0
791 0 792
878 0 1975
981 0 3142
1024 0 4095
699 713 0
539 731 824
512 803 2034
768 941 3161
1024 1024 4095
767 1909 0
256 2098 925
512 2021 2098
768 2064 3177
1024 2048 4095
862 3356 0
256 3409 986
512 3301 2296
768 3160 3190
1024 3071 4095
1703 4095 1447
1535 4095 1700
1415 4095 2448
1306 4095 3197
1024 4095 4095
1800 0 0
1971 0 1004
2074 0 2075
2059 0 3162
2048 0 4095
1923 863 0
2167 796 860
1866 512 2125
1945 768 3197
2048 1024 4095
2058 2097 0
1903 2196 799
1559 1966 2149
1787 2013 3215
2048 2048 4095
2207 3443 0
1874 3508 779
1818 3328 2348
1867 3128 3190
2048 3071 4095
2569 4095 1580
2313 4095 1787
2216 4095 2483
2171 4095 3216
2048 4095 4095
3279 0 0
3298 0 1114
3266 0 2273
3182 0 3183
3071 0 4095
3364 1024 0
3528 523 668
3321 1156 2518
3098 768 3198
3071 1024 4095
3453 2375 0
3485 2352 834
3296 2303 2355
2983 2032 3193
3071 2048 4095
3468 3514 0
3220 3438 1011
3031 3276 2369
2878 3089 3178
3071 3071 4095
3400 4095 1914
3200 4095 1924
3080 4095 2506
3063 4095 3230
3071 4095 4095
4095 1404 1404
4095 1101 1663
4095 842 2494
4095 506 3193
4095 0 4095
4095 1810 1457
4095 1697 1718
4095 1612 2535
4095 1401 3252
4095 1024 4095
4095 2730 1615
4095 2565 1758
4095 2463 2490
4095 2351 3308
4095 2048 4095
4095 3510 1991
4095 3454 2079
4095 3330 2532
4095 3215 3234
4095 3071 4095
4072 4095 2346
3976 4095 2131
3946 4095 2540
3988 4095 3234
4095 4095 4095
