Toning/Toning-HeavyBlueOrange.3dl
#25pt 3DLUT created by 3D LUT Creator Pro (c) Oleg Sharonov
#Copyright Oleg Sharonov
#IMAGEPROFILE sRGB IEC61966-2.1 v.2.10
#INPUTGAMMA sRGB IEC61966-2.1 v.2.10
#OUTPUTGAMMA sRGB IEC61966-2.1 v.2.10
0 256 512 768 1023
0 0 0
0 198 1022
0 685 2047
0 1242 3071
0 1850 4095
0 434 0
0 575 1024
0 924 2048
0 1409 3071
0 1977 4095
0 1350 0
0 1420 1024
0 1630 2047
0 1979 3071
0 2440 4095
0 2356 0
0 2402 1023
0 2546 2048
0 2802 3071
0 3165 4095
0 3447 0
0 3481 1024
0 3589 2048
0 3786 3071
0 4076 4095
1515 0 0
1336 198 1023
192 685 2048
0 1242 3071
0 1850 4095
1515 434 0
1337 575 1024
192 924 2047
0 1409 3071
0 1977 4095
1515 1350 0
1336 1420 1024
192 1630 2048
0 1979 3071
0 2440 4095
1515 2356 0
1336 2402 1023
192 2546 2048
0 2802 3071
0 3165 4095
1515 3447 0
1337 3481 1024
192 3589 2048
0 3786 3071
0 4076 4095
2845 0 0
2783 198 1023
2563 685 2048
2010 1242 3071
0 1850 4095
2846 434 0
2784 575 1024
2563 924 2048
2010 1409 3071
0 1977 4095
2845 1350 0
2784 1420 1024
2563 1630 2048
2010 1979 3071
0 2440 4095
2845 2356 0
2784 2402 1023
2563 2546 2048
2010 2802 3071
0 3165 4095
2845 3447 0
2784 3481 1024
2563 3589 2048
2010 3786 3071
0 4076 4095
3781 0 0
3761 198 1024
3689 685 2048
3528 1242 3071
3189 1850 4095
3781 434 0
3761 575 1024
3689 924 2047
3529 1409 3071
3189 1977 4095
3781 1350 0
3761 1420 1024
3689 1630 2048
3528 1979 3071
3189 2440 4095
3781 2356 0
3761 2402 1024
3689 2546 2048
3528 2802 3071
3189 3165 4095
3782 3447 0
3761 3481 1024
3689 3589 2047
3528 3786 3071
3189 4076 4095
4095 0 0
4095 198 1024
4095 685 2048
4095 1242 3071
4095 1850 4095
4095 434 0
4095 575 1024
4095 924 2048
4095 1409 3071
4095 1977 4095
4095 1350 0
4095 1420 1023
4095 1630 2048
4095 1979 3071
4095 2440 4095
4095 2356 0
4095 2402 1024
4095 2547 2048
4095 2802 3071
4095 3165 4095
4095 3447 6
4095 3481 1024
4095 3589 2048
4095 3786 3071
4095 4076 4095
