Toning/Toning-Bronze.3dl
#25pt 3DLUT created by 3D LUT Creator Pro (c) Oleg Sharonov
#Copyright Oleg Sharonov
#IMAGEPROFILE sRGB IEC61966-2.1 v.2.10
#INPUTGAMMA sRGB IEC61966-2.1 v.2.10
#OUTPUTGAMMA sRGB IEC61966-2.1 v.2.10
0 128 256 384 512 640 768 896 1023
0 0 0
43 3 3
163 0 0
347 0 0
556 0 0
781 0 0
1020 0 0
1282 0 0
1542 0 0
651 639 279
669 539 224
676 179 0
746 0 0
886 0 0
1066 0 0
1274 0 0
1495 0 0
1720 0 0
1501 1474 727
1513 1417 695
1539 1262 610
1579 941 427
1572 0 0
1623 0 0
1764 0 0
1919 0 0
2083 0 0
2294 2381 1383
2299 2347 1357
2311 2256 1288
2333 2082 1162
2366 1779 961
2408 1249 644
2350 0 383
2425 0 0
2530 0 0
2936 3148 2253
2936 3130 2231
2935 3084 2176
2937 2994 2074
2944 2843 1917
2961 2599 1689
2994 2200 1371
3041 1496 922
2997 0 494
3425 3651 3099
3423 3643 3085
3419 3621 3049
3413 3580 2985
3405 3514 2888
3399 3412 2743
3399 3255 2532
3414 2999 2231
3451 2554 1813
3753 3971 3805
3752 3967 3797
3750 3957 3776
3746 3937 3737
3740 3906 3675
3731 3858 3583
3722 3789 3451
3712 3687 3269
3709 3534 3026
3896 4095 4095
3897 4095 4095
3898 4095 4095
3899 4095 4095
3902 4095 4095
3907 4095 4095
3912 4074 4075
3916 4027 3986
3917 3964 3867
3981 4095 4095
3981 4095 4095
3982 4095 4095
3983 4095 4095
3985 4095 4095
3988 4095 4095
3991 4095 4095
3995 4095 4095
4001 4095 4095
397 0 0
317 0 152
332 0 0
481 0 0
663 0 0
866 0 0
1097 0 0
1346 0 0
1595 0 0
602 543 84
696 496 267
756 78 0
834 0 0
968 0 0
1142 0 0
1339 0 0
1550 0 0
1767 0 0
1562 1450 703
1572 1391 671
1597 1234 582
1633 904 385
1597 0 158
1673 0 0
1808 0 0
1958 0 0
2117 0 0
2324 2366 1366
2328 2331 1339
2340 2240 1270
2362 2064 1143
2395 1758 940
2435 1218 615
2374 0 356
2449 0 0
2554 0 0
2949 3140 2240
2948 3123 2218
2948 3075 2162
2950 2985 2061
2958 2833 1902
2976 2587 1673
3009 2184 1354
3056 1470 901
3011 0 469
3430 3647 3090
3428 3639 3076
3424 3617 3040
3418 3576 2976
3411 3509 2879
3405 3407 2734
3406 3249 2521
3422 2991 2219
3459 2542 1799
3755 3970 3799
3754 3965 3791
3752 3955 3770
3748 3935 3731
3742 3904 3669
3734 3856 3576
3724 3786 3444
3716 3684 3261
3712 3530 3018
3898 4095 4095
3898 4095 4095
3899 4095 4095
3901 4095 4095
3903 4095 4095
3908 4095 4095
3914 4072 4071
3918 4025 3982
3919 3962 3862
3982 4095 4095
3982 4095 4095
3983 4095 4095
3984 4095 4095
3986 4095 4095
3989 4095 4095
3992 4095 4095
3997 4095 4095
4002 4095 4095
855 0 0
864 0 328
757 0 304
750 0 0
890 0 0
1070 0 0
1277 0 0
1497 0 0
1722 0 0
1010 498 0
1006 455 328
973 152 304
1040 0 0
1163 0 0
1316 0 0
1491 0 0
1681 0 0
1877 0 0
1267 1153 229
1270 1131 545
1520 1118 657
1759 802 244
1696 0 121
1793 0 0
1916 0 0
2054 0 0
2200 0 0
2133 2176 1069
2136 2147 1145
2145 2072 1186
2431 2017 1095
2462 1702 886
2499 1136 537
2434 0 275
2511 0 0
2610 0 0
2981 3120 2207
2981 3102 2185
2981 3054 2129
2984 2962 2026
2993 2806 1866
3012 2554 1634
3046 2141 1311
3092 1402 845
3045 0 400
3442 3638 3067
3441 3629 3054
3437 3607 3018
3432 3566 2954
3425 3498 2856
3421 3394 2708
3423 3233 2493
3441 2969 2187
3480 2510 1763
3760 3965 3786
3760 3961 3777
3757 3950 3756
3754 3930 3716
3748 3898 3653
3740 3850 3560
3731 3779 3426
3723 3675 3241
3721 3520 2997
3902 4095 4095
3902 4095 4095
3903 4095 4095
3904 4095 4095
3907 4095 4095
3912 4095 4095
3918 4069 4061
3922 4022 3972
3923 3958 3851
3985 4095 4095
3985 4095 4095
3986 4095 4095
3987 4095 4095
3989 4095 4095
3992 4095 4095
3995 4095 4095
4000 4095 4095
4005 4095 4095
1331 0 0
1339 0 328
1356 0 656
1243 0 456
1235 0 0
1381 0 0
1548 0 0
1730 0 0
1920 0 0
1433 404 0
1432 328 328
1447 328 656
1410 152 456
1455 0 0
1580 0 0
1725 0 0
1885 0 0
2053 0 0
1672 1108 180
1674 1085 492
1679 1018 766
1808 743 456
1890 0 0
1980 0 0
2086 0 0
2205 0 0
2333 0 0
1886 1794 445
1887 1781 764
1891 1746 1066
2245 1814 1163
2573 1597 782
2605 974 353
2534 0 0
2614 0 0
2704 0 0
2368 2623 1192
2369 2612 1407
2369 2585 1603
2595 2660 1836
3053 2758 1800
3074 2495 1563
3109 2063 1231
3154 1272 737
3102 0 238
3464 3621 3028
3462 3612 3014
3459 3590 2978
3455 3547 2915
3450 3477 2814
3448 3370 2663
3454 3204 2442
3475 2930 2130
3518 2451 1697
3770 3956 3761
3769 3952 3752
3767 3941 3730
3764 3921 3690
3758 3888 3626
3751 3839 3530
3743 3767 3394
3737 3661 3206
3738 3501 2960
3908 4095 4095
3909 4095 4095
3909 4095 4095
3911 4095 4095
3913 4095 4095
3920 4095 4095
3925 4063 4043
3929 4015 3952
3931 3950 3829
3990 4095 4095
3991 4095 4095
3991 4095 4095
3993 4095 4095
3995 4095 4095
3997 4095 4095
4001 4095 4095
4005 4095 4095
4010 4095 4095
1830 0 0
1835 0 328
1847 0 656
1869 0 985
1758 0 608
1744 0 0
1873 0 0
2015 0 0
2166 0 0
1898 328 0
1903 328 328
1913 328 656
1932 328 985
1875 152 608
1897 0 0
2011 0 0
2138 0 0
2273 0 0
2092 1031 0
2090 1005 328
2083 936 656
2069 757 985
2115 304 608
2214 0 0
2300 0 0
2399 0 0
2507 0 0
2269 1754 400
2271 1740 718
2274 1702 1018
2280 1628 1293
2520 1458 1032
2720 722 0
2681 0 0
2752 0 0
2832 0 0
2430 2399 738
2431 2392 1058
2432 2373 1365
2434 2336 1654
2814 2493 1802
3161 2402 1454
3197 1937 1107
3241 1044 545
3188 0 0
2664 3000 1264
2664 2996 1552
2663 2986 1831
2661 2967 2097
3060 3182 2542
3489 3334 2593
3499 3159 2364
3525 2868 2042
3572 2358 1595
3451 3776 3010
3451 3773 3101
3449 3764 3180
3447 3747 3245
3443 3720 3289
3768 3823 3484
3762 3748 3344
3758 3639 3152
3762 3473 2906
3918 4095 4095
3918 4095 4095
3919 4095 4095
3921 4095 4095
3925 4095 4095
3931 4089 4085
3936 4053 4016
3940 4005 3923
3942 3938 3797
3998 4095 4095
3999 4095 4095
3999 4095 4095
4001 4095 4095
4003 4095 4095
4005 4095 4095
4009 4095 4095
4013 4095 4095
4018 4095 4095
2322 0 0
2326 0 328
2335 0 656
2350 0 985
2372 0 1313
2248 0 760
2210 0 0
2316 0 0
2432 0 0
2371 328 0
2374 328 328
2382 328 656
2396 328 985
2415 328 1313
2327 152 760
2313 0 0
2410 0 0
2518 0 0
2493 929 0
2490 899 328
2487 786 656
2492 656 985
2507 656 1313
2497 304 760
2539 0 0
2620 0 0
2710 0 0
2662 1694 333
2664 1678 649
2667 1636 945
2672 1552 1209
2679 1396 1360
2749 630 760
2856 0 0
2917 0 0
2986 0 0
2794 2369 692
2795 2361 1011
2796 2341 1318
2800 2301 1606
2805 2234 1871
3059 2199 1673
3307 1747 921
3340 636 0
3301 0 0
2911 2917 1037
2911 2914 1360
2910 2905 1675
2910 2888 1979
2910 2861 2267
3251 3067 2514
3559 3093 2255
3591 2777 1918
3643 2220 1452
3006 3378 1317
3005 3376 1642
3005 3372 1961
3004 3364 2274
3003 3351 2577
3425 3583 3164
3787 3722 3275
3787 3607 3079
3796 3433 2830
3463 3920 2697
3463 3920 2871
3463 3920 3046
3465 3920 3221
3469 3920 3396
3534 3930 3606
3951 4040 3978
3954 3990 3882
3958 3922 3751
3923 4095 3851
3923 4095 3881
3924 4095 3912
3925 4095 3942
3927 4095 3973
3930 4095 4003
4020 4095 4095
4024 4095 4095
4029 4095 4095
2798 0 0
2800 0 328
2806 0 656
2817 0 985
2833 0 1313
2853 0 1641
2692 0 913
2613 0 0
2704 0 0
2832 328 0
2834 328 328
2840 328 656
2849 328 985
2864 328 1313
2883 328 1641
2748 152 913
2687 0 0
2771 0 0
2907 656 0
2909 656 328
2914 656 656
2922 656 985
2934 656 1313
2950 656 1641
2873 304 913
2853 0 0
2926 0 0
3061 1605 228
3062 1587 540
3065 1537 820
3066 1438 985
3051 1271 1313
3047 985 1641
3055 456 913
3099 0 0
3157 0 0
3165 2327 630
3166 2319 950
3168 2296 1255
3172 2252 1540
3178 2177 1801
3188 2054 2029
3327 1635 1357
3389 0 173
3430 0 0
3259 2899 999
3259 2895 1322
3259 2886 1636
3260 2868 1938
3261 2839 2224
3265 2792 2489
3467 2869 2395
3673 2647 1752
3731 2020 1256
3343 3369 1291
3343 3367 1616
3342 3363 1935
3342 3355 2247
3341 3341 2548
3340 3321 2838
3598 3503 3151
3825 3564 2985
3840 3377 2729
3386 3767 1469
3386 3767 1798
3387 3767 2126
3388 3767 2453
3390 3764 2768
3392 3754 3077
3702 3892 3673
3973 3971 3828
3978 3900 3690
3600 4095 2273
3600 4095 2501
3600 4095 2728
3601 4095 2956
3602 4095 3184
3604 4095 3412
3748 4095 3791
4038 4095 4095
4044 4095 4095
3256 0 0
3257 0 328
3262 0 656
3270 0 985
3281 0 1313
3296 0 1641
3295 0 1885
3102 0 1065
2981 0 82
3281 328 0
3282 328 328
3286 328 656
3294 328 985
3305 328 1313
3319 328 1641
3318 314 1885
3142 152 1065
3033 10 82
3338 656 0
3339 656 328
3343 656 656
3349 656 985
3359 656 1313
3371 656 1641
3372 628 1885
3234 304 1065
3154 20 82
3454 1479 0
3452 1459 328
3447 1405 656
3439 1292 985
3439 985 1313
3449 985 1641
3453 943 1885
3376 456 1065
3342 31 82
3541 2269 550
3542 2259 869
3545 2233 1172
3549 2183 1454
3557 2096 1708
3567 1950 1917
3572 1654 1885
3547 690 1065
3570 202 82
3612 2875 950
3612 2871 1272
3613 2861 1585
3614 2841 1885
3617 2809 2167
3623 2757 2427
3637 2680 2626
3714 2494 2144
3827 1744 1051
3682 3357 1258
3682 3356 1583
3682 3351 1901
3682 3342 2212
3682 3328 2512
3682 3307 2799
3691 3290 3071
3786 3377 3082
3888 3299 2626
3723 3767 1464
3723 3767 1790
3724 3767 2113
3725 3764 2432
3727 3757 2746
3728 3747 3055
3741 3744 3377
3874 3839 3706
3994 3867 3621
3748 4095 1469
3748 4095 1798
3748 4095 2126
3749 4095 2454
3749 4095 2782
3750 4095 3110
3764 4095 3466
3917 4095 3943
4054 4095 4095
3699 0 0
3700 0 328
3703 0 656
3709 0 985
3718 0 1313
3729 0 1641
3744 0 1969
3699 0 2058
3479 0 1217
3718 328 0
3719 328 328
3722 328 656
3728 328 985
3736 328 1313
3747 328 1641
3760 328 1969
3718 294 2058
3509 152 1217
3761 656 0
3762 656 328
3765 656 656
3770 656 985
3778 656 1313
3787 656 1641
3800 656 1969
3763 588 2058
3580 304 1217
3833 1300 0
3833 1267 328
3834 1156 656
3836 985 985
3842 985 1313
3851 985 1641
3861 985 1969
3833 882 2058
3691 526 1217
3922 2188 446
3923 2177 763
3926 2146 1063
3931 2085 1338
3939 1980 1573
3947 1795 1641
3936 1401 1969
3918 1292 2058
3826 821 1217
3969 2843 887
3970 2839 1209
3971 2827 1520
3973 2805 1817
3978 2768 2095
3986 2707 2349
3999 2607 2570
4003 2411 2592
3990 1654 1628
4024 3343 1217
4024 3341 1541
4024 3336 1859
4025 3326 2168
4025 3311 2466
4027 3288 2752
4030 3253 3023
4024 3225 3218
4001 3165 2921
4061 3763 1438
4062 3762 1764
4062 3760 2087
4063 3755 2406
4065 3748 2720
4066 3737 3027
4068 3723 3327
4065 3725 3620
4052 3762 3686
4085 4095 1469
4085 4095 1798
4085 4095 2126
4086 4095 2454
4087 4095 2782
4088 4095 3110
4090 4095 3439
4091 4095 3801
4095 4095 4095
