Toning/Toning-Film palette.3dl
#25pt 3DLUT created by 3D LUT Creator Pro (c) Oleg Sharonov
#Copyright Oleg Sharonov
#IMAGEPROFILE sRGB IEC61966-2.1 v.2.10
#INPUTGAMMA sRGB IEC61966-2.1 v.2.10
#OUTPUTGAMMA sRGB IEC61966-2.1 v.2.10
0 256 512 768 1023
0 0 0
0 0 1265
0 0 2281
0 0 3192
0 0 4052
0 569 0
0 1158 1279
0 731 2296
0 506 3209
0 459 4071
0 1253 0
0 1613 1149
0 2091 2306
0 1908 3228
0 1829 4088
0 1817 0
0 2022 859
0 2486 2304
0 2920 3223
0 3094 4087
0 2275 0
0 2414 633
0 2778 2118
0 3232 3218
0 3726 4077
1040 0 0
784 0 1280
289 0 2309
129 0 3231
94 0 4095
1040 631 0
742 1249 1315
272 732 2302
122 506 3217
98 450 4095
845 1339 0
652 1666 1149
352 2128 2312
146 1907 3231
103 1829 4095
533 1862 0
437 2057 860
421 2506 2287
265 2941 3221
199 3095 4087
347 2305 0
305 2440 632
303 2797 2098
346 3250 3212
334 3745 4078
2022 0 0
2023 0 873
1650 0 2307
1278 0 3230
1195 0 4095
2022 757 0
2021 956 874
1624 719 2322
1263 485 3252
1197 448 4095
2022 1311 0
2022 1724 873
1729 2234 2328
1265 1914 3224
1202 1829 4095
2021 1996 0
1865 2171 775
1779 2576 2207
1527 3006 3214
1245 3096 4089
1716 2395 0
1616 2524 576
1550 2861 2026
1652 3309 3181
1331 3804 4080
2981 0 0
2981 0 415
2981 0 2045
2816 0 3226
2706 0 4095
2980 583 0
2980 583 415
2981 582 2045
2813 495 3231
2708 450 4095
2981 1439 0
2981 1711 414
2980 2051 2045
2801 1912 3234
2713 1828 4095
2981 1904 0
2981 2120 414
2979 2690 2048
2967 3175 3209
2714 3100 4095
2981 2419 0
2981 2592 414
2937 3022 2008
3027 3445 3095
2758 3942 4084
4094 0 0
4094 0 247
4094 0 1785
4095 0 3103
4094 0 4095
4094 446 0
4095 445 247
4095 444 1785
4095 444 3104
4094 445 4095
4094 1828 0
4095 1828 246
4095 1828 1785
4095 1828 3104
4095 1828 4095
4094 2315 0
4095 2469 246
4095 2899 1784
4095 3100 3104
4095 3100 4095
4095 2691 0
4095 2823 246
4095 3198 1784
4095 3719 3104
4095 4095 4095
