Toning/Toning-Supersaturate.3dl
#25pt 3DLUT created by 3D LUT Creator Pro (c) Oleg Sharonov
#Copyright Oleg Sharonov
#INPUTGAMMA sRGB IEC61966-2.1 v.2.10
#IMAGEPROFILE sRGB IEC61966-2.1 v.2.10
#OUTPUTGAMMA sRGB IEC61966-2.1 v.2.10
0 256 512 768 1023
0 0 0
139 297 862
528 933 2121
1668 2068 3236
2824 3069 3808
467 1003 671
52 904 877
440 1419 2190
1679 2197 3286
2861 3106 3847
1296 2298 1735
0 2454 1728
136 2213 2164
1523 2868 3293
2840 3476 3905
2536 3460 2957
1759 3525 2941
926 3562 3019
1063 3398 3291
2837 3755 3989
3527 4025 3779
3423 4026 3783
2573 4015 3810
2658 4015 4000
2666 3976 4085
815 16 26
729 23 755
1086 217 2031
2043 1403 3189
3034 2744 3825
969 749 174
833 836 823
1211 1153 2093
2081 1433 3230
3069 2778 3861
2248 2003 1371
1798 2171 1878
954 2091 2143
2099 2804 3293
3144 3469 3905
3390 3210 2810
3053 3363 3015
1697 3475 3018
1768 3319 3295
3162 3757 3986
4034 3982 3791
4035 3983 3792
3236 4024 3862
3011 4022 3977
3036 3988 4080
2127 39 0
2074 39 500
1876 58 1927
2371 614 3105
3257 2422 3840
2188 588 58
2161 548 388
1913 278 1914
2400 644 3134
3286 2450 3869
2304 1885 691
2228 1911 959
1968 1965 1963
2612 2604 3199
3413 3334 3927
3432 3157 2334
3423 3146 2315
3014 3275 3081
2439 3223 3260
3466 3772 3991
4054 3919 3568
4055 3920 3569
3884 4042 3917
3353 4037 3950
3397 4010 4079
3402 282 449
3405 291 452
3135 189 1992
3010 230 2952
3504 2113 3870
3437 445 464
3440 356 475
3166 267 2007
3037 293 2970
3527 2135 3893
3391 2096 929
3397 2080 920
3234 2102 1923
3048 1766 3051
3623 2911 3944
3448 3043 1751
3438 3030 1728
3293 3109 2502
3097 3090 3085
3757 3752 4009
4075 3903 3364
4076 3904 3365
4068 3972 3712
3971 4063 4002
3749 4046 4084
3979 2315 2278
3981 2317 2280
3951 2202 2890
3927 2115 3491
3927 2082 3886
4000 2334 2297
4002 2336 2299
3972 2222 2900
3947 2133 3506
3945 2099 3904
3994 3119 2435
3997 3111 2429
4006 3051 2843
3987 2823 3543
3986 2567 3952
4038 3574 2835
4039 3572 2832
4040 3586 3087
4039 3588 3543
4031 3472 4018
4095 3898 3159
4095 3898 3159
4095 3932 3348
4094 4021 3799
4095 4095 4095
