Toning/Toning-Ice cold.3dl
#25pt 3DLUT created by 3D LUT Creator Pro (c) Oleg Sharonov
#Copyright Oleg Sharonov
#IMAGEPROFILE sRGB IEC61966-2.1 v.2.10
#INPUTGAMMA sRGB IEC61966-2.1 v.2.10
#OUTPUTGAMMA sRGB IEC61966-2.1 v.2.10
0 128 256 384 512 640 768 896 1023
294 294 294
293 296 460
290 331 818
286 409 1282
282 512 1776
297 647 2155
392 811 2448
521 998 2671
686 1202 2835
316 528 528
290 560 644
285 559 1258
282 603 1700
279 682 2104
319 799 2389
440 948 2598
584 1121 2766
757 1313 2893
463 981 997
395 1010 1077
282 1066 1260
277 1065 1940
273 1070 2534
403 1149 2711
576 1263 2825
752 1404 2918
942 1567 2993
730 1541 1571
687 1560 1621
556 1609 1746
384 1677 1925
502 1671 2459
662 1679 2825
860 1725 3001
1069 1825 3048
1279 1947 3085
1175 2110 2148
1148 2122 2176
1090 2150 2239
950 2202 2361
848 2260 2494
1083 2252 2817
1324 2266 3006
1559 2306 3108
1773 2380 3151
1827 2604 2659
1817 2610 2673
1795 2626 2704
1751 2653 2758
1691 2691 2832
1686 2731 2904
1950 2729 3043
2174 2749 3117
2368 2788 3158
2647 2950 3038
2651 2952 3041
2662 2957 3050
2688 2965 3063
2739 2975 3080
2859 2977 3092
2893 3003 3112
2931 3032 3136
2974 3065 3163
3119 3185 3263
3121 3186 3264
3125 3189 3267
3132 3195 3271
3142 3204 3279
3156 3215 3288
3173 3230 3300
3193 3247 3313
3217 3266 3329
3331 3361 3402
3331 3362 3402
3333 3363 3403
3337 3366 3405
3343 3371 3409
3350 3377 3413
3359 3384 3418
3369 3392 3424
3381 3402 3430
404 309 294
418 313 525
381 359 973
322 412 1623
323 530 1952
368 671 2256
451 836 2510
573 1023 2709
731 1227 2857
487 550 432
480 561 647
448 585 1148
426 637 1609
431 722 1992
472 838 2304
551 983 2550
669 1152 2739
803 1335 2911
564 1009 942
587 1010 1077
461 1072 1267
447 1070 1976
478 1095 2434
569 1176 2635
689 1290 2783
834 1431 2895
987 1588 3004
805 1562 1554
826 1563 1624
717 1610 1747
567 1679 1928
658 1675 2458
791 1686 2821
960 1744 2974
1142 1844 3033
1319 1964 3091
1231 2125 2145
1249 2126 2181
1189 2155 2247
1061 2206 2365
963 2265 2498
1177 2258 2818
1399 2274 3006
1617 2316 3108
1805 2394 3154
1865 2614 2662
1878 2615 2678
1855 2631 2710
1817 2657 2762
1757 2695 2836
1752 2735 2907
1999 2735 3044
2212 2756 3117
2392 2795 3161
2671 2955 3043
2679 2956 3046
2691 2961 3055
2718 2969 3068
2775 2976 3084
2867 2983 3097
2900 3009 3116
2939 3038 3140
2981 3070 3167
3124 3188 3266
3125 3190 3267
3129 3193 3270
3136 3199 3275
3146 3207 3282
3160 3219 3291
3177 3233 3302
3197 3250 3316
3220 3270 3331
3333 3363 3403
3334 3364 3403
3336 3365 3405
3340 3368 3407
3345 3373 3410
3352 3378 3414
3361 3385 3419
3371 3394 3425
3383 3403 3431
676 403 292
889 298 334
704 427 966
638 538 1314
600 604 1998
562 715 2469
610 893 2643
709 1084 2792
850 1287 2908
832 583 334
917 551 555
786 629 1097
716 705 1561
657 766 2176
648 888 2467
700 1039 2659
799 1211 2809
921 1393 2952
896 1040 795
892 1048 948
883 1070 1266
848 1102 1792
835 1159 2193
856 1245 2485
916 1357 2694
1018 1495 2845
1101 1639 3029
1028 1607 1425
1022 1613 1536
1062 1615 1746
934 1685 1934
990 1686 2456
1073 1713 2783
1177 1791 2913
1311 1892 2999
1420 2007 3104
1381 2160 2120
1392 2162 2166
1430 2167 2260
1326 2216 2374
1231 2275 2507
1397 2274 2823
1575 2295 3007
1754 2344 3101
1883 2426 3161
1963 2637 2667
1973 2639 2685
2001 2644 2725
1969 2669 2774
1913 2707 2846
1907 2746 2916
2118 2750 3048
2302 2773 3118
2453 2815 3168
2732 2965 3056
2740 2966 3060
2761 2969 3068
2796 2975 3080
2862 2979 3093
2888 2999 3109
2920 3024 3128
2956 3051 3151
2997 3082 3178
3135 3198 3274
3137 3199 3275
3140 3203 3278
3147 3208 3282
3157 3217 3289
3170 3228 3298
3187 3242 3309
3207 3258 3323
3229 3277 3338
3339 3368 3407
3340 3368 3407
3342 3370 3408
3345 3373 3410
3351 3377 3413
3358 3383 3417
3366 3390 3422
3376 3398 3427
3387 3407 3433
1066 547 290
1221 478 289
1246 483 864
1087 616 1479
994 775 1743
955 889 2244
937 1016 2663
959 1180 2904
1064 1388 2979
1227 691 312
1283 674 496
1347 660 945
1164 783 1578
1073 918 1861
1022 1020 2361
1002 1141 2728
1038 1304 2906
1134 1488 3009
1349 1092 760
1380 1087 896
1350 1114 1269
1298 1161 1749
1219 1245 2135
1167 1327 2562
1168 1438 2802
1234 1581 2918
1308 1723 3066
1465 1647 1351
1463 1653 1444
1458 1669 1648
1453 1697 1946
1429 1734 2361
1436 1793 2642
1481 1874 2827
1561 1975 2949
1602 2077 3126
1744 2193 2056
1736 2199 2100
1676 2227 2192
1725 2234 2388
1634 2295 2525
1732 2304 2832
1845 2336 3007
1951 2403 3072
2021 2481 3171
2133 2677 2658
2140 2679 2681
2159 2684 2732
2200 2693 2799
2158 2728 2865
2147 2767 2933
2302 2777 3055
2445 2805 3121
2555 2848 3177
2858 2976 3091
2861 2978 3092
2868 2984 3097
2880 2993 3104
2899 3008 3115
2923 3026 3130
2952 3048 3149
2987 3074 3171
3024 3104 3196
3155 3215 3287
3156 3216 3288
3160 3219 3291
3166 3224 3295
3176 3232 3302
3189 3243 3310
3205 3256 3321
3223 3272 3334
3245 3290 3348
3349 3376 3413
3350 3377 3413
3352 3378 3414
3355 3381 3416
3360 3385 3419
3367 3390 3422
3375 3397 3427
3384 3404 3432
3395 3413 3437
1557 730 286
1626 706 354
1836 602 635
1637 760 1434
1524 885 1959
1418 1068 2184
1368 1227 2489
1361 1377 2797
1399 1547 2984
1643 876 436
1679 868 581
1832 810 821
1713 905 1502
1588 1023 2029
1486 1187 2257
1431 1335 2562
1424 1478 2840
1461 1635 3025
1784 1217 842
1808 1214 953
1906 1186 1218
1872 1233 1662
1718 1342 2167
1633 1470 2403
1575 1590 2704
1574 1716 2922
1609 1842 3101
1907 1724 1437
1924 1724 1509
1978 1719 1685
1832 1793 2023
1890 1810 2347
1830 1891 2615
1800 1975 2865
1825 2074 3008
1865 2173 3152
2095 2263 2038
2095 2268 2083
2096 2279 2188
2098 2299 2353
2104 2329 2556
2103 2367 2804
2133 2420 2952
2193 2487 3040
2222 2556 3184
2435 2715 2674
2435 2718 2692
2435 2727 2735
2407 2750 2793
2450 2762 2895
2433 2801 2959
2524 2819 3067
2617 2852 3123
2685 2899 3169
2912 3018 3124
2915 3020 3125
2921 3025 3129
2933 3033 3136
2949 3046 3147
2971 3062 3161
2997 3082 3178
3027 3107 3198
3060 3135 3221
3183 3238 3307
3184 3240 3308
3188 3242 3310
3194 3247 3314
3203 3255 3320
3215 3265 3328
3229 3277 3338
3247 3292 3349
3267 3309 3362
3364 3388 3421
3365 3389 3421
3366 3390 3422
3370 3392 3424
3374 3396 3426
3380 3401 3430
3387 3407 3433
3396 3413 3438
3405 3421 3442
1966 1009 577
2007 999 648
2120 961 834
2200 948 1313
2013 1110 1954
1947 1229 2364
1849 1419 2540
1798 1601 2706
1794 1764 2920
2027 1134 734
2049 1132 833
2142 1106 1000
2246 1082 1398
2067 1231 2006
1996 1343 2411
1903 1518 2585
1852 1690 2751
1851 1841 2960
2146 1425 1094
2163 1425 1173
2218 1416 1364
2339 1390 1616
2187 1508 2127
2105 1608 2513
2025 1754 2681
1976 1900 2845
1985 2024 3038
2289 1859 1622
2301 1861 1675
2337 1862 1808
2384 1867 2042
2358 1919 2330
2262 2006 2655
2208 2111 2808
2172 2219 2960
2194 2310 3126
2426 2357 2204
2434 2360 2236
2457 2364 2316
2504 2368 2450
2352 2444 2656
2457 2454 2819
2434 2519 2953
2437 2589 3060
2469 2650 3192
2659 2786 2746
2660 2789 2760
2664 2796 2796
2672 2809 2851
2685 2827 2923
2704 2853 2999
2730 2884 3073
2774 2922 3117
2845 2969 3102
2978 3068 3165
2980 3069 3167
2986 3074 3170
2996 3081 3177
3010 3092 3186
3028 3107 3199
3050 3126 3214
3076 3148 3233
3106 3174 3254
3219 3268 3331
3220 3269 3331
3223 3272 3333
3229 3277 3337
3237 3283 3342
3248 3292 3350
3261 3304 3358
3277 3317 3369
3295 3332 3380
3382 3402 3431
3383 3403 3431
3384 3404 3432
3387 3406 3433
3391 3409 3435
3396 3414 3438
3402 3419 3441
3410 3424 3444
3418 3430 3448
2307 1348 1028
2331 1345 1076
2393 1333 1201
2516 1298 1434
2462 1385 1915
2342 1518 2388
2315 1632 2678
2240 1813 2805
2201 1993 2897
2349 1452 1160
2362 1453 1224
2417 1447 1337
2523 1423 1550
2495 1491 1976
2380 1616 2426
2351 1724 2709
2280 1894 2831
2249 2061 2927
2439 1697 1465
2449 1699 1517
2481 1702 1643
2555 1698 1809
2570 1736 2125
2466 1844 2515
2433 1940 2778
2373 2085 2891
2361 2222 2992
2560 2067 1915
2567 2069 1951
2588 2075 2041
2641 2077 2194
2679 2100 2376
2595 2186 2658
2557 2266 2877
2517 2376 2972
2523 2474 3078
2690 2491 2429
2695 2494 2450
2708 2500 2503
2738 2509 2593
2722 2544 2720
2729 2582 2851
2710 2638 2990
2697 2709 3055
2716 2774 3145
2823 2877 2916
2826 2879 2924
2832 2885 2945
2845 2895 2979
2855 2912 3020
2839 2943 3066
2857 2975 3090
2898 3007 3115
2944 3042 3144
3049 3125 3214
3051 3127 3215
3055 3130 3218
3063 3137 3224
3075 3147 3232
3091 3160 3243
3110 3177 3257
3134 3197 3273
3160 3219 3291
3260 3303 3358
3261 3304 3358
3264 3306 3360
3269 3310 3363
3276 3316 3368
3286 3324 3374
3298 3334 3381
3312 3346 3390
3328 3359 3400
3402 3418 3441
3402 3419 3441
3404 3420 3441
3406 3421 3442
3409 3424 3444
3414 3427 3446
3419 3431 3448
3425 3436 3450
3431 3440 3452
2572 1724 1541
2586 1725 1573
2620 1727 1653
2684 1726 1796
2748 1737 2038
2674 1845 2394
2610 1956 2720
2607 2064 2902
2560 2223 2984
2601 1809 1647
2608 1812 1686
2639 1816 1759
2696 1819 1892
2765 1826 2106
2697 1927 2438
2635 2033 2746
2632 2136 2921
2594 2282 3004
2663 2011 1892
2670 2014 1924
2687 2022 2003
2730 2031 2110
2798 2038 2274
2748 2121 2544
2693 2213 2807
2689 2305 2964
2672 2425 3046
2751 2317 2262
2756 2320 2284
2768 2328 2340
2794 2340 2436
2834 2359 2545
2823 2412 2714
2779 2486 2902
2774 2561 3025
2781 2647 3098
2844 2670 2689
2847 2673 2702
2854 2680 2733
2868 2693 2786
2896 2709 2858
2898 2745 2932
2872 2798 3022
2866 2854 3089
2875 2915 3124
2879 2993 3104
2882 2995 3105
2889 3000 3110
2901 3009 3117
2919 3023 3128
2942 3040 3142
2970 3062 3160
3003 3087 3181
3038 3116 3206
3123 3187 3265
3124 3189 3266
3128 3192 3269
3135 3198 3274
3145 3207 3281
3159 3218 3290
3176 3232 3302
3196 3249 3315
3219 3269 3331
3305 3340 3386
3306 3341 3387
3309 3343 3388
3313 3346 3391
3319 3351 3394
3327 3358 3399
3337 3366 3405
3349 3376 3412
3362 3386 3420
3422 3434 3449
3422 3434 3449
3423 3435 3450
3425 3436 3450
3427 3438 3451
3431 3440 3452
3434 3443 3453
3439 3446 3454
3443 3449 3454
2766 2110 2050
2773 2113 2070
2791 2121 2119
2824 2133 2207
2872 2149 2336
2872 2206 2535
2834 2296 2753
2806 2389 2948
2814 2488 3045
2784 2178 2132
2794 2180 2141
2811 2188 2188
2841 2201 2271
2886 2218 2393
2892 2268 2577
2855 2354 2783
2827 2443 2967
2833 2538 3058
2824 2339 2324
2832 2342 2332
2854 2348 2352
2878 2361 2423
2914 2379 2528
2933 2418 2676
2900 2494 2853
2873 2574 3008
2875 2660 3085
2878 2584 2614
2884 2587 2621
2898 2593 2637
2924 2604 2666
2947 2624 2742
2975 2651 2838
2947 2712 2960
2922 2778 3064
2913 2851 3115
2917 2865 2947
2919 2868 2952
2923 2875 2963
2929 2889 2984
2933 2909 3014
2913 2942 3060
2871 2986 3099
2912 3018 3123
2956 3051 3151
3007 3090 3184
3009 3092 3186
3014 3096 3189
3023 3103 3195
3036 3114 3204
3053 3128 3216
3074 3146 3231
3099 3167 3249
3128 3192 3269
3199 3252 3317
3200 3253 3318
3203 3256 3320
3209 3260 3324
3218 3268 3330
3229 3277 3338
3244 3289 3347
3260 3303 3358
3280 3319 3370
3350 3377 3413
3351 3378 3414
3353 3379 3415
3356 3382 3417
3361 3386 3419
3368 3391 3423
3376 3397 3427
3385 3405 3432
3395 3413 3437
3439 3446 3454
3440 3446 3454
3440 3447 3454
3441 3448 3454
3443 3449 3454
3445 3450 3454
3447 3451 3454
3450 3453 3454
3452 3454 3452
