Toning/Toning-Blue curves.3dl
#25pt 3DLUT created by 3D LUT Creator Pro (c) Oleg Sharonov
#Copyright Oleg Sharonov
#IMAGEPROFILE sRGB IEC61966-2.1 v.2.10
#INPUTGAMMA sRGB IEC61966-2.1 v.2.10
#OUTPUTGAMMA sRGB IEC61966-2.1 v.2.10
0 256 512 768 1023
32 64 64
95 223 852
167 558 1606
205 952 2034
283 1347 2389
162 1200 774
163 1217 1540
201 1264 2007
255 1437 2288
395 1666 2642
239 2158 1507
240 2162 1811
243 2176 2241
431 2183 2706
711 2237 3156
583 2887 1952
585 2890 2082
592 2899 2423
604 2915 2993
1054 2914 3676
1251 3645 2266
1253 3649 2372
1259 3661 2684
1270 3684 3229
1286 3719 3982
198 369 540
208 407 1314
211 716 1808
251 1061 2127
374 1420 2475
254 1246 803
257 1257 1574
278 1331 2053
356 1497 2348
515 1713 2700
412 2171 1517
415 2175 1820
424 2187 2251
629 2199 2726
891 2255 3192
842 2896 1956
845 2898 2086
854 2907 2429
869 2921 3002
1255 2924 3691
1460 3656 2269
1462 3660 2375
1468 3672 2688
1479 3695 3235
1495 3730 3989
622 883 1210
659 906 1563
762 966 2047
714 1300 2339
826 1597 2691
904 1416 1377
924 1428 1707
982 1463 2147
934 1640 2508
1025 1829 2862
1249 2205 1545
1254 2208 1843
1271 2217 2276
1323 2245 2784
1440 2308 3303
1571 2919 1966
1574 2922 2097
1583 2929 2447
1600 2942 3029
1793 2951 3734
1994 3692 2277
1996 3696 2385
2003 3708 2699
2015 3730 3253
2033 3764 4010
1630 1420 1700
1655 1432 1846
1728 1469 2141
1844 1527 2604
1765 1799 2998
1837 1718 1777
1854 1727 1916
1906 1752 2207
1994 1792 2694
1912 1971 3137
2229 2275 1899
2236 2278 2030
2260 2289 2343
2300 2309 2875
2258 2389 3473
2510 2956 1983
2513 2958 2115
2522 2963 2474
2539 2972 3070
2578 2993 3800
2783 3758 2291
2785 3762 2402
2791 3773 2717
2802 3794 3285
2818 3824 4046
2596 1857 2006
2613 1864 2084
2666 1883 2298
2753 1917 2708
2864 1961 3343
2748 2017 2047
2761 2023 2125
2801 2039 2353
2870 2067 2769
2962 2105 3437
3063 2418 2137
3070 2422 2219
3094 2433 2489
3135 2452 2940
3193 2480 3663
3410 3010 2231
3415 3012 2327
3432 3018 2633
3463 3029 3149
3511 3045 3888
3902 3849 2309
3907 3852 2425
3920 3861 2741
3946 3878 3327
3982 3902 4095
