Toning/Toning-Saturation & Contrast.3dl
#25pt 3DLUT created by 3D LUT Creator Pro (c) Oleg Sharonov
#Copyright Oleg Sharonov
#INPUTGAMMA sRGB IEC61966-2.1 v.2.10
#IMAGEPROFILE sRGB IEC61966-2.1 v.2.10
#OUTPUTGAMMA sRGB IEC61966-2.1 v.2.10
0 128 256 384 512 640 768 896 1023
0 0 0
0 0 167
0 0 578
0 0 1113
0 0 1670
0 0 2245
0 0 2836
0 0 3433
0 0 4042
0 184 0
0 249 208
0 334 630
0 401 1208
0 431 1809
0 446 2366
0 449 2948
0 467 3500
0 505 4042
0 679 0
0 722 268
0 788 660
0 873 1172
0 933 1739
0 967 2339
0 987 2908
0 1000 3491
0 1018 4043
0 1227 0
0 1255 300
0 1304 700
0 1378 1192
0 1437 1725
0 1480 2300
0 1506 2892
0 1522 3476
0 1532 4044
0 1788 0
0 1807 308
0 1844 732
0 1906 1219
0 1956 1740
0 1994 2291
0 2022 2869
0 2038 3461
0 2045 4045
0 2353 0
0 2367 318
0 2397 748
0 2446 1236
0 2486 1757
0 2517 2300
0 2540 2866
0 2554 3455
0 2559 4046
0 2919 0
0 2931 318
0 2956 756
0 2991 1252
0 3023 1768
0 3047 2310
0 3062 2872
0 3071 3451
0 3073 4047
0 3485 0
0 3497 281
0 3518 752
0 3541 1260
0 3562 1781
0 3577 2320
0 3586 2878
0 3589 3454
0 3587 4048
719 4095 0
525 4095 281
506 4095 851
419 4095 1350
346 4095 1851
287 4095 2369
233 4095 2906
165 4095 3465
66 4095 4049
41 0 0
106 0 214
202 0 646
276 0 1154
314 0 1716
336 0 2285
327 0 2870
396 0 3450
493 0 4043
98 248 0
142 286 239
7 281 911
85 367 1532
162 386 1988
240 392 2502
318 412 3002
396 449 3518
474 503 4042
175 722 0
0 741 116
7 830 700
85 900 1315
162 940 1881
240 962 2434
318 978 2974
396 989 3542
474 1017 4043
175 1258 0
0 1270 125
7 1329 641
85 1401 1215
162 1452 1784
240 1486 2353
318 1507 2927
396 1521 3507
474 1531 4044
106 1814 0
0 1819 145
7 1863 650
85 1923 1197
162 1968 1753
240 2003 2318
318 2026 2899
396 2039 3479
474 2045 4046
79 2376 0
0 2378 130
7 2414 653
85 2458 1201
162 2497 1748
240 2524 2308
318 2544 2878
396 2556 3464
474 2559 4047
21 2940 0
0 2941 79
7 2970 657
85 3003 1205
162 3031 1751
240 3052 2307
318 3066 2876
396 3073 3457
474 3073 4048
0 3505 0
0 3505 229
7 3529 736
85 3552 1253
162 3573 1778
240 3586 2321
318 3593 2881
396 3593 3457
474 3587 4049
932 4095 0
805 4095 299
792 4095 857
743 4095 1353
703 4095 1854
673 4095 2370
646 4095 2907
612 4095 3465
554 4095 4049
601 0 0
649 0 274
733 0 669
832 0 1181
896 0 1720
931 0 2304
961 0 2866
983 0 3453
1016 0 4043
650 326 0
927 0 140
964 7 857
914 85 1534
739 162 2160
553 240 2634
636 318 3066
792 396 3539
1001 474 4045
716 783 0
702 802 0
777 835 699
702 822 1414
325 791 2062
480 925 2598
636 936 3143
792 978 3542
947 982 4051
767 1300 0
538 1325 0
447 1433 511
454 1449 1255
325 1456 1897
480 1489 2474
636 1504 3046
792 1515 3544
947 1519 4051
789 1842 0
468 1864 0
14 1954 392
169 1986 1147
325 2000 1782
480 2018 2380
636 2034 2965
792 2041 3526
947 2039 4052
767 2398 0
364 2416 0
14 2452 446
169 2498 1118
325 2526 1730
480 2542 2324
636 2554 2909
792 2560 3489
947 2557 4052
737 2958 0
294 2972 0
14 3023 455
169 3051 1132
325 3067 1725
480 3075 2307
636 3078 2886
792 3077 3468
947 3073 4051
823 3515 0
760 3540 0
364 3641 449
486 3634 1176
598 3627 1757
703 3619 2320
804 3610 2887
903 3599 3462
990 3588 4051
1329 4095 0
1264 4095 344
1255 4095 873
1215 4095 1362
1181 4095 1859
1154 4095 2373
1129 4095 2908
1099 4095 3466
1055 4095 4049
1230 0 0
1268 0 312
1320 0 708
1405 0 1204
1458 0 1733
1495 0 2295
1515 0 2874
1525 0 3455
1535 0 4044
1275 361 0
1602 0 207
1628 7 778
1617 85 1385
1567 162 1949
1520 240 2495
1492 318 3012
1489 396 3539
1529 474 4045
1311 839 0
1470 795 0
1612 718 619
1594 705 1357
1519 661 2011
1414 480 2604
1345 636 3135
1399 792 3560
1514 975 4051
1360 1346 0
1331 1361 0
1410 1410 448
1440 1421 1228
1417 1424 1884
1361 1425 2493
1301 1433 3061
1303 1460 3567
1514 1518 4052
1397 1877 0
1278 1898 0
1217 1995 179
1288 2004 1130
1314 2009 1786
1311 2011 2399
1302 2013 2983
1318 2020 3542
1514 2039 4052
1414 2423 0
1255 2442 0
1104 2535 14
1176 2559 1076
1241 2560 1729
1281 2559 2337
1316 2557 2926
1368 2555 3501
1514 2557 4052
1402 2979 0
1224 2994 0
1119 3093 14
1186 3102 1088
1258 3099 1719
1316 3093 2311
1369 3087 2893
1427 3080 3474
1510 3073 4052
1485 3529 0
1454 3558 0
1347 3642 480
1384 3635 1187
1417 3628 1763
1448 3619 2324
1478 3609 2888
1506 3599 3462
1528 3588 4051
1813 4095 0
1788 4095 411
1780 4095 899
1739 4095 1377
1701 4095 1868
1669 4095 2379
1639 4095 2911
1605 4095 3467
1563 4095 4050
1852 0 0
1884 0 339
1912 0 743
1973 0 1227
2016 0 1752
2039 0 2299
2055 0 2878
2056 0 3462
2051 0 4045
1898 366 0
2127 0 228
2135 7 739
2139 85 1295
2127 162 1853
2108 240 2416
2079 318 2963
2059 396 3516
2049 474 4046
1916 879 0
2175 717 0
2319 441 490
2288 399 1286
2222 325 1941
2148 480 2535
2082 636 3086
2040 792 3556
2043 969 4052
1945 1387 0
2017 1373 0
2155 1351 319
2157 1365 1187
2130 1375 1848
2085 1386 2460
2037 1404 3034
2009 1439 3568
2043 1517 4052
1980 1912 0
1959 1923 0
2005 1972 14
2036 1985 1109
2040 1991 1770
2027 1995 2383
2009 2002 2968
2003 2013 3531
2042 2038 4052
2007 2451 0
1934 2468 0
1915 2534 14
1954 2553 1070
1978 2554 1724
1988 2553 2331
1994 2552 2918
2004 2552 3495
2042 2556 4052
2020 3000 0
1929 3015 0
1915 3097 14
1945 3101 1095
1971 3097 1722
1989 3091 2311
2004 3085 2891
2019 3079 3471
2040 3073 4053
2083 3547 0
2070 3579 0
2038 3643 522
2043 3636 1204
2048 3628 1772
2051 3619 2328
2053 3609 2890
2054 3599 3462
2051 3588 4050
2314 4095 0
2308 4095 492
2300 4095 937
2258 4095 1399
2218 4095 1882
2182 4095 2387
2148 4095 2915
2113 4095 3469
2072 4095 4050
2432 0 0
2459 0 353
2476 0 768
2510 0 1247
2544 0 1764
2565 0 2310
2574 0 2877
2573 0 3460
2564 0 4046
2469 358 0
2633 0 244
2636 7 736
2638 85 1270
2639 162 1817
2625 240 2372
2610 318 2938
2588 396 3501
2564 474 4047
2478 907 0
2769 574 0
2870 14 471
2833 169 1237
2783 325 1876
2723 480 2474
2661 636 3038
2604 792 3554
2563 947 4052
2498 1420 0
2620 1364 0
2773 1264 14
2762 1282 1138
2728 1305 1808
2680 1331 2423
2629 1365 3003
2586 1416 3556
2562 1514 4052
2521 1944 0
2554 1939 0
2641 1942 14
2658 1954 1082
2646 1964 1749
2622 1974 2363
2594 1987 2950
2570 2005 3519
2561 2037 4052
2547 2479 0
2531 2488 0
2563 2527 14
2584 2541 1062
2586 2543 1718
2580 2544 2323
2570 2546 2910
2561 2549 3488
2561 2556 4053
2564 3023 0
2530 3034 0
2552 3097 14
2562 3098 1104
2566 3093 1727
2567 3089 2312
2565 3083 2889
2562 3078 3469
2560 3073 4053
2622 3571 0
2622 3600 0
2620 3643 574
2612 3636 1226
2604 3628 1785
2596 3619 2335
2588 3610 2892
2578 3599 3462
2567 3588 4050
2797 4095 247
2795 4095 587
2788 4095 989
2749 4095 1430
2712 4095 1901
2678 4095 2398
2647 4095 2921
2615 4095 3471
2580 4095 4050
2959 0 0
2993 0 356
2997 0 783
3017 0 1266
3043 0 1776
3065 0 2316
3079 0 2881
3081 0 3460
3074 0 4047
3000 309 0
3116 0 255
3125 7 737
3118 85 1265
3123 162 1801
3120 240 2353
3111 318 2916
3096 396 3484
3076 474 4048
3008 909 0
3285 377 0
3345 14 556
3322 169 1220
3286 325 1834
3239 480 2427
3186 636 2999
3132 792 3549
3077 947 4051
3010 1446 0
3160 1337 0
3299 1183 14
3300 1178 1086
3262 1220 1768
3215 1266 2386
3165 1321 2972
3119 1390 3535
3077 1510 4052
3028 1971 0
3092 1945 0
3189 1910 14
3206 1915 1054
3187 1932 1728
3160 1950 2343
3129 1971 2932
3100 1997 3505
3076 2036 4053
3047 2505 0
3063 2504 0
3118 2517 14
3134 2526 1057
3127 2531 1713
3116 2535 2315
3101 2539 2901
3086 2545 3481
3075 2555 4053
3066 3046 0
3060 3052 0
3101 3096 14
3101 3093 1119
3099 3090 1734
3094 3086 2314
3088 3081 2888
3081 3077 3466
3074 3073 4053
3119 3596 0
3127 3619 0
3134 3645 642
3124 3637 1257
3115 3629 1803
3106 3620 2345
3097 3610 2896
3088 3600 3463
3077 3589 4050
3255 4095 458
3253 4095 695
3246 4095 1054
3215 4095 1470
3185 4095 1926
3159 4095 2413
3135 4095 2929
3111 4095 3474
3086 4095 4051
3455 0 0
3492 0 356
3493 0 792
3509 0 1280
3535 0 1789
3558 0 2325
3573 0 2883
3584 0 3461
3583 0 4049
3497 242 0
3595 0 251
3602 7 738
3595 85 1267
3599 162 1798
3604 240 2344
3605 318 2906
3599 396 3478
3585 474 4049
3511 896 0
3764 0 0
3817 14 581
3791 169 1205
3751 325 1802
3719 480 2385
3678 636 2958
3637 792 3521
3589 947 4051
3506 1457 0
3655 1310 0
3787 1107 14
3800 1067 1040
3764 1132 1732
3721 1200 2353
3676 1277 2943
3633 1367 3514
3588 1506 4053
3513 1993 0
3598 1942 0
3692 1880 14
3712 1876 1031
3692 1902 1711
3667 1928 2324
3640 1957 2914
3613 1990 3492
3588 2033 4053
3527 2528 0
3565 2514 0
3625 2507 14
3640 2512 1058
3632 2519 1711
3622 2527 2310
3609 2535 2894
3597 2543 3474
3587 2554 4053
3543 3067 0
3553 3072 0
3601 3093 243
3600 3090 1143
3598 3088 1747
3595 3085 2319
3591 3081 2888
3587 3077 3464
3584 3073 4052
3590 3621 0
3604 3638 0
3610 3649 726
3604 3641 1297
3599 3632 1827
3594 3623 2358
3591 3613 2902
3588 3602 3465
3585 3590 4050
3694 4095 629
3692 4095 815
3686 4095 1135
3665 4095 1520
3645 4095 1958
3629 4095 2433
3616 4095 2940
3603 4095 3479
3591 4095 4052
3937 0 0
3941 0 335
3959 0 795
3990 0 1290
4019 0 1800
4044 0 2333
4065 0 2888
4081 0 3461
4091 0 4050
3951 337 0
3947 0 286
3967 7 758
4002 85 1270
4027 162 1794
4049 240 2334
4067 318 2892
4082 396 3465
4092 474 4050
3958 951 0
3975 788 0
4069 180 329
4075 396 1157
4081 495 1751
4087 531 2321
4088 636 2893
4091 792 3470
4094 947 4052
3969 1487 0
3979 1398 0
4072 1248 246
4077 1298 1143
4083 1350 1748
4088 1390 2319
4091 1418 2891
4093 1457 3470
4095 1509 4053
3983 2015 0
3986 1965 0
4070 1898 14
4080 1927 1127
4085 1955 1743
4089 1973 2317
4092 1991 2890
4094 2006 3471
4095 2035 4053
3999 2550 0
3999 2525 0
4063 2502 14
4083 2504 1075
4087 2516 1720
4090 2529 2312
4093 2537 2888
4094 2544 3468
4095 2554 4053
4012 3090 0
4030 3092 0
4075 3095 398
4078 3093 1180
4080 3091 1766
4082 3088 2328
4085 3084 2890
4088 3080 3463
4092 3074 4051
4054 3647 0
4070 3657 0
4068 3658 829
4069 3649 1350
4070 3640 1858
4073 3629 2376
4078 3618 2911
4085 3605 3468
4092 3591 4050
4089 4095 800
4089 4095 951
4090 4095 1233
4092 4095 1583
4093 4095 1999
4094 4095 2458
4093 4095 2954
4094 4095 3485
4095 4095 4053
