Toning/Toning-TealOrange-VideoCL.3dl
#25pt 3DLUT created by 3D LUT Creator Pro (c) Oleg Sharonov
#Copyright Oleg Sharonov
#IMAGEPROFILE 
#INPUTGAMMA 
#OUTPUTGAMMA 
0 43 86 128 171 214 256 299 341 384 427 469 512 555 597 640 682 725 768 810 853 896 938 981 1023 
0 0 0
0 15 21
3 34 49
6 61 96
9 102 158
12 152 227
18 212 300
28 273 375
37 332 446
49 393 521
61 455 597
80 520 675
102 583 753
123 648 833
152 713 913
182 777 992
212 842 1072
244 906 1151
271 972 1232
302 1038 1313
334 1104 1393
368 1171 1473
403 1237 1554
434 1305 1635
467 1372 1716
18 145 120
3 161 196
3 173 248
9 198 282
12 232 322
21 269 368
28 312 422
37 361 481
46 410 541
58 463 607
77 519 674
96 576 746
114 635 817
139 696 892
164 756 966
196 816 1040
224 878 1116
253 941 1193
282 1004 1271
312 1069 1350
345 1133 1427
380 1198 1506
411 1263 1585
443 1329 1665
475 1395 1744
49 302 258
25 312 304
3 322 375
3 337 440
12 359 473
21 388 511
34 421 553
46 458 599
58 502 652
74 547 709
89 596 769
108 647 831
130 701 898
155 756 965
184 811 1033
214 868 1104
239 927 1176
267 985 1248
296 1047 1322
328 1108 1397
359 1170 1472
392 1233 1549
422 1297 1625
454 1361 1703
487 1425 1779
108 464 401
77 474 437
43 484 484
9 495 564
0 508 643
15 528 675
34 553 711
49 585 751
68 619 795
83 656 842
105 700 895
127 743 949
155 789 1006
179 837 1066
206 889 1128
232 941 1193
260 996 1260
286 1051 1328
316 1108 1397
348 1167 1468
380 1226 1540
410 1286 1612
439 1347 1686
470 1408 1760
504 1472 1834
198 634 547
167 640 577
123 649 616
71 660 673
18 673 762
0 685 854
15 705 888
37 729 924
65 757 960
89 786 999
117 822 1044
142 858 1090
173 899 1140
201 942 1193
227 988 1249
255 1035 1307
284 1085 1368
314 1135 1430
343 1188 1494
371 1243 1560
401 1298 1627
430 1355 1696
460 1413 1765
495 1472 1835
529 1533 1906
300 804 693
277 810 718
239 817 751
182 828 802
105 841 867
34 852 962
0 864 1061
15 883 1102
46 905 1135
83 930 1170
117 959 1208
155 991 1250
187 1026 1293
217 1064 1340
248 1104 1390
280 1146 1442
308 1191 1497
337 1237 1554
368 1286 1612
397 1336 1673
425 1388 1734
457 1441 1797
491 1496 1862
524 1552 1928
556 1609 1995
410 976 834
388 980 857
357 987 888
308 996 933
236 1009 992
145 1022 1065
46 1035 1165
0 1047 1267
12 1065 1318
46 1086 1352
92 1110 1387
139 1137 1422
187 1166 1461
227 1199 1502
262 1234 1546
296 1272 1592
328 1313 1642
359 1355 1692
390 1398 1745
422 1444 1800
457 1493 1857
488 1543 1916
519 1594 1976
551 1646 2038
582 1699 2100
523 1150 976
504 1154 997
480 1159 1025
437 1168 1067
377 1179 1122
292 1193 1188
196 1207 1267
74 1221 1370
6 1233 1474
9 1250 1535
49 1270 1570
105 1293 1604
164 1318 1639
219 1347 1675
264 1377 1714
304 1411 1755
341 1446 1799
377 1485 1846
413 1525 1894
446 1567 1944
480 1612 1996
512 1657 2049
546 1704 2104
577 1752 2160
610 1802 2217
643 1325 1114
628 1329 1134
605 1334 1161
569 1341 1201
518 1351 1252
446 1364 1315
356 1379 1387
246 1394 1472
99 1408 1578
12 1421 1683
3 1437 1752
46 1456 1787
108 1479 1822
182 1504 1856
244 1531 1892
298 1561 1929
347 1593 1968
388 1627 2009
428 1663 2052
465 1701 2098
500 1740 2144
536 1782 2193
570 1824 2242
607 1867 2291
641 1911 2342
770 1504 1252
756 1507 1271
737 1511 1297
706 1517 1335
659 1527 1385
597 1539 1445
516 1553 1514
417 1568 1591
298 1584 1681
145 1599 1787
21 1613 1893
3 1627 1970
43 1648 2007
114 1670 2041
196 1693 2075
267 1719 2108
328 1747 2144
380 1777 2181
427 1809 2219
471 1842 2258
514 1876 2298
553 1912 2341
592 1950 2384
628 1989 2429
665 2029 2475
905 1685 1387
894 1687 1405
877 1691 1431
847 1697 1469
807 1705 1517
752 1716 1575
679 1729 1643
585 1743 1716
481 1760 1796
356 1776 1889
182 1791 1997
37 1805 2101
0 1819 2185
34 1839 2222
111 1859 2255
206 1880 2287
288 1904 2318
357 1929 2351
417 1957 2384
471 1985 2419
520 2016 2455
565 2049 2492
608 2082 2531
649 2117 2572
687 2154 2613
1044 1864 1518
1033 1866 1537
1018 1869 1562
993 1873 1598
957 1880 1645
907 1889 1703
843 1901 1767
759 1915 1839
653 1930 1917
546 1946 1998
408 1962 2092
239 1977 2197
58 1991 2300
0 2004 2384
28 2022 2425
111 2041 2458
214 2062 2488
302 2084 2519
378 2108 2550
445 2133 2581
503 2160 2614
556 2189 2648
604 2219 2683
650 2251 2719
692 2283 2757
1188 2036 1638
1179 2038 1656
1166 2040 1680
1144 2044 1716
1110 2050 1765
1066 2058 1821
1009 2068 1884
930 2081 1957
840 2095 2032
723 2112 2111
610 2127 2194
470 2144 2288
277 2159 2393
83 2173 2493
3 2186 2575
18 2202 2622
99 2221 2655
209 2240 2685
306 2261 2714
390 2284 2744
463 2307 2774
527 2333 2805
585 2359 2837
638 2388 2870
686 2417 2904
1335 2205 1753
1326 2207 1772
1314 2209 1797
1294 2212 1833
1265 2217 1880
1225 2224 1937
1171 2233 2001
1103 2244 2072
1017 2258 2147
913 2273 2224
793 2290 2304
672 2305 2388
516 2321 2480
322 2337 2583
114 2350 2679
9 2363 2760
12 2378 2813
86 2396 2845
204 2415 2875
308 2434 2904
398 2455 2932
475 2478 2961
546 2501 2991
608 2527 3021
665 2553 3053
1468 2373 1892
1459 2374 1909
1448 2376 1933
1431 2379 1967
1405 2383 2012
1368 2390 2066
1319 2398 2127
1259 2407 2193
1180 2418 2264
1087 2431 2339
973 2447 2416
856 2463 2493
725 2478 2577
565 2494 2668
364 2509 2768
148 2523 2862
18 2536 2940
6 2550 2998
74 2567 3030
190 2585 3059
302 2603 3088
401 2624 3116
487 2645 3144
563 2668 3174
631 2692 3203
1601 2537 2031
1594 2538 2047
1584 2540 2070
1567 2542 2102
1544 2546 2144
1511 2551 2195
1467 2558 2253
1411 2566 2316
1341 2575 2383
1255 2586 2453
1153 2601 2527
1033 2617 2603
916 2632 2679
780 2648 2762
612 2664 2852
408 2679 2949
190 2693 3040
34 2706 3118
3 2719 3180
61 2736 3213
182 2754 3243
302 2772 3271
406 2791 3300
498 2812 3327
579 2833 3355
1735 2696 2167
1729 2697 2182
1719 2699 2203
1705 2701 2233
1684 2705 2272
1655 2709 2320
1614 2715 2376
1564 2722 2436
1501 2731 2500
1424 2741 2569
1332 2754 2641
1224 2769 2713
1097 2786 2788
981 2800 2863
835 2816 2945
665 2832 3034
455 2847 3128
232 2860 3217
52 2873 3293
0 2886 3359
46 2902 3392
164 2919 3422
292 2936 3451
403 2955 3478
500 2974 3506
1869 2852 2299
1863 2852 2313
1855 2854 2332
1842 2856 2360
1823 2859 2398
1796 2863 2444
1760 2868 2497
1715 2875 2555
1659 2883 2617
1589 2893 2683
1505 2905 2753
1407 2919 2824
1290 2934 2896
1168 2949 2968
1042 2964 3043
892 2980 3124
713 2995 3211
498 3010 3303
271 3023 3389
74 3035 3463
0 3047 3528
34 3062 3565
145 3078 3594
282 3094 3622
398 3111 3649
2001 3003 2432
1995 3004 2446
1987 3005 2463
1975 3007 2490
1958 3009 2525
1933 3013 2568
1901 3017 2618
1860 3024 2674
1808 3031 2734
1745 3041 2798
1669 3051 2865
1579 3064 2933
1473 3078 3003
1351 3093 3073
1230 3107 3143
1098 3122 3217
943 3137 3296
758 3152 3380
539 3166 3470
310 3179 3554
102 3191 3627
6 3202 3691
25 3216 3732
127 3232 3761
267 3248 3789
2125 3149 2573
2119 3150 2585
2112 3151 2602
2101 3153 2626
2085 3155 2658
2063 3158 2698
2033 3163 2744
1996 3168 2796
1949 3175 2852
1892 3184 2913
1823 3193 2976
1741 3205 3041
1646 3217 3109
1534 3231 3176
1407 3247 3245
1291 3260 3313
1154 3275 3386
993 3290 3463
803 3304 3546
582 3318 3634
352 3331 3716
136 3343 3788
12 3354 3851
12 3367 3895
108 3382 3925
2247 3292 2712
2243 3293 2723
2236 3294 2738
2225 3295 2760
2210 3297 2789
2190 3300 2826
2164 3304 2869
2129 3309 2918
2087 3316 2971
2035 3323 3028
1972 3332 3088
1898 3343 3151
1811 3355 3215
1710 3368 3280
1594 3382 3346
1471 3396 3412
1350 3410 3480
1208 3424 3551
1042 3439 3628
849 3454 3709
625 3467 3795
392 3480 3875
173 3491 3946
25 3503 4008
6 3515 4057
2369 3434 2849
2365 3434 2859
2359 3435 2873
2349 3437 2893
2335 3439 2920
2317 3442 2954
2292 3445 2994
2261 3450 3040
2222 3456 3090
2174 3463 3144
2118 3471 3201
2050 3481 3261
1971 3490 3321
1879 3502 3384
1773 3515 3448
1652 3530 3512
1534 3543 3576
1410 3557 3643
1263 3571 3715
1093 3586 3790
896 3600 3870
669 3614 3954
433 3626 4033
569 3632 4089
1191 3623 4094
2490 3573 2985
2486 3574 2994
2480 3574 3007
2471 3576 3025
2459 3578 3050
2442 3580 3082
2419 3584 3119
2390 3588 3162
2355 3593 3209
2311 3600 3260
2259 3607 3315
2197 3615 3370
2125 3624 3428
2040 3635 3488
1944 3647 3549
1834 3660 3612
1709 3675 3675
1598 3688 3738
1468 3702 3805
1318 3716 3876
1144 3730 3951
943 3745 4029
1369 3734 4060
1717 3723 4079
1984 3715 4089
2818 3670 3195
2814 3670 3201
2808 3672 3209
2800 3673 3222
2787 3676 3239
2770 3679 3261
2747 3684 3287
2718 3690 3318
2681 3697 3353
2633 3706 3393
2573 3716 3436
2495 3728 3483
2397 3742 3534
2275 3758 3590
2122 3778 3652
2009 3792 3714
1895 3806 3776
1777 3820 3837
1662 3833 3900
1774 3831 3945
1927 3827 3983
2089 3822 4016
2246 3816 4045
2412 3809 4067
2562 3804 4082
3147 3756 3408
3145 3757 3412
3142 3758 3418
3138 3759 3427
3131 3761 3438
3122 3764 3453
3110 3768 3471
3095 3772 3493
3076 3778 3517
3053 3784 3545
3024 3792 3575
2987 3801 3608
2942 3811 3644
2890 3824 3684
2828 3838 3728
2754 3854 3775
2664 3872 3826
2556 3891 3881
2570 3896 3922
2637 3894 3955
2708 3893 3986
2783 3892 4014
2864 3890 4038
2948 3889 4058
3037 3887 4074
77 25 3
21 49 74
15 71 108
15 99 155
18 139 212
21 193 277
28 244 337
37 300 406
46 357 477
58 414 546
74 475 621
92 536 696
111 597 772
136 663 852
161 725 929
190 789 1007
222 852 1085
251 916 1163
280 981 1243
308 1047 1323
341 1112 1403
375 1178 1483
410 1244 1563
440 1311 1643
473 1378 1724
209 145 21
61 184 232
55 201 262
46 227 302
46 258 345
46 294 392
49 335 443
58 382 500
68 430 562
80 480 624
96 534 691
117 590 760
136 648 831
161 708 904
187 767 977
214 827 1051
244 889 1126
271 950 1202
298 1013 1279
328 1076 1358
359 1140 1435
393 1205 1513
425 1270 1592
455 1335 1671
481 1401 1751
99 326 248
102 324 343
92 335 395
68 354 448
61 378 485
61 405 524
68 437 567
74 474 613
86 516 666
102 562 722
117 609 782
136 660 845
155 713 910
179 766 976
206 821 1044
234 877 1113
260 935 1184
286 995 1257
312 1055 1331
343 1115 1405
375 1178 1480
406 1240 1556
436 1303 1632
467 1367 1709
492 1432 1788
155 481 388
164 481 464
130 492 503
111 502 574
80 518 644
77 541 682
83 567 720
92 596 760
105 631 805
120 670 853
139 711 905
158 753 959
182 800 1016
206 848 1076
232 898 1138
255 950 1202
280 1004 1268
304 1059 1336
335 1116 1405
364 1174 1475
395 1232 1546
424 1292 1618
452 1352 1691
482 1414 1765
511 1477 1841
241 645 534
248 645 596
212 654 630
164 667 684
130 677 766
92 693 852
89 714 891
102 738 927
117 765 965
139 796 1006
161 830 1050
184 867 1096
206 908 1147
232 951 1201
255 996 1257
280 1043 1315
304 1093 1375
334 1144 1438
363 1196 1501
390 1250 1566
417 1305 1633
445 1361 1701
474 1418 1770
508 1478 1840
536 1538 1913
335 814 678
343 814 731
312 821 762
262 832 809
204 845 873
155 857 964
108 868 1061
102 889 1100
120 912 1137
145 937 1173
173 967 1213
198 998 1254
224 1033 1298
251 1070 1345
280 1110 1395
306 1153 1447
334 1198 1502
361 1244 1559
387 1292 1617
414 1342 1677
442 1393 1739
473 1446 1802
506 1501 1867
539 1557 1933
562 1614 2001
437 984 821
443 983 866
417 990 895
375 999 938
310 1011 996
246 1026 1068
176 1038 1166
117 1050 1266
108 1069 1316
130 1091 1352
164 1115 1388
201 1142 1424
234 1173 1465
267 1205 1507
296 1241 1551
326 1278 1597
356 1318 1646
383 1360 1696
413 1404 1750
443 1450 1804
475 1498 1861
506 1547 1920
536 1598 1980
565 1651 2041
588 1705 2106
548 1158 962
553 1156 1002
529 1162 1029
491 1171 1071
437 1182 1124
364 1195 1190
290 1209 1268
206 1223 1369
139 1235 1472
123 1252 1531
148 1274 1568
190 1297 1603
232 1323 1639
271 1351 1676
306 1382 1716
339 1415 1758
371 1451 1802
405 1490 1849
437 1530 1897
470 1572 1947
500 1616 1999
532 1662 2053
563 1708 2107
594 1756 2163
616 1806 2223
665 1332 1101
670 1331 1136
650 1336 1163
616 1344 1202
568 1353 1254
500 1366 1317
417 1381 1388
334 1395 1472
236 1409 1575
145 1422 1681
123 1439 1748
152 1460 1786
198 1483 1821
251 1508 1856
298 1535 1893
341 1565 1930
382 1597 1970
419 1631 2012
455 1667 2055
489 1705 2100
523 1744 2147
556 1786 2196
590 1828 2245
626 1870 2293
648 1916 2347
790 1510 1239
794 1509 1271
776 1513 1297
747 1520 1335
703 1529 1385
644 1540 1444
567 1555 1514
477 1570 1591
383 1585 1679
273 1600 1785
173 1614 1890
139 1630 1967
164 1650 2004
214 1672 2039
271 1696 2074
326 1722 2108
375 1750 2144
419 1780 2181
460 1812 2220
500 1845 2259
538 1880 2300
576 1916 2343
612 1954 2386
648 1992 2431
671 2033 2480
923 1690 1374
927 1689 1404
913 1693 1428
885 1698 1466
845 1707 1516
793 1716 1573
721 1730 1642
635 1745 1716
541 1761 1795
430 1777 1888
308 1791 1994
187 1806 2099
139 1820 2181
161 1840 2219
219 1861 2253
284 1883 2285
347 1906 2317
403 1932 2351
455 1959 2384
504 1988 2419
548 2019 2456
590 2051 2493
630 2085 2533
669 2120 2573
694 2158 2617
