Toning/Toning-Saturate Blues.3dl
#25pt 3DLUT created by 3D LUT Creator Pro (c) Oleg Sharonov
#Copyright Oleg Sharonov
#INPUTGAMMA sRGB IEC61966-2.1 v.2.10
#IMAGEPROFILE sRGB IEC61966-2.1 v.2.10
#OUTPUTGAMMA sRGB IEC61966-2.1 v.2.10
0 43 86 128 171 214 256 299 341 384 427 469 512 555 597 640 682 725 768 810 853 896 938 981 1023 
0 0 0
1 1 167
3 3 323
5 4 470
6 6 610
9 8 744
11 10 876
15 12 1007
21 16 1137
28 20 1266
37 25 1397
48 32 1532
62 40 1669
77 50 1805
95 62 1943
118 75 2078
145 91 2206
177 108 2324
213 128 2430
253 152 2528
298 179 2622
348 210 2708
403 244 2790
462 282 2866
527 324 2935
5 163 5
5 159 159
6 156 310
7 152 451
8 149 591
10 146 726
13 143 858
17 141 988
22 138 1119
30 137 1251
39 137 1384
51 139 1520
64 142 1656
80 146 1796
98 152 1934
121 160 2069
148 170 2197
180 182 2316
216 197 2420
257 215 2519
302 237 2612
353 262 2700
407 290 2781
467 323 2856
532 360 2925
10 312 10
9 303 151
10 294 294
11 283 431
12 269 569
14 262 681
17 256 812
21 250 943
27 245 1076
35 240 1210
44 236 1345
56 234 1483
70 232 1622
86 233 1764
106 234 1904
129 238 2041
157 243 2169
189 250 2287
226 260 2392
268 274 2492
314 290 2584
365 311 2672
421 335 2753
480 362 2827
546 394 2897
15 468 15
14 454 144
14 436 279
15 414 414
17 394 545
21 369 676
22 340 796
27 331 886
33 324 1018
42 316 1151
52 311 1287
65 306 1429
80 302 1573
97 299 1717
117 298 1857
142 298 1996
171 300 2128
204 304 2245
242 310 2350
285 320 2447
332 332 2540
384 349 2626
441 369 2707
502 393 2782
569 420 2850
21 649 21
19 632 138
19 610 265
19 578 400
19 539 539
24 503 667
34 461 795
38 413 932
41 370 953
51 362 1085
62 355 1223
76 349 1366
92 344 1512
111 340 1659
132 337 1805
158 334 1941
189 334 2074
224 335 2190
264 339 2294
308 346 2391
357 356 2482
411 370 2567
469 387 2647
532 408 2721
600 432 2787
29 867 29
25 848 136
23 822 254
24 784 388
24 734 534
24 677 677
32 628 806
50 566 934
64 492 1068
65 413 1221
74 367 1158
89 361 1302
107 355 1450
127 349 1598
150 345 1741
178 342 1881
210 341 2010
248 340 2128
290 344 2230
336 348 2325
387 358 2415
443 369 2498
504 385 2576
568 404 2648
638 426 2713
40 1132 40
33 1111 137
28 1084 245
28 1042 378
28 985 531
29 916 687
29 836 836
42 771 969
70 692 1101
98 595 1230
104 483 1388
106 368 1491
122 332 1384
145 327 1533
170 322 1680
200 320 1819
235 318 1947
274 317 2059
318 318 2158
368 323 2250
422 331 2338
480 342 2419
543 356 2495
610 374 2565
668 411 2664
55 1429 55
45 1409 141
36 1383 240
33 1344 373
33 1288 529
33 1215 697
34 1128 867
34 1027 1027
52 944 1163
93 843 1297
133 726 1425
157 589 1562
157 426 1711
170 290 1618
192 267 1617
224 264 1754
262 263 1880
305 261 1988
352 263 2084
403 268 2173
460 276 2257
511 308 2364
562 341 2468
614 376 2569
671 413 2669
77 1732 77
64 1716 151
49 1694 242
38 1660 372
38 1612 532
38 1548 708
38 1465 896
38 1364 1082
39 1247 1247
66 1151 1382
120 1033 1510
175 892 1629
226 727 1735
231 540 1871
228 320 1977
251 175 1692
291 180 1819
330 200 1939
372 224 2051
417 250 2159
465 279 2267
514 310 2372
565 344 2475
618 378 2577
675 416 2676
104 2008 104
89 1995 168
70 1978 249
49 1952 376
42 1917 539
42 1867 723
43 1801 927
43 1716 1133
43 1609 1323
44 1486 1486
80 1384 1612
147 1260 1728
214 1113 1833
279 940 1923
309 745 2023
306 527 2133
301 285 2195
336 203 1954
378 227 2065
422 253 2172
470 282 2279
519 313 2382
570 346 2485
624 381 2586
679 419 2684
131 2240 131
115 2229 189
93 2213 269
64 2189 397
44 2157 561
44 2114 751
44 2061 965
44 1997 1183
44 1923 1390
44 1831 1572
44 1721 1721
86 1629 1832
163 1514 1930
241 1376 2016
321 1210 2098
386 1014 2178
385 790 2290
377 538 2389
400 308 2308
428 257 2185
476 285 2290
526 317 2395
576 351 2496
629 385 2595
684 422 2693
156 2443 156
139 2433 214
119 2420 297
87 2399 426
52 2372 589
44 2336 783
44 2290 1001
44 2236 1228
44 2172 1444
44 2098 1638
44 2015 1799
44 1924 1924
94 1847 2015
179 1750 2103
270 1627 2187
362 1478 2268
445 1296 2343
472 1080 2440
467 823 2542
455 535 2630
496 331 2413
531 321 2407
583 354 2507
635 389 2607
690 426 2703
183 2637 183
167 2629 242
146 2618 328
114 2600 456
72 2576 620
44 2545 815
44 2506 1037
44 2459 1268
44 2403 1490
44 2339 1690
44 2266 1857
44 2185 1988
44 2097 2097
102 2029 2186
195 1949 2271
299 1851 2352
404 1725 2431
499 1566 2505
563 1370 2583
562 1130 2686
553 844 2779
545 528 2836
589 359 2520
642 394 2619
697 430 2714
214 2825 214
197 2817 276
177 2808 362
145 2792 490
102 2771 651
54 2744 848
44 2710 1072
44 2669 1304
44 2620 1530
44 2564 1732
44 2500 1902
44 2429 2039
44 2350 2160
44 2265 2265
110 2199 2350
213 2123 2433
330 2035 2512
446 1934 2588
551 1807 2661
641 1642 2730
660 1433 2824
656 1170 2919
643 851 3004
674 559 2938
704 436 2726
249 3005 249
232 2999 313
210 2990 400
178 2977 526
134 2958 686
80 2934 884
44 2905 1107
44 2868 1340
44 2826 1566
44 2776 1769
44 2720 1938
44 2656 2081
44 2586 2210
44 2509 2326
44 2427 2427
117 2363 2510
230 2290 2589
360 2207 2666
488 2113 2741
602 2004 2812
704 1876 2880
766 1706 2957
765 1483 3053
756 1197 3140
740 845 3216
290 3179 290
271 3174 354
248 3166 440
214 3154 564
171 3138 724
115 3117 921
55 3090 1144
44 3058 1375
44 3021 1600
44 2977 1802
44 2926 1970
44 2870 2116
44 2807 2251
44 2738 2375
44 2663 2486
44 2583 2583
126 2522 2663
249 2453 2741
391 2374 2816
529 2284 2888
653 2183 2959
768 2067 3026
870 1933 3089
880 1761 3181
875 1524 3270
333 3348 334
316 3343 399
292 3336 482
257 3325 604
211 3311 764
155 3292 960
87 3269 1181
44 3240 1411
44 3207 1633
44 3167 1833
44 3122 1998
44 3072 2147
44 3016 2287
44 2953 2416
44 2886 2535
44 2813 2641
44 2735 2735
135 2676 2813
268 2609 2888
421 2534 2961
569 2450 3032
705 2354 3101
832 2246 3166
944 2123 3229
999 1981 3305
381 3511 383
364 3507 446
340 3501 529
305 3491 648
256 3478 807
197 3461 1001
130 3440 1220
55 3415 1447
44 3384 1666
44 3349 1861
44 3309 2024
44 3264 2175
44 3213 2318
44 3157 2452
44 3096 2575
44 3029 2689
44 2958 2791
44 2882 2882
144 2825 2958
287 2761 3031
453 2689 3102
609 2609 3171
757 2519 3238
893 2418 3303
1016 2304 3365
434 3671 434
416 3667 496
392 3661 576
356 3653 694
307 3641 852
246 3626 1045
175 3606 1260
94 3583 1483
44 3556 1697
44 3524 1888
44 3488 2049
44 3447 2202
44 3401 2346
44 3350 2483
44 3294 2611
44 3234 2729
44 3168 2838
44 3099 2937
44 3025 3025
152 2970 3099
308 2908 3170
483 2839 3240
650 2763 3307
809 2678 3373
955 2583 3436
487 3826 488
470 3822 548
447 3817 627
412 3810 744
363 3799 901
300 3785 1090
225 3767 1301
143 3746 1520
55 3722 1729
44 3693 1914
44 3660 2074
44 3622 2226
44 3580 2373
44 3534 2511
44 3483 2642
44 3428 2765
44 3368 2879
44 3304 2983
44 3236 3079
44 3164 3164
161 3111 3236
329 3051 3306
514 2985 3374
690 2912 3440
860 2831 3504
544 3979 545
527 3975 602
504 3971 680
470 3963 797
422 3953 951
359 3941 1137
282 3925 1343
194 3905 1557
100 3883 1761
44 3856 1940
44 3826 2098
44 3791 2250
44 3753 2397
44 3711 2537
44 3664 2670
44 3613 2796
44 3558 2914
44 3499 3023
44 3436 3124
44 3370 3217
44 3300 3300
171 3248 3370
349 3190 3438
545 3126 3504
731 3056 3569
601 4095 602
586 4095 659
564 4095 737
532 4095 853
483 4095 1004
423 4094 1187
344 4079 1386
252 4061 1595
155 4040 1793
53 4015 1964
44 3987 2121
44 3956 2274
44 3920 2421
44 3881 2562
44 3838 2696
44 3791 2824
44 3741 2945
44 3686 3058
44 3628 3164
44 3566 3261
44 3500 3351
44 3432 3432
179 3381 3500
371 3325 3567
575 3264 3632
661 4095 662
647 4095 721
626 4095 797
594 4095 912
548 4095 1059
488 4095 1236
412 4095 1433
321 4095 1634
213 4095 1823
104 4095 1989
44 4095 2145
44 4095 2297
44 4083 2444
44 4047 2585
44 4007 2721
44 3964 2850
44 3916 2973
44 3866 3089
44 3811 3199
44 3754 3300
44 3692 3395
44 3628 3482
44 3561 3561
189 3511 3628
393 3457 3694
727 4095 728
711 4095 784
690 4095 859
658 4095 972
613 4095 1115
555 4095 1288
482 4095 1479
388 4095 1671
281 4095 1855
166 4095 2015
51 4095 2168
44 4095 2319
44 4095 2466
44 4095 2607
44 4095 2744
44 4095 2874
44 4086 2999
44 4039 3117
44 3988 3229
44 3934 3335
44 3877 3434
44 3817 3526
44 3753 3610
44 3688 3688
198 3639 3753
793 4095 795
779 4095 850
757 4095 924
727 4095 1034
681 4095 1173
624 4095 1341
553 4095 1525
461 4095 1710
355 4095 1886
233 4095 2041
109 4095 2193
44 4095 2342
44 4095 2488
44 4095 2629
44 4095 2766
44 4095 2897
44 4095 3023
44 4095 3143
44 4095 3258
44 4095 3366
44 4055 3468
44 3999 3564
44 3939 3653
44 3877 3736
44 3812 3812
165 3 3
163 3 163
160 4 318
156 5 463
153 7 604
149 8 738
147 10 870
145 13 1002
145 16 1133
147 20 1262
150 26 1394
156 32 1529
164 41 1667
174 51 1806
188 63 1944
205 76 2078
226 92 2208
252 109 2324
282 130 2429
318 154 2529
357 181 2622
402 211 2709
451 246 2790
505 284 2866
563 326 2934
163 161 6
159 159 159
154 154 310
151 151 449
149 148 589
146 145 724
144 142 857
143 140 988
144 138 1120
147 137 1252
151 137 1386
157 139 1522
165 142 1661
175 147 1799
189 153 1937
206 161 2072
228 171 2199
254 183 2318
285 198 2421
320 216 2520
360 238 2612
405 264 2700
455 293 2781
508 325 2856
568 362 2925
156 311 10
150 307 150
143 297 297
141 282 435
140 267 573
138 260 683
137 254 814
138 249 946
139 243 1078
143 239 1213
148 236 1348
155 233 1487
164 232 1626
176 232 1768
190 234 1908
209 238 2044
232 243 2172
259 250 2289
290 261 2394
327 275 2493
367 291 2584
414 312 2672
463 336 2753
518 364 2827
579 395 2897
151 468 15
140 465 140
131 450 278
128 422 422
129 396 554
131 368 685
129 338 805
130 329 891
134 322 1023
138 315 1156
145 310 1293
154 305 1434
164 301 1578
178 299 1723
193 297 1863
213 298 2000
238 300 2131
266 303 2247
299 310 2351
337 320 2449
380 333 2541
427 350 2627
478 370 2708
535 395 2782
596 422 2850
147 650 22
130 653 130
121 629 261
115 594 404
113 550 550
117 510 680
126 463 807
127 414 945
127 368 961
133 360 1092
142 354 1231
152 348 1374
165 343 1520
179 339 1667
197 336 1811
219 334 1946
245 334 2078
276 335 2194
311 339 2296
351 346 2393
395 357 2484
444 371 2569
498 388 2648
556 410 2722
619 434 2788
147 869 30
124 874 124
113 846 246
103 805 386
101 752 541
99 691 691
106 636 819
123 570 948
135 494 1083
132 414 1234
138 365 1167
151 359 1311
165 353 1459
182 348 1603
201 344 1748
226 341 1887
255 340 2016
288 340 2132
326 343 2233
368 349 2327
416 357 2417
467 369 2500
522 385 2578
583 404 2649
649 426 2714
149 1134 41
122 1138 122
108 1110 235
93 1066 372
87 1009 533
86 936 696
85 853 853
97 782 987
124 699 1118
151 599 1245
154 485 1403
152 368 1509
167 330 1395
186 326 1543
208 322 1688
234 319 1823
266 317 1953
302 316 2064
343 318 2162
387 323 2254
438 331 2341
492 343 2422
551 357 2497
613 375 2567
670 412 2668
156 1430 57
125 1436 125
108 1409 228
86 1369 362
74 1313 526
73 1239 701
72 1149 879
71 1046 1046
89 957 1181
129 853 1315
167 732 1441
188 593 1576
186 429 1725
195 290 1632
215 266 1627
245 263 1763
279 261 1887
318 260 1994
362 262 2088
411 268 2177
463 278 2263
512 309 2368
564 343 2471
616 377 2573
673 414 2674
167 1734 79
132 1738 132
113 1717 225
86 1683 357
63 1635 525
60 1570 708
59 1486 903
58 1385 1095
57 1266 1266
83 1165 1401
137 1044 1527
189 900 1645
239 732 1749
241 545 1883
236 321 1986
256 174 1699
293 181 1828
332 202 1947
375 226 2058
420 251 2166
467 281 2273
516 312 2377
568 345 2480
621 380 2581
677 418 2681
185 2010 107
147 2013 147
125 1996 229
93 1970 360
58 1934 529
47 1885 719
46 1819 929
45 1734 1141
44 1628 1337
44 1503 1503
81 1398 1628
149 1271 1742
217 1121 1845
283 948 1933
313 751 2033
308 531 2142
303 289 2206
338 205 1962
379 228 2069
425 255 2178
472 284 2284
521 315 2388
573 348 2490
626 384 2590
681 420 2688
207 2240 133
166 2243 167
145 2228 248
112 2204 379
71 2171 548
44 2128 744
44 2075 963
44 2011 1187
44 1936 1399
44 1845 1585
44 1735 1735
88 1641 1845
165 1525 1940
244 1385 2026
324 1219 2108
389 1022 2187
388 796 2298
380 542 2397
403 312 2317
430 258 2191
478 287 2296
527 318 2398
577 352 2499
631 387 2599
687 423 2698
