Toning/Toning-Twist Oranges.3dl
#25pt 3DLUT created by 3D LUT Creator Pro (c) Oleg Sharonov
#Copyright Oleg Sharonov
#IMAGEPROFILE sRGB IEC61966-2.1 v.2.10
#INPUTGAMMA sRGB IEC61966-2.1 v.2.10
#OUTPUTGAMMA sRGB IEC61966-2.1 v.2.10
0 43 86 128 171 214 256 299 341 384 427 469 512 555 597 640 682 725 768 810 853 896 938 981 1023 
0 0 0
3 10 71
7 23 158
17 42 272
27 72 387
37 104 499
54 150 613
75 204 727
99 258 837
126 311 951
156 365 1064
189 419 1179
224 475 1293
259 534 1408
293 592 1523
328 651 1637
362 707 1751
395 761 1861
429 816 1973
464 870 2086
498 925 2198
531 979 2312
565 1032 2427
600 1085 2543
633 1138 2659
68 149 50
0 174 189
3 174 331
20 180 451
34 200 551
48 225 646
68 259 742
88 299 841
112 338 938
142 383 1042
172 429 1146
203 478 1253
238 531 1361
271 585 1470
304 638 1580
338 691 1689
371 743 1796
405 795 1905
439 847 2014
471 900 2124
505 952 2234
538 1004 2347
572 1056 2460
605 1108 2575
640 1159 2689
156 306 116
101 319 247
0 343 360
0 345 504
20 349 633
47 361 749
70 380 848
94 406 943
124 438 1041
155 474 1139
187 511 1238
218 554 1338
253 602 1442
285 649 1546
319 696 1649
350 744 1751
384 791 1854
415 838 1959
448 888 2065
481 938 2172
514 987 2281
547 1037 2391
580 1087 2502
613 1137 2615
647 1187 2727
272 467 209
241 476 290
147 492 418
0 517 529
0 520 674
17 524 811
57 531 935
94 548 1048
128 570 1150
161 593 1247
197 627 1347
232 662 1444
266 699 1540
298 736 1637
333 776 1735
364 817 1833
397 860 1934
429 903 2035
461 949 2137
494 995 2242
526 1041 2348
559 1087 2455
591 1134 2564
624 1181 2673
658 1229 2783
387 627 303
348 638 349
327 643 463
191 665 584
0 691 695
0 696 842
3 701 986
56 709 1116
113 719 1241
157 737 1348
199 760 1449
236 785 1547
274 812 1643
310 843 1738
343 876 1834
376 911 1931
410 948 2029
443 986 2127
475 1027 2227
507 1068 2330
540 1110 2432
572 1153 2537
605 1196 2643
637 1240 2749
670 1286 2856
496 786 383
447 799 399
451 800 490
390 811 623
225 837 743
0 864 854
0 869 1003
0 877 1152
46 884 1288
116 894 1417
185 906 1538
231 924 1643
272 945 1743
310 968 1841
350 995 1938
385 1023 2035
420 1055 2132
454 1087 2231
488 1122 2330
521 1159 2430
555 1196 2531
587 1234 2633
619 1273 2736
652 1314 2839
684 1358 2945
605 944 464
565 955 476
550 960 532
542 963 647
445 981 785
257 1009 904
0 1039 1019
0 1044 1169
0 1053 1319
30 1062 1461
109 1069 1593
194 1077 1718
261 1088 1835
305 1106 1940
347 1127 2041
386 1149 2140
425 1175 2241
461 1203 2340
497 1232 2438
532 1263 2538
567 1295 2638
600 1329 2738
634 1365 2840
667 1404 2943
700 1444 3046
710 1103 536
678 1112 546
648 1120 580
654 1120 681
613 1129 816
497 1152 950
285 1184 1070
0 1214 1186
0 1221 1337
0 1230 1487
3 1237 1635
96 1241 1768
194 1248 1897
276 1256 2022
337 1269 2136
381 1288 2243
423 1308 2346
463 1331 2449
501 1356 2550
538 1381 2650
575 1409 2751
610 1440 2852
645 1472 2953
680 1507 3054
713 1543 3156
817 1259 618
791 1267 627
750 1278 638
753 1279 725
753 1281 839
678 1299 988
544 1326 1119
311 1358 1238
0 1389 1355
0 1396 1507
0 1402 1657
0 1409 1805
69 1415 1946
185 1420 2077
280 1427 2207
358 1437 2333
412 1452 2447
456 1470 2554
498 1489 2659
539 1511 2762
578 1535 2865
615 1562 2967
653 1591 3068
688 1620 3169
723 1650 3269
927 1420 701
904 1427 708
870 1436 718
853 1442 774
860 1444 880
831 1453 1019
740 1474 1162
588 1502 1291
336 1534 1409
0 1563 1526
0 1569 1678
0 1575 1828
0 1583 1979
36 1590 2124
162 1593 2261
276 1598 2393
364 1606 2523
440 1616 2650
488 1631 2762
532 1650 2869
574 1671 2975
614 1693 3079
654 1716 3182
692 1741 3282
729 1766 3383
1034 1582 783
1015 1588 790
986 1596 800
952 1606 829
961 1607 928
966 1610 1043
905 1624 1198
797 1647 1337
627 1677 1463
357 1707 1581
0 1736 1698
0 1740 1851
0 1748 2003
0 1755 2154
0 1762 2308
132 1765 2447
264 1768 2582
363 1775 2714
447 1783 2843
515 1794 2968
562 1811 3078
606 1830 3186
648 1849 3291
689 1869 3394
728 1892 3498
1143 1742 872
1126 1747 878
1102 1755 887
1060 1765 899
1059 1768 982
1067 1770 1090
1049 1777 1227
971 1794 1377
848 1818 1511
663 1849 1636
373 1880 1755
0 1907 1872
0 1912 2027
0 1918 2180
0 1925 2334
0 1932 2488
93 1936 2634
244 1939 2771
358 1944 2906
450 1951 3037
528 1960 3165
591 1972 3286
636 1988 3396
680 2006 3504
722 2026 3612
1252 1902 960
1237 1907 967
1215 1913 975
1179 1923 986
1158 1930 1038
1167 1932 1140
1173 1934 1256
1125 1945 1410
1033 1965 1554
896 1990 1686
696 2020 1811
387 2050 1931
0 2075 2049
0 2081 2206
0 2086 2361
0 2093 2517
0 2100 2672
39 2106 2823
213 2109 2963
343 2113 3100
446 2118 3233
534 2126 3362
610 2135 3491
667 2148 3611
712 2165 3722
1360 2062 1051
1347 2066 1056
1327 2072 1064
1295 2081 1074
1255 2092 1097
1265 2094 1195
1274 2097 1305
1263 2102 1438
1194 2114 1592
1089 2135 1732
941 2159 1864
729 2189 1988
395 2220 2110
0 2243 2230
0 2249 2388
0 2255 2544
0 2261 2701
0 2268 2856
0 2275 3013
167 2278 3155
321 2281 3292
436 2285 3428
532 2292 3562
617 2301 3694
692 2310 3824
1470 2224 1143
1457 2227 1148
1440 2232 1154
1411 2240 1164
1369 2251 1177
1363 2256 1252
1373 2260 1357
1380 2261 1474
1341 2269 1624
1260 2284 1775
1144 2304 1914
984 2329 2043
759 2360 2170
401 2391 2292
0 2413 2412
0 2417 2572
0 2422 2729
0 2429 2887
0 2435 3043
0 2442 3201
108 2446 3349
294 2449 3490
423 2452 3628
527 2459 3764
617 2466 3899
1579 2385 1235
1568 2388 1240
1552 2393 1246
1527 2400 1255
1489 2410 1267
1463 2419 1312
1473 2421 1412
1481 2423 1526
1478 2426 1654
1416 2437 1813
1325 2452 1961
1198 2475 2097
1026 2501 2227
785 2531 2351
407 2561 2476
0 2581 2597
0 2585 2758
0 2591 2916
0 2597 3075
0 2603 3233
0 2610 3391
39 2615 3547
254 2616 3690
402 2620 3831
518 2626 3969
1688 2549 1327
1678 2551 1332
1663 2555 1338
1640 2562 1346
1607 2570 1358
1562 2581 1376
1571 2583 1471
1581 2584 1580
1588 2587 1698
1560 2592 1847
1488 2604 2002
1386 2623 2148
1248 2646 2284
1064 2673 2414
811 2701 2538
407 2730 2666
0 2749 2787
0 2753 2949
0 2759 3108
0 2765 3268
0 2771 3427
0 2776 3587
0 2781 3746
198 2782 3893
374 2786 4036
1796 2710 1424
1787 2713 1428
1773 2717 1433
1752 2722 1441
1722 2730 1453
1680 2741 1467
1669 2745 1535
1679 2746 1638
1688 2748 1752
1692 2750 1876
1636 2759 2040
1556 2773 2194
1443 2793 2338
1294 2817 2473
1100 2843 2602
839 2871 2727
404 2899 2858
0 2917 2979
0 2921 3142
0 2926 3303
0 2931 3463
0 2936 3623
0 2941 3784
0 2946 3944
247 2946 4090
1904 2871 1521
1895 2874 1524
1883 2877 1529
1864 2883 1537
1837 2891 1548
1799 2901 1561
1767 2909 1600
1777 2909 1700
1787 2910 1809
1795 2911 1927
1775 2916 2073
1710 2928 2235
1619 2943 2387
1496 2963 2529
1338 2986 2662
1134 3013 2794
863 3039 2920
399 3067 3052
0 3085 3174
0 3089 3338
0 3093 3500
0 3097 3661
0 3102 3822
0 3106 3984
620 3099 4095
2012 3031 1619
2004 3033 1623
1993 3037 1628
1975 3042 1635
1950 3049 1645
1916 3059 1657
1869 3072 1673
1876 3071 1763
1886 3071 1869
1894 3072 1983
1900 3073 2107
1853 3083 2271
1779 3096 2430
1678 3112 2580
1546 3132 2719
1381 3156 2856
1167 3182 2987
886 3207 3115
389 3235 3250
0 3252 3371
0 3254 3536
0 3258 3699
0 3262 3862
0 3266 4024
928 3245 4095
2120 3189 1718
2112 3191 1721
2102 3194 1726
2086 3199 1733
2062 3206 1742
2030 3215 1754
1988 3227 1769
1972 3232 1829
1982 3231 1931
1992 3231 2043
1999 3232 2163
1986 3236 2305
1927 3248 2471
1845 3264 2628
1735 3280 2775
1595 3300 2916
1421 3324 3052
1196 3350 3184
906 3375 3313
372 3403 3450
0 3415 3571
0 3418 3736
0 3421 3901
0 3425 4064
1211 3392 4095
2229 3348 1819
2221 3350 1821
2211 3352 1826
2196 3357 1832
2174 3362 1841
2143 3370 1852
2104 3381 1866
2068 3391 1898
2078 3390 1996
2088 3390 2105
2097 3391 2223
2103 3392 2346
2065 3401 2509
1998 3414 2672
1908 3430 2827
1790 3447 2974
1643 3467 3115
1460 3492 3251
1225 3518 3383
926 3541 3513
353 3569 3652
0 3579 3773
0 3582 3940
325 3582 4095
1498 3533 4095
2338 3508 1919
2331 3510 1922
2322 3513 1926
2307 3516 1932
2287 3522 1940
2258 3529 1951
2221 3539 1964
2174 3550 1979
2175 3551 2065
2186 3552 2170
2196 3552 2284
2204 3552 2407
2198 3555 2545
2142 3566 2714
2067 3580 2876
1969 3596 3029
1845 3614 3176
1690 3635 3316
1498 3659 3452
1255 3682 3585
946 3705 3716
326 3734 3857
0 3745 3978
950 3723 4095
1798 3671 4095
2579 3636 2220
2578 3637 2228
2575 3638 2238
2572 3640 2254
2567 3642 2275
2561 3645 2301
2553 3648 2333
2543 3653 2370
2543 3655 2426
2556 3653 2504
2569 3654 2586
2581 3654 2675
2591 3656 2771
2557 3666 2884
2479 3683 3002
2368 3705 3122
2213 3733 3247
1991 3769 3379
1734 3801 3519
1535 3823 3656
1283 3846 3789
962 3871 3922
294 3899 4065
1406 3861 4095
2121 3803 4095
2933 3729 2679
2933 3729 2684
2932 3730 2691
2930 3731 2701
2928 3733 2715
2926 3736 2733
2922 3739 2754
2918 3742 2779
2915 3746 2810
2926 3746 2862
2939 3747 2919
2951 3748 2981
2962 3749 3047
2968 3752 3119
2934 3763 3205
2885 3777 3291
2818 3796 3380
2727 3820 3473
2606 3849 3573
2442 3882 3682
2213 3920 3803
1877 3967 3943
2011 3960 4020
2149 3953 4088
2486 3921 4095
174 0 16
157 10 166
104 32 275
93 45 427
72 61 577
75 104 659
88 151 734
105 208 827
129 260 925
153 314 1024
183 369 1131
216 423 1236
246 481 1344
279 540 1457
311 596 1565
345 655 1677
377 710 1786
409 765 1893
442 819 2003
475 873 2114
508 927 2224
542 981 2337
575 1034 2451
608 1087 2565
642 1140 2680
180 169 9
135 181 208
142 184 317
142 196 436
142 216 544
146 242 645
159 275 745
173 313 846
195 355 948
216 397 1049
238 442 1154
266 490 1261
293 541 1368
322 594 1477
351 646 1586
379 699 1694
409 750 1802
439 801 1909
470 852 2019
503 905 2128
533 957 2238
565 1008 2351
597 1060 2464
630 1111 2578
648 1161 2709
263 319 97
224 326 267
158 345 368
158 348 507
165 354 636
172 368 743
182 391 845
197 416 942
215 448 1043
238 483 1142
258 520 1242
283 564 1344
311 610 1447
336 656 1550
364 704 1653
393 749 1755
422 797 1858
451 845 1964
482 893 2070
512 943 2175
543 992 2285
575 1042 2395
607 1092 2506
637 1141 2618
656 1189 2748
352 473 191
310 484 308
275 493 421
146 517 532
147 519 677
170 525 813
196 533 937
211 551 1044
231 575 1147
255 600 1247
278 633 1346
304 668 1445
327 705 1543
355 742 1640
382 782 1738
410 822 1837
438 865 1937
466 908 2037
496 954 2141
527 999 2245
557 1044 2351
587 1091 2458
618 1137 2567
649 1184 2676
665 1231 2803
449 631 291
402 643 365
399 645 461
305 664 587
126 692 700
133 696 847
163 700 986
201 708 1117
238 720 1239
262 740 1345
288 763 1447
315 788 1545
342 817 1644
369 848 1740
396 881 1835
425 916 1933
453 952 2030
483 991 2129
512 1031 2230
542 1072 2332
571 1114 2434
602 1157 2539
632 1199 2645
663 1243 2751
679 1288 2876
546 788 376
508 799 430
491 804 496
460 812 621
328 836 745
102 866 860
109 871 1011
145 875 1154
196 883 1288
246 893 1417
288 908 1536
317 925 1640
348 946 1741
376 971 1840
407 997 1937
437 1027 2035
467 1058 2133
496 1090 2231
526 1125 2331
556 1162 2431
586 1199 2532
617 1237 2634
648 1276 2737
678 1318 2841
693 1360 2963
647 946 457
614 955 502
583 964 539
586 966 645
509 981 785
351 1009 905
69 1043 1026
76 1047 1178
122 1053 1324
184 1060 1461
246 1067 1593
303 1076 1718
344 1090 1833
379 1108 1938
411 1129 2040
444 1152 2139
475 1177 2240
507 1205 2339
538 1235 2439
569 1266 2538
600 1298 2638
631 1331 2739
662 1368 2841
693 1407 2943
708 1446 3064
745 1104 530
719 1111 571
676 1123 586
682 1124 685
657 1129 814
553 1152 950
374 1183 1071
30 1219 1194
40 1225 1349
89 1231 1495
162 1234 1634
238 1239 1768
305 1246 1897
363 1256 2022
407 1270 2134
442 1289 2240
477 1310 2345
512 1333 2447
546 1357 2549
579 1384 2650
611 1411 2751
643 1442 2852
676 1475 2953
707 1510 3055
721 1544 3173
848 1261 614
825 1266 648
789 1278 660
777 1282 729
781 1283 839
720 1300 987
597 1326 1119
397 1358 1239
0 1395 1364
0 1402 1520
46 1405 1668
129 1408 1809
219 1412 1945
300 1418 2077
369 1427 2207
432 1437 2334
472 1454 2445
510 1471 2553
547 1491 2658
582 1513 2761
617 1537 2864
651 1564 2967
686 1593 3068
718 1622 3168
730 1651 3286
952 1422 697
933 1427 727
902 1436 737
873 1445 778
880 1447 883
864 1453 1016
778 1474 1162
637 1502 1292
419 1534 1410
0 1569 1533
0 1573 1688
0 1580 1841
86 1583 1985
194 1587 2124
287 1591 2260
367 1597 2394
438 1606 2523
500 1616 2650
540 1632 2760
578 1651 2868
617 1672 2974
653 1695 3079
689 1718 3181
724 1742 3282
735 1768 3398
1056 1583 780
1040 1588 807
1014 1596 817
970 1608 834
978 1610 931
984 1612 1046
935 1625 1196
832 1648 1337
674 1676 1464
435 1707 1582
0 1740 1705
0 1745 1861
0 1752 2014
33 1757 2165
152 1759 2308
268 1762 2446
359 1767 2582
438 1774 2714
508 1783 2844
566 1795 2967
608 1813 3077
647 1831 3185
686 1850 3290
723 1871 3394
735 1894 3513
