Toning/Toning-Coffee.3dl
#25pt 3DLUT created by 3D LUT Creator Pro (c) Oleg Sharonov
#Copyright Oleg Sharonov
#INPUTGAMMA sRGB IEC61966-2.1 v.2.10
#IMAGEPROFILE sRGB IEC61966-2.1 v.2.10
#OUTPUTGAMMA sRGB IEC61966-2.1 v.2.10
0 43 86 128 171 214 256 299 341 384 427 469 512 555 597 640 682 725 768 810 853 896 938 981 1023 
493 217 230
493 217 290
492 217 350
492 216 411
492 216 476
492 217 545
493 218 620
496 221 701
501 225 788
510 231 879
520 238 971
534 249 1064
551 261 1157
571 276 1251
595 294 1345
622 314 1440
652 335 1536
683 357 1631
714 380 1728
745 404 1825
777 429 1923
809 455 2021
841 482 2119
873 509 2218
906 537 2318
493 278 230
492 278 290
492 278 357
492 278 426
493 279 496
495 282 571
498 284 649
503 288 734
510 294 820
519 301 909
532 310 998
547 320 1089
565 334 1180
586 350 1272
610 368 1365
637 388 1459
667 408 1553
697 429 1648
728 452 1744
758 476 1840
789 500 1937
820 526 2034
852 552 2132
884 579 2230
916 608 2329
506 354 237
504 353 298
492 349 363
494 350 439
497 350 519
501 353 602
507 357 687
514 361 771
523 368 856
534 376 943
548 385 1030
564 398 1118
584 412 1209
606 429 1299
631 447 1390
659 465 1483
687 485 1576
716 506 1669
745 528 1764
774 552 1859
804 575 1955
835 600 2051
866 626 2149
897 653 2246
929 681 2345
538 455 255
536 453 316
523 447 383
500 438 449
506 438 541
512 439 635
520 443 725
531 448 812
542 455 898
556 464 983
573 476 1071
591 488 1158
611 502 1246
636 518 1334
661 535 1424
687 552 1515
715 572 1607
742 591 1700
770 613 1793
799 636 1887
827 659 1982
857 683 2077
887 709 2174
917 734 2270
948 761 2368
592 586 286
590 585 347
578 578 413
551 566 487
518 548 559
530 549 661
542 550 757
555 555 850
569 561 940
586 569 1028
606 579 1115
626 590 1202
650 602 1289
674 617 1378
698 632 1467
723 648 1556
749 667 1647
775 686 1738
802 706 1830
829 728 1923
857 750 2016
885 774 2111
914 798 2206
943 823 2302
973 850 2398
669 734 333
666 732 394
655 724 460
630 711 532
592 693 605
550 673 677
568 673 782
586 675 881
605 679 976
624 685 1069
645 693 1160
669 702 1248
693 713 1336
716 726 1425
740 739 1513
764 755 1603
789 772 1693
813 789 1783
840 808 1874
866 829 1966
892 850 2058
919 873 2152
947 896 2246
975 920 2340
1004 946 2436
752 894 385
750 892 446
740 884 511
722 870 579
688 850 653
644 826 725
597 805 800
622 805 906
648 807 1008
670 811 1105
693 817 1200
714 825 1293
736 834 1384
760 844 1474
784 857 1563
808 871 1652
832 886 1742
856 902 1832
881 920 1923
907 939 2014
933 959 2106
959 980 2198
985 1002 2291
1012 1026 2385
1040 1050 2479
836 1063 439
834 1062 500
826 1055 564
811 1040 631
785 1019 702
746 994 775
703 965 846
660 946 925
689 945 1033
716 948 1136
739 951 1236
762 957 1333
784 964 1428
806 973 1522
830 984 1613
854 996 1704
878 1009 1794
902 1024 1884
927 1040 1975
951 1058 2066
977 1076 2157
1002 1096 2250
1028 1117 2342
1054 1139 2435
1081 1163 2529
922 1242 496
921 1241 556
914 1233 620
900 1219 687
879 1197 755
846 1171 827
806 1140 898
763 1108 968
728 1093 1052
757 1093 1163
785 1094 1268
810 1098 1369
833 1103 1469
856 1110 1565
878 1119 1661
901 1129 1755
925 1141 1847
949 1154 1938
974 1169 2029
998 1184 2121
1023 1202 2212
1048 1221 2304
1073 1240 2396
1099 1261 2489
1125 1282 2582
1010 1427 555
1008 1425 615
1002 1418 678
989 1404 744
971 1383 811
944 1355 880
907 1324 952
867 1290 1022
822 1253 1091
797 1247 1182
827 1246 1294
856 1248 1401
882 1251 1505
905 1256 1606
929 1263 1704
951 1272 1802
975 1282 1897
997 1293 1992
1022 1306 2085
1047 1320 2177
1072 1336 2269
1096 1352 2361
1121 1371 2454
1146 1390 2546
1171 1410 2639
1098 1615 616
1096 1613 676
1091 1606 739
1079 1593 803
1062 1572 869
1038 1545 936
1006 1513 1007
968 1477 1076
926 1439 1145
877 1400 1213
868 1406 1316
897 1406 1429
928 1407 1537
955 1410 1643
979 1415 1745
1003 1421 1846
1026 1430 1945
1050 1440 2042
1073 1451 2138
1096 1463 2233
1121 1477 2326
1146 1492 2420
1171 1509 2513
1196 1526 2606
1220 1545 2700
1185 1803 678
1183 1801 738
1178 1795 800
1168 1782 864
1152 1762 929
1130 1736 995
1103 1704 1062
1066 1668 1132
1026 1628 1200
983 1587 1267
949 1563 1347
941 1570 1451
969 1570 1565
1001 1570 1676
1029 1574 1783
1054 1578 1887
1079 1584 1990
1102 1593 2090
1125 1602 2189
1149 1613 2287
1172 1625 2383
1196 1638 2479
1221 1653 2573
1246 1669 2667
1271 1686 2761
1271 1993 741
1270 1991 801
1265 1985 863
1255 1972 925
1240 1953 990
1220 1927 1055
1195 1895 1120
1162 1858 1188
1123 1818 1255
1081 1776 1321
1035 1730 1386
1023 1731 1483
1015 1738 1588
1043 1738 1705
1076 1738 1817
1104 1741 1925
1130 1745 2032
1155 1751 2135
1179 1759 2237
1202 1768 2338
1226 1779 2437
1249 1790 2535
1272 1804 2633
1297 1817 2729
1322 1833 2824
1355 2185 804
1353 2183 864
1349 2177 925
1340 2165 988
1326 2146 1051
1307 2120 1115
1284 2087 1179
1255 2049 1243
1217 2008 1310
1176 1963 1375
1131 1916 1439
1102 1895 1520
1098 1901 1622
1090 1908 1729
1118 1908 1847
1151 1909 1960
1180 1911 2070
1207 1915 2178
1232 1921 2284
1256 1929 2387
1280 1937 2489
1304 1948 2590
1327 1959 2690
1351 1972 2789
1374 1986 2887
1435 2374 866
1434 2373 926
1430 2367 987
1422 2355 1049
1409 2337 1111
1391 2311 1174
1368 2279 1237
1341 2240 1299
1307 2197 1364
1266 2151 1428
1222 2101 1491
1181 2063 1560
1178 2069 1660
1174 2076 1764
1165 2084 1872
1193 2084 1991
1227 2084 2106
1257 2087 2218
1284 2091 2327
1310 2097 2434
1334 2104 2539
1359 2113 2643
1382 2123 2745
1406 2134 2846
1430 2147 2947
1512 2559 926
1511 2558 986
1507 2552 1047
1499 2540 1108
1487 2523 1170
1469 2498 1231
1448 2466 1293
1421 2428 1354
1391 2384 1415
1351 2336 1478
1307 2285 1540
1261 2238 1604
1258 2244 1702
1255 2250 1803
1251 2257 1908
1242 2266 2017
1269 2266 2138
1304 2266 2254
1335 2269 2368
1363 2273 2479
1388 2278 2587
1414 2285 2694
1438 2294 2799
1462 2304 2903
1486 2316 3006
1583 2736 983
1582 2734 1043
1579 2729 1104
1571 2718 1164
1559 2701 1225
1543 2677 1286
1522 2646 1346
1496 2608 1406
1466 2565 1466
1429 2517 1526
1385 2464 1586
1341 2418 1650
1338 2424 1747
1336 2430 1846
1333 2437 1949
1328 2444 2055
1320 2453 2165
1346 2454 2288
1382 2454 2405
1413 2456 2520
1442 2459 2633
1468 2465 2743
1493 2472 2852
1518 2480 2958
1542 2490 3063
1648 2902 1037
1647 2901 1097
1644 2896 1157
1636 2885 1217
1625 2869 1277
1609 2845 1337
1589 2816 1396
1564 2779 1455
1534 2737 1513
1500 2688 1570
1456 2636 1629
1421 2602 1699
1419 2608 1794
1416 2614 1892
1414 2620 1993
1411 2627 2098
1407 2635 2205
1399 2644 2316
1425 2645 2440
1461 2645 2559
1492 2646 2675
1521 2650 2789
1548 2655 2901
1574 2662 3011
1599 2671 3119
1706 3057 1085
1705 3056 1144
1701 3050 1205
1695 3041 1264
1684 3025 1324
1668 3003 1383
1648 2974 1441
1623 2939 1499
1594 2898 1555
1560 2850 1611
1518 2797 1667
1503 2790 1751
1500 2795 1845
1498 2801 1942
1495 2807 2041
1493 2814 2143
1491 2821 2249
1486 2829 2358
1479 2838 2470
1504 2839 2596
1540 2839 2716
1572 2840 2833
1601 2844 2949
1629 2849 3062
1655 2856 3174
1755 3199 1127
1755 3198 1187
1751 3193 1246
1745 3184 1306
1734 3169 1365
1719 3148 1423
1699 3120 1481
1675 3087 1537
1646 3046 1592
1611 3000 1646
1588 2975 1715
1585 2979 1806
1582 2984 1898
1580 2990 1994
1578 2996 2092
1576 3002 2193
1573 3009 2296
1571 3016 2403
1567 3025 2513
1559 3034 2626
1583 3035 2754
1620 3035 2875
1653 3036 2994
1682 3039 3111
1710 3044 3226
1796 3328 1162
1795 3327 1222
1792 3323 1281
1785 3314 1340
1775 3300 1399
1760 3280 1457
1741 3254 1514
1717 3222 1569
1687 3183 1623
1667 3162 1690
1668 3165 1775
1668 3169 1862
1665 3174 1955
1662 3179 2049
1660 3185 2146
1658 3191 2245
1656 3197 2347
1654 3204 2452
1652 3212 2560
1648 3220 2671
1641 3230 2786
1664 3231 2914
1701 3230 3037
1734 3231 3158
1811 3226 3255
1831 3444 1193
1830 3444 1252
1824 3440 1309
1817 3432 1368
1807 3419 1426
1792 3400 1484
1773 3376 1540
1747 3347 1596
1748 3350 1674
1748 3352 1754
1749 3355 1837
1750 3359 1923
1748 3363 2013
1746 3368 2107
1744 3373 2202
1741 3379 2300
1740 3385 2401
1738 3392 2504
1736 3399 2610
1734 3406 2719
1730 3415 2832
1723 3424 2948
1746 3425 3078
1840 3413 3185
1934 3402 3285
1899 3536 1249
1897 3536 1308
1890 3533 1364
1873 3529 1415
1852 3524 1466
1853 3525 1536
1855 3526 1608
1857 3527 1683
1860 3529 1760
1863 3531 1840
1867 3533 1922
1871 3535 2007
1875 3538 2095
1875 3542 2186
1876 3546 2279
1878 3551 2375
1880 3556 2472
1884 3561 2571
1889 3566 2673
1894 3572 2776
1899 3579 2882
1902 3586 2990
1903 3594 3100
1968 3587 3222
2064 3574 3332
2062 3665 1388
2062 3665 1450
2063 3665 1512
2064 3666 1576
2065 3666 1642
2066 3667 1709
2069 3668 1778
2071 3670 1849
2074 3672 1922
2077 3673 1997
2081 3676 2073
2086 3678 2152
2091 3681 2233
2094 3684 2317
2098 3688 2402
2101 3693 2489
2106 3698 2578
2111 3703 2668
2118 3708 2760
2125 3714 2854
2133 3720 2949
2141 3727 3045
2149 3734 3148
2155 3743 3267
2202 3740 3404
2258 3808 1562
2259 3808 1624
2259 3809 1686
2260 3809 1748
2261 3810 1812
2263 3811 1878
2265 3812 1945
2267 3814 2013
2270 3815 2083
2274 3817 2154
2278 3819 2226
2282 3822 2301
2287 3825 2376
2293 3828 2454
2297 3832 2533
2301 3836 2614
2307 3841 2696
2313 3846 2779
2320 3851 2863
2328 3857 2949
2336 3863 3043
2345 3869 3145
2355 3876 3255
2364 3883 3373
2373 3891 3498
553 217 230
552 217 290
552 216 352
552 216 419
552 217 489
553 217 562
555 219 638
559 222 720
566 227 807
574 233 896
586 241 987
600 251 1077
617 264 1169
638 279 1263
661 297 1356
689 317 1450
719 339 1545
749 360 1640
780 382 1736
811 407 1832
842 432 1930
874 457 2027
906 484 2125
938 511 2224
970 539 2323
557 278 230
555 278 291
554 278 359
555 279 429
557 280 502
559 283 578
563 285 658
569 290 743
577 296 830
587 303 917
599 312 1005
615 324 1096
633 337 1186
655 353 1278
679 371 1371
706 391 1464
736 411 1558
765 432 1653
795 455 1748
825 479 1844
855 503 1941
886 528 2038
917 555 2136
949 582 2234
980 609 2335
571 354 237
569 354 299
556 351 366
561 351 444
564 352 526
569 354 608
575 359 693
582 364 778
591 370 863
603 379 949
617 389 1037
633 401 1125
653 416 1214
675 432 1304
700 450 1396
727 469 1487
755 488 1580
784 509 1674
812 531 1768
841 554 1863
871 578 1959
901 603 2055
932 629 2152
962 656 2250
993 683 2350
602 455 254
602 453 317
589 448 383
566 440 454
575 440 547
583 442 641
591 445 731
602 451 817
613 458 904
628 467 990
643 479 1076
661 492 1163
683 506 1251
706 521 1340
731 538 1429
756 556 1520
782 575 1612
809 595 1704
837 616 1797
865 638 1891
894 661 1985
922 686 2081
952 711 2177
982 737 2274
1011 764 2373
654 588 283
656 585 348
645 578 414
617 566 489
587 551 563
602 551 665
614 553 762
627 558 854
641 565 945
659 572 1032
678 582 1119
698 593 1206
721 605 1294
744 620 1382
768 635 1471
792 652 1561
817 670 1650
842 689 1742
869 709 1834
895 730 1926
923 752 2020
951 776 2114
979 800 2209
1008 826 2305
1036 852 2404
730 734 329
731 732 394
721 724 460
697 711 532
657 693 606
621 676 682
641 675 785
660 677 885
679 682 980
698 687 1073
719 696 1164
741 705 1252
763 716 1340
785 728 1428
809 742 1517
832 757 1606
856 774 1696
881 792 1786
906 811 1877
932 831 1969
958 853 2061
985 875 2154
1013 898 2248
1040 923 2343
1067 948 2441
812 894 382
814 891 445
805 884 511
787 870 579
753 850 653
711 827 726
669 808 804
697 808 909
721 810 1011
743 814 1109
764 820 1203
785 827 1296
807 836 1388
830 847 1477
853 859 1566
876 873 1655
900 888 1745
924 904 1835
948 922 1926
973 941 2017
998 961 2108
1024 982 2201
1050 1005 2294
1077 1028 2388
1103 1052 2484
897 1064 437
898 1062 500
890 1054 564
874 1040 631
849 1019 702
811 994 775
768 966 847
731 948 928
761 948 1036
787 950 1139
810 953 1239
832 959 1336
854 966 1431
875 975 1525
898 986 1616
922 998 1706
945 1011 1797
969 1026 1887
993 1042 1978
1017 1060 2069
1042 1079 2160
1067 1098 2252
1093 1119 2344
1118 1142 2438
1144 1164 2534
983 1243 494
984 1240 556
977 1233 620
963 1218 687
943 1197 755
910 1171 827
871 1141 899
827 1108 969
798 1095 1055
827 1095 1165
855 1096 1270
879 1100 1372
902 1105 1471
924 1113 1568
946 1121 1663
968 1131 1758
992 1143 1849
1016 1156 1941
1040 1171 2032
1064 1187 2123
1088 1204 2214
1113 1222 2306
1138 1242 2399
1163 1263 2491
1188 1284 2587
1070 1427 553
1071 1425 615
1065 1418 678
1052 1404 744
1033 1383 811
1007 1356 880
971 1324 952
930 1290 1022
887 1254 1092
866 1249 1185
895 1248 1297
925 1250 1403
950 1253 1507
973 1258 1608
996 1265 1707
1019 1273 1804
1041 1283 1900
1064 1295 1995
1088 1308 2087
1112 1322 2179
1137 1338 2271
1161 1355 2364
1186 1373 2456
1211 1392 2549
1234 1412 2644
1157 1615 614
1159 1613 676
1153 1606 739
1141 1593 803
1124 1572 869
1101 1545 937
1069 1513 1007
1030 1478 1077
989 1439 1146
946 1401 1215
936 1408 1317
965 1407 1431
996 1408 1539
1022 1412 1645
1046 1417 1748
1069 1423 1848
1093 1432 1947
1115 1441 2044
1138 1452 2141
1161 1465 2235
1186 1479 2329
1211 1494 2422
1235 1510 2515
1260 1528 2608
1283 1547 2704
