Toning/Toning-Contrast film emulation.3dl
#25pt 3DLUT created by 3D LUT Creator Pro (c) Oleg Sharonov
#Copyright Oleg Sharonov
#INPUTGAMMA sRGB
#IMAGEPROFILE sRGB
#OUTPUTGAMMA sRGB
0 256 512 768 1023
0 0 0
0 0 518
0 0 1258
0 0 2225
1315 1311 2814
0 428 0
0 445 506
0 0 1258
0 0 2225
1315 1311 2814
0 1051 0
0 1137 620
0 1254 1476
0 1036 2309
1315 1311 2814
0 1844 0
0 1973 868
0 2098 1781
0 2203 2687
1930 2647 3255
1864 2749 1410
1898 2815 1668
2020 3005 2336
2302 3268 3062
2729 3568 3697
513 0 0
454 0 488
0 0 1258
0 0 2225
1315 1311 2814
616 488 0
499 488 449
0 0 1258
0 0 2225
1315 1311 2814
871 1212 0
561 1331 437
0 1253 1476
0 1031 2309
1315 1311 2814
1352 2106 0
31 2011 0
0 2097 1781
0 2203 2687
1928 2645 3254
2211 2857 1489
2192 2908 1736
2020 3005 2336
2302 3268 3062
2729 3568 3697
1261 0 0
1194 0 538
1270 0 1290
179 0 2254
1315 1311 2814
1540 646 0
1480 363 374
1271 0 1290
188 0 2254
1315 1311 2814
2091 1537 0
2194 1612 0
1864 1718 1612
0 1000 2347
1315 1311 2814
2693 2414 0
2689 2485 0
2354 2776 1973
0 2213 2702
1923 2638 3251
2938 3128 1746
2922 3182 1977
2882 3332 2586
2362 3291 3077
2729 3568 3697
2203 0 0
2108 0 680
2175 0 1427
2235 0 2145
2171 1663 2945
2657 934 0
2351 0 392
2175 0 1427
2235 0 2145
2172 1664 2945
3205 1939 0
3230 1944 240
3005 2053 1866
2695 1589 2600
2174 1665 2945
3590 2734 0
3459 2914 1141
3336 3076 2292
3232 3169 3107
2675 2895 3438
3504 3439 2209
3501 3483 2386
3502 3605 2857
3514 3752 3429
3193 3748 3830
3020 1519 1256
3037 1582 1494
3104 1792 2111
3273 2179 2810
3504 2718 3463
3129 1771 1338
3106 1737 1545
3104 1792 2111
3273 2179 2810
3504 2718 3464
3422 2485 1634
3423 2526 1860
3442 2614 2433
3417 2545 2952
3505 2719 3464
3664 3170 2123
3672 3211 2307
3709 3319 2787
3772 3439 3350
3802 3433 3788
3834 3690 2680
3848 3723 2799
3898 3824 3161
3985 3961 3641
4095 4095 4095
