Toning/Toning-Film Warmth.3dl
#25pt 3DLUT created by 3D LUT Creator Pro (c) Oleg Sharonov
#Copyright Oleg Sharonov
#INPUTGAMMA sRGB IEC61966-2.1 v.2.10
#IMAGEPROFILE sRGB IEC61966-2.1 v.2.10
#OUTPUTGAMMA sRGB IEC61966-2.1 v.2.10
0 128 256 384 512 640 768 896 1023
0 9 9
0 0 515
0 0 1008
0 0 1473
0 0 1881
0 0 2207
0 0 2437
0 0 2573
0 0 2621
0 505 22
0 526 525
0 519 1016
0 511 1476
0 502 1882
0 486 2207
0 462 2436
0 437 2573
0 424 2621
0 993 37
0 1013 530
0 1029 1028
0 1025 1489
0 1018 1889
0 1011 2210
0 1003 2437
0 992 2573
0 981 2621
0 1455 65
0 1465 545
0 1498 1015
0 1500 1498
0 1498 1903
0 1489 2217
0 1481 2441
0 1471 2574
0 1460 2621
0 1862 96
0 1867 560
0 1883 1040
0 1914 1486
0 1909 1907
0 1908 2228
0 1897 2445
0 1886 2575
0 1873 2621
0 2189 127
0 2192 571
0 2200 1050
0 2217 1499
0 2232 1900
0 2229 2227
0 2227 2451
0 2215 2577
0 2201 2621
0 2423 127
0 2424 570
0 2428 1050
0 2435 1507
0 2449 1894
0 2452 2221
0 2448 2447
0 2445 2578
0 2433 2621
0 2565 34
0 2566 533
0 2567 1032
0 2570 1497
0 2574 1899
0 2582 2202
0 2578 2441
0 2575 2575
0 2571 2621
1060 2654 788
954 2653 917
573 2641 1146
0 2621 1462
0 2621 1880
0 2621 2205
0 2621 2430
0 2621 2569
1109 2738 3020
738 59 0
679 70 582
633 44 1110
565 16 1596
455 0 2005
280 0 2295
63 0 2458
0 0 2573
34 0 2633
710 494 122
640 544 587
593 490 1129
524 464 1606
405 433 2004
209 394 2279
0 346 2440
0 303 2574
0 295 2621
599 1010 151
486 1032 608
170 1049 1070
0 1029 1500
0 1017 1897
0 1007 2215
0 996 2440
0 983 2574
0 973 2621
549 1467 175
409 1480 618
0 1503 1031
0 1508 1506
0 1502 1909
0 1491 2221
0 1481 2443
0 1470 2575
0 1458 2621
489 1872 206
319 1878 624
0 1887 1054
0 1925 1481
0 1914 1912
0 1911 2231
0 1899 2447
0 1887 2576
0 1873 2621
429 2197 231
238 2199 626
0 2203 1063
0 2219 1506
0 2236 1902
0 2231 2230
0 2229 2452
0 2216 2578
0 2202 2621
445 2429 229
266 2431 628
0 2429 1063
0 2437 1513
0 2450 1898
0 2454 2222
0 2450 2449
0 2446 2579
0 2434 2621
633 2569 123
524 2578 611
111 2571 1063
0 2570 1504
0 2574 1902
0 2582 2205
0 2579 2442
0 2575 2575
0 2571 2621
1242 2659 708
1155 2663 866
875 2657 1143
480 2642 1570
0 2621 1882
0 2621 2206
0 2621 2430
0 2621 2569
1304 2777 3090
1510 167 0
1468 204 626
1408 212 1232
1360 186 1774
1322 137 2238
1272 84 2601
1222 23 2851
1201 0 3000
1259 0 3075
1465 586 15
1429 612 650
1367 614 1243
1327 587 1779
1291 564 2238
1243 537 2597
1196 505 2845
1179 476 2993
1235 468 3066
1452 995 360
1420 1014 764
1338 1082 1240
1293 1026 1804
1253 1004 2252
1205 984 2601
1159 963 2841
1145 945 2985
1207 945 3056
1340 1494 385
1276 1517 774
1158 1550 1249
962 1566 1731
873 1546 2158
837 1532 2491
817 1520 2726
864 1511 2885
1045 1515 2998
1279 1900 422
1227 1918 783
1090 1941 1260
854 1969 1676
419 1946 2039
24 1917 2246
184 1910 2515
507 1915 2759
916 1935 2951
1257 2223 431
1202 2240 789
1054 2255 1264
744 2258 1687
0 2247 1903
0 2238 2236
0 2232 2456
0 2218 2579
754 2254 2893
1269 2454 419
1216 2471 784
1074 2484 1266
768 2479 1699
0 2452 1909
0 2458 2225
0 2452 2452
0 2448 2580
599 2473 2836
1358 2592 332
1314 2614 745
1197 2631 1257
962 2628 1726
474 2601 2041
0 2582 2212
0 2580 2443
0 2576 2576
762 2632 2896
1618 2652 355
1560 2672 642
1475 2703 1219
1333 2719 1758
1106 2710 2182
746 2671 2439
34 2623 2435
933 2705 2901
1695 2881 3231
2227 311 0
2202 346 632
2150 430 1316
2096 404 1936
2047 387 2446
2030 333 2842
2016 271 3123
2023 186 3292
2079 92 3369
2200 653 0
2176 690 662
2127 742 1328
2070 736 1942
2026 720 2448
2010 693 2841
1997 663 3119
2006 631 3286
2062 602 3363
2156 1086 157
2127 1132 751
2083 1173 1362
2025 1184 1955
1990 1167 2455
1973 1151 2841
1962 1136 3114
1973 1124 3277
2031 1123 3352
2150 1491 644
2132 1515 977
2089 1561 1470
2005 1652 1942
1966 1604 2480
1948 1594 2856
1939 1583 3119
1953 1576 3276
2014 1585 3346
2045 1945 652
2013 1973 976
1927 2019 1465
1823 2073 1935
1670 2087 2390
1632 2078 2760
1668 2076 3026
1745 2083 3202
1894 2102 3303
1978 2280 701
1946 2304 1003
1881 2344 1466
1766 2380 1946
1643 2421 2327
1427 2389 2690
1386 2381 2934
1570 2409 3140
1831 2460 3281
1981 2509 682
1956 2537 985
1891 2578 1460
1773 2609 1950
1598 2620 2355
1367 2607 2649
1295 2597 2898
1356 2607 3065
1791 2707 3266
2042 2643 596
2020 2677 933
1963 2724 1437
1862 2760 1950
1709 2772 2385
1510 2758 2687
1404 2751 2922
1560 2793 3131
1835 2871 3282
2192 2662 287
2175 2724 780
2135 2792 1370
2064 2846 1938
1964 2876 2420
1838 2880 2779
1701 2865 3005
1901 2939 3244
2249 3072 3429
2866 457 0
2850 498 578
2813 559 1397
2767 646 2058
2723 623 2629
2680 615 3055
2685 538 3354
2707 443 3536
2765 298 3615
2849 736 0
2834 786 618
2798 848 1408
2754 943 2048
2707 914 2632
2667 906 3055
2673 861 3352
2696 809 3532
2755 743 3612
2810 1143 0
2796 1215 718
2764 1281 1440
2725 1366 2055
2671 1363 2637
2638 1357 3056
2646 1338 3349
2671 1318 3526
2733 1293 3604
2782 1581 413
2766 1640 898
2727 1718 1515
2689 1795 2100
2639 1822 2649
2614 1821 3064
2619 1821 3349
2643 1819 3519
2705 1824 3594
2782 1981 951
2771 2018 1227
2745 2084 1695
2702 2164 2200
2627 2274 2630
2601 2245 3084
2610 2251 3361
2640 2254 3524
2703 2270 3593
2692 2357 928
2674 2399 1205
2628 2468 1676
2545 2541 2182
2468 2612 2609
2364 2638 2995
2378 2650 3279
2472 2677 3463
2614 2716 3561
2658 2599 943
2638 2644 1214
2588 2713 1678
2521 2781 2176
2445 2838 2622
2399 2894 2944
2301 2887 3245
2369 2917 3426
2595 2998 3554
2668 2735 897
2657 2782 1173
2628 2857 1642
2578 2934 2160
2509 2994 2627
2429 3031 2987
2363 3049 3246
2447 3100 3448
2617 3173 3562
2778 2747 634
2770 2815 997
2749 2914 1546
2714 3011 2119
2667 3091 2628
2614 3141 3027
2567 3170 3303
2644 3233 3508
2864 3349 3651
3386 599 0
3377 642 421
3355 722 1416
3321 822 2161
3290 876 2767
3262 858 3234
3235 849 3548
3264 713 3735
3319 500 3815
3376 829 0
3368 884 476
3346 974 1429
3313 1072 2166
3281 1139 2767
3253 1127 3234
3228 1120 3548
3258 1028 3733
3314 905 3813
3353 1203 0
3345 1284 601
3325 1392 1465
3293 1493 2181
3261 1588 2763
3231 1582 3237
3211 1578 3547
3243 1533 3730
3301 1473 3809
3318 1605 32
3309 1735 798
3291 1851 1537
3262 1958 2212
3244 2081 2743
3200 2078 3240
3188 2080 3546
3222 2066 3726
3283 2048 3802
3308 2054 664
3299 2132 1069
3279 2247 1666
3245 2367 2274
3220 2477 2793
3185 2522 3250
3179 2536 3552
3208 2545 3725
3267 2558 3796
3313 2446 1245
3307 2495 1479
3293 2589 1917
3269 2699 2420
3237 2805 2879
3186 2919 3231
3184 2915 3567
3220 2934 3735
3279 2958 3801
3254 2710 1165
3245 2768 1413
3223 2871 1866
3182 2986 2384
3123 3083 2854
3082 3164 3209
3039 3205 3502
3101 3245 3690
3228 3300 3782
3256 2844 1096
3247 2908 1359
3225 3018 1829
3185 3137 2360
3140 3238 2841
3110 3318 3222
3111 3387 3482
3122 3425 3690
3244 3493 3788
3300 2857 909
3293 2934 1219
3275 3061 1739
3261 3197 2295
3243 3318 2811
3226 3414 3229
3216 3482 3529
3242 3538 3720
3378 3634 3837
3764 731 0
3760 736 0
3748 878 1363
3730 982 2201
3706 1115 2853
3693 1093 3356
3684 1049 3695
3681 987 3885
3723 690 3961
3759 925 0
3755 935 47
3744 1099 1379
3725 1211 2207
3702 1339 2856
3688 1345 3357
3679 1313 3695
3677 1268 3884
3721 1063 3960
3747 1265 0
3743 1315 273
3732 1493 1420
3715 1624 2223
3692 1749 2863
3677 1797 3358
3668 1784 3695
3667 1759 3883
3715 1637 3958
3727 1645 0
3723 1763 561
3713 1946 1494
3697 2096 2255
3676 2228 2878
3660 2318 3355
3651 2316 3696
3655 2302 3881
3706 2242 3955
3710 2015 151
3705 2187 864
3692 2368 1608
3675 2535 2308
3658 2673 2904
3656 2805 3326
3632 2808 3697
3644 2809 3880
3697 2790 3951
3707 2460 841
3703 2556 1203
3693 2710 1783
3677 2875 2399
3655 3024 2950
3644 3144 3373
3630 3198 3703
3644 3216 3883
3693 3228 3950
3715 2836 1462
3713 2896 1673
3707 3013 2083
3696 3156 2581
3682 3291 3055
3666 3407 3435
3644 3505 3692
3664 3519 3894
3710 3543 3956
3694 2959 1271
3691 3032 1515
3682 3168 1970
3667 3326 2502
3645 3469 3005
3617 3580 3409
3608 3662 3682
3617 3715 3867
3694 3764 3951
3724 2928 982
3721 3025 1291
3714 3188 1822
3701 3367 2411
3684 3529 2955
3670 3652 3385
3675 3746 3691
3690 3809 3876
3757 3872 3973
4001 843 0
3999 846 0
3995 993 1201
3987 1110 2160
3977 1213 2885
3967 1366 3403
3967 1182 3776
3973 1018 3983
3986 740 4056
3999 1011 0
3997 1013 0
3993 1187 1218
3986 1321 2166
3975 1432 2888
3965 1568 3406
3965 1445 3776
3971 1324 3983
3985 1128 4055
3994 1322 0
3993 1322 0
3988 1551 1261
3981 1715 2182
3971 1845 2894
3961 1970 3411
3961 1923 3778
3967 1848 3983
3982 1729 4054
3986 1684 0
3984 1684 0
3980 1987 1336
3974 2178 2211
3964 2333 2906
3955 2457 3418
3954 2477 3779
3961 2436 3983
3977 2364 4052
3974 2020 0
3973 2107 316
3969 2408 1444
3963 2620 2258
3955 2794 2926
3948 2926 3428
3946 2998 3777
3953 2981 3983
3972 2938 4051
3972 2268 0
3970 2509 786
3965 2752 1591
3956 2978 2326
3946 3169 2957
3941 3309 3442
3945 3421 3758
3946 3417 3983
3970 3400 4050
3973 2710 794
3972 2836 1181
3969 3033 1787
3963 3241 2428
3955 3430 3009
3945 3580 3467
3943 3688 3784
3946 3728 3984
3972 3732 4051
3981 3069 1492
3980 3141 1704
3979 3280 2117
3976 3452 2627
3972 3617 3121
3968 3755 3528
3965 3856 3817
3963 3926 3982
3985 3938 4055
3987 2964 988
3986 3073 1305
3984 3261 1845
3981 3468 2448
3977 3660 3010
3973 3814 3464
3969 3924 3789
3973 3992 3982
3997 4030 4059
4088 1158 0
4089 1121 0
4092 1166 1068
4094 1169 2015
4092 1250 2825
4091 1291 3413
4090 1247 3795
4093 792 4014
4094 1109 4093
4089 1229 0
4091 1196 0
4093 1244 924
4093 1364 2020
4092 1465 2827
4091 1520 3413
4090 1517 3795
4092 1175 4014
4094 1304 4094
4093 1394 0
4094 1368 0
4094 1526 859
4093 1737 2033
4092 1870 2831
4090 1954 3414
4089 2041 3785
4092 1778 4015
4094 1694 4094
4093 1709 0
4093 1708 0
4093 1930 938
4092 2187 2055
4091 2356 2839
4089 2470 3416
4088 2541 3794
4091 2422 4016
4095 2270 4095
4092 2037 0
4092 2037 0
4091 2329 1041
4090 2617 2087
4089 2820 2851
4088 2961 3418
4087 3045 3797
4090 3009 4017
4094 2916 4095
4091 2296 0
4090 2297 0
4089 2671 1161
4089 2972 2127
4088 3197 2865
4087 3361 3422
4087 3461 3798
4089 3481 4017
4094 3429 4095
4091 2468 0
4091 2469 0
4090 2921 1317
4089 3216 2184
4088 3458 2885
4086 3641 3425
4087 3758 3797
4089 3815 4012
4094 3792 4094
4092 2578 0
4092 2784 578
4092 3108 1491
4092 3378 2259
4091 3612 2917
4090 3796 3434
4089 3925 3797
4090 4001 4014
4094 4012 4094
4094 2984 1010
4094 3095 1319
4094 3288 1853
4094 3502 2452
4093 3705 3016
4093 3872 3479
4094 3992 3813
4094 4066 4018
4094 4094 4095
