Toning/Toning-Instagrammish 2.3dl
#25pt 3DLUT created by 3D LUT Creator Pro (c) Oleg Sharonov
#Copyright Oleg Sharonov
#IMAGEPROFILE sRGB IEC61966-2.1 v.2.10
#INPUTGAMMA sRGB IEC61966-2.1 v.2.10
#OUTPUTGAMMA sRGB IEC61966-2.1 v.2.10
0 256 512 768 1023
0 339 485
0 271 1012
0 342 1528
0 379 1937
2 395 2333
0 1258 472
0 1170 1015
184 1256 1532
379 1401 1902
475 1248 2328
0 2201 464
113 2144 1013
0 2203 1548
29 2378 1888
4 2235 2336
1 3147 458
268 3091 1044
24 3056 1627
1 3160 1945
1283 3284 2174
4 4095 457
358 4092 993
3 4095 1555
3042 3941 2030
4 4095 2337
1442 322 462
1397 287 1011
1440 415 1546
1662 559 1944
1434 624 2389
1435 1248 453
1379 1217 1012
1440 1251 1563
1491 1279 1995
1518 1294 2399
1424 2195 495
1363 2171 1013
1435 2197 1568
1491 2217 1998
1689 2077 2387
1600 3096 557
1354 3131 1013
1432 3145 1572
1490 3156 2000
1914 3057 2294
1362 4092 543
1350 4095 1013
2104 4056 1597
3353 4058 2054
1518 4095 2401
2548 297 425
2511 348 1009
2552 300 1593
2766 347 1993
2659 364 2472
2542 1226 462
2475 1204 1013
2543 1233 1601
2616 1264 2061
2505 1384 2472
2531 2184 411
2462 2164 1013
2537 2185 1606
2614 2207 2064
2658 2219 2477
2675 3057 439
2453 3128 1014
2533 3139 1610
2613 3151 2066
2699 3153 2426
2526 4095 407
2673 4065 1145
2532 4095 1611
3064 4047 2088
2657 4095 2478
3324 226 323
3271 301 1039
3262 209 1766
3411 303 2165
3481 660 2434
3309 1256 395
3233 1126 1018
3317 1180 1715
3407 1237 2174
3341 1422 2496
3263 2230 304
3220 2110 1018
3308 2148 1726
3405 2189 2179
3445 2230 2535
3295 3118 286
3211 3101 1018
3303 3120 1733
3404 3142 2182
3449 3151 2588
3700 4020 1350
3580 4081 1574
3338 4072 1883
3404 4095 2183
3449 4095 2588
4095 149 214
4094 229 1009
4095 155 1812
3984 744 2224
4095 312 2704
4094 1112 267
4095 1067 1021
4091 1204 1768
4025 1441 2222
4095 1244 2711
4095 2108 184
4095 2048 1024
4095 2112 1842
4060 2209 2313
4095 2194 2714
4005 3239 578
4082 3082 1047
4078 3104 1871
4095 3130 2325
4095 3144 2717
4095 4095 175
4095 4095 1024
4095 4095 1851
4095 4095 2326
4095 4095 2717
