Toning/Toning-More saturation.3dl
#25pt 3DLUT created by 3D LUT Creator Pro (c) Oleg Sharonov
#Copyright Oleg Sharonov
#IMAGEPROFILE sRGB IEC61966-2.1 v.2.10
#INPUTGAMMA sRGB IEC61966-2.1 v.2.10
#OUTPUTGAMMA sRGB IEC61966-2.1 v.2.10
0 43 86 128 171 214 256 299 341 384 427 469 512 555 597 640 682 725 768 810 853 896 938 981 1023 
0 0 0
0 0 202
0 0 386
0 0 583
0 0 777
0 0 972
0 0 1181
0 0 1395
0 0 1603
0 4 1812
0 4 2008
0 4 2192
0 4 2368
0 4 2537
0 4 2697
0 7 2851
0 7 3000
0 7 3142
0 7 3281
0 11 3418
0 11 3551
0 11 3685
0 15 3819
4 15 3954
4 18 4091
0 198 0
0 198 195
0 198 389
0 198 584
0 198 778
0 198 975
0 198 1183
0 198 1397
0 198 1605
0 198 1814
0 198 2009
0 202 2193
0 202 2369
0 202 2538
0 202 2698
0 202 2852
0 205 2999
0 205 3142
0 205 3281
0 205 3418
0 209 3552
0 209 3685
0 209 3819
0 212 3954
4 212 4091
0 395 0
0 397 195
0 395 386
0 397 581
0 397 778
0 397 978
0 397 1187
0 397 1395
0 397 1608
0 397 1817
0 397 2012
0 397 2192
0 399 2371
0 399 2539
0 399 2700
0 399 2853
0 399 3000
0 401 3142
0 401 3281
0 401 3418
0 401 3551
0 403 3685
0 403 3819
0 406 3954
4 405 4091
0 597 0
0 597 195
0 597 389
0 597 583
0 597 778
0 597 976
0 597 1184
0 597 1396
0 598 1610
0 597 1814
0 598 2013
0 597 2194
0 597 2370
0 597 2538
0 598 2699
0 598 2852
0 598 3001
0 598 3143
0 600 3282
0 600 3418
0 600 3552
0 601 3686
0 601 3819
0 601 3954
0 603 4091
0 797 0
0 798 195
0 797 389
0 797 583
0 797 778
0 798 978
0 797 1184
0 798 1397
0 798 1610
0 797 1815
0 798 2013
0 798 2194
0 798 2371
0 798 2539
0 798 2699
0 798 2853
0 799 3001
0 799 3143
0 799 3282
0 799 3419
0 799 3553
0 800 3686
0 800 3820
0 802 3955
0 802 4092
0 998 0
0 998 195
0 999 388
0 999 583
0 999 779
0 998 976
0 999 1184
0 999 1397
0 998 1608
0 999 1816
0 998 2012
0 998 2195
0 998 2372
0 998 2540
0 998 2701
0 998 2854
0 999 3002
0 999 3144
0 999 3283
0 999 3420
0 999 3553
0 1000 3687
0 1000 3820
0 1000 3955
0 1001 4092
0 1198 0
0 1199 195
0 1198 388
0 1199 583
0 1199 778
0 1199 976
0 1199 1184
0 1199 1397
0 1199 1610
0 1199 1816
0 1199 2013
0 1198 2195
0 1198 2372
0 1198 2540
0 1198 2701
0 1198 2854
0 1199 3002
0 1199 3145
0 1199 3283
0 1200 3420
0 1200 3554
0 1200 3687
0 1200 3821
0 1200 3955
0 1200 4093
0 1398 0
0 1398 195
0 1398 388
0 1399 583
0 1399 779
0 1399 976
0 1399 1185
0 1399 1397
0 1398 1609
0 1399 1817
0 1398 2013
0 1398 2196
0 1398 2373
0 1398 2541
0 1398 2702
0 1398 2855
0 1398 3002
0 1398 3145
0 1398 3284
0 1398 3420
0 1399 3554
0 1399 3688
0 1399 3821
0 1399 3956
0 1399 4093
0 1595 0
0 1595 195
0 1596 388
0 1596 583
0 1596 778
0 1596 977
0 1596 1185
0 1596 1396
0 1596 1609
0 1596 1817
0 1596 2013
0 1595 2195
0 1596 2373
0 1596 2542
0 1596 2702
0 1596 2855
0 1595 3003
0 1595 3145
0 1595 3284
0 1595 3420
0 1595 3554
0 1596 3688
0 1596 3821
0 1596 3956
0 1596 4093
0 1791 4
0 1791 195
0 1791 388
0 1791 583
0 1791 779
0 1792 977
0 1792 1184
0 1792 1396
0 1792 1609
0 1792 1817
0 1792 2013
0 1790 2195
0 1791 2373
0 1791 2542
0 1791 2702
0 1791 2855
0 1791 3003
0 1791 3146
0 1791 3285
0 1791 3420
0 1791 3554
0 1791 3688
0 1791 3822
0 1791 3957
0 1792 4094
0 1982 4
0 1982 195
0 1982 388
0 1982 583
0 1983 779
0 1983 977
0 1983 1184
0 1983 1396
0 1983 1608
0 1983 1816
0 1983 2013
0 1982 2195
0 1982 2372
0 1982 2541
0 1982 2701
0 1982 2855
0 1982 3003
0 1982 3146
0 1982 3285
0 1982 3420
0 1982 3555
0 1982 3688
0 1982 3822
0 1982 3957
0 1982 4094
0 2167 4
0 2167 198
0 2167 391
0 2167 584
0 2168 778
0 2168 977
0 2168 1185
0 2168 1396
0 2168 1608
0 2168 1816
0 2168 2012
0 2167 2194
0 2167 2371
0 2167 2540
0 2167 2701
0 2167 2854
0 2167 3002
0 2167 3145
0 2167 3284
0 2167 3420
0 2167 3554
0 2167 3687
0 2167 3821
0 2167 3956
0 2167 4093
0 2353 4
0 2353 198
0 2353 391
0 2353 584
0 2353 778
0 2353 977
0 2354 1184
0 2354 1396
0 2354 1608
0 2353 1815
0 2353 2011
0 2352 2194
0 2352 2371
0 2352 2540
0 2352 2700
0 2352 2854
0 2353 3002
0 2353 3144
0 2353 3284
0 2353 3420
0 2353 3554
0 2353 3688
0 2353 3821
0 2353 3956
0 2353 4094
0 2535 4
0 2535 198
0 2535 391
0 2536 584
0 2536 778
0 2536 977
0 2536 1185
0 2536 1396
0 2537 1608
0 2536 1815
0 2536 2011
0 2535 2194
0 2535 2371
0 2535 2540
0 2535 2700
0 2535 2854
0 2535 3002
0 2535 3145
0 2535 3284
0 2535 3420
0 2535 3554
0 2535 3688
0 2535 3822
0 2535 3957
0 2535 4094
0 2713 4
0 2713 198
0 2713 391
0 2713 584
0 2713 778
0 2714 977
0 2714 1185
0 2714 1396
0 2714 1608
0 2714 1815
0 2714 2012
0 2712 2194
0 2713 2371
0 2713 2540
0 2713 2700
0 2713 2854
0 2713 3002
0 2713 3145
0 2713 3284
0 2713 3420
0 2713 3554
0 2713 3688
0 2713 3822
0 2713 3957
0 2713 4094
0 2886 7
0 2886 198
0 2886 391
0 2886 584
0 2887 780
0 2887 978
0 2887 1185
0 2887 1396
0 2887 1608
0 2887 1815
0 2886 2012
0 2885 2194
0 2886 2371
0 2886 2540
0 2886 2700
0 2886 2854
0 2886 3002
0 2886 3145
0 2886 3284
0 2886 3420
0 2886 3555
0 2886 3688
0 2886 3822
0 2886 3957
7 2886 4094
0 3054 7
0 3053 202
0 3054 393
0 3054 586
0 3054 780
0 3054 978
0 3054 1185
0 3054 1397
0 3054 1608
0 3054 1816
0 3054 2012
0 3053 2194
0 3053 2371
0 3053 2540
0 3053 2700
0 3053 2854
0 3053 3002
0 3053 3145
0 3053 3284
0 3053 3420
0 3053 3555
4 3053 3689
0 3053 3822
0 3053 3957
15 3053 4094
0 3214 7
0 3214 202
0 3214 393
0 3214 586
0 3215 780
0 3215 978
0 3215 1185
0 3215 1397
0 3215 1608
0 3215 1816
0 3215 2012
0 3214 2194
0 3214 2371
0 3214 2540
0 3214 2700
0 3214 2854
0 3214 3002
0 3214 3145
0 3214 3284
0 3214 3420
0 3214 3555
0 3214 3688
4 3214 3823
4 3214 3957
15 3214 4094
0 3366 7
0 3366 202
0 3366 393
0 3366 586
0 3366 781
0 3366 978
0 3366 1186
0 3366 1397
0 3366 1609
0 3366 1816
0 3366 2012
0 3365 2194
0 3365 2371
0 3365 2540
0 3365 2700
0 3365 2854
0 3365 3002
0 3365 3145
0 3366 3284
0 3366 3420
0 3366 3555
0 3366 3688
0 3366 3823
4 3366 3958
26 3365 4094
0 3505 11
0 3505 205
0 3505 393
0 3505 587
0 3505 781
0 3505 979
0 3505 1186
0 3505 1397
0 3505 1609
0 3505 1816
0 3505 2012
0 3504 2194
0 3504 2371
0 3504 2540
0 3504 2700
0 3504 2854
0 3504 3002
0 3504 3145
0 3504 3284
0 3504 3420
0 3504 3554
0 3505 3688
0 3505 3822
0 3505 3957
26 3504 4094
0 3633 11
0 3633 205
0 3633 395
0 3633 587
0 3633 781
0 3634 979
0 3634 1186
0 3634 1397
0 3634 1609
0 3634 1816
0 3633 2012
0 3632 2194
0 3633 2371
0 3633 2540
0 3633 2700
0 3633 2854
0 3633 3002
0 3633 3145
0 3633 3284
0 3633 3420
0 3633 3555
0 3633 3688
0 3633 3822
0 3633 3957
15 3633 4095
0 3754 11
0 3754 205
0 3754 395
0 3754 587
0 3754 782
0 3755 979
0 3755 1186
0 3755 1398
0 3755 1609
0 3755 1816
0 3754 2012
0 3754 2195
0 3754 2371
0 3754 2540
0 3754 2700
0 3754 2854
1 3754 3004
0 3754 3145
0 3754 3284
0 3754 3420
0 3754 3555
0 3754 3688
0 3754 3822
0 3754 3957
11 3754 4095
0 3870 15
0 3870 208
0 3870 397
0 3870 589
0 3870 782
0 3870 980
0 3870 1186
0 3870 1398
0 3870 1609
0 3870 1816
0 3870 2013
0 3869 2195
0 3869 2372
0 3869 2540
0 3870 2700
0 3870 2854
0 3870 3002
1 3870 3147
0 3870 3284
0 3870 3420
0 3870 3555
0 3870 3688
0 3870 3822
0 3870 3957
0 3870 4095
4 3983 15
0 3983 208
0 3983 397
0 3983 589
0 3983 782
0 3983 980
0 3983 1187
0 3983 1398
0 3983 1610
0 3983 1817
0 3983 2013
0 3982 2195
0 3982 2372
0 3982 2540
0 3982 2700
0 3982 2854
0 3982 3002
1 3982 3147
2 3982 3285
0 3983 3420
0 3983 3555
0 3983 3688
0 3983 3822
0 3983 3957
0 3983 4095
4 4095 18
7 4095 212
4 4095 399
4 4095 590
3 4095 783
0 4095 981
0 4095 1187
3 4095 1400
0 4095 1610
0 4095 1817
0 4095 2013
2 4094 2196
0 4094 2372
0 4094 2540
0 4094 2701
0 4094 2854
0 4094 3002
3 4094 3152
6 4094 3291
9 4094 3431
7 4095 3554
4 4095 3688
4 4095 3822
4 4095 3957
4 4095 4095
192 0 0
195 0 195
191 0 384
189 0 580
180 0 786
172 0 1000
157 0 1211
148 0 1437
140 0 1658
124 0 1873
113 0 2083
107 0 2269
92 0 2458
88 0 2634
75 0 2804
73 0 2962
58 0 3119
56 0 3262
72 0 3385
78 0 3516
131 0 3604
184 0 3688
184 0 3822
184 4 3958
184 4 4095
195 190 0
195 191 191
194 190 384
193 190 578
180 191 784
173 191 988
160 192 1210
148 192 1436
140 193 1657
127 193 1874
116 193 2078
109 197 2268
94 198 2458
90 198 2630
77 199 2803
74 199 2959
61 203 3120
58 203 3264
74 202 3387
81 202 3517
132 204 3606
195 201 3685
195 201 3819
195 205 3954
184 194 4095
195 386 0
195 384 192
194 386 384
193 386 578
179 386 784
173 386 988
160 387 1210
148 388 1430
140 388 1651
127 388 1874
116 389 2078
109 391 2269
94 392 2460
90 392 2632
77 393 2805
74 393 2961
61 394 3119
58 397 3265
74 395 3388
81 395 3516
133 395 3606
195 392 3686
195 392 3820
195 394 3953
184 389 4095
195 582 0
195 582 193
194 581 384
193 581 576
180 582 781
173 582 987
160 585 1208
148 584 1429
140 585 1650
127 588 1872
116 587 2077
109 588 2265
94 590 2458
90 591 2631
77 592 2804
74 592 2961
61 593 3120
58 594 3264
74 594 3389
81 593 3517
133 589 3606
195 586 3684
195 586 3818
195 586 3954
184 584 4095
195 782 0
195 782 194
194 782 386
193 781 578
180 781 783
173 783 988
160 785 1209
148 784 1429
140 786 1650
127 787 1871
116 788 2077
109 787 2265
94 790 2458
89 790 2630
77 791 2803
74 792 2960
61 793 3119
58 794 3265
74 793 3387
81 793 3516
133 789 3604
195 785 3681
195 785 3815
195 785 3950
184 784 4092
195 984 0
195 984 194
194 984 387
193 983 579
180 983 784
173 984 990
160 984 1209
148 986 1432
140 987 1651
127 987 1871
116 988 2077
109 989 2266
94 990 2457
90 991 2629
77 992 2803
74 992 2959
61 994 3120
58 994 3264
74 993 3387
81 993 3516
133 989 3603
195 986 3680
195 986 3814
195 986 3949
184 986 4090
195 1186 0
195 1186 194
194 1185 387
193 1184 581
180 1184 786
173 1186 991
160 1187 1212
148 1187 1433
140 1188 1653
127 1189 1873
116 1189 2078
109 1189 2266
94 1190 2458
89 1191 2631
77 1192 2804
74 1192 2960
61 1193 3120
58 1194 3264
74 1193 3387
81 1192 3516
133 1190 3603
195 1187 3680
195 1187 3814
195 1187 3949
184 1187 4089
195 1386 0
195 1386 194
194 1385 388
193 1384 581
179 1384 787
173 1384 991
160 1385 1211
145 1387 1434
140 1386 1653
127 1388 1874
116 1388 2078
109 1388 2268
94 1388 2458
89 1389 2630
77 1390 2804
74 1390 2960
61 1392 3120
58 1392 3265
74 1391 3387
81 1391 3516
134 1389 3603
195 1386 3680
195 1386 3814
195 1386 3949
188 1386 4089
195 1583 0
195 1583 195
194 1583 388
193 1582 582
179 1582 788
173 1582 992
160 1584 1212
148 1584 1434
137 1584 1652
127 1585 1874
116 1585 2079
109 1586 2269
93 1586 2459
89 1586 2631
77 1587 2805
74 1588 2961
61 1588 3120
58 1589 3266
74 1589 3388
81 1588 3516
134 1586 3603
195 1583 3681
195 1583 3815
195 1583 3949
188 1584 4088
192 1781 0
195 1781 195
194 1781 388
193 1780 582
179 1780 789
173 1780 993
160 1781 1213
148 1781 1435
140 1782 1654
125 1783 1874
113 1783 2079
109 1782 2269
94 1782 2460
89 1783 2632
77 1784 2805
74 1784 2962
61 1784 3121
58 1785 3266
74 1784 3389
81 1784 3517
134 1783 3604
195 1782 3683
195 1782 3816
195 1782 3951
188 1782 4090
192 1974 0
195 1974 198
194 1973 388
193 1973 584
179 1972 789
173 1972 993
160 1973 1213
148 1973 1435
140 1973 1654
125 1975 1874
113 1975 2079
107 1974 2268
94 1974 2460
89 1974 2633
77 1975 2806
74 1976 2962
61 1976 3121
58 1976 3266
74 1976 3389
81 1976 3518
134 1975 3604
195 1974 3683
195 1974 3817
195 1974 3952
192 1974 4090
