Toning/Toning-TealOrange-VideoAB-2.3dl
#25pt 3DLUT created by 3D LUT Creator Pro (c) Oleg Sharonov
#Copyright Oleg Sharonov
#IMAGEPROFILE sRGB IEC61966-2.1 v.2.10
#INPUTGAMMA sRGB IEC61966-2.1 v.2.10
#OUTPUTGAMMA sRGB IEC61966-2.1 v.2.10
0 256 512 768 1023
0 0 0
0 92 213
1 390 655
2 670 1085
3 985 1639
1 724 76
2 727 700
2 820 1024
3 1008 1459
4 1259 2027
2 1746 235
3 1746 852
4 1762 1694
5 1828 2329
6 1976 2922
1028 2920 910
1040 2924 1272
1080 2939 2015
1162 2969 2847
1624 3004 3543
2597 4095 2401
2608 4095 2534
2644 4095 2899
2709 4095 3428
2863 4095 3926
668 147 0
842 171 693
3 332 1714
3 754 1520
4 1047 1967
836 753 0
404 950 981
229 988 1333
28 1129 1766
64 1339 2290
847 1777 0
839 1900 1062
734 1900 1847
507 1922 2460
784 2026 3028
1424 2936 915
1469 2973 1348
1492 2987 2072
1551 3016 2894
1889 3039 3574
2748 4095 2433
2761 4095 2567
2793 4095 2926
2852 4095 3448
3083 4095 3926
1410 436 0
1644 258 0
1697 514 1484
1449 640 2496
866 667 3601
1783 797 0
1908 964 787
1732 1136 1856
1438 1053 2847
1086 1241 3406
1921 1821 0
1974 1994 995
1705 2141 2132
1782 2133 2649
1835 2161 3235
2251 2981 1037
2267 3022 1393
2350 3106 2239
2373 3134 3011
2523 3139 3661
3153 4095 2537
3162 4095 2661
3190 4095 3005
3236 4095 3506
3612 4095 3926
2333 729 0
2512 563 0
2828 0 1162
2619 791 2403
2519 985 3221
2599 987 0
2711 1027 640
2959 819 1389
2727 1215 2592
2626 1313 3367
2870 1906 493
2908 1977 1084
2986 2137 2049
2916 2198 2904
2882 2188 3589
3139 3081 1254
3164 3113 1570
3213 3184 2297
3170 3255 3144
3288 3275 3764
3866 4095 3276
3880 4095 3363
3842 4095 3412
3715 4095 3541
3691 4095 3926
3384 895 0
3557 590 0
3691 248 1248
3552 886 2439
3505 1151 3318
3486 1233 461
3503 1290 960
3689 1097 1548
3609 1332 2561
3577 1509 3409
3645 2126 1162
3663 2158 1453
3725 2240 2113
3765 2271 2838
3759 2374 3609
3933 3266 1983
3946 3281 2159
3982 3325 2621
4021 3377 3239
4058 3435 3896
4095 4095 2839
4095 4095 2900
4095 4095 3136
4095 4095 3493
4075 4074 3906
