Toning/Toning-TealOrange-VideoCL.3dl
#25pt 3DLUT created by 3D LUT Creator Pro (c) Oleg Sharonov
#Copyright Oleg Sharonov
#IMAGEPROFILE 
#INPUTGAMMA 
#OUTPUTGAMMA 
0 256 512 768 1023
0 0 0
18 212 300
102 583 753
271 972 1232
467 1372 1716
410 976 834
46 1035 1165
187 1166 1461
390 1398 1745
582 1699 2100
1188 2036 1638
1009 2068 1884
277 2159 2393
306 2261 2714
686 2417 2904
2001 3003 2432
1901 3017 2618
1473 3078 3003
539 3166 3470
267 3248 3789
3147 3756 3408
3110 3768 3471
2942 3811 3644
2570 3896 3922
3037 3887 4074
700 332 34
378 523 664
300 784 1002
403 1107 1397
565 1471 1834
1234 980 330
793 1098 1216
678 1252 1496
685 1480 1805
681 1777 2190
1464 2086 1346
1460 2080 1811
1145 2161 2341
932 2285 2693
779 2462 2957
2108 3041 2217
2157 3026 2523
1819 3081 2970
1293 3164 3434
337 3276 3826
3237 3766 3385
3211 3775 3451
3071 3816 3632
2676 3906 3919
3111 3898 4075
1544 813 145
1579 856 382
1115 1135 1452
878 1433 1784
909 1738 2144
2059 1131 15
1854 1258 909
1424 1473 1739
1142 1725 2080
1042 1984 2427
2529 2052 833
2412 2096 1427
2062 2216 2282
1845 2366 2630
1158 2589 3104
2877 3021 1977
2809 3042 2191
2585 3096 2787
2333 3168 3339
630 3361 3938
3500 3790 3367
3469 3804 3406
3400 3834 3583
3105 3920 3883
3325 3933 4079
2384 1324 314
2409 1349 460
2443 1444 920
2137 1725 1969
1649 2075 2527
2701 1536 222
2590 1618 894
2622 1693 1213
2374 1924 2100
1784 2262 2740
3317 2114 61
3234 2168 1066
2921 2348 2050
2804 2473 2574
2050 2752 3290
3653 3022 1388
3597 3044 1802
3438 3107 2548
3205 3205 3205
2239 3426 3940
3874 3844 3355
3866 3855 3362
3823 3881 3526
3706 3940 3803
3667 3998 4085
3134 1839 485
3151 1855 589
3190 1910 920
3207 2041 1531
2980 2310 2491
3335 1986 428
3353 1999 541
3390 2046 914
3396 2170 1597
3145 2432 2610
3854 2393 123
3874 2398 236
3927 2418 694
3905 2514 1704
3522 2790 2961
4082 3157 2150
4085 3165 2216
4093 3189 2426
4069 3249 2792
3769 3421 3502
4068 3973 3854
4069 3979 3867
4074 3999 3908
4082 4037 3984
4095 4095 4095
