Toning/Toning-Saturate Blues.3dl
#25pt 3DLUT created by 3D LUT Creator Pro (c) Oleg Sharonov
#Copyright Oleg Sharonov
#INPUTGAMMA sRGB IEC61966-2.1 v.2.10
#IMAGEPROFILE sRGB IEC61966-2.1 v.2.10
#OUTPUTGAMMA sRGB IEC61966-2.1 v.2.10
0 256 512 768 1023
0 0 0
11 10 876
62 40 1669
213 128 2430
527 324 2935
40 1132 40
29 836 836
122 332 1384
318 318 2158
668 411 2664
183 2637 183
44 2506 1037
44 2097 2097
563 1370 2583
697 430 2714
434 3671 434
175 3606 1260
44 3401 2346
44 3025 3025
955 2583 3436
793 4095 795
553 4095 1525
44 4095 2488
44 4095 3258
44 3812 3812
951 68 35
906 19 906
550 59 1566
557 156 2336
710 365 2831
1268 1136 145
930 930 930
331 271 1520
436 280 2181
706 437 2731
1323 2645 221
900 2618 900
82 2227 2227
607 1432 2680
734 455 2775
1487 3675 475
985 3690 985
219 3478 2343
44 3091 3091
999 2618 3489
1704 4095 833
1285 4095 1286
577 4095 2447
44 4095 3271
44 3852 3852
2175 534 249
2289 180 885
2092 37 2092
1369 179 2572
700 432 2720
2607 1344 367
2351 1201 889
2230 89 2230
1404 206 2638
737 457 2780
2809 2620 777
2736 2574 1245
2302 2302 2302
1425 1235 2938
859 538 2967
2723 3687 601
2629 3693 1014
2303 3571 2303
1114 3271 3271
1157 2679 3645
2792 4095 951
2685 4095 1350
2303 4095 2303
1396 4095 3278
105 3974 3974
3169 1503 773
3419 766 783
3266 411 2224
3029 44 3029
2570 158 3551
3402 1870 814
3256 1760 1154
3341 653 2212
3094 44 3094
2604 171 3601
3840 2618 972
3778 2565 1317
3365 2445 2250
3271 1148 3271
2657 240 3736
3876 3650 1610
3860 3640 1755
3683 3527 2525
3271 3271 3271
2725 2619 4023
3854 4044 2421
3811 4050 2429
3620 4078 2523
3271 4095 3271
2620 4095 4095
3674 1794 780
3887 1287 904
3898 808 2286
3989 485 3174
3816 44 3816
3856 2048 729
3803 1894 854
4023 931 2210
3991 475 3190
3855 44 3855
4063 2789 1725
4059 2698 1657
4023 2404 1895
4055 1535 3228
3977 139 3977
4062 3681 3263
4064 3649 3218
4072 3536 3087
4052 3302 3164
4095 2633 4095
4071 4010 3695
4071 4011 3702
4074 4022 3756
4082 4051 3897
4095 4095 4095
