Toning/Toning-Sunny desert.3dl
#25pt 3DLUT created by 3D LUT Creator Pro (c) Oleg Sharonov
#Copyright Oleg Sharonov
#IMAGEPROFILE sRGB IEC61966-2.1 v.2.10
#INPUTGAMMA sRGB IEC61966-2.1 v.2.10
#OUTPUTGAMMA sRGB IEC61966-2.1 v.2.10
0 128 256 384 512 640 768 896 1023
0 0 0
19 126 452
44 286 922
74 429 1378
112 583 1872
164 747 2365
219 927 2825
277 1120 3242
336 1321 3613
176 351 151
184 340 434
87 392 941
110 497 1404
143 632 1895
188 787 2386
240 960 2841
295 1151 3256
351 1347 3622
356 704 305
350 698 506
372 687 879
240 728 1462
259 819 1976
285 945 2460
320 1099 2905
363 1271 3304
411 1453 3661
558 1118 481
563 1119 622
524 1102 1000
588 1096 1414
477 1141 2034
435 1231 2564
460 1352 3005
488 1493 3381
521 1652 3727
791 1608 684
790 1617 799
793 1595 1135
725 1585 1588
838 1578 2027
753 1626 2592
630 1702 3088
653 1809 3466
678 1933 3807
1043 2116 899
1016 2131 971
1060 2110 1287
1016 2092 1733
987 2082 2190
1108 2079 2602
1032 2123 3085
841 2179 3540
856 2267 3869
1306 2583 1125
1284 2594 1178
1326 2585 1462
1315 2565 1875
1244 2552 2333
1258 2541 2729
1386 2536 3083
1314 2567 3491
1158 2607 3883
1556 2965 1340
1538 2972 1382
1570 2969 1637
1582 2952 1994
1535 2937 2421
1455 2926 2826
1513 2913 3154
1642 2902 3455
1571 2920 3811
1770 3257 1526
1754 3261 1560
1764 3264 1783
1800 3248 2086
1782 3233 2472
1716 3220 2856
1630 3211 3197
1729 3193 3472
1853 3177 3738
639 0 0
279 125 306
124 267 870
65 415 1392
107 572 1878
159 740 2370
215 920 2828
274 1115 3245
334 1317 3616
724 226 19
365 337 359
234 392 860
101 487 1418
138 624 1904
184 781 2391
236 954 2844
292 1146 3258
348 1344 3624
473 689 263
420 733 403
423 699 871
339 733 1414
255 814 1986
281 941 2467
317 1093 2909
360 1266 3306
408 1449 3663
635 1109 447
599 1138 542
569 1119 972
618 1104 1406
542 1147 2000
434 1228 2571
459 1348 3009
486 1490 3384
519 1649 3729
850 1602 655
822 1624 728
828 1611 1101
755 1596 1577
859 1585 2020
788 1630 2580
629 1701 3092
652 1807 3469
676 1931 3809
1090 2111 876
1067 2127 934
1084 2123 1254
1042 2102 1715
1004 2090 2184
1125 2084 2598
1057 2126 3079
862 2180 3535
855 2266 3872
1345 2580 1105
1326 2591 1153
1342 2593 1434
1336 2572 1855
1264 2558 2323
1272 2546 2725
1400 2539 3080
1332 2569 3487
1185 2609 3876
1587 2962 1322
1571 2969 1362
1578 2976 1612
1598 2957 1974
1553 2941 2410
1470 2930 2820
1524 2915 3150
1653 2904 3453
1585 2921 3808
1796 3255 1511
1782 3259 1544
1759 3269 1760
1812 3252 2068
1795 3235 2460
1729 3222 2848
1642 3213 3193
1737 3194 3469
1862 3178 3736
1254 0 0
1171 0 95
583 277 637
417 393 1101
242 530 1816
129 700 2391
193 889 2841
257 1090 3253
320 1296 3623
1269 96 0
1262 97 99
617 345 669
449 448 1149
302 593 1825
156 744 2410
215 926 2857
274 1121 3266
334 1322 3631
1266 504 86
1275 521 172
730 684 725
566 723 1297
480 810 1864
259 912 2490
300 1070 2924
345 1246 3316
394 1431 3670
873 1073 387
868 1097 449
787 1162 793
734 1138 1396
714 1156 1937
595 1229 2515
447 1333 3027
474 1474 3396
508 1634 3737
1051 1576 587
1039 1596 640
943 1687 896
880 1645 1510
950 1610 2007
916 1640 2545
785 1707 3048
645 1797 3484
668 1921 3820
1260 2092 807
1249 2107 854
1167 2173 1071
1155 2145 1626
1069 2124 2158
1194 2104 2584
1153 2135 3057
1028 2191 3488
851 2261 3883
1492 2566 1039
1480 2576 1081
1408 2620 1265
1425 2605 1758
1349 2583 2274
1329 2566 2709
1456 2552 3069
1406 2576 3472
1285 2615 3850
1711 2952 1263
1701 2959 1298
1637 2987 1455
1662 2979 1881
1626 2958 2355
1536 2944 2793
1571 2927 3138
1698 2912 3443
1642 2925 3796
1898 3247 1458
1888 3251 1488
1833 3270 1618
1854 3266 1984
1851 3247 2403
1784 3232 2813
1694 3221 3175
1775 3201 3459
1897 3183 3727
1571 0 0
1567 0 0
1448 61 406
873 429 970
690 557 1450
582 655 2065
386 832 2759
211 1025 3261
285 1246 3633
1579 0 0
1588 0 0
1490 179 427
898 470 994
709 596 1480
603 705 2102
425 873 2772
230 1057 3277
300 1272 3644
1598 458 0
1600 465 98
1616 446 450
989 638 1083
776 749 1608
699 893 2219
561 1039 2818
307 1192 3334
363 1387 3682
1621 908 240
1629 920 300
1646 975 486
1149 1103 1166
938 1127 1842
880 1220 2373
778 1330 2893
528 1441 3393
482 1598 3754
1455 1499 510
1456 1515 550
1448 1588 713
1256 1656 1251
1144 1648 1959
1109 1648 2499
1039 1714 2963
908 1798 3412
649 1896 3840
1545 2053 736
1541 2067 774
1511 2126 932
1382 2209 1370
1242 2196 2074
1332 2139 2576
1319 2149 3028
1238 2200 3435
1087 2266 3830
1737 2539 956
1731 2549 991
1696 2590 1137
1560 2677 1475
1524 2638 2148
1428 2610 2671
1567 2577 3056
1542 2587 3449
1454 2621 3814
1918 2933 1175
1913 2939 1207
1879 2965 1338
1758 3021 1625
1769 2997 2218
1667 2974 2726
1657 2951 3112
1783 2928 3426
1748 2933 3775
2073 3232 1375
2067 3236 1402
2035 3253 1515
1929 3289 1757
1954 3273 2266
1894 3253 2735
1795 3237 3134
1845 3214 3438
1963 3193 3710
1823 0 0
1821 0 0
1742 132 383
1595 297 795
1194 594 1346
1002 732 1842
893 839 2365
777 987 2976
566 1181 3539
1829 0 0
1833 0 0
1754 138 386
1619 359 813
1214 623 1365
1018 761 1866
910 866 2389
796 1022 2998
593 1211 3548
1858 417 0
1863 416 0
1852 420 425
1704 554 864
1292 738 1445
1077 883 1960
978 974 2490
878 1165 3082
697 1336 3584
1893 895 126
1897 900 231
1911 917 489
1846 933 939
1437 1063 1566
1189 1132 2141
1100 1267 2702
1023 1427 3180
876 1576 3633
1949 1411 441
1954 1421 484
1972 1460 639
1929 1525 1007
1639 1595 1681
1433 1621 2340
1304 1679 2871
1235 1787 3287
1117 1900 3694
1962 1977 675
1964 1988 704
1971 2037 822
1954 2128 1091
1736 2167 1763
1641 2158 2447
1530 2153 2992
1487 2197 3377
1392 2269 3743
2061 2494 891
2059 2503 919
2046 2540 1038
2001 2618 1278
1859 2658 1863
1671 2660 2559
1727 2612 3045
1727 2599 3421
1673 2624 3772
2204 2899 1097
2201 2905 1123
2181 2930 1233
2124 2982 1454
1966 3043 1909
1876 3026 2578
1771 2993 3064
1916 2949 3412
1902 2942 3751
2310 3207 1287
2306 3211 1310
2284 3228 1408
2226 3262 1604
2070 3318 1956
2063 3288 2574
1949 3265 3053
1943 3238 3402
2067 3206 3692
2094 72 67
2093 72 64
2028 202 346
1947 316 759
1806 522 1222
1556 778 1762
1363 924 2250
1235 1052 2722
1155 1147 3184
2101 76 67
2104 76 68
2039 205 346
1955 321 764
1825 561 1237
1572 801 1778
1378 948 2268
1247 1076 2738
1170 1166 3201
2136 331 0
2141 325 0
2122 342 352
2036 538 809
1901 706 1293
1641 895 1846
1437 1048 2343
1304 1171 2807
1200 1263 3285
2197 864 0
2202 865 0
2212 874 432
2220 854 860
2054 960 1368
1763 1070 1973
1525 1242 2476
1395 1349 2928
1301 1510 3409
2275 1385 331
2280 1389 395
2295 1408 598
2335 1424 895
2226 1460 1469
1947 1552 2089
1702 1619 2624
1533 1679 3141
1479 1848 3546
2373 1915 625
2376 1922 658
2397 1949 787
2425 2006 998
2334 2059 1536
2155 2097 2198
1947 2128 2780
1751 2146 3307
1695 2237 3657
2451 2424 850
2453 2431 871
2461 2462 961
2467 2525 1136
2429 2578 1570
2208 2615 2247
2140 2601 2864
1947 2596 3395
1913 2615 3723
2525 2851 1035
2524 2855 1056
2518 2878 1148
2496 2925 1326
2441 2992 1638
2285 3005 2286
2092 3008 2919
2089 2976 3388
2085 2949 3724
2591 3171 1214
2589 3174 1235
2579 3189 1320
2543 3221 1485
2470 3273 1749
2324 3299 2288
2211 3290 2887
2059 3274 3346
2200 3223 3672
2472 148 141
2470 148 138
2461 148 138
2313 389 744
2211 493 1159
2118 737 1674
1960 983 2194
1769 1134 2639
1618 1273 3054
2479 151 141
2480 151 141
2472 150 141
2325 392 746
2221 496 1163
2136 765 1687
1975 1002 2207
1781 1154 2651
1628 1293 3065
2494 153 144
2499 153 144
2518 159 147
2386 447 755
2320 680 1213
2209 878 1738
2028 1079 2256
1829 1235 2702
1671 1374 3111
2594 782 0
2599 781 0
2609 781 229
2588 793 799
2481 948 1270
2342 1079 1811
2129 1224 2350
1907 1396 2796
1751 1529 3200
2662 1324 0
2665 1327 118
2671 1340 485
2691 1347 841
2716 1294 1301
2534 1379 1875
2272 1493 2477
2008 1637 2938
1854 1759 3332
2735 1870 497
2738 1874 543
2752 1888 708
2774 1915 966
2816 1928 1303
2672 1978 1990
2446 2054 2565
2221 2115 3035
2023 2132 3506
2813 2369 789
2814 2373 816
2825 2392 922
2848 2427 1114
2871 2487 1359
2752 2515 2042
2637 2532 2639
2421 2569 3136
2225 2570 3621
2859 2787 1019
2861 2791 1034
2866 2810 1100
2873 2847 1234
2867 2910 1442
2800 2930 2010
2603 2960 2629
2555 2941 3171
2372 2938 3639
2888 3120 1159
2888 3123 1176
2884 3136 1247
2872 3164 1385
2840 3210 1596
2777 3244 2013
2615 3259 2612
2440 3260 3169
2455 3228 3579
2866 222 210
2864 222 210
2858 220 210
2751 434 684
2652 567 1139
2549 663 1583
2497 943 2118
2364 1194 2586
2181 1352 2986
2872 224 212
2873 224 212
2866 222 210
2760 436 684
2661 569 1142
2576 715 1601
2510 965 2127
2374 1210 2595
2191 1369 2996
2884 226 215
2888 226 215
2901 229 217
2796 441 683
2696 578 1150
2648 848 1642
2563 1055 2165
2417 1275 2633
2231 1438 3033
2951 672 41
2954 669 41
2969 655 47
2940 688 698
2843 898 1203
2761 1071 1699
2663 1224 2230
2498 1399 2704
2299 1573 3104
3020 1247 0
3024 1247 0
3034 1249 220
3039 1258 740
3039 1237 1244
2927 1376 1752
2805 1474 2305
2613 1583 2806
2383 1779 3205
3081 1809 227
3084 1810 324
3092 1821 572
3103 1837 889
3130 1835 1262
3130 1794 1801
2962 1895 2370
2758 1985 2906
2500 2085 3323
3130 2321 656
3132 2324 691
3141 2335 825
3154 2356 1051
3181 2378 1349
3178 2397 1791
3054 2436 2445
2870 2493 2945
2668 2544 3361
3167 2737 936
3168 2740 957
3172 2752 1047
3187 2773 1213
3202 2808 1436
3193 2844 1824
3081 2866 2448
2992 2875 2949
2796 2905 3400
3172 3062 1171
3173 3064 1186
3175 3074 1248
3180 3097 1349
3181 3134 1486
3155 3178 1781
3077 3186 2361
2904 3209 2902
2870 3187 3389
3224 296 283
3223 294 283
3218 294 281
3157 441 564
3059 618 1100
2970 740 1557
2891 905 2025
2851 1152 2525
2740 1415 2943
3229 296 283
3229 296 283
3224 296 283
3162 441 564
3065 621 1101
2976 743 1560
2905 932 2034
2861 1171 2532
2748 1429 2950
3238 298 285
3241 300 286
3249 301 288
3190 443 557
3092 626 1105
3000 751 1569
2956 1035 2069
2900 1247 2561
2781 1484 2978
3277 486 152
3279 481 155
3289 459 172
3262 504 530
3178 805 1127
3111 1029 1626
3047 1220 2125
2974 1393 2613
2842 1591 3030
3352 1140 11
3354 1139 11
3365 1134 12
3364 1144 572
3344 1157 1166
3250 1342 1674
3168 1487 2182
3083 1604 2680
2931 1747 3106
3398 1731 0
3400 1732 0
3406 1738 298
3415 1747 758
3428 1745 1182
3437 1698 1706
3324 1816 2216
3215 1880 2736
3035 1946 3197
3432 2258 436
3434 2259 491
3441 2265 675
3448 2280 950
3464 2291 1286
3491 2280 1675
3453 2275 2279
3312 2353 2772
3136 2423 3241
3442 2687 798
3443 2688 826
3448 2695 936
3458 2709 1130
3470 2727 1390
3495 2742 1704
3453 2762 2221
3347 2788 2792
3191 2831 3227
3436 3013 1057
3437 3015 1075
3439 3022 1149
3444 3036 1289
3456 3055 1489
3462 3085 1720
3420 3107 2202
3324 3121 2747
3243 3125 3191
