Toning/Toning-TealOrange-VideoAB-2.3dl
#25pt 3DLUT created by 3D LUT Creator Pro (c) Oleg Sharonov
#Copyright Oleg Sharonov
#IMAGEPROFILE sRGB IEC61966-2.1 v.2.10
#INPUTGAMMA sRGB IEC61966-2.1 v.2.10
#OUTPUTGAMMA sRGB IEC61966-2.1 v.2.10
0 128 256 384 512 640 768 896 1023
0 0 0
0 21 47
0 92 213
1 241 440
1 390 655
2 525 856
2 670 1085
3 825 1344
3 985 1639
0 337 23
1 341 328
1 380 477
1 443 621
2 530 784
2 645 981
2 775 1205
3 917 1462
3 1067 1756
1 724 76
1 724 358
2 727 700
2 758 902
2 820 1024
3 897 1218
3 1008 1459
3 1130 1725
4 1259 2027
1 1194 164
2 1192 420
2 1193 763
3 1197 1153
3 1211 1423
3 1270 1594
4 1359 1812
4 1460 2114
5 1566 2438
2 1746 235
2 1747 482
3 1746 852
3 1753 1255
4 1762 1694
5 1778 2064
5 1828 2329
5 1898 2598
6 1976 2922
239 2342 362
239 2344 581
243 2346 942
261 2351 1368
302 2359 1820
365 2371 2276
514 2385 2688
705 2416 3012
945 2457 3307
1028 2920 910
1031 2921 1026
1040 2924 1272
1054 2930 1619
1080 2939 2015
1114 2951 2432
1162 2969 2847
1393 2980 3223
1624 3004 3543
1785 3518 1599
1788 3520 1666
1798 3524 1825
1814 3531 2072
1838 3543 2381
1872 3559 2726
1914 3579 3087
1968 3604 3455
2228 3616 3783
2597 4095 2401
2600 4095 2440
2608 4095 2534
2623 4095 2690
2644 4095 2899
2672 4095 3150
2709 4095 3428
2754 4095 3725
2863 4095 3926
230 30 0
375 39 301
1 12 1015
1 303 719
2 430 817
2 560 982
2 700 1190
3 849 1437
3 1006 1725
383 344 0
85 450 473
1 461 624
2 506 755
2 586 904
2 691 1083
3 813 1295
3 949 1543
4 1093 1832
310 739 0
128 838 510
2 811 805
2 794 941
2 854 1094
3 942 1309
3 1044 1542
4 1159 1804
4 1284 2101
266 1213 0
26 1284 461
2 1272 830
3 1265 1230
3 1260 1483
4 1311 1649
4 1394 1888
4 1488 2186
5 1587 2508
244 1764 0
126 1806 472
66 1805 862
21 1807 1291
8 1812 1748
5 1816 2115
5 1858 2380
5 1923 2648
187 1992 2969
464 2354 221
592 2369 643
591 2371 984
588 2376 1401
606 2384 1848
641 2394 2301
736 2403 2704
875 2430 3026
1071 2469 3318
1131 2927 887
1170 2935 1051
1177 2939 1294
1189 2944 1637
1211 2953 2031
1240 2966 2446
1284 2983 2861
1491 2991 3234
1704 3014 3552
1855 3524 1603
1867 3529 1680
1876 3533 1838
1891 3541 2084
1914 3552 2392
1946 3567 2735
1987 3587 3096
2038 3612 3463
2284 3623 3790
2641 4095 2410
2645 4095 2450
2653 4095 2544
2667 4095 2699
2687 4095 2907
2715 4095 3156
2751 4095 3434
2794 4095 3730
2919 4095 3926
668 147 0
832 54 0
842 171 693
647 209 1262
3 332 1714
3 605 1434
3 754 1520
3 899 1711
4 1047 1967
844 345 0
952 484 398
734 566 981
420 531 1358
108 635 1412
3 751 1462
3 869 1597
3 997 1804
4 1133 2068
836 753 0
806 963 453
404 950 981
350 960 1135
229 988 1333
105 1047 1541
28 1129 1766
7 1228 2014
64 1339 2290
834 1228 0
640 1340 177
684 1407 1107
547 1393 1385
191 1378 1613
4 1415 1814
4 1477 2089
146 1550 2364
351 1633 2650
847 1777 0
678 1841 195
839 1900 1062
765 1898 1426
734 1900 1847
592 1890 2190
507 1922 2460
564 1972 2727
784 2026 3028
998 2362 277
962 2390 529
1069 2431 1098
1054 2434 1487
1051 2441 1915
1068 2451 2359
1114 2446 2742
1198 2465 3058
1337 2499 3346
1424 2936 915
1420 2949 1034
1469 2973 1348
1478 2979 1682
1492 2987 2072
1515 3000 2482
1551 3016 2894
1713 3019 3259
1889 3039 3574
2034 3536 1629
2038 3542 1698
2058 3555 1871
2072 3563 2113
2092 3574 2418
2121 3589 2759
2157 3608 3117
2204 3632 3482
2418 3641 3806
2748 4095 2433
2752 4095 2472
2761 4095 2567
2773 4095 2720
2793 4095 2926
2819 4095 3173
2852 4095 3448
2893 4095 3742
3083 4095 3926
1024 288 0
1103 245 0
1378 0 331
1258 344 1069
1095 429 1582
862 410 2233
288 614 2523
39 890 2411
4 1062 2525
1173 415 0
1329 430 104
1605 162 347
1282 625 1232
1066 607 1788
709 578 2439
400 832 2363
215 1008 2402
142 1152 2573
1305 772 0
1398 883 407
1332 1089 1080
997 1117 1455
894 1048 1851
750 1078 2088
605 1164 2234
532 1261 2425
533 1365 2658
1347 1250 0
1382 1359 372
1154 1585 1052
971 1537 1561
983 1543 1737
952 1550 1985
931 1581 2242
942 1634 2508
989 1701 2784
1395 1795 0
1370 1852 321
1255 1977 850
1361 2025 1704
1304 2025 1994
1199 2002 2273
1147 2015 2535
1210 2042 2830
1303 2083 3122
1517 2378 363
1507 2405 592
1467 2469 978
1599 2522 1651
1567 2528 2034
1572 2536 2450
1579 2516 2803
1622 2524 3108
1709 2549 3392
1813 2953 965
1815 2966 1080
1818 2997 1333
1883 3034 1764
1890 3042 2141
1904 3054 2541
1933 3070 2947
2043 3066 3301
2173 3081 3611
2306 3558 1676
2311 3564 1744
2321 3578 1903
2350 3599 2164
2367 3609 2462
2390 3624 2798
2422 3642 3152
2461 3665 3514
2632 3672 3833
2923 4095 2475
2926 4095 2513
2933 4095 2604
2947 4095 2757
2964 4095 2959
2987 4095 3201
3017 4095 3472
3063 4095 3763
3311 4095 3926
1410 436 0
1468 403 0
1644 258 0
1894 2 830
1697 514 1484
1552 625 1970
1449 640 2496
1276 641 3049
866 667 3601
1537 536 0
1673 520 0
1857 341 0
1929 417 921
1737 714 1600
1576 760 2096
1454 761 2615
1268 764 3141
886 852 3579
1783 797 0
1855 839 232
1908 964 787
2052 898 1118
1732 1136 1856
1582 1073 2367
1438 1053 2847
1227 1062 3313
1086 1241 3406
1841 1278 0
1890 1339 361
1941 1502 995
1630 1670 1689
1533 1681 2016
1542 1587 2487
1489 1568 2824
1422 1614 3054
1408 1678 3288
1921 1821 0
1945 1873 441
1974 1994 995
1750 2140 1613
1705 2141 2132
1768 2149 2350
1782 2133 2649
1796 2137 2947
1835 2161 3235
2031 2401 467
2037 2426 674
2046 2486 1052
2019 2579 1531
2100 2595 2216
2086 2613 2539
2080 2607 2871
2094 2603 3169
2158 2614 3462
2251 2981 1037
2256 2993 1148
2267 3022 1393
2278 3069 1750
2350 3106 2239
2353 3119 2619
2373 3134 3011
2437 3128 3357
2523 3139 3661
2641 3592 1746
2645 3597 1811
2655 3610 1964
2672 3631 2206
2706 3656 2525
2725 3670 2852
2750 3687 3199
2782 3708 3556
2908 3714 3870
3153 4095 2537
3156 4095 2573
3162 4095 2661
3174 4095 2807
3190 4095 3005
3210 4095 3241
3236 4095 3506
3425 4095 3805
3612 4095 3926
1849 588 0
1900 557 0
2044 441 0
2318 0 452
2277 371 1350
2153 663 1932
2037 788 2390
1992 819 2843
1943 853 3293
1955 669 0
2056 648 0
2208 512 0
2485 0 436
2309 608 1427
2194 815 2017
2074 899 2473
2024 922 2917
1972 955 3350
2169 884 0
2264 876 0
2307 963 660
2650 603 670
2403 1004 1597
2256 1162 2192
2147 1167 2647
2093 1173 3067
2043 1204 3461
2339 1306 0
2374 1341 396
2409 1440 944
2456 1573 1462
2506 1560 1870
2295 1663 2426
2238 1598 2857
2195 1584 3234
2164 1607 3576
2413 1856 216
2430 1888 538
2469 1965 1000
2508 2092 1555
2289 2196 2255
2242 2198 2586
2347 2136 3029
2345 2111 3356
2330 2125 3657
2523 2435 580
2537 2457 767
2568 2511 1132
2600 2594 1624
2507 2661 2148
2450 2682 2622
2536 2680 2880
2586 2684 3229
2621 2693 3536
2696 3023 1134
2703 3034 1238
2719 3060 1472
2743 3101 1818
2757 3147 2226
2799 3160 2710
2807 3179 3060
2846 3188 3404
2907 3211 3719
3009 3637 1841
3013 3641 1902
3022 3653 2048
3039 3672 2278
3060 3697 2574
3084 3712 2909
3103 3728 3246
3130 3749 3595
3217 3761 3910
3457 4095 2702
3452 4095 2718
3459 4095 2798
3458 4095 2907
3492 4095 3120
3520 4095 3343
3691 4095 3666
3659 4095 3823
3612 4095 3926
2333 729 0
2380 692 0
2512 563 0
2770 0 137
2828 0 1162
2684 607 1885
2619 791 2403
2536 927 2826
2519 985 3221
2419 799 0
2500 767 0
2638 627 0
2907 0 158
2900 264 1229
2713 776 1946
2656 917 2465
2571 1027 2881
2552 1080 3269
2599 987 0
2676 964 0
2711 1027 640
3014 680 654
2959 819 1389
2788 1114 2083
2727 1215 2592
2650 1271 2998
2626 1313 3367
2806 1352 45
2809 1383 441
2827 1449 887
2882 1525 1349
3048 1396 1624
2910 1576 2269
2821 1664 2758
2763 1668 3144
2738 1696 3485
2870 1906 493
2881 1927 704
2908 1977 1084
2949 2058 1566
2986 2137 2049
3003 2141 2474
2916 2198 2904
2899 2173 3277
2882 2188 3589
2971 2483 854
2981 2497 988
3004 2531 1271
3040 2587 1671
3065 2647 2129
3035 2693 2624
2988 2719 3002
3046 2703 3370
3064 2726 3684
3139 3081 1254
3146 3090 1350
3164 3113 1570
3191 3148 1902
3213 3184 2297
3213 3215 2719
3170 3255 3144
3250 3257 3443
3288 3275 3764
3392 3695 1959
3395 3698 2016
3404 3708 2153
3418 3724 2370
3436 3744 2649
3450 3761 2963
3476 3782 3309
3497 3802 3646
3549 3817 3926
3866 4095 3276
3886 4095 3352
3880 4095 3363
3866 4095 3381
3842 4095 3412
3798 4095 3459
3715 4095 3541
3699 4095 3763
3691 4095 3926
2848 838 0
2894 790 0
3022 624 0
3238 0 272
3269 0 1101
3208 472 1844
3100 812 2416
3077 930 2875
3017 1085 3253
2917 903 0
2986 857 0
3117 685 0
3349 0 262
3368 34 1138
3227 685 1897
3125 949 2461
3107 1044 2918
3045 1183 3289
3064 1082 0
3101 1074 214
3116 1131 736
3362 828 793
3386 818 1344
3275 1065 2016
3186 1246 2562
3170 1316 3008
3111 1418 3367
3198 1462 398
3203 1482 611
3217 1528 968
3256 1588 1388
3392 1481 1677
3359 1552 2184
3284 1674 2704
3261 1732 3131
3209 1794 3470
3282 1991 815
3289 2005 953
3308 2038 1236
3338 2090 1605
3381 2155 2037
3434 2137 2395
3398 2193 2858
3371 2239 3256
3331 2272 3576
3378 2557 1171
3385 2567 1267
3402 2590 1486
3430 2628 1812
3466 2679 2208
3484 2717 2609
3502 2731 2993
3490 2767 3367
3490 2806 3700
3554 3157 1604
3559 3163 1675
3572 3179 1842
3593 3204 2102
3620 3237 2430
3636 3261 2784
3653 3293 3163
3660 3319 3519
3673 3345 3838
3782 3764 2102
3785 3767 2154
3792 3775 2279
3803 3788 2481
3817 3803 2742
3830 3818 3041
3848 3839 3366
3846 3865 3711
3891 3883 3926
3982 4095 3200
3980 4095 3200
3975 4095 3210
3966 4095 3229
3950 4095 3257
3921 4095 3306
3912 4095 3511
3901 4095 3730
3889 4095 3926
3384 895 0
3430 828 0
3557 590 0
3697 58 548
3691 248 1248
3625 620 1895
3552 886 2439
3503 1063 2910
3505 1151 3318
3424 984 119
3428 1006 426
3544 838 461
3689 545 746
3689 607 1345
3636 815 1945
3568 1028 2476
3523 1181 2941
3527 1257 3346
3486 1233 461
3490 1250 640
3503 1290 960
3680 1079 1079
3689 1097 1548
3666 1185 2057
3609 1332 2561
3571 1446 3011
3577 1509 3409
3564 1628 804
3569 1641 926
3582 1673 1181
3609 1719 1531
3706 1649 1817
3719 1669 2223
3676 1763 2687
3649 1842 3116
3653 1895 3498
3645 2126 1162
3650 2135 1251
3663 2158 1453
3686 2196 1753
3725 2240 2113
3771 2231 2445
3765 2271 2838
3752 2325 3240
3759 2374 3609
3755 2680 1537
3760 2686 1606
3773 2703 1768
3794 2731 2023
3824 2768 2338
3859 2813 2693
3881 2832 3033
3889 2864 3395
3901 2904 3747
3933 3266 1983
3937 3271 2035
3946 3281 2159
3961 3300 2359
3982 3325 2621
4002 3351 2920
4021 3377 3239
4040 3403 3565
4058 3435 3896
4095 3844 2479
4095 3847 2516
4095 3852 2608
4095 3862 2759
4095 3875 2963
4095 3889 3206
4095 3908 3478
4095 3931 3768
4095 3955 3926
4095 4095 2839
4095 4095 2841
4095 4095 2900
4095 4095 2999
4095 4095 3136
4095 4095 3303
4095 4095 3493
4091 4090 3696
4075 4074 3906
