Toning/Toning-WinterFairy.3dl
#25pt 3DLUT created by 3D LUT Creator Pro (c) Oleg Sharonov
#Copyright !UNREGISTERED VERSION OF 3D LUT CREATOR!
#IMAGEPROFILE sRGB IEC61966-2.1 v.2.10
#INPUTGAMMA sRGB IEC61966-2.1 v.2.10
#OUTPUTGAMMA sRGB IEC61966-2.1 v.2.10
0 128 256 384 512 640 768 896 1023
198 264 288
0 0 512
0 0 1024
0 0 1536
0 0 2048
0 0 2559
0 0 3071
0 0 3583
0 0 4095
0 512 0
0 512 512
0 512 1024
0 512 1536
0 512 2048
0 512 2559
0 512 3071
0 512 3583
0 512 4095
0 1024 0
0 1024 512
0 1024 1024
0 1024 1536
0 1024 2048
0 1024 2559
0 1024 3071
0 1024 3583
0 1024 4095
0 1536 0
0 1536 512
0 1536 1024
0 1536 1536
0 1536 2048
0 1536 2559
0 1536 3071
0 1536 3583
0 1536 4095
0 2048 0
0 2048 512
0 2048 1024
0 2048 1536
0 2048 2048
0 2048 2559
0 2048 3071
0 2048 3583
0 2048 4095
0 2559 0
0 2559 512
0 2559 1024
0 2559 1536
0 2559 2048
0 2559 2559
0 2559 3071
0 2559 3583
0 2559 4095
0 3071 0
0 3071 512
0 3071 1024
0 3071 1536
0 3071 2048
0 3071 2559
0 3071 3071
0 3071 3583
0 3071 4095
0 3583 0
0 3583 512
0 3583 1024
0 3583 1536
0 3583 2048
0 3583 2559
0 3583 3071
0 3583 3583
0 3583 4095
0 4095 0
0 4095 512
0 4095 1024
0 4095 1536
0 4095 2048
0 4095 2559
0 4095 3071
0 4095 3583
0 4095 4095
512 0 0
512 0 512
512 0 1024
512 0 1536
512 0 2048
512 0 2559
512 0 3071
512 0 3583
512 0 4095
512 512 0
414 617 794
209 754 1380
247 925 1856
268 1058 2376
289 1093 2891
324 1133 3295
365 1185 3639
492 621 4081
512 1024 0
464 1096 713
287 1173 1355
240 1312 1825
266 1413 2375
287 1450 2890
323 1499 3292
364 1559 3636
491 1113 4081
512 1536 0
489 1663 600
407 1670 1279
231 1819 1782
261 1831 2378
286 1850 2890
323 1897 3287
354 1967 3633
490 1608 4081
512 2048 0
500 2179 346
506 2133 1303
365 2264 1809
257 2274 2390
280 2283 2890
317 2323 3282
342 2390 3629
487 2107 4079
512 2559 0
645 2658 358
631 2553 1340
449 2725 1848
306 2713 2405
269 2724 2891
304 2762 3272
330 2825 3618
488 2604 4078
512 3071 0
729 3173 333
720 3079 1273
565 3213 1790
342 3271 2392
306 3134 2838
309 3174 3265
341 3232 3613
489 3099 4078
512 3583 0
780 3606 368
746 3604 1178
683 3624 1775
466 3697 2376
347 3639 2904
347 3569 3242
374 3608 3615
496 3588 4078
512 4095 0
562 4078 499
541 4087 1039
555 4083 1574
536 4086 2095
508 4094 2609
500 4078 3111
497 4078 3588
498 4078 4078
1024 0 0
1024 0 512
1024 0 1024
1024 0 1536
1024 0 2048
1024 0 2559
1024 0 3071
1024 0 3583
1024 0 4095
1024 512 0
984 549 610
763 729 1368
511 920 2028
488 1043 2367
559 1084 2886
627 1126 3294
694 1180 3638
979 621 4081
1024 1024 0
979 1042 488
766 1140 1458
369 1456 2145
127 1651 2608
223 1742 3117
328 1843 3455
615 1681 3649
921 1222 4063
1024 1536 0
991 1577 303
864 1665 1360
501 2032 2007
180 2027 2719
221 2064 3117
328 2159 3446
601 2066 3644
919 1696 4063
1024 2048 0
1106 2079 341
1050 2087 1404
706 2417 2007
262 2461 2842
212 2441 3117
317 2521 3438
587 2467 3640
912 2180 4060
1024 2559 0
1193 2570 369
1188 2443 1443
958 2709 2043
466 2980 2722
216 2873 3234
295 2909 3419
571 2886 3626
914 2658 4058
1024 3071 0
1230 3113 346
989 3308 871
1130 3183 1961
719 3379 2630
319 3420 3226
304 3249 3409
585 3268 3620
916 3133 4058
1024 3583 0
1244 3588 365
1042 3625 644
1183 3611 1803
996 3648 2429
696 3751 2983
605 3633 3418
626 3613 3622
932 3594 4058
1024 4095 0
1063 4076 499
1071 4060 940
1094 4067 1615
1062 4069 2149
1014 4078 2666
957 4091 3161
944 4064 3624
936 4058 4058
1536 0 0
1536 0 512
1536 0 1024
1536 0 1536
1536 0 2048
1536 0 2559
1536 0 3071
1536 0 3583
1536 0 4095
1536 512 0
1585 438 475
1496 583 1179
1365 828 1832
881 970 2782
861 1052 3052
931 1113 3292
1023 1170 3638
1466 619 4081
1536 1024 0
1601 937 477
1560 1016 1155
1273 1296 2055
551 1648 3098
403 1708 3429
476 1822 3452
899 1670 3648
1377 1220 4063
1536 1536 0
1603 1506 400
1607 1566 1000
1343 1794 2053
722 2059 3022
232 2224 3615
294 2252 3521
731 2180 3658
1263 1805 4040
1536 2048 0
1592 2047 337
1550 2205 448
1443 2320 1939
1030 2423 2918
347 2683 3589
300 2645 3642
716 2553 3654
1250 2271 4036
1536 2559 0
1641 2556 367
1671 2624 351
1636 2621 2060
1224 2823 2870
607 3104 3524
298 3125 3735
695 2957 3636
1253 2724 4032
1536 3071 0
1675 3101 347
1717 3189 355
1718 3111 1970
1412 3259 2702
963 3396 3324
372 3667 3729
713 3372 3739
1257 3175 4032
1536 3583 0
1699 3576 364
1684 3595 615
1702 3599 1770
1552 3627 2483
1330 3650 3066
1011 3781 3500
787 3836 3804
1287 3612 4032
1536 4095 0
1566 4076 498
1590 4053 939
1581 4047 1591
1593 4047 2208
1540 4046 2734
1470 4061 3218
1399 4083 3656
1314 4085 4079
2048 0 0
2048 0 512
2048 0 1024
2048 0 1536
2048 0 2048
2048 0 2559
2048 0 3071
2048 0 3583
2048 0 4095
2048 512 0
2101 354 370
2089 496 1049
2030 694 1713
1919 965 2342
1480 1044 3210
1378 1190 3442
1398 1200 3723
1953 618 4081
2048 1024 0
2115 886 360
2170 912 1021
2036 1196 1773
1861 1549 2522
1066 1728 3629
936 1969 3712
1256 1721 3763
1834 1217 4063
2048 1536 0
2146 1442 372
2198 1483 962
2099 1730 1661
1737 1886 3004
1128 2147 3753
892 2401 3811
1088 2271 3811
1688 1811 4046
2048 2048 0
2143 2008 335
2173 2089 770
2140 2164 1638
1894 2336 2885
1419 2468 3667
906 2829 3916
936 2819 3868
1503 2441 4067
2048 2559 0
2125 2542 366
2130 2605 364
2108 2475 1438
1924 2793 2857
1660 2872 3567
1153 3107 3889
1095 3160 3852
1568 2879 4070
2048 3071 0
2130 3083 351
2146 3157 362
2028 3337 348
2032 3288 2740
1712 3318 3450
1407 3431 3835
1319 3443 3846
1708 3269 4067
2048 3583 0
2136 3567 363
2140 3578 614
2100 3615 750
2110 3634 2525
1924 3626 3159
1720 3670 3587
1576 3709 3839
1809 3658 4065
2048 4095 0
2066 4075 497
2087 4052 936
2090 4026 1297
2132 4023 2268
2073 4013 2814
2002 4024 3289
1942 4034 3689
1989 4028 4061
2559 0 0
2559 0 512
2559 0 1024
2559 0 1536
2559 0 2048
2559 0 2559
2559 0 3071
2559 0 3583
2559 0 4095
2559 512 0
2603 379 393
2597 373 944
2574 575 1635
2527 826 2248
2459 1008 2899
2338 1102 3404
2212 1131 3735
2515 613 4091
2559 1024 0
2608 817 393
2664 793 865
2596 1044 1646
2513 1390 2368
2403 1641 3134
2184 1789 3687
2127 1624 3772
2467 1205 4085
2559 1536 0
2621 1403 373
2669 1423 827
2661 1578 1568
2529 1891 2433
2401 2106 3263
1787 2182 3855
2051 2119 3816
2418 1780 4077
2559 2048 0
2639 1966 364
2693 1994 853
2697 2058 1562
2575 2363 2408
2318 2456 3593
1872 2665 3953
1955 2613 3868
2359 2342 4066
2559 2559 0
2635 2511 365
2681 2551 747
2677 2405 1581
2609 2743 2376
2432 2914 3487
2040 3038 3922
1913 3099 3933
2346 2876 4049
2559 3071 0
2614 3059 357
2623 3112 373
2588 3230 857
2551 3177 1979
2359 3338 3469
2224 3383 3862
2051 3424 3905
2396 3277 4040
2559 3583 0
2598 3556 361
2590 3564 612
2562 3591 748
2524 3622 1609
2513 3636 3266
2314 3651 3705
2224 3685 3889
2514 3641 4037
2559 4095 0
2567 4075 496
2575 4051 935
2580 4023 1294
2554 4069 1600
2615 3978 2902
2536 3981 3379
2462 3993 3731
2590 3979 4035
3071 0 0
3071 0 512
3071 0 1024
3071 0 1536
3071 0 2048
3071 0 2559
3071 0 3071
3071 0 3583
3071 0 4095
3071 512 0
3071 398 410
3066 398 805
3058 455 1546
3043 683 2184
3025 886 2809
2992 1054 3327
2960 1133 3698
3046 612 4090
3071 1024 0
3074 702 410
3089 613 616
3056 871 1541
3024 1220 2230
2996 1490 2985
2940 1743 3509
2926 1632 3729
3021 1203 4083
3071 1536 0
3079 1349 395
3089 1331 628
3079 1409 1461
3032 1725 2207
2998 1949 3058
2935 2194 3577
2869 2125 3777
2973 1780 4073
3071 2048 0
3086 1931 386
3099 1960 654
3085 1965 1456
3073 2282 2134
3008 2437 3150
2931 2675 3655
2839 2574 3849
2939 2337 4060
3071 2559 0
3096 2477 385
3115 2490 738
3103 2371 1598
3108 2637 2177
3028 2880 3150
2895 3080 3727
2693 3056 3914
2926 2864 4041
3071 3071 0
3088 3017 367
3099 3095 585
3080 2895 1437
3076 3068 2068
3019 3323 3032
2918 3454 3741
2701 3423 3952
2942 3343 4004
3071 3583 0
3070 3535 358
3061 3538 609
3036 3658 1016
3012 3553 1767
2985 3663 2667
2892 3660 3786
2824 3656 3933
3057 3644 4003
3071 4095 0
3070 4074 495
3067 4050 932
3058 4021 1290
3038 4066 1584
3029 3985 2420
3050 3934 3491
2946 3934 3793
3176 3913 3999
3583 0 0
3583 0 512
3583 0 1024
3583 0 1536
3583 0 2048
3583 0 2559
3583 0 3071
3583 0 3583
3583 0 4095
3583 512 0
3525 413 422
3522 413 752
3516 399 1435
3510 521 2126
3515 760 2725
3514 918 3276
3492 1090 3687
3565 607 4089
3583 1024 0
3527 742 422
3509 674 686
3508 764 1429
3493 1003 2105
3500 1236 2745
3499 1397 3319
3473 1587 3712
3542 1194 4081
3583 1536 0
3529 1260 417
3512 1284 671
3504 1298 1358
3475 1535 2061
3487 1735 2776
3484 1892 3368
3452 2091 3741
3515 1765 4070
3583 2048 0
3533 1882 402
3516 1891 661
3500 1899 1365
3476 2107 1984
3475 2246 2804
3468 2406 3429
3423 2603 3772
3478 2321 4056
3583 2559 0
3538 2447 401
3524 2450 660
3504 2384 1455
3484 2537 2049
3487 2720 2848
3439 2933 3498
3378 3092 3815
3410 2854 4038
3583 3071 0
3545 2987 387
3535 2997 672
3516 2864 1515
3489 2987 2088
3499 3175 2740
3432 3374 3496
3349 3505 3826
3344 3354 3999
3583 3583 0
3535 3511 355
3523 3521 609
3500 3457 1347
3466 3463 1947
3481 3569 2652
3463 3659 3467
3390 3712 3856
3380 3688 3949
3583 4095 0
3574 4074 494
3563 4048 928
3547 4070 1348
3519 3997 1875
3510 3960 2505
3508 3977 3170
3426 3873 3846
3553 3863 3945
4095 0 0
4095 0 512
4095 0 1024
4095 0 1536
4095 0 2048
4095 0 2559
4095 0 3071
4095 0 3583
4095 0 4095
4095 512 0
4075 498 500
4075 498 986
4075 497 1499
4075 495 2043
4076 525 2575
4076 555 3089
4076 580 3593
4073 601 4088
4095 1024 0
4075 985 500
4050 937 940
4050 934 1458
4049 966 2046
4051 1043 2581
4052 1091 3108
4052 1140 3605
4046 1181 4078
4095 1536 0
4075 1472 500
4049 1421 940
4019 1398 1402
4015 1475 2018
4020 1561 2585
4023 1619 3128
4024 1688 3619
4013 1746 4066
4095 2048 0
4074 2012 497
4049 1982 935
4018 1972 1391
3972 2029 1973
3979 2085 2591
3987 2145 3148
3988 2231 3634
3971 2297 4050
4095 2559 0
4074 2536 497
4049 2516 933
4017 2502 1416
3970 2513 1989
3925 2592 2626
3939 2655 3166
3941 2752 3654
3912 2822 4028
4095 3071 0
4074 3054 496
4049 3038 930
4016 3010 1442
3970 2991 2025
3924 3062 2612
3863 3144 3198
3871 3242 3633
3828 3315 3985
4095 3583 0
4074 3569 490
4048 3554 919
4014 3531 1435
3968 3494 2012
3919 3522 2623
3849 3554 3174
3761 3633 3671
3716 3691 3938
4095 4095 0
4070 4073 492
4038 4046 924
4001 4062 1351
3953 3980 1928
3903 3936 2492
3848 3898 3180
3767 3889 3674
3718 3901 3930
