Toning/Toning-Supersaturate.3dl
#25pt 3DLUT created by 3D LUT Creator Pro (c) Oleg Sharonov
#Copyright Oleg Sharonov
#INPUTGAMMA sRGB IEC61966-2.1 v.2.10
#IMAGEPROFILE sRGB IEC61966-2.1 v.2.10
#OUTPUTGAMMA sRGB IEC61966-2.1 v.2.10
0 128 256 384 512 640 768 896 1023
0 0 0
58 94 293
139 297 862
291 557 1478
528 933 2121
980 1422 2719
1668 2068 3236
2564 2841 3669
2824 3069 3808
165 393 222
52 314 304
119 538 901
297 710 1511
562 953 2145
1002 1439 2739
1683 2081 3252
2575 2853 3682
2835 3081 3820
467 1003 671
19 1022 636
52 904 877
225 1155 1533
440 1419 2190
926 1770 2780
1679 2197 3286
2599 2877 3710
2861 3106 3847
833 1644 1177
276 1700 1173
3 1710 1261
74 1555 1507
367 1788 2201
838 2149 2795
1580 2598 3285
2548 3150 3725
2850 3287 3873
1296 2298 1735
935 2319 1748
0 2454 1728
13 2387 1953
136 2213 2164
742 2474 2776
1523 2868 3293
2520 3352 3750
2840 3476 3905
1860 2918 2339
1856 2914 2334
709 3016 2326
113 3056 2344
235 2966 2569
360 2819 2731
1384 3125 3297
2492 3504 3777
2845 3622 3946
2536 3460 2957
2532 3458 2954
1759 3525 2941
1037 3587 2903
926 3562 3019
976 3509 3173
1063 3398 3291
2371 3640 3803
2837 3755 3989
3272 3847 3555
3269 3845 3553
2917 3849 3554
2416 3854 3550
2064 3859 3562
2070 3839 3656
2060 3817 3745
2157 3776 3825
2723 3878 4037
3527 4025 3779
3527 4026 3780
3423 4026 3783
2916 4017 3799
2573 4015 3810
2606 4015 3905
2658 4015 4000
2687 4001 4077
2666 3976 4085
243 13 13
238 19 233
363 58 827
538 214 1441
815 493 2078
1236 1022 2686
1863 1750 3216
2678 2641 3674
2927 2905 3825
343 269 100
332 330 299
442 423 864
583 396 1472
842 512 2099
1255 1037 2704
1877 1762 3231
2690 2652 3687
2939 2916 3837
963 831 488
718 934 761
322 893 883
554 1102 1517
850 1386 2148
1298 1735 2737
1916 1962 3259
2713 2674 3714
2964 2941 3864
1580 1425 1073
1243 1577 1254
316 1646 1262
376 1504 1515
769 1760 2176
1212 2117 2777
1871 2568 3288
2721 3131 3722
3003 3277 3872
2185 2178 1768
1983 2200 1781
818 2288 1839
388 2279 1951
481 2130 2184
1142 2437 2794
1816 2840 3296
2695 3333 3746
2992 3466 3905
2617 2818 2361
2615 2814 2357
1533 2913 2430
713 2979 2389
713 2913 2578
804 2777 2755
1739 3089 3302
2672 3483 3773
2999 3618 3944
3093 3387 2967
3090 3385 2964
2404 3450 3015
1693 3508 2984
1281 3523 3013
1334 3465 3168
1421 3360 3297
2594 3628 3798
3010 3751 3987
3591 3830 3580
3589 3828 3578
3299 3834 3582
2811 3839 3582
2377 3843 3570
2298 3826 3643
2296 3799 3733
2389 3768 3820
2908 3885 4033
3805 4028 3805
3805 4028 3805
3751 4027 3808
3239 4022 3825
2907 4018 3836
2786 4017 3893
2836 4015 3989
2873 4005 4074
2852 3976 4082
815 16 26
822 19 132
729 23 755
804 48 1410
1086 217 2031
1467 602 2638
2043 1403 3189
2787 2429 3664
3034 2744 3825
852 192 55
870 183 129
775 100 786
825 71 1427
1106 240 2048
1484 616 2653
2055 1413 3203
2798 2438 3676
3045 2755 3836
969 749 174
940 781 306
833 836 823
973 981 1454
1211 1153 2093
1570 1344 2695
2081 1433 3230
2820 2457 3701
3069 2778 3861
1616 1374 719
1597 1378 784
1273 1509 1335
832 1451 1473
1181 1721 2124
1578 2076 2729
2151 2529 3259
2888 3101 3717
3130 3177 3885
2248 2003 1371
2243 1997 1364
1798 2171 1878
888 2220 1906
954 2091 2143
1510 2403 2760
2099 2804 3293
2862 3307 3740
3144 3469 3905
2844 2621 2082
2840 2617 2076
2403 2804 2445
1546 2867 2489
1143 2858 2575
1236 2731 2767
2049 3055 3299
2841 3467 3765
3150 3620 3944
3390 3210 2810
3387 3208 2806
3053 3363 3015
2348 3426 3054
1697 3475 3018
1681 3419 3155
1768 3319 3295
2802 3605 3789
3162 3757 3986
3829 3735 3528
3827 3732 3525
3680 3807 3600
3198 3822 3607
2782 3822 3598
2515 3815 3623
2521 3783 3716
2607 3751 3810
3092 3883 4032
4034 3982 3791
4035 3982 3791
4035 3983 3792
3558 4028 3850
3236 4024 3862
2962 4022 3880
3011 4022 3977
3057 4020 4071
3036 3988 4080
1447 26 10
1450 26 13
1380 19 666
1280 29 1324
1342 65 2015
1706 250 2563
2211 1030 3152
2889 2188 3651
3144 2583 3830
1471 110 32
1472 87 36
1401 42 672
1297 52 1334
1356 87 2027
1719 271 2575
2222 1038 3163
2898 2195 3661
3154 2593 3840
1540 649 97
1541 633 94
1477 671 584
1340 485 1334
1451 523 2002
1773 710 2628
2245 1056 3187
2918 2211 3684
3176 2614 3863
1633 1297 374
1624 1288 365
1509 1368 908
1387 1391 1380
1585 1595 2048
1902 1880 2672
2368 2285 3223
2991 2856 3707
3232 2959 3893
2284 1956 1030
2278 1950 1023
2172 1998 1518
1870 2088 1934
1448 2038 2068
1875 2352 2699
2373 2760 3253
3022 3271 3730
3298 3460 3911
2883 2593 1776
2879 2588 1770
2798 2613 2145
2414 2748 2500
1605 2796 2530
1669 2682 2729
2326 3013 3285
3003 3437 3751
3303 3624 3947
3421 3194 2583
3418 3191 2578
3373 3197 2770
2993 3331 3058
2363 3377 3087
2027 3369 3134
2109 3275 3284
2980 3585 3773
3314 3760 3988
3830 3697 3380
3828 3694 3377
3823 3689 3368
3573 3796 3624
3178 3799 3622
2762 3801 3607
2733 3770 3691
2809 3731 3793
3276 3895 4031
4044 3929 3671
4044 3930 3671
4045 3930 3672
3882 4036 3876
3562 4033 3889
3269 4029 3900
3184 4026 3964
3230 4025 4060
3217 3995 4079
2127 39 0
2129 42 0
2074 39 500
1960 45 1283
1876 58 1927
1977 126 2568
2371 614 3105
2986 1906 3632
3257 2422 3840
2144 65 6
2145 68 10
2091 65 497
1975 71 1289
1889 81 1935
1988 155 2578
2380 624 3114
2994 1911 3641
3266 2431 3849
2188 588 58
2187 572 58
2161 548 388
2007 376 1251
1913 278 1914
2013 209 2597
2400 644 3134
3012 1922 3660
3286 2450 3869
2230 1267 280
2233 1258 276
2173 1313 603
2063 1298 1192
1925 1073 1934
2117 1304 2599
2523 1806 3177
3078 2522 3684
3331 2669 3899
2304 1885 691
2298 1878 684
2228 1911 959
2092 1961 1530
1968 1965 1963
2227 2235 2623
2612 2604 3199
3148 3119 3706
3413 3334 3927
2913 2553 1456
2909 2549 1450
2873 2552 1581
2737 2592 2201
2476 2662 2532
2108 2619 2647
2595 2964 3227
3159 3405 3732
3455 3628 3952
3432 3157 2334
3430 3154 2329
3423 3146 2315
3318 3185 2859
3014 3275 3081
2387 3310 3106
2439 3223 3260
3137 3558 3751
3466 3772 3991
3834 3673 3224
3832 3671 3220
3827 3666 3209
3790 3699 3513
3562 3767 3637
3170 3767 3629
2938 3748 3660
3004 3712 3768
3460 3902 4033
4054 3919 3568
4054 3920 3569
4055 3920 3569
4047 3964 3790
3884 4042 3917
3597 4039 3929
3353 4037 3950
3399 4037 4047
3397 4010 4079
2805 65 74
2807 68 74
2805 71 116
2630 74 1295
2541 84 1925
2477 97 2492
2605 297 3041
3079 1568 3605
3373 2258 3854
2818 94 84
2820 97 84
2821 100 103
2642 103 1298
2553 110 1931
2486 123 2499
2614 314 3048
3086 1572 3612
3381 2265 3862
2844 603 71
2843 573 74
2848 492 81
2674 278 1232
2578 174 1944
2508 183 2513
2634 352 3063
3102 1580 3628
3399 2282 3881
2883 1346 341
2885 1336 337
2889 1313 326
2728 1305 1126
2571 1050 1908
2481 868 2488
2666 1209 3115
3158 2062 3652
3428 2309 3909
2853 1929 681
2855 1923 678
2860 1910 671
2723 1995 1334
2631 1954 1852
2518 1760 2524
2767 2137 3139
3236 2804 3672
3518 3134 3933
2918 2494 1125
2914 2490 1119
2905 2478 1103
2778 2531 1740
2663 2545 2180
2549 2542 2543
2851 2858 3155
3299 3298 3693
3586 3562 3967
3443 3105 2057
3440 3101 2051
3434 3093 2036
3359 3149 2504
3265 3153 2857
3054 3196 3091
2766 3164 3181
3293 3521 3716
3617 3777 3997
3828 3646 3048
3827 3645 3043
3823 3640 3031
3795 3662 3277
3754 3678 3516
3566 3725 3638
3158 3721 3626
3196 3680 3733
3630 3916 4036
4064 3908 3466
4064 3908 3466
4065 3909 3467
4061 3942 3623
4055 3989 3849
3920 4051 3959
3645 4049 3971
3565 4047 4035
3574 4026 4081
3402 282 449
3403 284 449
3405 291 452
3247 228 1319
3135 189 1992
3063 180 2491
3010 230 2952
3251 1303 3559
3504 2113 3870
3412 304 457
3413 306 457
3416 312 460
3258 252 1319
3144 214 1997
3072 206 2496
3018 250 2957
3257 1306 3564
3510 2119 3877
3437 445 464
3438 376 472
3440 356 475
3283 302 1317
3166 267 2007
3092 260 2509
3037 293 2970
3272 1313 3577
3527 2135 3893
3438 1559 602
3440 1550 599
3446 1528 586
3341 1494 1190
3175 1228 1995
3070 993 2550
3018 787 3013
3294 1363 3598
3553 2158 3919
3391 2096 929
3393 2092 926
3397 2080 920
3338 2163 1337
3234 2102 1923
3113 1887 2574
3048 1766 3051
3321 2403 3627
3623 2911 3944
3346 2565 1249
3348 2562 1247
3351 2554 1242
3304 2619 1632
3231 2662 2113
3159 2623 2534
3073 2472 3072
3385 2973 3645
3691 3374 3974
3448 3043 1751
3445 3039 1744
3438 3030 1728
3386 3065 2017
3293 3109 2502
3195 3102 2816
3097 3090 3085
3443 3448 3660
3757 3752 4009
3827 3618 2845
3825 3616 2840
3821 3611 2827
3805 3615 2922
3759 3643 3283
3710 3646 3486
3579 3668 3627
3394 3642 3681
3781 3926 4042
4075 3903 3364
4076 3904 3364
4076 3904 3365
4078 3905 3366
4068 3972 3712
4066 4011 3888
3971 4063 4002
3724 4060 4022
3749 4046 4084
3782 1206 1220
3783 1206 1220
3785 1208 1222
3723 1148 1565
3575 991 2359
3522 935 2783
3476 899 3130
3480 1086 3490
3716 2099 3878
3790 1213 1226
3791 1214 1227
3793 1216 1228
3733 1157 1558
3583 999 2362
3529 944 2788
3483 907 3135
3485 1089 3495
3722 2105 3884
3809 1231 1241
3810 1232 1241
3812 1234 1243
3757 1183 1536
3603 1020 2370
3547 963 2799
3499 926 3147
3499 1095 3505
3736 2118 3898
3793 2079 1217
3795 2072 1213
3799 2052 1200
3792 1982 1396
3655 1716 2328
3577 1451 2819
3526 957 3166
3521 1104 3521
3760 2140 3921
3764 2522 1528
3765 2519 1526
3768 2510 1520
3771 2498 1530
3701 2488 2262
3613 2313 2804
3555 2164 3198
3537 2112 3553
3776 2724 3951
3749 2879 1808
3750 2877 1806
3753 2871 1802
3757 2862 1795
3698 2940 2376
3650 2894 2768
3584 2750 3219
3555 2695 3574
3799 3175 3984
3744 3201 2076
3745 3200 2074
3747 3196 2072
3750 3189 2066
3693 3261 2622
3665 3288 2914
3621 3260 3200
3577 3169 3591
3862 3572 4017
3825 3591 2609
3824 3589 2603
3820 3584 2588
3815 3576 2561
3765 3599 2989
3718 3610 3236
3658 3600 3431
3595 3592 3606
3927 3928 4051
4089 3902 3261
4089 3902 3261
4090 3903 3262
4091 3904 3263
4085 3954 3554
4079 3995 3761
4079 4034 3921
4030 4078 4048
3922 4069 4088
3979 2315 2278
3979 2316 2279
3981 2317 2280
3984 2320 2283
3951 2202 2890
3932 2136 3246
3927 2115 3491
3925 2095 3711
3927 2082 3886
3985 2321 2284
3986 2321 2284
3987 2323 2286
3990 2325 2288
3957 2208 2893
3938 2142 3250
3933 2120 3495
3930 2100 3716
3932 2087 3891
4000 2334 2297
4001 2335 2298
4002 2336 2299
4005 2339 2301
3972 2222 2900
3952 2155 3260
3947 2133 3506
3944 2112 3727
3945 2099 3904
3995 2723 2277
3997 2712 2279
4001 2681 2284
4009 2616 2294
3997 2338 2901
3976 2177 3277
3970 2154 3524
3966 2133 3745
3966 2118 3924
3994 3119 2435
3995 3117 2433
3997 3111 2429
4000 3100 2421
4006 3051 2843
3998 2934 3246
3987 2823 3543
3983 2715 3768
3986 2567 3952
4012 3368 2642
4013 3366 2641
4014 3363 2638
4017 3357 2634
4016 3381 2916
4021 3339 3230
4014 3250 3546
4007 3176 3793
4004 3104 3983
4038 3574 2835
4038 3574 2834
4039 3572 2832
4041 3569 2829
4040 3586 3087
4040 3609 3314
4039 3588 3543
4034 3523 3820
4031 3472 4018
4068 3756 3020
4068 3756 3020
4069 3755 3019
4071 3753 3016
4069 3777 3243
4066 3812 3486
4062 3834 3652
4062 3836 3826
4062 3795 4056
4095 3898 3159
4095 3898 3159
4095 3898 3159
4095 3899 3161
4095 3932 3348
4095 3984 3620
4094 4021 3799
4094 4058 3953
4095 4095 4095
