Toning/Toning-LaChurch.3dl
#25pt 3DLUT created by 3D LUT Creator Pro (c) Oleg Sharonov
#Copyright Oleg Sharonov
#INPUTGAMMA sRGB
#IMAGEPROFILE sRGB
#OUTPUTGAMMA sRGB
0 256 512 768 1023
0 0 0
0 0 0
0 0 0
0 0 0
0 0 0
0 355 0
0 1114 1114
0 0 188
0 0 0
0 0 0
0 1062 0
0 2033 712
0 2935 2935
0 1805 3045
0 190 651
0 1948 0
0 2674 524
0 3741 2518
0 3975 3975
0 3555 4065
0 2833 0
0 3288 448
0 3975 2033
0 4086 3871
0 4086 4086
808 0 0
116 0 116
0 0 0
0 0 0
0 0 0
606 606 0
1115 1115 1115
0 0 915
0 0 0
0 0 0
445 1311 0
653 2134 653
1115 2935 2935
186 1791 3176
0 327 1112
394 2127 0
236 2880 236
683 3762 2484
1115 3975 3975
0 3554 4076
374 2945 0
0 3434 0
0 4008 1904
0 4086 3865
1115 4086 4086
2272 0 0
1907 0 662
486 0 486
0 0 0
0 0 0
2121 745 0
2604 910 910
1533 295 1533
0 0 0
0 0 0
1758 1758 0
2171 2171 643
2935 2935 2935
1825 1825 3280
0 0 2515
1474 2595 0
1706 3078 111
2402 3739 2402
2935 3975 3975
402 3491 4086
1312 3278 0
1392 3597 0
1373 4064 1373
1944 4086 3822
2934 4086 4086
3545 0 0
3443 0 763
2688 0 1539
913 0 913
0 0 0
3489 782 0
3701 727 727
3239 234 1850
1816 0 1816
0 0 0
3282 2007 0
3537 2166 455
3889 2698 2698
3385 1679 3385
2018 0 3272
2985 2985 0
3233 3233 0
3702 3702 2152
3975 3975 3975
3190 3190 4086
2709 3598 0
2883 3763 0
3307 4081 0
3662 4086 3662
3976 4086 4086
4062 0 0
4055 0 795
3905 0 1909
3285 0 2358
1421 0 1421
4054 794 0
4086 0 0
4024 0 1942
3595 0 2653
2151 0 2151
4014 2121 0
4069 2085 0
4086 2200 2200
4085 0 3332
3621 0 3621
3926 3212 0
3999 3319 0
4086 3575 763
4086 3855 3855
4086 0 4086
3796 3796 0
3875 3875 0
4059 4059 0
4086 4086 1147
4086 4086 4086
