Toning/Toning-Purple.3dl
#25pt 3DLUT created by 3D LUT Creator Pro (c) Oleg Sharonov
#Copyright Oleg Sharonov
#IMAGEPROFILE sRGB IEC61966-2.1 v.2.10
#INPUTGAMMA sRGB IEC61966-2.1 v.2.10
#OUTPUTGAMMA sRGB IEC61966-2.1 v.2.10
0 43 86 128 171 214 256 299 341 384 427 469 512 555 597 640 682 725 768 810 853 896 938 981 1023 
7 0 402
11 0 507
15 0 617
26 0 732
36 0 847
51 0 961
69 0 1080
90 0 1202
112 0 1321
144 0 1446
176 0 1573
214 0 1706
251 0 1840
287 0 1979
322 0 2123
359 0 2272
397 0 2428
432 0 2587
468 0 2757
505 29 2942
539 59 3137
574 89 3341
608 118 3551
641 147 3765
674 175 3980
15 1 403
12 0 527
16 0 647
23 0 766
31 0 888
42 0 1006
56 0 1128
74 0 1253
92 0 1376
113 0 1505
142 0 1637
170 0 1774
202 0 1914
234 0 2059
266 0 2210
298 0 2366
330 0 2528
364 0 2698
406 17 2868
447 46 3052
485 75 3245
523 104 3445
561 131 3651
597 159 3860
632 186 4069
23 4 404
10 7 520
17 5 650
25 5 771
35 8 893
50 10 1015
61 13 1139
75 15 1262
96 21 1390
118 27 1519
142 34 1651
171 41 1786
206 51 1928
238 61 2073
269 72 2223
301 84 2379
333 96 2541
364 109 2710
396 124 2895
427 138 3094
457 153 3300
488 168 3514
518 184 3732
547 199 3951
576 215 4095
34 187 403
10 192 511
14 191 645
21 191 774
35 190 897
46 191 1020
64 193 1143
82 194 1269
100 197 1398
121 200 1527
146 205 1663
174 209 1799
206 215 1939
238 222 2085
272 230 2236
304 238 2392
335 247 2557
367 256 2727
398 267 2913
429 278 3111
459 289 3318
488 301 3532
518 313 3750
547 325 3969
576 338 4095
51 371 403
10 376 498
10 377 636
18 376 768
29 375 899
46 376 1024
61 375 1149
79 376 1276
107 379 1403
132 379 1534
153 382 1671
181 385 1808
212 389 1951
244 393 2098
275 398 2250
306 404 2407
338 410 2572
369 417 2744
398 425 2931
429 432 3131
459 441 3339
488 449 3553
518 459 3770
545 468 3989
575 479 4095
76 553 403
10 560 484
10 560 623
14 560 762
25 560 894
39 559 1025
57 559 1152
75 560 1280
100 560 1410
128 561 1541
167 562 1674
192 564 1816
219 567 1960
250 569 2109
278 573 2262
309 576 2421
340 581 2587
371 586 2762
400 591 2951
430 597 3152
459 603 3361
488 610 3575
517 616 3793
544 624 4012
572 632 4095
100 736 402
10 743 464
10 744 612
14 744 750
25 744 888
36 743 1021
50 743 1153
72 743 1283
96 743 1414
121 744 1548
153 745 1685
192 745 1822
231 747 1965
258 748 2116
286 751 2271
314 753 2432
342 757 2600
373 760 2776
402 764 2968
430 768 3171
459 772 3381
486 777 3597
514 782 3816
541 788 4034
568 794 4095
132 919 402
10 927 442
14 927 598
21 928 742
28 928 880
39 927 1016
50 927 1150
65 927 1284
86 927 1418
121 927 1550
146 927 1690
178 928 1832
219 928 1976
264 930 2123
296 932 2278
321 933 2441
349 935 2610
375 937 2790
402 940 2984
430 942 3188
457 946 3401
483 950 3619
510 953 3839
535 957 4058
561 962 4095
185 1100 413
31 1109 432
35 1110 591
42 1110 736
49 1110 871
60 1110 1011
71 1110 1145
75 1110 1282
79 1111 1418
104 1111 1555
150 1111 1692
171 1110 1836
206 1112 1984
244 1112 2135
286 1113 2289
326 1114 2449
356 1115 2618
379 1117 2800
404 1119 2996
429 1120 3204
454 1122 3418
480 1125 3638
504 1127 3859
527 1130 4079
552 1134 4095
262 1282 448
97 1290 451
91 1291 597
95 1291 738
102 1292 871
113 1292 1007
120 1292 1144
128 1292 1277
110 1293 1418
97 1294 1556
118 1294 1697
168 1294 1838
199 1295 1988
229 1295 2142
264 1295 2299
304 1296 2462
345 1297 2630
384 1298 2809
408 1300 3008
429 1301 3217
452 1302 3434
474 1303 3655
496 1305 3878
518 1307 4095
540 1311 4095
360 1462 521
237 1469 524
196 1472 627
200 1472 757
207 1472 883
217 1473 1007
220 1473 1145
221 1473 1280
218 1474 1414
164 1476 1558
111 1478 1698
136 1478 1844
185 1479 1992
222 1479 2145
250 1479 2306
281 1479 2472
316 1480 2643
356 1480 2826
394 1481 3022
429 1482 3228
447 1483 3447
466 1484 3671
486 1485 3895
505 1486 4095
525 1489 4095
477 1640 621
388 1646 623
343 1650 688
346 1650 796
348 1650 909
353 1651 1026
358 1652 1152
352 1652 1287
341 1654 1421
320 1655 1557
234 1659 1703
125 1663 1845
150 1663 1997
199 1663 2151
244 1663 2309
264 1663 2478
294 1663 2652
326 1663 2840
360 1664 3039
396 1664 3248
430 1665 3463
457 1665 3684
474 1666 3911
491 1667 4095
508 1670 4095
609 1816 733
546 1822 734
508 1825 775
508 1826 861
509 1827 958
511 1828 1062
514 1829 1171
510 1830 1302
496 1831 1435
476 1833 1568
428 1836 1707
311 1841 1854
136 1848 1998
161 1848 2156
206 1848 2316
256 1847 2481
275 1848 2659
299 1848 2849
328 1848 3052
358 1848 3265
389 1848 3483
420 1848 3705
451 1849 3927
472 1850 4095
485 1852 4095
759 1991 854
712 1996 854
685 1999 885
686 2000 951
685 2001 1031
685 2002 1120
685 2003 1217
683 2005 1327
669 2006 1458
647 2008 1589
617 2012 1721
543 2017 1863
391 2024 2012
143 2033 2158
168 2033 2322
206 2033 2490
259 2033 2664
278 2033 2856
296 2033 3062
321 2033 3277
346 2033 3499
374 2033 3723
403 2033 3947
430 2034 4095
458 2036 4095
918 2164 984
884 2168 985
872 2170 1013
871 2170 1063
869 2171 1126
868 2173 1200
867 2175 1284
866 2177 1374
856 2179 1492
834 2181 1620
803 2185 1749
763 2189 1880
658 2197 2027
472 2207 2177
147 2219 2324
165 2219 2496
200 2219 2673
247 2219 2863
270 2219 3069
286 2218 3287
306 2218 3511
327 2218 3738
350 2218 3964
374 2218 4095
398 2220 4095
1085 2334 1123
1064 2337 1127
1063 2338 1153
1061 2339 1191
1059 2340 1241
1057 2342 1302
1054 2344 1371
1051 2347 1448
1047 2349 1538
1027 2352 1662
999 2356 1789
960 2361 1917
910 2367 2047
770 2378 2199
551 2391 2350
140 2406 2499
158 2406 2679
186 2406 2872
226 2406 3077
255 2405 3294
266 2405 3520
280 2405 3749
298 2405 3977
318 2405 4095
338 2407 4095
1254 2503 1269
1253 2503 1283
1251 2504 1303
1249 2505 1333
1247 2507 1372
1243 2509 1420
1240 2511 1477
1236 2514 1542
1233 2517 1613
1219 2521 1716
1193 2524 1839
1157 2530 1964
1110 2536 2091
1047 2545 2222
878 2559 2378
627 2576 2531
130 2594 2682
144 2594 2878
165 2593 3086
199 2593 3303
228 2593 3527
237 2593 3757
246 2592 3987
260 2593 4095
276 2594 4095
1438 2668 1432
1437 2668 1443
1435 2669 1458
1433 2670 1481
1430 2672 1512
1427 2674 1551
1422 2677 1597
1418 2680 1651
1413 2684 1712
1408 2688 1780
1383 2692 1899
1349 2697 2021
1306 2704 2145
1252 2713 2272
1166 2724 2408
976 2742 2566
696 2761 2723
112 2782 2881
122 2782 3092
140 2782 3311
164 2781 3536
192 2781 3763
198 2781 3994
206 2781 4095
217 2783 4095
1616 2833 1596
1615 2834 1605
1613 2834 1617
1611 2836 1635
1608 2838 1659
1603 2840 1690
1599 2843 1728
1593 2847 1773
1587 2851 1823
1581 2856 1880
1567 2860 1967
1536 2866 2086
1496 2873 2208
1445 2881 2332
1384 2891 2458
1273 2906 2601
1065 2926 2766
761 2949 2931
94 2972 3095
101 2972 3316
111 2972 3543
128 2971 3772
149 2971 4000
153 2972 4095
158 2973 4095
1784 2999 1758
1783 3000 1765
1781 3001 1774
1779 3002 1789
1775 3004 1809
1771 3007 1834
1766 3010 1865
1760 3014 1901
1753 3018 1944
1747 3024 1992
1740 3029 2045
1713 3035 2156
1676 3042 2276
1630 3050 2399
1573 3060 2523
1505 3072 2651
1367 3090 2808
1143 3113 2981
816 3137 3152
73 3163 3320
76 3163 3547
83 3163 3777
93 3162 4006
107 3163 4095
112 3164 4095
1941 3167 1914
1939 3168 1920
1938 3169 1928
1935 3171 1940
1931 3173 1956
1927 3175 1977
1922 3179 2003
1915 3183 2034
1908 3188 2069
1901 3193 2110
1893 3199 2156
1878 3205 2229
1845 3212 2348
1802 3220 2469
1749 3230 2593
1687 3242 2722
1613 3255 2857
1449 3276 3030
1210 3301 3208
865 3327 3382
55 3354 3550
55 3354 3780
58 3354 4010
65 3355 4095
74 3356 4095
2085 3338 2065
2083 3339 2069
2082 3340 2076
2079 3342 2086
2075 3344 2100
2071 3347 2118
2066 3350 2139
2059 3354 2166
2052 3359 2196
2044 3364 2232
2035 3371 2272
2027 3378 2316
2000 3384 2420
1961 3392 2541
1913 3401 2665
1856 3413 2797
1788 3425 2933
1711 3440 3074
1520 3464 3260
1268 3490 3442
908 3518 3616
37 3547 3783
37 3546 4013
41 3547 4095
42 3548 4095
2216 3512 2207
2215 3513 2211
2213 3514 2216
2211 3515 2225
2207 3517 2237
2203 3520 2253
2197 3524 2272
2190 3528 2295
2183 3533 2322
2175 3538 2353
2166 3545 2389
2157 3551 2428
2143 3559 2490
2108 3566 2611
2064 3575 2739
2012 3585 2873
1950 3598 3012
1878 3611 3154
1783 3628 3306
1580 3653 3496
1318 3681 3677
945 3709 3850
26 3739 4014
27 3739 4095
28 3741 4095
2545 3633 2537
2544 3634 2540
2543 3635 2545
2542 3637 2551
2540 3639 2561
2537 3641 2572
2534 3644 2587
2531 3648 2606
2527 3653 2628
2523 3657 2653
2520 3663 2682
2517 3669 2716
2515 3675 2755
2490 3685 2833
2446 3697 2934
2389 3712 3041
2319 3730 3154
2232 3750 3273
2124 3773 3398
1927 3806 3546
1632 3843 3732
1361 3872 3911
976 3901 4081
16 3931 4095
18 3933 4095
2922 3729 2970
2922 3729 2973
2922 3730 2976
2922 3732 2981
2921 3733 2989
2921 3736 2999
2920 3738 3011
2920 3742 3026
2920 3745 3043
2920 3750 3064
2920 3755 3087
2921 3760 3114
2923 3766 3144
2924 3772 3183
2905 3782 3259
2881 3793 3339
2852 3806 3421
2816 3822 3508
2773 3839 3598
2724 3858 3692
2619 3887 3806
2419 3932 3944
2130 3985 4095
1656 4049 4095
24 4095 4095
172 0 402
189 0 523
186 0 635
187 0 747
197 0 857
211 0 975
221 0 1087
240 0 1208
263 0 1331
283 0 1452
309 0 1582
333 0 1710
360 0 1844
388 0 1986
418 0 2127
448 0 2278
478 0 2432
508 0 2591
539 0 2761
571 31 2946
602 61 3140
633 89 3345
664 118 3555
694 147 3769
724 175 3983
200 0 417
217 0 472
224 0 597
224 0 721
234 0 839
246 0 956
261 0 1075
278 0 1197
296 0 1320
316 0 1443
338 0 1570
363 0 1703
389 0 1837
415 0 1976
441 2 2120
470 27 2269
500 50 2425
529 73 2585
559 98 2755
588 122 2940
619 147 3135
648 171 3339
678 197 3550
708 221 3765
688 186 4072
224 2 441
260 2 501
228 9 600
228 9 748
238 10 872
247 12 996
259 17 1120
270 19 1244
284 25 1372
300 33 1502
318 39 1635
337 49 1773
357 58 1913
379 70 2059
402 80 2210
425 93 2366
449 104 2528
474 118 2700
499 132 2885
525 147 3079
558 170 3274
592 193 3475
623 216 3681
656 239 3887
627 202 4095
218 186 422
268 181 508
196 195 598
234 190 749
238 190 878
253 194 1004
267 195 1128
279 197 1254
292 200 1383
308 205 1515
325 209 1648
341 213 1785
362 220 1928
383 227 2074
406 235 2225
429 243 2382
453 252 2544
475 262 2715
502 272 2902
525 283 3099
551 294 3307
575 305 3521
601 318 3739
626 330 3959
587 296 4095
230 371 403
282 367 507
185 380 587
209 377 742
241 374 882
250 376 1009
265 376 1136
281 377 1262
300 379 1390
315 382 1523
330 385 1658
348 387 1796
368 392 1940
387 397 2088
409 402 2240
432 408 2398
454 414 2561
479 421 2734
503 429 2922
527 436 3120
552 445 3328
576 454 3542
601 463 3760
626 472 3979
585 448 4095
251 553 402
294 550 507
178 563 576
199 562 733
223 560 874
247 559 1012
262 559 1140
279 560 1269
297 561 1399
317 561 1529
339 564 1665
355 566 1805
373 568 1949
393 571 2098
413 574 2252
436 579 2411
458 584 2577
482 588 2751
505 594 2940
528 600 3141
552 606 3350
576 613 3566
601 619 3784
624 627 4003
581 610 4095
273 736 402
314 734 506
178 746 560
193 746 720
210 745 869
235 744 1007
256 743 1143
273 743 1274
295 743 1404
313 744 1539
334 745 1675
362 746 1812
383 748 1957
400 750 2108
419 753 2263
440 755 2424
462 758 2591
484 761 2767
507 766 2960
530 770 3161
552 774 3372
576 779 3588
599 784 3807
622 790 4026
575 778 4095
297 919 401
338 917 511
182 929 545
193 929 712
210 929 859
229 928 1001
248 927 1139
268 927 1275
284 926 1409
313 927 1542
330 927 1682
351 928 1823
377 929 1967
405 930 2115
427 932 2270
445 934 2433
467 936 2603
487 938 2782
508 941 2976
530 944 3181
552 947 3393
574 951 3611
595 954 3831
618 959 4051
568 952 4095
331 1101 413
373 1098 527
206 1112 536
213 1112 707
226 1112 851
241 1111 995
259 1111 1134
268 1110 1273
279 1110 1411
298 1110 1548
330 1110 1685
346 1111 1829
368 1111 1976
394 1112 2127
423 1113 2282
453 1114 2441
472 1116 2611
490 1118 2794
510 1119 2990
530 1121 3197
551 1123 3411
571 1126 3632
591 1129 3853
611 1131 4073
558 1128 4095
385 1282 448
423 1280 558
274 1292 564
258 1293 710
267 1293 852
281 1293 991
289 1293 1132
302 1293 1268
297 1293 1410
293 1294 1549
308 1294 1692
344 1294 1833
362 1294 1982
383 1295 2135
408 1295 2293
434 1296 2455
465 1297 2623
495 1298 2803
511 1299 3002
530 1301 3211
548 1303 3428
566 1304 3650
584 1306 3873
603 1308 4095
545 1306 4095
459 1462 523
491 1460 612
369 1470 616
334 1473 731
341 1473 865
349 1474 994
356 1474 1133
360 1474 1271
363 1475 1406
334 1476 1551
303 1478 1693
318 1479 1839
353 1478 1986
377 1478 2140
396 1479 2301
419 1479 2466
446 1480 2637
474 1480 2820
503 1481 3016
528 1482 3223
543 1483 3443
559 1484 3666
576 1486 3891
592 1487 4095
530 1486 4095
