Toning/Toning-HeavyBlueOrange.3dl
#25pt 3DLUT created by 3D LUT Creator Pro (c) Oleg Sharonov
#Copyright Oleg Sharonov
#IMAGEPROFILE sRGB IEC61966-2.1 v.2.10
#INPUTGAMMA sRGB IEC61966-2.1 v.2.10
#OUTPUTGAMMA sRGB IEC61966-2.1 v.2.10
0 128 256 384 512 640 768 896 1023
0 0 0
0 39 516
0 198 1022
0 430 1535
0 685 2047
0 955 2559
0 1242 3071
0 1540 3583
0 1850 4095
0 23 0
0 78 512
0 240 1026
0 460 1535
0 707 2048
0 973 2559
0 1256 3071
0 1553 3583
0 1861 4095
0 434 0
0 475 512
0 575 1024
0 728 1536
0 924 2048
0 1154 2560
0 1409 3071
0 1685 3583
0 1977 4095
0 882 0
0 909 512
0 976 1024
0 1087 1536
0 1242 2047
0 1433 2559
0 1655 3071
0 1902 3583
0 2171 4095
0 1350 0
0 1370 512
0 1420 1024
0 1506 1536
0 1630 2047
0 1788 2559
0 1979 3071
0 2197 3583
0 2440 4095
0 1841 0
0 1857 512
0 1898 1024
0 1967 1536
0 2069 2048
0 2202 2559
0 2366 3071
0 2558 3583
0 2775 4095
0 2356 0
0 2369 512
0 2402 1023
0 2461 1536
0 2546 2048
0 2660 2560
0 2802 3071
0 2971 3583
0 3165 4095
0 2892 0
0 2903 512
0 2931 1023
0 2981 1536
0 3055 2048
0 3154 2559
0 3278 3071
0 3427 3583
0 3601 4095
0 3447 0
0 3457 512
0 3481 1024
0 3525 1536
0 3589 2048
0 3676 2559
0 3786 3071
0 3920 3583
0 4076 4095
802 0 0
696 39 510
284 198 1024
0 430 1535
0 685 2047
0 955 2559
0 1242 3071
0 1540 3583
0 1850 4095
805 26 0
698 78 513
284 238 1023
0 460 1535
0 707 2048
0 973 2559
0 1256 3071
0 1553 3583
0 1861 4095
803 434 0
697 477 512
284 575 1023
0 728 1536
0 924 2048
0 1154 2560
0 1409 3071
0 1685 3583
0 1977 4095
804 883 0
697 909 512
284 975 1023
0 1087 1536
0 1242 2047
0 1433 2559
0 1655 3071
0 1902 3583
0 2171 4095
803 1350 0
697 1370 512
284 1420 1024
0 1506 1536
0 1630 2047
0 1788 2559
0 1979 3071
0 2197 3583
0 2440 4095
803 1841 0
697 1857 512
284 1897 1023
0 1967 1536
0 2069 2048
0 2202 2559
0 2366 3071
0 2558 3583
0 2775 4095
803 2356 0
697 2369 512
284 2402 1024
0 2461 1536
0 2546 2048
0 2660 2560
0 2802 3071
0 2971 3583
0 3165 4095
803 2892 0
697 2903 512
284 2931 1024
0 2981 1536
0 3055 2048
0 3154 2559
0 3278 3071
0 3427 3583
0 3601 4095
803 3447 0
697 3457 512
284 3481 1024
0 3525 1536
0 3589 2048
0 3676 2559
0 3786 3071
0 3920 3583
0 4076 4095
1515 0 0
1467 39 512
1336 198 1023
1053 431 1536
192 685 2048
0 955 2559
0 1242 3071
0 1540 3583
0 1850 4095
1515 26 0
1468 78 512
1337 238 1024
1053 460 1536
192 707 2047
0 973 2559
0 1256 3071
0 1553 3583
0 1861 4095
1515 434 0
1467 477 512
1337 575 1024
1053 727 1536
192 924 2047
0 1154 2560
0 1409 3071
0 1685 3583
0 1977 4095
1515 882 0
1467 909 512
1337 976 1024
1053 1087 1535
192 1242 2048
0 1433 2559
0 1655 3071
0 1902 3583
0 2171 4095
1515 1350 0
1467 1369 512
1336 1420 1024
1053 1506 1536
192 1630 2048
0 1788 2559
0 1979 3071
0 2197 3583
0 2440 4095
1515 1841 0
1467 1857 512
1337 1897 1024
1053 1967 1535
192 2069 2047
0 2202 2559
0 2366 3071
0 2558 3583
0 2775 4095
1515 2356 0
1467 2369 512
1336 2402 1023
1053 2461 1536
192 2546 2048
0 2660 2560
0 2802 3071
0 2971 3583
0 3165 4095
1515 2892 0
1467 2903 512
1337 2931 1024
1053 2981 1536
192 3055 2048
0 3154 2559
0 3278 3071
0 3427 3583
0 3601 4095
1515 3447 0
1467 3457 512
1337 3481 1024
1053 3525 1536
192 3589 2048
0 3676 2559
0 3786 3071
0 3920 3583
0 4076 4095
2208 0 0
2180 39 512
2106 198 1023
1966 431 1536
1721 685 2048
1280 956 2559
0 1242 3071
0 1540 3583
0 1850 4095
2207 26 0
2180 78 512
2107 238 1024
1966 460 1536
1720 707 2047
1280 973 2559
0 1256 3071
0 1553 3583
0 1861 4095
2208 434 0
2180 477 512
2107 575 1024
1966 727 1535
1721 924 2047
1280 1154 2559
0 1409 3071
0 1685 3583
0 1977 4095
2208 882 0
2180 909 512
2107 976 1024
1966 1087 1536
1721 1242 2048
1281 1433 2560
0 1655 3071
0 1902 3583
0 2171 4095
2208 1350 0
2180 1370 512
2107 1420 1024
1966 1506 1536
1721 1630 2048
1280 1788 2559
0 1979 3071
0 2197 3583
0 2440 4095
2208 1841 0
2180 1858 512
2107 1897 1024
1966 1967 1536
1721 2069 2047
1280 2202 2559
0 2366 3071
0 2558 3583
0 2775 4095
2208 2356 0
2180 2369 512
2107 2402 1023
1966 2461 1536
1721 2546 2048
1280 2660 2559
0 2802 3071
0 2971 3583
0 3165 4095
2208 2892 0
2180 2903 512
2107 2931 1024
1966 2981 1536
1721 3055 2048
1280 3154 2559
0 3278 3071
0 3427 3583
0 3601 4095
2208 3447 0
2180 3457 512
2107 3481 1024
1966 3525 1536
1721 3589 2048
1280 3676 2559
0 3786 3071
0 3920 3583
0 4076 4095
2845 0 0
2828 39 512
2783 198 1023
2700 431 1536
2563 685 2048
2349 956 2560
2010 1242 3071
1415 1540 3583
0 1850 4095
2845 26 0
2829 78 512
2784 238 1024
2700 460 1536
2563 707 2048
2349 973 2560
2010 1256 3071
1415 1553 3583
0 1861 4095
2846 434 0
2828 477 512
2784 575 1024
2700 727 1536
2563 924 2048
2349 1154 2559
2010 1409 3071
1415 1685 3583
0 1977 4095
2845 882 0
2828 909 512
2784 976 1024
2700 1087 1535
2563 1242 2048
2349 1433 2559
2010 1655 3071
1415 1902 3583
0 2171 4095
2845 1350 0
2828 1370 512
2784 1420 1024
2700 1506 1536
2563 1630 2048
2349 1788 2560
2010 1979 3071
1415 2197 3583
0 2440 4095
2845 1841 0
2828 1857 512
2784 1897 1024
2700 1967 1536
2563 2069 2047
2349 2202 2559
2010 2366 3071
1415 2558 3583
0 2775 4095
2845 2356 0
2828 2369 512
2784 2402 1023
2700 2461 1536
2563 2546 2048
2349 2660 2559
2010 2802 3071
1415 2971 3583
0 3165 4095
2845 2892 0
2828 2903 512
2784 2931 1024
2700 2981 1536
2563 3055 2048
2349 3154 2559
2010 3278 3071
1415 3427 3583
0 3601 4095
2845 3447 0
2828 3457 512
2784 3481 1024
2700 3525 1536
2563 3589 2048
2349 3676 2560
2010 3786 3071
1415 3920 3583
0 4076 4095
3378 0 0
3369 39 512
3342 198 1023
3293 431 1535
3214 685 2047
3095 956 2560
2916 1242 3071
2649 1540 3583
2228 1850 4095
3379 26 0
3368 78 512
3342 238 1023
3293 460 1535
3214 707 2048
3095 973 2560
2917 1256 3071
2649 1553 3583
2228 1861 4095
3379 434 0
3368 477 512
3342 575 1024
3293 727 1536
3214 924 2048
3095 1154 2560
2916 1409 3071
2648 1685 3583
2228 1977 4095
3379 882 0
3368 909 512
3342 976 1024
3293 1087 1536
3214 1242 2048
3094 1433 2559
2916 1655 3071
2649 1902 3583
2228 2171 4095
3379 1350 0
3368 1370 512
3342 1420 1024
3293 1506 1536
3214 1630 2048
3094 1788 2559
2916 1979 3071
2649 2197 3583
2228 2440 4095
3379 1841 0
3368 1857 512
3342 1897 1024
3293 1967 1536
3214 2069 2048
3095 2202 2559
2916 2366 3071
2649 2558 3583
2228 2775 4095
3379 2356 0
3368 2369 512
3342 2402 1024
3293 2461 1536
3214 2547 2048
3095 2660 2559
2916 2802 3071
2649 2971 3583
2228 3165 4095
3379 2892 0
3368 2903 512
3342 2931 1024
3293 2981 1536
3214 3055 2048
3094 3154 2559
2916 3278 3071
2649 3427 3583
2228 3601 4095
3379 3447 0
3368 3457 512
3342 3481 1024
3293 3525 1536
3214 3589 2048
3094 3676 2559
2917 3786 3071
2649 3920 3583
2228 4076 4095
3781 0 0
3776 39 512
3761 198 1024
3733 431 1536
3689 685 2048
3624 956 2559
3528 1242 3071
3391 1540 3583
3189 1850 4095
3782 26 0
3776 78 512
3761 238 1024
3733 460 1536
3689 707 2048
3624 973 2559
3529 1256 3071
3391 1553 3583
3189 1861 4095
3781 434 0
3776 477 512
3761 575 1024
3733 727 1536
3689 924 2047
3623 1154 2559
3529 1409 3071
3391 1685 3583
3189 1977 4095
3782 882 0
3776 909 512
3761 976 1024
3733 1087 1536
3689 1242 2048
3624 1433 2559
3529 1655 3071
3391 1902 3583
3189 2171 4095
3781 1350 0
3776 1370 512
3761 1420 1024
3733 1506 1536
3689 1630 2048
3624 1788 2559
3528 1979 3071
3391 2197 3583
3189 2440 4095
3781 1841 0
3776 1857 512
3761 1897 1024
3733 1967 1536
3689 2069 2047
3624 2202 2559
3528 2366 3071
3391 2558 3583
3189 2775 4095
3781 2356 0
3776 2369 512
3761 2402 1024
3733 2461 1536
3689 2546 2048
3624 2660 2559
3528 2802 3071
3391 2971 3583
3189 3165 4095
3781 2892 0
3776 2903 512
3761 2931 1024
3733 2981 1536
3689 3055 2048
3624 3154 2559
3528 3278 3071
3391 3427 3583
3189 3601 4095
3782 3447 0
3776 3457 512
3761 3481 1024
3733 3525 1536
3689 3589 2047
3624 3676 2559
3528 3786 3071
3391 3920 3583
3189 4076 4095
4065 0 0
4062 39 512
4054 198 1023
4038 431 1536
4014 685 2048
3979 956 2560
3928 1242 3071
3857 1540 3583
3757 1850 4095
4066 26 0
4062 78 512
4054 238 1023
4038 460 1536
4014 707 2048
3979 973 2560
3928 1256 3071
3857 1553 3583
3757 1861 4095
4065 434 0
4063 477 512
4054 575 1024
4038 727 1536
4014 924 2048
3979 1154 2559
3928 1409 3071
3857 1684 3583
3757 1977 4095
4066 882 0
4062 909 512
4054 976 1024
4038 1087 1535
4014 1242 2048
3979 1433 2559
3928 1655 3071
3857 1902 3583
3757 2171 4095
4065 1350 0
4062 1370 512
4054 1420 1024
4038 1506 1536
4014 1630 2048
3979 1789 2559
3928 1979 3071
3857 2197 3583
3757 2440 4095
4066 1841 0
4062 1857 512
4054 1898 1024
4038 1968 1536
4014 2069 2048
3979 2202 2559
3928 2366 3071
3857 2558 3583
3757 2775 4095
4065 2356 0
4062 2369 512
4054 2402 1023
4038 2461 1536
4014 2546 2048
3979 2660 2559
3928 2802 3071
3857 2971 3583
3757 3165 4095
4066 2892 0
4062 2903 512
4054 2931 1023
4038 2981 1536
4014 3055 2047
3979 3154 2559
3928 3278 3071
3857 3428 3583
3757 3601 4095
4066 3447 0
4062 3457 512
4054 3481 1024
4038 3525 1536
4014 3589 2047
3979 3676 2559
3928 3786 3071
3857 3920 3583
3757 4076 4095
4095 0 0
4095 39 512
4095 198 1024
4095 431 1536
4095 685 2048
4095 956 2559
4095 1242 3071
4095 1540 3583
4095 1850 4095
4095 26 0
4095 74 512
4095 240 1024
4095 461 1536
4095 707 2048
4095 974 2559
4095 1256 3071
4095 1553 3583
4095 1861 4095
4095 434 0
4095 477 513
4095 575 1024
4095 728 1536
4095 924 2048
4095 1154 2559
4095 1409 3071
4095 1685 3583
4095 1977 4095
4095 883 3
4095 909 512
4095 976 1023
4095 1087 1535
4095 1242 2047
4095 1433 2559
4095 1655 3071
4095 1902 3583
4095 2171 4095
4095 1350 0
4095 1370 512
4095 1420 1023
4095 1506 1535
4095 1630 2048
4095 1789 2559
4095 1979 3071
4095 2197 3583
4095 2440 4095
4095 1841 0
4095 1858 513
4095 1897 1024
4095 1967 1535
4095 2069 2048
4095 2202 2559
4095 2366 3071
4095 2558 3583
4095 2775 4095
4095 2356 0
4095 2369 512
4095 2402 1024
4095 2461 1535
4095 2547 2048
4095 2660 2559
4095 2802 3071
4095 2971 3583
4095 3165 4095
4095 2892 0
4095 2903 513
4095 2931 1024
4095 2981 1536
4095 3055 2048
4095 3154 2559
4095 3278 3071
4095 3428 3583
4095 3601 4095
4095 3447 6
4095 3457 513
4095 3481 1024
4095 3525 1535
4095 3589 2048
4095 3676 2560
4095 3786 3071
4095 3920 3583
4095 4076 4095
