Toning/Toning-SplitWarmsAndColds_MXYe.3dl
#25pt 3DLUT created by 3D LUT Creator Pro (c) Oleg Sharonov
#Copyright Oleg Sharonov
#IMAGEPROFILE 
#INPUTGAMMA 
#OUTPUTGAMMA 
0 43 86 128 171 214 256 299 341 384 427 469 512 555 597 640 682 725 768 810 853 896 938 981 1023 
0 0 0
0 0 174
8 3 341
24 14 503
49 27 664
84 43 824
114 73 977
136 114 1126
159 156 1269
204 198 1413
255 246 1556
314 299 1696
376 353 1831
441 406 1960
508 462 2085
587 524 2202
666 585 2319
741 649 2432
819 710 2542
899 778 2641
980 838 2751
1066 898 2857
1159 965 2949
1244 1029 3046
1330 1091 3139
22 168 8
0 171 176
27 186 317
60 205 465
92 218 622
130 237 777
151 268 927
180 294 1075
218 322 1220
262 361 1359
310 410 1495
362 457 1629
419 509 1759
477 560 1883
539 616 2003
609 677 2116
678 742 2226
743 806 2339
812 870 2443
885 938 2540
957 1000 2648
1032 1063 2753
1110 1129 2852
1189 1194 2947
1268 1259 3038
43 338 11
11 323 223
8 340 340
41 360 470
76 386 604
111 413 740
149 442 880
191 467 1026
235 493 1168
280 526 1307
328 565 1444
382 604 1579
439 645 1712
496 688 1839
559 734 1961
632 790 2073
704 849 2182
772 907 2294
842 968 2395
915 1032 2491
987 1091 2598
1059 1154 2702
1133 1220 2799
1205 1286 2892
1275 1354 2983
65 504 19
14 494 237
14 494 380
24 515 498
62 538 623
98 566 750
136 594 883
182 623 1013
230 654 1140
277 691 1267
328 727 1401
387 764 1531
446 802 1660
507 841 1784
573 884 1903
646 929 2021
713 979 2137
782 1029 2252
853 1084 2355
925 1140 2455
1000 1195 2562
1075 1254 2663
1151 1317 2759
1225 1378 2852
1299 1441 2942
84 674 24
30 666 243
11 656 422
3 674 532
41 695 651
79 720 772
119 746 898
168 772 1022
218 803 1144
265 842 1263
320 880 1383
380 920 1501
442 958 1621
506 994 1743
574 1036 1859
647 1074 1981
715 1122 2093
786 1168 2206
856 1221 2305
930 1271 2410
1006 1318 2521
1083 1371 2626
1158 1426 2727
1233 1483 2820
1309 1542 2911
103 845 27
68 841 231
14 826 444
11 832 573
19 854 682
62 876 799
106 899 918
156 923 1038
202 956 1154
250 992 1268
310 1028 1385
371 1065 1501
434 1102 1613
499 1141 1723
567 1184 1834
640 1225 1948
710 1268 2060
782 1312 2168
853 1362 2266
929 1407 2373
1009 1451 2483
1086 1502 2585
1162 1554 2686
1237 1605 2781
1315 1656 2879
117 1017 30
90 1013 227
16 998 461
16 996 609
5 1013 715
46 1032 828
92 1053 943
136 1080 1055
182 1112 1168
237 1144 1281
299 1177 1395
362 1212 1507
425 1247 1615
491 1286 1723
563 1325 1833
631 1369 1937
703 1412 2042
775 1458 2140
846 1506 2234
926 1546 2345
1007 1588 2453
1085 1637 2552
1161 1686 2651
1238 1734 2747
1318 1781 2846
127 1188 33
103 1185 229
16 1172 462
27 1158 646
16 1172 749
35 1189 858
79 1212 968
117 1239 1077
166 1268 1187
226 1297 1298
290 1329 1409
353 1360 1517
419 1394 1623
484 1432 1728
559 1469 1837
625 1512 1937
698 1552 2041
769 1598 2132
842 1643 2226
923 1685 2330
1003 1729 2429
1081 1776 2527
1158 1821 2625
1236 1867 2719
1319 1911 2820
144 1356 33
119 1354 231
49 1343 460
33 1330 647
27 1335 777
11 1354 882
62 1373 993
106 1398 1101
156 1424 1210
218 1452 1318
279 1481 1424
345 1511 1530
410 1545 1634
480 1580 1739
549 1618 1840
620 1657 1942
694 1695 2040
762 1740 2129
840 1781 2228
923 1820 2330
1001 1865 2425
1078 1912 2519
1156 1957 2609
1234 2002 2699
1320 2044 2801
156 1526 30
130 1524 229
81 1516 447
41 1497 676
35 1501 807
16 1519 906
52 1536 1020
103 1557 1130
151 1581 1235
204 1609 1336
269 1635 1441
337 1664 1546
403 1697 1648
475 1731 1751
540 1769 1848
615 1804 1950
688 1842 2042
757 1885 2131
840 1921 2234
922 1960 2333
1000 2003 2426
1078 2046 2518
1155 2090 2607
1236 2133 2699
1322 2175 2796
161 1698 24
138 1697 225
100 1692 429
38 1676 665
46 1668 837
24 1685 929
43 1699 1047
100 1718 1158
141 1740 1258
195 1765 1357
259 1792 1459
327 1820 1563
400 1850 1667
463 1886 1762
534 1920 1861
612 1952 1958
680 1991 2046
757 2029 2142
841 2063 2243
921 2103 2338
1000 2143 2431
1077 2184 2521
1154 2227 2608
1238 2267 2703
1326 2305 2800
166 1871 19
141 1870 218
117 1866 412
35 1852 656
54 1835 865
35 1850 960
30 1864 1068
90 1879 1178
133 1900 1279
187 1924 1379
248 1951 1479
321 1977 1583
387 2008 1681
451 2042 1775
529 2072 1874
604 2104 1966
674 2142 2056
758 2175 2156
842 2208 2254
923 2246 2347
1000 2285 2439
1076 2325 2526
1154 2366 2614
1244 2401 2712
1329 2441 2805
171 2043 11
146 2042 212
119 2039 408
57 2027 645
62 2006 877
57 2009 1003
24 2032 1076
76 2043 1198
122 2063 1301
173 2087 1399
243 2110 1502
314 2136 1604
375 2166 1698
447 2196 1793
528 2224 1889
596 2258 1977
675 2291 2073
763 2321 2174
843 2356 2267
923 2392 2359
999 2429 2447
1075 2467 2534
1161 2504 2628
1251 2538 2725
1334 2578 2814
178 2212 5
154 2211 207
130 2209 402
76 2198 631
65 2181 859
81 2170 1044
41 2195 1105
57 2210 1217
111 2228 1322
166 2249 1423
239 2270 1527
302 2297 1623
365 2325 1715
446 2350 1811
520 2379 1903
596 2410 1996
682 2439 2096
761 2472 2189
845 2505 2282
923 2539 2372
999 2574 2459
1078 2611 2547
1168 2643 2645
1256 2679 2738
1343 2714 2830
185 2381 5
159 2381 200
133 2379 394
90 2372 611
60 2357 845
90 2339 1064
60 2356 1151
16 2381 1224
98 2393 1345
164 2411 1451
233 2432 1552
291 2456 1643
367 2480 1737
449 2504 1834
523 2533 1926
603 2561 2022
680 2593 2114
763 2623 2207
846 2654 2299
924 2686 2387
1001 2720 2475
1087 2754 2568
1177 2785 2664
1261 2821 2752
1352 2853 2848
182 2553 3
156 2554 191
130 2552 389
95 2547 594
52 2535 826
90 2516 1058
90 2514 1211
30 2545 1254
87 2558 1370
161 2573 1479
228 2592 1576
293 2614 1668
374 2635 1765
452 2660 1860
527 2688 1952
603 2716 2045
680 2746 2135
766 2774 2229
849 2803 2319
926 2834 2407
1006 2868 2495
1097 2897 2592
1182 2930 2682
1268 2963 2773
1358 2993 2867
178 2725 3
151 2726 181
125 2725 379
98 2722 574
49 2711 812
79 2694 1039
106 2682 1237
60 2703 1309
49 2725 1385
156 2734 1504
224 2752 1602
301 2771 1699
380 2793 1795
456 2817 1890
528 2844 1979
597 2874 2067
684 2900 2161
769 2925 2252
852 2952 2342
931 2983 2430
1018 3013 2522
1104 3044 2615
1186 3077 2702
1278 3105 2797
1363 3135 2888
173 2898 0
146 2899 168
119 2898 369
95 2896 563
60 2886 794
71 2872 1013
111 2855 1232
92 2862 1348
30 2888 1406
144 2896 1534
224 2913 1636
307 2930 1735
385 2951 1830
451 2976 1918
519 3003 2005
601 3028 2096
688 3051 2188
775 3075 2279
858 3103 2369
939 3133 2458
1027 3161 2551
1109 3192 2639
1197 3221 2731
1290 3246 2825
1368 3278 2912
173 3067 3
146 3069 158
119 3068 357
95 3066 551
65 3058 775
68 3046 989
111 3029 1217
117 3026 1377
52 3052 1437
103 3063 1557
230 3072 1680
310 3090 1775
376 3112 1863
443 3136 1949
519 3159 2038
609 3180 2130
696 3202 2221
783 3227 2312
865 3254 2401
951 3281 2492
1032 3310 2580
1117 3340 2669
1213 3362 2764
1295 3391 2852
1380 3420 2942
182 3235 8
146 3238 144
119 3238 343
92 3236 538
62 3232 749
60 3222 967
100 3207 1196
130 3195 1396
68 3218 1462
57 3235 1560
216 3234 1717
301 3249 1819
367 3271 1904
437 3293 1987
527 3312 2078
615 3332 2168
703 3355 2259
790 3379 2348
876 3405 2438
958 3432 2527
1042 3459 2615
1133 3483 2706
1222 3507 2797
1300 3538 2882
1396 3563 2977
191 3407 5
138 3410 128
109 3411 328
81 3410 525
54 3406 730
46 3398 949
81 3386 1167
122 3372 1384
84 3384 1489
38 3405 1570
156 3410 1713
290 3411 1852
363 3427 1947
447 3445 2038
535 3464 2126
622 3486 2214
710 3508 2302
795 3532 2389
881 3556 2478
966 3582 2566
1052 3606 2653
1147 3627 2745
1227 3655 2831
1317 3681 2922
1414 3705 3016
189 3579 5
127 3582 111
98 3583 313
68 3583 511
41 3581 708
33 3573 929
71 3562 1152
100 3552 1354
90 3555 1498
24 3575 1575
95 3585 1693
275 3577 1868
367 3587 1980
455 3601 2082
542 3619 2176
630 3638 2267
711 3661 2353
802 3683 2440
891 3706 2526
972 3730 2610
1068 3751 2699
1155 3774 2787
1240 3801 2874
1336 3824 2967
1434 3847 3059
200 3751 3
117 3755 95
87 3756 299
57 3756 497
30 3754 692
19 3748 908
49 3740 1116
92 3728 1333
111 3722 1511
33 3745 1570
76 3755 1689
218 3754 1849
371 3751 2007
466 3762 2117
553 3777 2217
633 3796 2309
720 3815 2401
814 3833 2494
897 3854 2579
989 3874 2666
1082 3895 2752
1163 3922 2835
1302 3928 2939
1473 3925 3051
1636 3922 3160
212 3920 3
119 3925 87
87 3926 288
60 3926 487
33 3924 681
22 3919 893
49 3912 1097
71 3906 1287
106 3896 1490
38 3914 1575
65 3926 1690
151 3934 1821
375 3917 2025
473 3925 2144
556 3939 2247
642 3955 2344
735 3969 2443
826 3985 2537
912 4003 2627
1037 4009 2730
1208 4007 2844
1371 4004 2954
1535 4001 3063
1693 3997 3166
1837 3994 3267
228 4088 11
127 4093 79
95 4095 278
65 4095 476
35 4094 671
19 4091 871
38 4086 1073
65 4079 1280
84 4074 1465
38 4085 1578
71 4095 1692
185 4095 1824
330 4094 1998
472 4093 2158
580 4093 2277
740 4091 2408
879 4090 2526
1026 4088 2642
1173 4086 2755
1323 4083 2866
1470 4080 2974
1613 4076 3079
1754 4073 3182
1892 4069 3280
2028 4065 3376
174 0 0
147 3 198
125 3 364
141 3 519
155 3 685
171 0 853
191 0 1021
212 0 1188
253 19 1337
294 57 1481
347 100 1627
407 146 1770
473 200 1908
540 253 2039
611 308 2166
685 365 2293
766 425 2412
843 494 2526
925 555 2637
1009 619 2741
1095 683 2847
1183 741 2955
1281 808 3047
1376 868 3142
1464 926 3238
186 163 3
179 166 176
114 109 418
120 117 563
130 130 716
155 149 870
193 174 1018
225 207 1162
259 239 1303
299 277 1444
344 323 1582
396 371 1717
453 422 1848
512 472 1973
576 525 2095
652 586 2209
726 647 2322
799 712 2432
875 770 2540
953 835 2639
1033 896 2746
1116 957 2849
1206 1021 2943
1290 1084 3038
1375 1145 3131
231 317 11
205 327 186
144 308 415
163 320 544
189 336 680
216 352 826
249 372 970
281 393 1115
317 417 1255
356 449 1394
397 488 1529
446 533 1658
500 581 1783
554 630 1903
613 684 2019
680 744 2128
747 806 2236
810 869 2344
876 931 2448
946 998 2542
1017 1059 2648
1090 1121 2751
1166 1187 2848
1242 1251 2943
1319 1315 3033
257 483 16
223 493 193
125 479 444
149 487 569
181 503 694
216 526 819
253 552 948
293 575 1078
336 597 1214
378 628 1347
423 662 1479
474 698 1609
528 736 1736
584 775 1860
644 820 1978
712 869 2091
778 925 2199
844 980 2308
913 1039 2406
983 1101 2500
1053 1158 2606
1125 1219 2707
1197 1284 2802
1268 1348 2894
1337 1414 2984
270 657 14
239 664 196
179 662 405
125 654 597
168 665 719
205 687 838
245 709 960
289 733 1082
334 762 1203
378 798 1322
428 833 1443
483 866 1569
539 900 1692
598 935 1813
663 978 1927
730 1019 2045
794 1069 2154
861 1116 2266
930 1167 2366
1000 1221 2468
1072 1270 2577
1146 1328 2675
1219 1389 2769
1292 1449 2860
1365 1509 2949
282 831 11
259 835 198
212 830 413
101 825 618
155 830 748
191 849 861
235 867 979
282 888 1097
325 919 1211
371 954 1325
424 987 1441
482 1023 1555
540 1060 1666
602 1096 1778
666 1135 1893
734 1174 2008
800 1219 2117
869 1262 2226
937 1311 2323
1010 1359 2427
1085 1404 2537
1159 1456 2637
1232 1509 2736
1305 1561 2832
1379 1618 2922
294 1004 8
274 1007 198
241 1004 401
130 1006 595
139 994 777
179 1009 886
225 1026 1002
270 1050 1113
314 1079 1224
364 1109 1336
421 1141 1449
479 1173 1558
538 1207 1667
599 1245 1773
664 1285 1880
730 1329 1983
798 1371 2089
869 1412 2193
938 1459 2289
1014 1501 2396
1091 1543 2503
1166 1593 2601
1240 1642 2700
1314 1691 2794
1390 1741 2891
308 1176 5
288 1178 200
263 1176 396
166 1168 621
111 1164 788
171 1170 915
210 1190 1022
257 1212 1133
304 1238 1242
359 1265 1352
416 1295 1461
473 1326 1567
536 1357 1673
598 1395 1777
664 1432 1882
726 1477 1979
797 1516 2082
866 1560 2175
936 1607 2266
1015 1645 2373
1093 1687 2476
1169 1733 2574
1243 1779 2670
1319 1825 2765
1397 1871 2863
322 1345 8
301 1346 200
277 1344 397
203 1334 630
90 1337 790
147 1339 933
193 1355 1044
245 1374 1155
299 1397 1264
354 1423 1371
406 1451 1473
469 1478 1579
532 1510 1683
594 1546 1785
659 1584 1885
724 1624 1983
797 1661 2082
864 1704 2171
938 1746 2266
1017 1785 2368
1093 1829 2462
1168 1876 2554
1244 1919 2648
1321 1963 2742
1402 2005 2842
334 1515 8
312 1517 200
288 1516 396
227 1508 624
128 1511 789
111 1513 938
184 1520 1068
239 1537 1180
296 1557 1288
344 1582 1388
400 1607 1489
460 1637 1590
526 1666 1695
592 1699 1796
654 1737 1891
724 1773 1990
795 1808 2084
862 1850 2172
941 1887 2271
1019 1926 2370
1095 1969 2461
1171 2012 2553
1246 2055 2641
1323 2100 2731
1407 2142 2828
341 1688 8
320 1690 196
294 1689 391
247 1684 608
152 1676 819
76 1686 946
174 1687 1092
233 1700 1205
286 1718 1307
334 1742 1405
392 1767 1506
454 1795 1606
523 1823 1710
585 1856 1807
649 1891 1902
724 1922 1998
792 1959 2088
864 1997 2180
944 2031 2281
1021 2070 2374
1098 2111 2466
1173 2151 2555
1248 2193 2642
1328 2235 2735
1413 2274 2831
