Toning/Toning-Dark & Washed Out.3dl
#25pt 3DLUT created by 3D LUT Creator Pro (c) Oleg Sharonov
#Copyright Oleg Sharonov
#IMAGEPROFILE sRGB IEC61966-2.1 v.2.10
#INPUTGAMMA sRGB IEC61966-2.1 v.2.10
#OUTPUTGAMMA sRGB IEC61966-2.1 v.2.10
0 128 256 384 512 640 768 896 1023
645 600 436
646 600 516
646 601 722
648 602 926
651 603 1118
653 604 1307
655 605 1515
656 605 1760
657 605 2054
646 764 436
646 769 583
648 775 798
650 784 967
652 786 1125
654 784 1297
655 785 1516
657 790 1779
658 798 2081
647 1029 436
647 1027 592
649 1027 801
650 1028 963
653 1030 1120
655 1036 1309
657 1043 1553
658 1053 1844
659 1067 2154
648 1267 436
649 1268 606
651 1271 819
653 1276 990
655 1284 1160
657 1295 1382
659 1307 1652
660 1323 1971
662 1342 2282
651 1592 437
652 1593 641
654 1597 859
656 1604 1043
659 1616 1239
661 1630 1503
662 1649 1814
664 1671 2143
665 1697 2452
653 2048 437
655 2050 682
657 2055 907
659 2063 1108
662 2076 1351
664 2091 1656
666 2110 2007
667 2132 2334
668 2158 2631
656 2541 437
657 2542 721
660 2546 956
663 2553 1178
665 2563 1474
667 2574 1827
668 2589 2187
670 2606 2513
671 2627 2764
658 3000 437
659 3001 753
662 3004 1000
665 3009 1251
668 3016 1590
670 3024 1982
671 3034 2344
672 3046 2656
674 3061 2864
660 3342 438
662 3341 779
665 3341 1038
668 3343 1324
671 3344 1700
673 3345 2113
674 3348 2477
676 3351 2756
678 3356 2942
796 600 436
809 600 536
840 600 756
888 601 950
909 603 1122
911 604 1304
905 604 1513
914 605 1764
926 605 2061
892 774 435
897 777 589
902 780 802
907 784 968
910 785 1122
908 784 1294
910 784 1518
919 790 1785
934 800 2088
897 1027 435
898 1027 589
899 1027 800
905 1028 962
907 1031 1120
917 1036 1312
926 1044 1558
942 1055 1851
956 1068 2162
925 1269 435
925 1270 605
930 1273 819
936 1278 991
946 1286 1162
955 1297 1386
966 1309 1658
981 1325 1978
998 1344 2289
984 1595 436
985 1596 640
990 1600 860
995 1608 1044
1004 1619 1241
1012 1634 1507
1025 1652 1820
1037 1674 2149
1049 1701 2458
1055 2052 436
1058 2054 682
1060 2059 907
1065 2067 1108
1073 2079 1353
1082 2094 1660
1091 2113 2011
1099 2135 2339
1111 2161 2634
1126 2543 436
1127 2545 720
1131 2549 954
1136 2556 1177
1140 2565 1475
1146 2577 1829
1153 2591 2189
1159 2608 2516
1168 2629 2765
1187 3001 436
1188 3002 752
1190 3005 998
1195 3011 1250
1198 3017 1591
1202 3025 1983
1207 3035 2345
1213 3047 2656
1219 3061 2863
1239 3340 436
1240 3339 777
1243 3340 1036
1246 3341 1323
1250 3342 1700
1252 3344 2113
1256 3346 2478
1260 3349 2755
1265 3354 2940
1239 599 435
1247 599 582
1262 600 798
1273 601 965
1276 602 1122
1271 603 1295
1272 604 1514
1284 604 1779
1304 604 2081
1273 782 434
1273 782 593
1275 782 804
1273 783 965
1270 782 1116
1272 783 1294
1279 786 1525
1295 794 1802
1316 805 2109
1267 1027 434
1267 1026 591
1269 1027 800
1274 1030 964
1280 1033 1124
1292 1040 1321
1307 1049 1572
1325 1059 1872
1349 1073 2183
1312 1277 435
1312 1277 609
1318 1280 823
1323 1285 995
1334 1293 1169
1348 1304 1399
1364 1317 1675
1382 1332 1998
1405 1351 2309
1396 1605 435
1398 1606 643
1403 1611 862
1410 1618 1048
1419 1630 1248
1432 1644 1519
1446 1662 1836
1464 1684 2165
1485 1711 2474
1504 2064 435
1505 2065 684
1509 2070 909
1515 2079 1111
1524 2090 1360
1534 2105 1670
1547 2123 2023
1562 2145 2351
1578 2170 2644
1613 2552 435
1615 2553 721
1618 2558 955
1624 2564 1179
1631 2573 1481
1639 2585 1838
1649 2599 2198
1660 2616 2524
1674 2636 2769
1715 3007 435
1717 3008 751
1721 3011 998
1726 3016 1252
1731 3023 1594
1737 3030 1989
1744 3040 2351
1753 3052 2660
1764 3066 2865
1808 3340 435
1810 3339 776
1813 3340 1035
1817 3341 1324
1821 3342 1703
1826 3343 2117
1831 3345 2481
1838 3349 2756
1847 3353 2940
1622 599 434
1622 599 593
1621 600 801
1617 601 962
1613 602 1114
1618 603 1295
1632 603 1531
1656 604 1811
1689 604 2119
1613 779 434
1612 779 590
1611 777 798
1612 778 959
1616 782 1116
1629 785 1305
1647 791 1548
1673 802 1838
1708 812 2148
1625 1031 434
1627 1031 593
1630 1032 803
1640 1037 971
1651 1041 1134
1669 1049 1342
1692 1058 1601
1721 1069 1909
1756 1082 2221
1703 1290 434
1705 1291 615
1711 1294 829
1721 1299 1005
1736 1307 1182
1754 1317 1422
1778 1330 1706
1806 1345 2033
1840 1363 2343
1830 1625 435
1832 1626 649
1838 1630 868
1848 1638 1056
1861 1649 1263
1878 1663 1540
1900 1681 1866
1926 1703 2195
1955 1729 2503
1985 2085 435
1987 2086 687
1992 2091 913
2001 2099 1117
2013 2110 1374
2027 2124 1690
2044 2142 2046
2065 2163 2373
2089 2188 2660
2141 2568 434
2143 2569 723
2147 2573 958
2154 2580 1184
2162 2589 1491
2172 2600 1853
2184 2613 2213
2199 2630 2539
2216 2649 2778
2273 3018 434
2275 3019 752
2278 3022 999
2282 3027 1256
2288 3033 1603
2295 3040 1999
2302 3050 2362
2312 3061 2668
2324 3075 2870
2379 3342 435
2380 3342 776
2383 3342 1035
2386 3343 1327
2390 3344 1710
2394 3345 2125
2399 3347 2489
2406 3350 2760
2415 3354 2943
1974 599 433
1975 599 590
1978 599 798
1985 600 962
1996 601 1121
2016 603 1318
2044 603 1568
2080 604 1867
2124 604 2177
1985 781 433
1986 781 592
1992 782 801
2001 786 966
2016 789 1129
2038 796 1332
2067 804 1589
2104 811 1894
2150 823 2206
2036 1043 433
2038 1044 601
2044 1046 813
2057 1050 984
2075 1055 1153
2099 1063 1376
2130 1072 1646
2166 1083 1965
2208 1097 2277
2145 1311 433
2148 1312 624
2155 1314 840
2167 1319 1019
2184 1328 1204
2207 1337 1457
2234 1350 1754
2265 1364 2083
2301 1382 2393
2293 1655 434
2295 1656 657
2301 1660 877
2311 1667 1068
2325 1678 1287
2342 1693 1573
2363 1710 1908
2388 1731 2238
2417 1756 2545
2448 2115 434
2449 2116 694
2453 2121 921
2460 2129 1128
2470 2140 1395
2483 2153 1720
2497 2170 2078
2515 2190 2405
2535 2213 2684
2584 2592 434
2585 2593 727
2588 2597 963
2593 2604 1194
2600 2612 1507
2607 2622 1876
2617 2635 2237
2629 2651 2561
2643 2670 2792
2696 3035 434
2697 3035 754
2699 3038 1002
2702 3043 1264
2707 3049 1615
2712 3056 2016
2718 3065 2379
2726 3076 2680
2736 3089 2879
2788 3347 435
2788 3346 778
2790 3347 1037
2793 3347 1334
2795 3348 1721
2798 3349 2136
2803 3350 2501
2808 3353 2767
2815 3357 2948
2368 599 433
2370 599 598
2376 599 809
2387 600 978
2404 602 1145
2426 603 1362
2454 603 1629
2488 604 1944
2527 604 2256
2390 794 433
2392 794 603
2398 797 814
2409 801 985
2426 805 1155
2448 810 1379
2476 820 1651
2509 827 1971
2547 838 2283
2448 1063 433
2450 1064 615
2456 1066 828
2467 1071 1004
2484 1076 1183
2505 1083 1425
2531 1092 1711
2562 1103 2039
2596 1116 2349
2546 1340 433
2549 1340 639
2554 1343 855
2564 1349 1039
2579 1356 1237
2597 1365 1505
2619 1377 1820
2644 1391 2149
2674 1408 2458
2671 1695 434
2672 1696 668
2677 1701 890
2685 1708 1086
2696 1719 1320
2710 1732 1619
2728 1749 1964
2748 1769 2293
2771 1793 2595
2799 2155 435
2800 2157 703
2803 2161 931
2809 2168 1143
2817 2178 1424
2827 2191 1761
2839 2206 2120
2854 2225 2446
2872 2247 2714
2916 2623 435
2917 2624 733
2919 2628 971
2924 2634 1208
2929 2642 1529
2936 2652 1906
2945 2664 2267
2955 2679 2589
2968 2697 2811
3019 3057 435
3019 3058 758
3021 3060 1008
3024 3065 1276
3028 3070 1634
3032 3077 2038
3038 3085 2401
3046 3095 2696
3055 3107 2891
3106 3354 436
3106 3353 780
3107 3353 1041
3110 3354 1343
3112 3354 1736
3115 3355 2152
3119 3356 2517
3124 3359 2777
3131 3362 2956
2717 599 433
2719 599 616
2725 600 830
2735 601 1006
2750 602 1185
2769 604 1427
2793 604 1713
2821 604 2040
2854 605 2351
2738 814 433
2740 816 621
2745 817 835
2755 820 1013
2769 826 1196
2788 834 1444
2812 841 1737
2839 849 2065
2871 857 2375
2789 1091 433
2790 1092 633
2795 1094 849
2805 1097 1032
2818 1103 1226
2836 1110 1489
2857 1118 1798
2883 1129 2127
2913 1140 2437
2872 1376 434
2873 1377 655
2878 1380 874
2886 1384 1064
2899 1392 1281
2914 1401 1566
2933 1412 1899
2956 1425 2229
2982 1442 2536
2980 1746 435
2981 1748 684
2985 1752 907
2992 1759 1109
3002 1769 1363
3014 1781 1676
3029 1796 2030
3047 1815 2358
3068 1836 2648
3094 2203 435
3094 2204 713
3097 2209 944
3102 2215 1163
3109 2225 1458
3118 2236 1809
3129 2250 2169
3142 2267 2496
3158 2287 2747
3199 2661 435
3199 2662 740
3201 2666 981
3205 2671 1225
3210 2679 1557
3216 2688 1942
3223 2699 2304
3233 2712 2620
3244 2729 2833
3291 3083 436
3291 3084 762
3293 3086 1015
3295 3091 1290
3298 3095 1656
3302 3101 2064
3307 3108 2428
3314 3118 2715
3322 3129 2905
3369 3363 437
3368 3362 784
3370 3362 1046
3372 3362 1355
3373 3362 1754
3376 3362 2171
3379 3363 2536
3384 3365 2789
3389 3369 2967
3026 600 433
3027 600 639
3032 601 856
3041 602 1040
3055 604 1238
3072 605 1506
3093 605 1820
3118 605 2149
3147 606 2458
3044 841 433
3046 841 643
3050 844 861
3059 847 1046
3072 853 1249
3089 858 1522
3109 864 1843
3134 871 2172
3162 881 2480
3090 1124 434
3091 1124 655
3095 1126 874
3104 1129 1064
3116 1135 1280
3131 1141 1565
3150 1149 1898
3173 1158 2227
3199 1169 2535
3163 1420 434
3165 1420 675
3169 1423 896
3176 1427 1094
3186 1434 1335
3200 1442 1639
3216 1453 1989
3235 1465 2317
3257 1480 2615
3256 1805 435
3257 1806 699
3260 1809 925
3266 1816 1136
3274 1825 1411
3284 1836 1743
3296 1850 2102
3311 1866 2429
3328 1885 2701
3351 2257 436
3351 2258 724
3354 2262 958
3358 2268 1187
3364 2276 1498
3371 2287 1864
3379 2299 2224
3390 2314 2550
3403 2332 2783
3439 2703 436
3440 2705 748
3441 2708 992
3444 2714 1246
3448 2720 1589
3453 2728 1984
3459 2738 2346
3466 2751 2654
3476 2766 2858
3517 3113 436
3517 3113 768
3518 3116 1023
3520 3119 1308
3522 3124 1683
3525 3129 2095
3529 3135 2458
3534 3143 2737
3541 3154 2922
3582 3372 438
3582 3371 788
3583 3371 1052
3584 3371 1369
3585 3371 1776
3586 3371 2194
3589 3371 2557
3592 3373 2804
3597 3376 2978
3310 601 434
3311 601 664
3315 602 884
3323 604 1078
3334 605 1304
3348 606 1596
3365 606 1936
3385 607 2265
3409 607 2571
3325 870 434
3326 870 667
3331 873 889
3338 876 1084
3349 881 1316
3362 885 1612
3378 890 1956
3398 897 2285
3420 905 2588
3363 1160 434
3364 1160 678
3368 1162 900
3375 1165 1100
3384 1170 1346
3397 1176 1653
3411 1183 2004
3429 1190 2332
3448 1200 2627
3423 1468 435
3424 1469 694
3427 1471 920
3432 1475 1128
3440 1481 1397
3450 1489 1722
3462 1498 2081
3477 1509 2408
3494 1523 2686
3495 1867 436
3495 1868 715
3497 1872 946
3502 1877 1166
3508 1885 1464
3515 1894 1817
3524 1906 2177
3535 1920 2503
3549 1937 2753
3569 2314 436
3569 2315 736
3571 2319 975
3574 2324 1215
3578 2332 1541
3583 2340 1922
3589 2352 2283
3598 2365 2603
3607 2381 2820
3637 2750 437
3637 2751 756
3638 2754 1004
3639 2759 1270
3641 2765 1625
3644 2773 2028
3647 2782 2391
3652 2793 2688
3658 2807 2884
3689 3145 437
3688 3145 775
3688 3148 1033
3689 3151 1328
3689 3154 1713
3690 3159 2128
3691 3164 2493
3694 3171 2760
3697 3180 2941
3728 3383 439
3727 3381 793
3727 3381 1060
3726 3381 1385
3726 3381 1800
3725 3380 2219
3725 3381 2580
3727 3382 2819
3729 3385 2992
