Toning/Toning-WoodenHueTwists.3dl
#25pt 3DLUT created by 3D LUT Creator Pro (c) Oleg Sharonov
#Copyright Oleg Sharonov
#IMAGEPROFILE sRGB IEC61966-2.1 v.2.10
#INPUTGAMMA sRGB IEC61966-2.1 v.2.10
#OUTPUTGAMMA sRGB IEC61966-2.1 v.2.10
0 256 512 768 1023
0 0 0
93 128 1024
143 197 2048
38 54 3071
0 0 4095
349 1024 334
0 1024 1024
0 1023 2048
13 1041 3071
0 1024 4095
680 2048 661
633 2048 1344
0 2048 2048
0 2047 3071
0 2046 4095
944 3071 960
879 3071 1621
564 3071 2325
0 3071 3071
0 3071 4095
1236 4095 1271
1167 4095 1927
1099 4095 2583
549 4095 3339
0 4095 4095
1024 0 0
1024 210 1011
1205 416 2048
1083 273 3071
1040 221 4095
1024 882 91
1024 1024 1024
1095 1123 2048
1049 1059 3071
1023 1023 4095
1402 2048 662
1363 2048 1354
1023 2047 2048
1024 2048 3071
1024 2047 4095
1696 3071 949
1653 3071 1663
1588 3071 2325
1024 3071 3071
1024 3071 4095
1995 4095 1258
1951 4095 1976
1882 4095 2633
1573 4095 3339
1023 4095 4094
2048 0 0
2048 105 1074
2048 383 2032
2087 390 3071
2081 442 4095
2048 939 0
2048 895 914
2048 1215 2040
2094 1280 3071
2063 1244 4095
2048 1830 140
2048 1939 1094
2048 2048 2048
2061 2066 3071
2048 2048 4095
2425 3071 662
2405 3071 1653
2362 3071 2368
2047 3071 3071
2046 3071 4095
2754 4095 1245
2710 4095 1963
2665 4095 2683
2597 4095 3339
2046 4095 4095
3071 0 0
3071 5 1020
3071 160 2064
3050 403 3071
3067 460 4095
3071 1164 0
3071 978 985
3071 1042 2056
3058 1293 3071
3077 1364 4095
3071 2183 0
3071 2194 993
3071 2024 2027
3064 2181 3071
3088 2269 4095
3071 3013 38
3071 3032 1049
3071 3052 2061
3071 3071 3071
3071 3071 4095
3424 4095 623
3425 4095 1646
3425 4095 2670
3380 4095 3389
3071 4094 4095
4095 0 0
4095 0 1024
4095 0 2048
4095 261 3092
4054 480 4095
4095 1228 0
4095 1023 1024
4095 1023 2048
4095 1154 3081
4066 1385 4095
4095 2456 0
4095 2252 1009
4095 2047 2046
4095 2048 3071
4075 2287 4095
4095 3275 0
4095 3275 1009
4095 3275 2034
4095 3072 3071
4084 3191 4095
4095 4095 46
4095 4095 1023
4095 4095 2048
4095 4095 3071
4095 4095 4095
