Toning/Toning-TealOrange-VideoCL.3dl
#25pt 3DLUT created by 3D LUT Creator Pro (c) Oleg Sharonov
#Copyright Oleg Sharonov
#IMAGEPROFILE 
#INPUTGAMMA 
#OUTPUTGAMMA 
0 128 256 384 512 640 768 896 1023
0 0 0
6 61 96
18 212 300
49 393 521
102 583 753
182 777 992
271 972 1232
368 1171 1473
467 1372 1716
108 464 401
9 495 564
34 553 711
83 656 842
155 789 1006
232 941 1193
316 1108 1397
410 1286 1612
504 1472 1834
410 976 834
308 996 933
46 1035 1165
46 1086 1352
187 1166 1461
296 1272 1592
390 1398 1745
488 1543 1916
582 1699 2100
770 1504 1252
706 1517 1335
516 1553 1514
145 1599 1787
43 1648 2007
267 1719 2108
427 1809 2219
553 1912 2341
665 2029 2475
1188 2036 1638
1144 2044 1716
1009 2068 1884
723 2112 2111
277 2159 2393
18 2202 2622
306 2261 2714
527 2333 2805
686 2417 2904
1601 2537 2031
1567 2542 2102
1467 2558 2253
1255 2586 2453
916 2632 2679
408 2679 2949
3 2719 3180
302 2772 3271
579 2833 3355
2001 3003 2432
1975 3007 2490
1901 3017 2618
1745 3041 2798
1473 3078 3003
1098 3122 3217
539 3166 3470
6 3202 3691
267 3248 3789
2369 3434 2849
2349 3437 2893
2292 3445 2994
2174 3463 3144
1971 3490 3321
1652 3530 3512
1263 3571 3715
669 3614 3954
1191 3623 4094
3147 3756 3408
3138 3759 3427
3110 3768 3471
3053 3784 3545
2942 3811 3644
2754 3854 3775
2570 3896 3922
2783 3892 4014
3037 3887 4074
310 108 9
108 217 296
74 334 448
96 480 628
152 648 834
224 826 1053
308 1012 1281
400 1204 1515
493 1401 1750
601 467 105
302 539 622
253 607 742
241 708 885
271 833 1047
324 979 1229
392 1141 1429
473 1314 1639
533 1498 1866
534 1013 760
544 1010 969
448 1046 1167
352 1108 1351
373 1191 1472
422 1297 1609
482 1422 1763
563 1565 1934
609 1722 2126
857 1529 1180
874 1525 1334
721 1560 1515
544 1603 1776
424 1659 1996
478 1733 2109
562 1824 2224
653 1927 2347
693 2046 2494
1250 2054 1560
1269 2049 1690
1149 2072 1870
909 2115 2102
644 2159 2378
474 2206 2608
549 2268 2708
673 2341 2804
712 2430 2919
1646 2550 1967
1661 2546 2067
1572 2561 2231
1378 2590 2442
1074 2634 2671
732 2679 2936
498 2721 3168
577 2776 3265
602 2844 3368
2034 3013 2381
2046 3010 2458
1979 3020 2595
1834 3042 2784
1579 3079 2993
1241 3123 3209
825 3165 3460
511 3203 3683
286 3256 3799
2397 3441 2812
2404 3439 2868
2351 3447 2974
2240 3464 3131
2047 3492 3313
1745 3531 3506
1392 3572 3709
919 3613 3946
1275 3626 4094
3175 3759 3402
3166 3761 3421
3140 3770 3466
3085 3786 3540
2979 3813 3640
2798 3855 3772
2601 3899 3921
2809 3895 4014
3058 3890 4075
700 332 34
719 359 130
378 523 664
298 647 830
300 784 1002
341 939 1193
403 1107 1397
481 1284 1612
565 1471 1834
1023 523 0
873 600 452
525 731 867
431 827 1026
413 942 1178
436 1075 1347
484 1224 1531
551 1387 1727
607 1564 1943
1234 980 330
1016 1042 777
793 1098 1216
733 1164 1347
678 1252 1496
665 1358 1646
685 1480 1805
728 1619 1977
681 1777 2190
1166 1567 982
1072 1589 1113
1091 1578 1533
1016 1617 1757
867 1686 1971
821 1767 2106
829 1859 2233
866 1962 2363
766 2088 2543
1464 2086 1346
1406 2097 1450
1460 2080 1811
1269 2122 2077
1145 2161 2341
968 2218 2576
932 2285 2693
959 2362 2800
779 2462 2957
1737 2589 1736
1763 2582 1879
1806 2569 2156
1652 2597 2408
1395 2640 2651
1219 2679 2907
1018 2728 3140
988 2787 3250
665 2869 3399
2108 3041 2217
2125 3036 2316
2157 3026 2523
2038 3046 2742
1819 3081 2970
1541 3125 3191
1293 3164 3434
1053 3206 3664
337 3276 3826
2460 3462 2699
2470 3459 2767
2490 3453 2918
2396 3468 3093
2223 3495 3290
1957 3533 3490
1668 3573 3694
1360 3612 3925
1467 3633 4094
3237 3766 3385
3231 3768 3404
3211 3775 3451
3164 3790 3529
3071 3816 3632
2905 3856 3762
2676 3906 3919
2873 3903 4013
3111 3898 4075
1119 570 80
1135 586 158
1146 636 387
714 834 1047
590 968 1220
563 1104 1392
586 1253 1573
630 1413 1767
698 1586 1971
1348 701 40
1262 752 414
1275 791 563
826 974 1178
695 1094 1354
654 1220 1517
662 1356 1686
704 1507 1869
738 1671 2069
1712 1004 21
1648 1035 515
1153 1198 1275
1049 1271 1435
928 1364 1617
870 1471 1774
857 1588 1929
876 1719 2091
820 1866 2293
1898 1521 575
1856 1536 834
1557 1623 1357
1393 1672 1785
1325 1739 1930
1237 1823 2093
1191 1917 2241
1177 2021 2385
909 2158 2622
2012 2064 1190
1972 2076 1318
1876 2104 1566
1753 2131 2016
1661 2171 2289
1474 2243 2524
1375 2317 2667
1332 2398 2793
913 2516 3020
2239 2563 1690
2204 2573 1762
2092 2601 1918
2041 2607 2304
1841 2651 2613
1753 2683 2859
1553 2741 3095
1458 2807 3224
791 2913 3452
2466 3033 2123
2427 3042 2168
2310 3068 2271
2338 3056 2632
2171 3086 2917
1939 3131 3160
1823 3164 3393
1603 3212 3625
442 3311 3872
2645 3481 2523
2602 3490 2552
2596 3489 2720
2633 3477 3000
2497 3500 3238
2276 3539 3462
2049 3577 3668
2031 3599 3865
1754 3647 4095
3329 3781 3354
3327 3783 3374
3319 3787 3423
3289 3798 3505
3217 3822 3615
3077 3860 3746
2833 3916 3909
2981 3917 4013
3200 3912 4077
1544 813 145
1557 824 214
1579 856 382
1578 927 668
1115 1135 1452
935 1292 1610
878 1433 1784
878 1582 1962
909 1738 2144
1714 910 111
1655 950 430
1676 977 543
1677 1040 789
1212 1237 1545
1021 1387 1707
957 1522 1877
947 1663 2048
951 1812 2230
2059 1131 15
1995 1171 465
1854 1258 909
1782 1324 1188
1424 1473 1739
1227 1605 1917
1142 1725 2080
1114 1848 2235
1042 1984 2427
2380 1532 161
2338 1553 593
2241 1602 1083
1927 1726 1667
1710 1822 1985
1548 1919 2186
1447 2017 2345
1397 2119 2491
1139 2251 2728
2529 2052 833
2500 2064 1037
2412 2096 1427
2265 2149 1850
2062 2216 2282
1967 2284 2452
1845 2366 2630
1757 2452 2782
1158 2589 3104
2660 2566 1459
2637 2574 1552
2596 2590 1735
2504 2620 2065
2347 2659 2509
2259 2697 2798
2066 2766 3035
1943 2837 3185
1019 2972 3525
2877 3021 1977
2859 3027 2041
2809 3042 2191
2692 3074 2414
2585 3096 2787
2390 3139 3110
2333 3168 3339
2129 3225 3571
630 3361 3938
3066 3459 2470
3044 3464 2511
2982 3480 2608
2870 3507 2786
2893 3496 3145
2682 3541 3405
2478 3585 3633
2683 3577 3765
2092 3669 4095
3500 3790 3367
3492 3794 3378
3469 3804 3406
3433 3819 3462
3400 3834 3583
3299 3866 3722
3105 3920 3883
3127 3938 4012
3325 3933 4079
1967 1063 229
1977 1071 280
1997 1095 410
2019 1144 637
2008 1229 970
1630 1431 1736
1335 1618 2001
1244 1765 2169
1219 1907 2335
2096 1141 201
2055 1172 465
2075 1193 559
2097 1239 752
2083 1317 1060
1723 1506 1806
1411 1691 2074
1311 1832 2237
1262 1970 2407
2378 1324 102
2333 1355 473
2230 1425 889
2250 1460 1023
2202 1537 1336
1940 1677 1961
1588 1859 2231
1472 1988 2389
1362 2120 2577
2738 1612 0
2699 1637 500
2592 1704 996
2376 1816 1527
2366 1864 1719
2219 1957 2127
1858 2118 2454
1716 2234 2614
1471 2360 2848
2977 2055 383
2949 2069 711
2885 2105 1181
2758 2168 1698
2553 2261 2135
2447 2323 2467
2161 2449 2712
2027 2542 2877
1544 2671 3198
3115 2559 1107
3094 2567 1270
3042 2587 1595
2950 2623 2003
2839 2668 2384
2684 2728 2748
2552 2798 2949
2330 2887 3183
1437 3034 3604
3233 3030 1763
3221 3035 1839
3189 3047 2005
3133 3069 2245
3044 3101 2559
2878 3146 2981
2794 3181 3274
2478 3265 3563
982 3419 4022
3425 3458 2260
3414 3462 2314
3384 3472 2442
3321 3491 2646
3238 3509 3002
3142 3536 3303
2936 3590 3576
3039 3595 3726
2440 3702 4093
3689 3811 3350
3684 3813 3366
3671 3820 3406
3645 3833 3470
3593 3857 3547
3541 3881 3682
3406 3925 3850
3309 3965 4008
3482 3961 4082
2384 1324 314
2392 1330 356
2409 1349 460
2431 1385 645
2443 1444 920
2420 1537 1286
2137 1725 1969
1790 1919 2384
1649 2075 2527
2483 1387 294
2452 1412 516
2469 1428 597
2489 1461 754
2500 1517 1005
2472 1607 1364
2207 1784 2009
1854 1974 2438
1691 2130 2590
2701 1536 222
2668 1560 507
2590 1618 894
2612 1645 1007
2622 1693 1213
2570 1781 1580
2374 1924 2100
1992 2111 2565
1784 2262 2740
3014 1772 55
2980 1796 487
2899 1853 956
2768 1940 1413
2786 1976 1556
2736 2049 1866
2572 2165 2312
2186 2336 2752
1918 2474 2978
3317 2114 61
3293 2130 543
3234 2168 1066
3119 2243 1572
2921 2348 2050
2929 2388 2212
2804 2473 2574
2438 2622 2973
2050 2752 3290
3538 2557 628
3517 2567 880
3468 2592 1308
3384 2634 1790
3268 2691 2246
3091 2773 2630
3029 2826 2867
2682 2948 3251
2070 3084 3664
3653 3022 1388
3637 3028 1522
3597 3044 1802
3530 3070 2169
3438 3107 2548
3328 3153 2897
3205 3205 3205
2956 3293 3495
2239 3426 3940
3764 3466 2075
3754 3470 2138
3722 3479 2332
3665 3496 2627
3597 3519 2919
3522 3553 3133
3381 3597 3468
3329 3629 3706
2827 3738 4082
3874 3844 3355
3872 3847 3357
3866 3855 3362
3851 3866 3411
3823 3881 3526
3779 3905 3657
3706 3940 3803
3530 3999 3996
3667 3998 4085
2771 1583 400
2778 1588 434
2792 1602 521
2812 1629 676
2831 1674 908
2835 1743 1219
2803 1842 1621
2589 2017 2204
2238 2207 2752
2846 1634 383
2823 1655 573
2837 1668 644
2857 1693 778
2875 1736 989
2879 1802 1286
2843 1899 1685
2635 2067 2251
2281 2253 2806
3021 1758 328
2996 1778 559
2936 1827 915
2956 1848 1015
2974 1886 1188
2979 1947 1452
2933 2039 1842
2745 2189 2360
2384 2362 2940
3285 1958 193
3259 1978 521
3196 2026 949
3096 2104 1392
3118 2133 1518
3124 2181 1729
3078 2261 2070
2916 2386 2529
2541 2540 3162
3606 2230 6
3580 2248 493
3516 2293 1004
3413 2365 1505
3264 2457 1968
3279 2492 2118
3263 2547 2351
3127 2646 2747
2712 2787 3419
3864 2601 246
3845 2612 630
3798 2640 1136
3721 2685 1663
3598 2755 2145
3502 2821 2449
3499 2859 2643
3351 2944 3034
2894 3092 3596
4040 3021 1005
4016 3031 1241
3958 3056 1668
3868 3096 2144
3753 3146 2568
3685 3188 2833
3597 3242 3083
3501 3301 3344
3118 3419 3783
3972 3494 2634
3958 3500 2694
3923 3512 2823
3870 3532 3003
3807 3558 3198
3771 3586 3329
3739 3618 3460
3663 3663 3663
3338 3758 4012
3997 3891 3622
3997 3893 3626
3997 3898 3637
3996 3908 3654
3994 3922 3680
3988 3943 3711
3965 3974 3759
3892 4011 3941
3873 4042 4090
3134 1839 485
3139 1844 515
3151 1855 589
3170 1876 721
3190 1910 920
3205 1963 1190
3207 2041 1531
3171 2142 1949
2980 2310 2491
3193 1882 471
3198 1886 502
3211 1897 579
3229 1917 716
3249 1950 921
3263 2002 1200
3262 2078 1552
3222 2178 1979
3028 2346 2525
3335 1986 428
3341 1989 460
3353 1999 541
3371 2016 690
3390 2046 914
3403 2096 1217
3396 2170 1597
3348 2267 2049
3145 2432 2610
3564 2159 328
3570 2161 359
3583 2168 442
3603 2181 605
3623 2206 867
3633 2248 1219
3617 2317 1654
3556 2412 2154
3336 2574 2749
3854 2393 123
3860 2394 152
3874 2398 236
3898 2405 401
3927 2418 694
3939 2449 1135
3905 2514 1704
3759 2639 2357
3522 2790 2961
4095 2709 765
4095 2711 843
4095 2719 1015
4094 2736 1185
4087 2763 1438
4060 2805 1813
3985 2875 2276
3853 2973 2738
3634 3095 3219
4082 3157 2150
4083 3159 2168
4085 3165 2216
4089 3174 2299
4093 3189 2426
4094 3211 2588
4069 3249 2792
3965 3324 3122
3769 3421 3502
4059 3584 3088
4060 3586 3095
4062 3591 3112
4066 3601 3143
4072 3614 3191
4081 3631 3259
4092 3653 3358
4081 3684 3508
3925 3757 3797
4068 3973 3854
4068 3974 3858
4069 3979 3867
4071 3987 3884
4074 3999 3908
4077 4016 3942
4082 4037 3984
4088 4064 4035
4095 4095 4095
