Toning/Toning-Film-Warm.3dl
#25pt 3DLUT created by 3D LUT Creator Pro (c) Oleg Sharonov
#Copyright Oleg Sharonov
#IMAGEPROFILE sRGB IEC61966-2.1 v.2.10
#INPUTGAMMA sRGB IEC61966-2.1 v.2.10
#OUTPUTGAMMA sRGB IEC61966-2.1 v.2.10
0 43 86 128 171 214 256 299 341 384 427 469 512 555 597 640 682 725 768 810 853 896 938 981 1023 
538 430 312
542 433 334
548 436 364
557 441 414
569 449 476
586 458 553
608 472 650
636 489 755
664 508 863
698 530 982
736 555 1103
780 582 1230
825 612 1357
875 646 1486
927 683 1617
979 722 1746
1035 763 1875
1090 804 1999
1147 847 2119
1205 892 2235
1264 937 2344
1323 985 2446
1383 1032 2547
1443 1081 2648
1502 1130 2749
549 487 323
549 489 375
559 489 429
571 493 490
584 497 592
603 501 706
627 511 818
656 526 909
686 544 1005
720 564 1111
759 588 1222
802 615 1339
849 645 1457
897 678 1578
947 714 1700
999 752 1821
1053 790 1941
1108 831 2060
1164 873 2174
1221 917 2284
1279 961 2387
1338 1007 2485
1396 1054 2584
1456 1102 2683
1515 1150 2781
565 565 340
565 567 391
565 568 459
582 568 541
602 571 626
623 578 729
646 583 860
672 591 995
701 600 1138
736 614 1268
778 637 1367
824 662 1470
872 692 1581
920 723 1692
971 757 1805
1022 792 1917
1075 829 2028
1129 868 2136
1184 908 2242
1241 950 2345
1298 993 2440
1356 1038 2536
1414 1083 2632
1472 1130 2728
1530 1177 2823
590 677 365
591 680 418
591 681 483
592 684 581
618 683 690
644 686 792
671 694 891
700 701 1017
730 710 1165
765 719 1313
803 731 1465
844 744 1614
890 763 1746
942 790 1845
994 820 1945
1047 852 2046
1101 887 2147
1155 923 2244
1210 961 2339
1267 1001 2430
1324 1042 2520
1381 1084 2611
1437 1128 2703
1495 1173 2795
1553 1219 2887
627 819 404
627 821 453
628 822 515
628 825 613
629 828 735
661 827 859
694 829 974
728 835 1084
764 846 1190
801 853 1336
841 862 1492
882 873 1644
924 885 1794
970 899 1940
1015 916 2081
1066 936 2202
1124 967 2289
1180 999 2373
1238 1034 2455
1295 1070 2538
1351 1109 2623
1408 1148 2709
1465 1189 2796
1522 1232 2883
1579 1275 2970
672 978 450
672 979 496
672 980 560
673 982 653
674 985 769
675 988 904
714 987 1039
755 988 1166
798 993 1285
839 1002 1397
880 1014 1509
924 1022 1666
967 1031 1820
1011 1042 1968
1058 1055 2110
1104 1069 2244
1154 1086 2370
1203 1104 2486
1257 1126 2591
1317 1159 2669
1376 1193 2747
1435 1230 2827
1492 1267 2908
1550 1306 2989
1608 1347 3071
725 1148 506
726 1148 552
726 1150 613
727 1151 701
727 1154 812
728 1157 941
730 1161 1088
777 1159 1231
826 1160 1365
874 1164 1489
921 1172 1608
965 1182 1718
1009 1194 1837
1056 1202 1988
1102 1212 2132
1149 1224 2268
1198 1237 2393
1247 1252 2511
1297 1268 2628
1348 1286 2745
1399 1306 2859
1453 1329 2962
1515 1362 3037
1574 1398 3112
1633 1434 3187
790 1327 573
791 1327 617
791 1329 675
791 1330 757
792 1332 862
793 1335 986
794 1338 1126
796 1342 1281
851 1340 1428
904 1340 1565
955 1343 1693
1005 1350 1813
1053 1359 1924
1100 1372 2028
1148 1383 2149
1196 1392 2286
1245 1401 2411
1294 1414 2531
1343 1427 2651
1393 1441 2768
1443 1457 2884
1494 1475 2998
1545 1494 3109
1597 1514 3218
1651 1537 3314
863 1510 648
863 1510 689
864 1511 742
864 1513 819
865 1515 918
866 1518 1037
867 1521 1172
868 1523 1320
870 1528 1478
928 1525 1627
985 1525 1765
1040 1527 1892
1092 1533 2010
1144 1541 2119
1194 1552 2219
1243 1566 2311
1292 1576 2425
1341 1584 2547
1390 1595 2668
1440 1606 2787
1490 1620 2905
1540 1634 3019
1590 1649 3132
1641 1666 3240
1691 1683 3346
940 1695 728
940 1695 766
941 1696 816
941 1697 888
942 1699 982
943 1701 1094
944 1704 1223
945 1707 1365
947 1711 1517
949 1715 1676
1010 1712 1824
1069 1711 1959
1127 1713 2084
1183 1717 2197
1237 1725 2299
1288 1734 2393
1339 1746 2478
1389 1760 2562
1438 1769 2682
1488 1777 2803
1537 1788 2922
1587 1799 3038
1636 1811 3151
1686 1825 3261
1736 1840 3366
1021 1878 813
1022 1878 848
1022 1879 895
1022 1880 962
1023 1881 1050
1024 1883 1157
1025 1885 1280
1026 1888 1416
1028 1891 1562
1029 1894 1715
1031 1898 1872
1094 1895 2014
1156 1895 2145
1217 1896 2263
1275 1900 2368
1330 1905 2463
1384 1913 2554
1436 1924 2642
1486 1936 2727
1536 1949 2815
1586 1957 2935
1635 1966 3053
1684 1975 3167
1734 1986 3278
1782 1998 3384
1106 2055 902
1106 2055 934
1106 2056 978
1106 2056 1041
1107 2057 1124
1108 2059 1225
1109 2061 1342
1110 2063 1472
1111 2066 1612
1113 2069 1758
1114 2072 1909
1117 2075 2060
1183 2073 2196
1246 2072 2317
1308 2073 2425
1367 2075 2526
1424 2080 2622
1479 2087 2715
1532 2095 2803
1583 2106 2888
1633 2118 2970
1682 2129 3064
1732 2137 3180
1781 2145 3291
1830 2154 3399
1193 2222 995
1193 2222 1025
1193 2223 1065
1194 2224 1124
1194 2224 1202
1195 2226 1298
1195 2227 1409
1197 2229 1532
1198 2231 1666
1199 2233 1806
1201 2236 1950
1203 2239 2095
1205 2243 2238
1272 2240 2363
1338 2239 2474
1400 2240 2581
1460 2242 2683
1518 2245 2780
1574 2250 2873
1628 2257 2962
1680 2266 3046
1730 2276 3128
1779 2288 3206
1828 2297 3303
1876 2304 3411
1282 2376 1090
1282 2377 1118
1282 2377 1156
1282 2378 1211
1283 2378 1284
1283 2380 1375
1284 2380 1479
1285 2382 1597
1287 2384 1724
1287 2385 1858
1289 2388 1996
1291 2390 2134
1293 2393 2270
1295 2396 2400
1363 2393 2517
1429 2392 2630
1492 2392 2737
1553 2394 2838
1612 2396 2935
1668 2400 3028
1722 2406 3115
1775 2413 3199
1825 2421 3279
1874 2432 3355
1922 2443 3428
1372 2520 1188
1372 2520 1214
1372 2521 1249
1372 2521 1301
1372 2522 1370
1373 2523 1454
1374 2524 1553
1374 2525 1665
1376 2527 1785
1377 2528 1913
1378 2530 2044
1380 2532 2176
1382 2535 2306
1384 2538 2430
1387 2541 2555
1455 2539 2672
1521 2537 2784
1585 2537 2890
1646 2538 2991
1705 2540 3087
1761 2544 3178
1816 2549 3264
1868 2555 3345
1918 2563 3422
1967 2572 3496
1462 2664 1288
1462 2664 1312
1462 2665 1344
1462 2665 1393
1463 2665 1457
1463 2666 1537
1464 2667 1630
1464 2668 1735
1466 2669 1849
1467 2671 1970
1468 2673 2095
1469 2675 2220
1471 2677 2343
1473 2680 2462
1475 2683 2584
1478 2686 2709
1547 2684 2825
1613 2682 2936
1677 2682 3041
1738 2683 3140
1797 2685 3234
1853 2688 3322
1908 2692 3406
1959 2698 3484
2009 2705 3558
1552 2807 1389
1552 2806 1411
1553 2807 1442
1553 2807 1487
1553 2808 1547
1554 2808 1621
1554 2809 1709
1555 2810 1808
1556 2812 1915
1557 2813 2030
1558 2815 2148
1560 2817 2266
1561 2819 2383
1563 2821 2498
1565 2824 2617
1567 2827 2738
1570 2830 2862
1638 2828 2976
1704 2826 3085
1768 2825 3187
1829 2826 3284
1888 2828 3375
1943 2831 3460
1997 2834 3539
2048 2840 3615
1642 2947 1490
1643 2947 1511
1643 2947 1540
1643 2947 1581
1643 2948 1637
1644 2948 1707
1644 2949 1789
1645 2950 1882
1646 2951 1983
1647 2952 2091
1648 2954 2202
1649 2956 2314
1650 2958 2423
1652 2960 2535
1654 2963 2651
1656 2965 2770
1659 2968 2890
1661 2971 3012
1729 2968 3124
1795 2967 3229
1858 2966 3328
1919 2967 3421
1976 2968 3508
2031 2970 3589
2084 2974 3666
1732 3084 1592
1733 3084 1612
1733 3084 1638
1733 3085 1677
1733 3085 1729
1733 3085 1794
1734 3086 1871
1735 3087 1958
1735 3088 2053
1736 3089 2153
1737 3090 2258
1738 3092 2362
1740 3094 2466
1742 3096 2576
1743 3098 2688
1745 3100 2804
1747 3103 2921
1750 3106 3040
1752 3109 3158
1820 3106 3266
1884 3105 3368
1947 3104 3463
2006 3104 3551
2062 3105 3634
2116 3107 3713
1822 3217 1694
1822 3217 1712
1822 3217 1736
1822 3217 1772
1822 3218 1821
1822 3218 1881
1823 3219 1953
1823 3219 2033
1824 3220 2122
1825 3221 2216
1826 3223 2313
1827 3224 2411
1828 3226 2512
1830 3228 2618
1831 3229 2727
1833 3232 2840
1835 3234 2955
1837 3236 3070
1840 3239 3185
1842 3242 3299
1908 3239 3403
1972 3238 3500
2033 3237 3590
2090 3237 3675
2146 3238 3756
1909 3344 1794
1909 3344 1811
1909 3344 1833
1909 3345 1867
1909 3345 1912
1910 3345 1968
1910 3346 2034
1911 3346 2109
1911 3347 2192
1912 3348 2279
1913 3349 2369
1914 3351 2462
1915 3352 2560
1917 3354 2662
1918 3355 2769
1919 3357 2878
1921 3359 2990
1923 3361 3102
1925 3364 3214
1928 3366 3325
1930 3369 3434
1995 3367 3533
2057 3365 3625
2116 3364 3712
2265 3356 3770
1995 3465 1893
1995 3465 1909
1995 3465 1930
1995 3466 1960
1995 3466 2002
1996 3466 2053
1996 3467 2115
1996 3467 2184
1997 3468 2260
1998 3469 2341
1998 3470 2425
1999 3471 2514
2001 3472 2609
2002 3473 2709
2003 3475 2812
2004 3477 2918
2006 3478 3026
2008 3480 3136
2010 3482 3245
2012 3484 3353
2014 3487 3459
2017 3489 3563
2079 3487 3657
2140 3486 3746
2405 3465 3781
2078 3580 1990
2078 3580 2004
2078 3581 2024
2079 3581 2052
2079 3581 2090
2079 3581 2138
2080 3582 2194
2080 3582 2258
2080 3583 2328
2081 3584 2402
2082 3584 2482
2083 3585 2568
2084 3586 2660
2085 3588 2757
2086 3589 2857
2087 3591 2960
2089 3592 3065
2090 3594 3171
2092 3596 3277
2094 3598 3382
2096 3600 3485
2098 3602 3586
2100 3605 3685
2231 3597 3767
2556 3566 3794
2224 3683 2161
2225 3683 2173
2226 3684 2190
2227 3684 2214
2229 3684 2247
2231 3684 2288
2234 3684 2337
2238 3684 2392
2243 3684 2454
2248 3684 2522
2254 3685 2597
2261 3685 2678
2268 3685 2763
2277 3685 2853
2286 3686 2946
2296 3686 3041
2308 3687 3137
2320 3688 3234
2333 3688 3330
2348 3689 3425
2363 3690 3517
2380 3691 3606
2397 3693 3694
2416 3694 3780
2729 3660 3812
2713 3723 2739
2714 3723 2745
2714 3723 2754
2716 3723 2766
2718 3723 2783
2720 3723 2805
2723 3724 2832
2727 3724 2863
2731 3724 2900
2737 3725 2941
2743 3726 2987
2750 3726 3037
2757 3727 3090
2766 3728 3147
2775 3729 3206
2786 3730 3267
2797 3731 3330
2810 3732 3394
2824 3733 3458
2839 3735 3523
2855 3737 3586
2872 3739 3649
2891 3741 3712
2911 3743 3774
2932 3745 3835
601 430 312
602 430 378
599 431 449
598 440 490
607 449 549
624 460 628
642 473 712
667 491 811
695 511 918
727 532 1027
766 557 1148
808 584 1268
853 614 1392
901 648 1521
950 685 1645
1002 724 1774
1055 765 1898
1110 806 2019
1166 849 2138
1223 894 2252
1280 939 2359
1339 986 2459
1398 1034 2560
1457 1083 2660
1516 1132 2760
602 491 322
602 492 378
609 492 445
618 496 520
631 502 603
647 510 689
668 522 783
692 538 882
722 556 987
754 575 1094
791 599 1208
833 625 1327
877 655 1447
923 688 1570
972 723 1693
1022 761 1815
1075 800 1938
1128 840 2055
1183 881 2170
1240 925 2280
1296 968 2384
1354 1014 2483
1412 1061 2581
1470 1108 2680
1528 1152 2792
618 570 339
618 571 394
619 573 464
630 574 551
644 577 650
662 579 778
684 583 911
708 591 1038
741 606 1137
777 625 1240
817 648 1345
858 673 1455
902 701 1567
948 733 1680
996 766 1794
1047 801 1908
1097 837 2021
1151 876 2132
1204 916 2239
1260 957 2340
1316 1000 2438
1372 1045 2533
1430 1091 2630
1487 1136 2725
1544 1179 2835
641 682 366
642 683 419
644 684 485
644 688 585
663 688 696
684 692 802
707 699 912
734 703 1056
765 711 1204
799 720 1354
836 731 1503
879 748 1625
926 773 1728
974 800 1830
1024 830 1934
1074 861 2036
1126 895 2138
1178 931 2236
1233 969 2334
1286 1008 2425
1342 1049 2515
1398 1091 2607
1453 1134 2699
1510 1179 2791
1566 1220 2897
675 823 405
676 824 454
676 825 518
677 828 615
678 831 738
706 831 863
734 834 981
765 840 1092
798 849 1212
834 855 1368
872 863 1522
912 873 1673
953 886 1824
997 899 1968
1043 916 2100
1097 944 2190
1151 974 2278
1206 1007 2364
1261 1041 2448
1316 1077 2531
1371 1115 2617
1426 1155 2703
1482 1195 2791
1538 1238 2878
1593 1276 2979
718 980 450
719 982 498
719 983 561
720 985 655
721 988 772
721 992 909
757 990 1043
796 992 1171
834 998 1292
872 1006 1404
911 1016 1534
951 1023 1690
993 1032 1843
1036 1042 1990
1082 1055 2131
1127 1069 2263
1176 1086 2387
1224 1104 2502
1283 1133 2581
1340 1166 2660
1398 1199 2740
1454 1236 2820
1511 1273 2902
1567 1312 2984
1621 1348 3080
771 1150 505
772 1151 553
772 1152 615
773 1154 703
774 1156 814
775 1160 945
776 1164 1092
821 1162 1234
865 1163 1368
908 1167 1494
950 1175 1613
993 1186 1723
1036 1196 1857
1081 1204 2008
1126 1213 2151
1172 1225 2285
1219 1238 2408
1267 1252 2525
1317 1269 2643
1366 1286 2758
1416 1305 2872
1475 1334 2954
1534 1368 3030
1592 1403 3105
1647 1435 3195
835 1329 573
835 1330 619
836 1331 676
836 1332 759
837 1334 864
838 1337 987
839 1340 1129
841 1344 1283
890 1342 1430
939 1343 1568
986 1346 1697
1033 1353 1816
1079 1362 1928
1124 1375 2032
1170 1384 2164
1217 1393 2299
1265 1403 2425
1313 1414 2544
1361 1427 2663
1410 1442 2780
1460 1457 2896
1510 1475 3009
1560 1493 3120
1611 1513 3228
1665 1538 3322
904 1512 648
904 1512 690
905 1513 744
905 1515 821
905 1517 920
906 1519 1038
908 1522 1173
909 1525 1321
911 1530 1480
965 1527 1629
1017 1527 1768
1069 1530 1896
1119 1535 2014
1168 1543 2122
1216 1555 2222
1263 1568 2315
1312 1577 2436
1360 1586 2558
1408 1596 2679
1457 1607 2798
1506 1620 2915
1555 1634 3030
1605 1649 3142
1654 1666 3250
1700 1680 3367
977 1697 728
978 1697 767
979 1698 817
978 1700 890
979 1701 983
980 1703 1095
981 1705 1224
983 1709 1367
984 1712 1518
986 1716 1678
1043 1713 1825
1099 1713 1962
1154 1715 2086
1207 1720 2199
1259 1726 2302
1310 1736 2395
1358 1748 2481
1406 1762 2569
1456 1770 2691
1504 1778 2812
1553 1788 2931
1602 1799 3047
1651 1812 3160
1700 1825 3269
1744 1838 3385
1055 1879 813
1056 1880 850
1056 1881 896
1057 1882 964
1057 1883 1052
1058 1885 1158
1059 1887 1281
1060 1890 1417
1062 1892 1563
1063 1896 1716
1066 1899 1873
1125 1897 2016
1185 1897 2147
1242 1898 2264
1298 1901 2370
1351 1907 2465
1403 1915 2556
1453 1926 2644
1503 1938 2729
1551 1950 2823
1601 1958 2943
1649 1967 3061
1698 1976 3175
1746 1987 3285
1790 1997 3401
