Toning/Toning-Soft blue.3dl
#25pt 3DLUT created by 3D LUT Creator Pro (c) Oleg Sharonov
#Copyright Oleg Sharonov
#IMAGEPROFILE sRGB IEC61966-2.1 v.2.10
#INPUTGAMMA sRGB IEC61966-2.1 v.2.10
#OUTPUTGAMMA sRGB IEC61966-2.1 v.2.10
0 256 512 768 1023
0 0 0
139 201 258
437 550 656
735 895 1074
1031 1237 1547
94 795 345
0 1025 1005
468 1128 1238
895 1290 1537
1168 1513 1964
1079 1932 1370
892 1965 1555
0 2043 2073
618 2093 2576
1100 2172 3086
2007 2794 2629
1872 2830 2684
1330 2936 2845
0 3051 3220
231 3076 4021
2721 3687 3679
2626 3718 3706
2288 3810 3792
1522 3952 3941
2191 3954 4094
936 89 34
1057 87 707
780 687 890
944 987 1271
1176 1296 1717
1011 755 306
810 1037 1407
965 1160 1383
1125 1337 1666
1321 1555 2092
1311 1943 1297
1367 1959 1612
871 2055 2126
1030 2107 2651
1363 2182 3173
2166 2804 2626
2117 2827 2666
1674 2933 2856
987 3050 3253
1038 3077 4033
2838 3693 3680
2800 3710 3689
2490 3803 3777
1824 3951 3940
2498 3937 4094
1897 278 104
2083 0 734
2055 399 1534
1624 1141 1721
1655 1433 2133
2013 710 261
2038 1035 970
1969 1138 1738
1787 1416 2057
1810 1628 2567
2089 1807 1068
2075 1991 1342
1952 2050 2257
1962 2109 2820
2017 2189 3454
2573 2856 2548
2541 2875 2590
2457 2922 2803
2098 3037 3256
2027 3077 4065
3182 3700 3649
3150 3722 3670
3041 3780 3732
2525 3946 3936
2944 3947 4094
2895 413 152
3096 0 624
3124 0 1753
2975 750 2548
2609 1439 2887
2969 761 280
3047 1059 876
3176 934 1851
2963 1245 2693
2745 1614 3172
3015 1417 522
3050 1883 1160
3066 2047 2040
3027 2078 2983
2984 2152 3798
3197 2743 1961
3174 2809 2067
3126 3011 2372
3060 3066 3092
3060 3073 4082
3681 3708 3563
3657 3727 3588
3551 3780 3637
3470 3904 3853
3595 3971 4095
3966 439 162
4095 0 674
4095 0 1867
4094 0 2893
3992 824 3781
3998 790 290
4076 1065 868
4094 991 1915
4092 1034 2957
4016 1252 3870
4021 1417 522
4074 1875 1146
4091 2050 2030
4093 2041 3034
4069 2081 4030
4021 2127 790
4038 2523 1479
4074 2905 2180
4093 3066 3072
4093 3070 4092
4081 3808 3526
4081 3815 3545
4080 3836 3567
4083 3909 3714
4095 4095 4095
