Toning/Toning-FilmEmulation_Outdoor.3dl
#25pt 3DLUT created by 3D LUT Creator Pro (c) Oleg Sharonov
#Copyright Oleg Sharonov
#IMAGEPROFILE sRGB IEC61966-2.1 v.2.10
#INPUTGAMMA sRGB IEC61966-2.1 v.2.10
#OUTPUTGAMMA sRGB IEC61966-2.1 v.2.10
0 43 86 128 171 214 256 299 341 384 427 469 512 555 597 640 682 725 768 810 853 896 938 981 1023 
0 0 0
0 0 139
0 0 271
0 0 417
0 0 579
0 0 757
0 0 956
0 0 1160
0 0 1358
0 0 1565
0 0 1766
0 0 1965
0 0 2151
0 0 2327
0 0 2495
0 0 2659
0 0 2822
0 0 2975
0 0 3121
0 0 3257
0 0 3381
0 0 3494
0 0 3601
0 0 3703
0 0 3805
0 76 0
0 119 127
0 125 271
0 125 418
0 125 580
0 125 760
0 124 958
0 124 1161
0 123 1360
0 123 1566
0 122 1768
0 122 1966
0 121 2152
0 121 2328
0 120 2496
0 120 2660
0 120 2820
0 120 2975
0 120 3121
0 120 3258
0 120 3381
0 120 3494
0 120 3601
0 120 3703
0 120 3805
0 155 0
0 186 101
0 236 253
0 252 416
0 252 578
0 251 762
0 251 960
0 251 1158
0 250 1363
0 250 1569
0 249 1770
0 249 1964
0 248 2154
0 248 2330
0 248 2497
0 247 2662
0 247 2822
0 247 2975
0 247 3121
0 247 3257
0 247 3380
0 247 3494
0 247 3600
0 247 3703
0 248 3804
0 233 0
0 255 84
0 311 226
0 362 390
0 387 579
0 387 761
0 386 958
0 386 1159
0 386 1364
0 385 1566
0 385 1771
0 384 1965
0 384 2152
0 384 2328
0 384 2495
0 384 2660
0 383 2822
0 383 2975
0 383 3121
0 383 3257
0 384 3380
0 384 3494
0 384 3600
0 384 3703
0 385 3804
0 315 0
0 332 81
0 383 199
0 445 356
0 498 537
0 538 763
0 537 959
0 537 1160
0 537 1364
0 536 1567
0 536 1771
0 536 1965
0 535 2152
0 535 2328
0 535 2495
0 535 2660
0 536 2822
0 535 2975
0 535 3121
0 536 3257
0 536 3380
0 536 3493
0 536 3600
0 537 3702
0 537 3804
0 399 0
10 410 89
2 458 179
0 526 329
0 594 497
0 653 703
0 700 947
0 709 1160
0 708 1363
0 709 1568
0 709 1770
0 709 1966
0 709 2153
0 709 2328
0 709 2496
0 709 2660
0 709 2822
0 709 2975
0 710 3121
0 710 3257
0 710 3380
0 711 3493
0 711 3599
0 712 3702
0 713 3803
10 487 15
31 496 109
25 539 191
21 608 301
0 688 469
0 764 654
0 827 885
0 879 1135
0 901 1364
0 900 1568
0 901 1771
0 901 1966
0 900 2153
0 901 2328
0 901 2495
0 901 2660
0 902 2821
0 902 2974
0 902 3120
0 903 3256
0 904 3379
0 904 3492
0 904 3599
0 906 3701
0 906 3803
29 583 41
58 588 144
53 628 214
54 694 308
39 780 445
0 869 626
0 948 830
0 1015 1073
0 1071 1326
0 1106 1568
0 1105 1770
0 1106 1966
0 1106 2153
0 1106 2329
0 1107 2496
0 1107 2660
0 1107 2820
0 1108 2974
0 1108 3120
0 1108 3255
0 1109 3378
0 1110 3492
0 1111 3598
0 1111 3701
0 1112 3802
53 686 78
91 690 179
90 727 242
92 790 325
96 873 436
61 967 602
0 1063 800
0 1143 1016
0 1212 1263
0 1271 1518
0 1319 1771
0 1319 1966
0 1320 2153
0 1320 2329
0 1320 2495
0 1321 2660
0 1320 2820
0 1321 2973
0 1321 3119
0 1322 3254
0 1323 3377
0 1323 3491
0 1324 3597
0 1325 3699
0 1326 3800
85 798 124
121 801 215
129 832 275
131 892 350
136 972 450
132 1066 585
84 1165 776
4 1263 985
0 1345 1205
0 1415 1454
0 1475 1708
0 1525 1955
0 1537 2153
0 1537 2328
0 1537 2495
0 1538 2660
0 1538 2820
0 1539 2973
0 1539 3119
0 1540 3254
0 1540 3377
0 1541 3490
4 1543 3592
26 1546 3690
52 1549 3786
120 915 176
152 916 253
165 943 312
167 999 379
171 1076 470
177 1169 588
158 1268 756
105 1370 961
13 1467 1168
0 1550 1395
0 1620 1646
0 1680 1893
0 1731 2130
0 1755 2328
0 1755 2495
0 1756 2659
0 1756 2819
0 1756 2973
0 1757 3116
5 1758 3249
19 1758 3369
36 1761 3480
57 1762 3583
79 1764 3681
104 1767 3777
152 1035 224
182 1037 293
201 1060 353
202 1112 411
207 1185 496
213 1274 604
218 1372 740
183 1476 939
123 1577 1146
20 1674 1356
0 1755 1587
0 1823 1833
0 1882 2072
0 1934 2295
0 1968 2493
4 1968 2657
11 1968 2815
21 1969 2967
32 1969 3110
46 1970 3243
61 1971 3363
82 1972 3474
102 1974 3577
122 1976 3675
145 1979 3771
185 1161 270
212 1161 334
231 1183 388
239 1229 449
243 1298 525
250 1383 626
255 1479 754
247 1581 921
204 1684 1125
138 1784 1334
24 1878 1543
0 1955 1776
0 2021 2015
3 2079 2240
15 2129 2450
30 2172 2654
39 2172 2813
51 2173 2964
66 2173 3107
83 2174 3239
100 2175 3360
119 2176 3470
139 2177 3573
160 2180 3671
184 2182 3766
217 1289 317
244 1289 376
261 1308 427
276 1349 488
280 1413 559
286 1495 654
293 1588 774
299 1686 916
274 1789 1105
223 1891 1312
150 1987 1523
24 2076 1728
6 2148 1959
12 2211 2186
26 2266 2398
43 2313 2603
65 2355 2802
83 2365 2963
99 2365 3105
117 2366 3237
136 2366 3357
156 2367 3467
177 2368 3569
201 2370 3667
227 2372 3762
249 1419 364
276 1418 419
293 1437 466
315 1472 531
319 1532 596
325 1609 685
332 1697 798
340 1794 932
339 1893 1088
298 1993 1291
241 2090 1501
161 2181 1708
25 2265 1908
25 2331 2134
35 2389 2348
57 2441 2553
82 2488 2753
109 2530 2944
134 2549 3104
154 2549 3236
175 2549 3355
198 2550 3465
222 2551 3566
250 2552 3663
279 2554 3757
282 1550 411
309 1549 463
327 1565 508
349 1598 570
360 1652 637
366 1724 720
374 1808 827
381 1900 953
389 1996 1094
370 2093 1273
322 2189 1480
258 2280 1688
171 2364 1890
43 2442 2085
54 2505 2299
69 2562 2504
97 2614 2704
129 2660 2897
162 2701 3078
195 2729 3235
220 2730 3353
247 2730 3462
276 2731 3563
309 2732 3659
345 2733 3752
317 1681 457
345 1680 509
362 1694 552
384 1724 610
403 1772 681
409 1839 759
417 1918 859
426 2006 978
434 2098 1112
442 2191 1260
402 2284 1460
346 2373 1667
274 2458 1871
182 2540 2065
78 2614 2253
96 2676 2456
113 2732 2657
147 2782 2850
185 2827 3034
227 2867 3202
276 2904 3352
309 2904 3459
345 2904 3559
385 2905 3654
429 2906 3747
352 1811 505
381 1810 556
399 1823 596
422 1850 653
450 1893 728
456 1954 800
464 2028 894
474 2110 1005
483 2198 1132
492 2287 1274
484 2376 1443
434 2464 1647
372 2550 1850
295 2633 2047
201 2712 2231
123 2783 2412
145 2842 2610
167 2896 2805
210 2944 2990
259 2987 3161
315 3026 3315
380 3061 3451
432 3069 3556
482 3069 3650
536 3069 3741
391 1939 553
420 1937 603
439 1949 642
462 1974 697
491 2013 770
505 2069 844
513 2137 931
523 2214 1036
534 2296 1157
544 2380 1292
554 2466 1441
525 2553 1629
471 2640 1831
403 2723 2028
323 2804 2214
229 2879 2386
180 2946 2567
208 3002 2761
236 3053 2947
291 3098 3121
356 3139 3278
433 3175 3417
522 3208 3542
599 3222 3646
660 3222 3736
430 2065 604
462 2063 653
480 2074 691
504 2096 743
534 2131 813
557 2180 891
565 2243 972
575 2315 1070
586 2391 1185
598 2472 1315
611 2556 1457
616 2641 1615
571 2727 1814
514 2811 2011
444 2891 2198
364 2967 2372
273 3039 2539
252 3100 2719
288 3152 2905
326 3200 3082
402 3242 3242
489 3279 3384
584 3312 3511
687 3343 3628
783 3363 3733
473 2187 655
505 2185 704
525 2194 741
549 2214 791
578 2246 858
611 2289 940
619 2347 1015
629 2413 1108
642 2486 1216
655 2565 1340
669 2646 1477
683 2729 1624
671 2813 1799
624 2895 1994
567 2975 2182
500 3051 2358
423 3122 2526
340 3189 2689
348 3244 2866
397 3292 3043
447 3336 3206
540 3373 3351
640 3407 3481
747 3438 3600
860 3465 3712
518 2304 708
552 2303 756
570 2311 792
594 2329 840
624 2357 905
660 2396 984
675 2448 1061
686 2511 1147
699 2581 1251
714 2657 1370
730 2736 1501
747 2816 1643
764 2897 1792
734 2978 1980
690 3056 2168
637 3130 2344
576 3201 2513
510 3266 2678
438 3327 2835
473 3376 3007
530 3419 3171
586 3459 3320
691 3493 3453
803 3523 3573
920 3551 3686
566 2417 763
599 2415 811
619 2422 845
643 2439 892
672 2465 952
708 2502 1029
734 2549 1108
746 2609 1190
759 2676 1289
775 2748 1403
794 2824 1529
813 2902 1666
835 2980 1810
843 3057 1970
811 3133 2156
772 3206 2332
727 3274 2502
678 3338 2667
621 3397 2825
558 3452 2974
616 3495 3139
677 3535 3289
737 3571 3425
854 3602 3547
976 3630 3661
616 2528 820
649 2526 866
669 2533 899
693 2548 944
722 2573 1002
759 2607 1075
795 2651 1159
807 2707 1237
823 2770 1331
840 2839 1439
861 2912 1561
884 2986 1693
909 3061 1833
938 3135 1977
932 3208 2148
906 3277 2323
876 3344 2492
838 3405 2657
795 3463 2817
746 3516 2967
704 3565 3109
770 3604 3260
836 3640 3397
901 3674 3522
1027 3703 3638
668 2638 878
702 2636 924
722 2642 956
746 2656 999
776 2679 1054
812 2711 1123
854 2751 1208
873 2804 1286
889 2863 1376
909 2928 1480
931 2997 1597
958 3068 1724
987 3140 1859
1020 3210 1999
1053 3279 2144
1039 3346 2317
1019 3409 2484
993 3468 2649
961 3524 2809
925 3576 2960
884 3624 3101
866 3669 3234
936 3705 3372
1006 3739 3497
1074 3771 3615
91 0 0
92 0 134
90 0 268
90 0 415
91 0 577
91 0 766
90 0 955
89 0 1158
88 0 1364
88 0 1564
87 0 1771
86 0 1964
85 0 2151
85 0 2330
84 0 2495
84 0 2662
83 0 2822
83 0 2975
83 0 3121
82 0 3257
82 0 3380
82 0 3494
82 0 3601
82 0 3703
82 0 3805
123 98 0
92 126 134
79 109 388
24 35 872
0 0 1116
0 0 1234
0 0 1373
0 0 1525
0 0 1687
0 0 1846
0 0 2011
0 0 2175
0 0 2331
0 0 2483
0 0 2635
0 0 2785
0 0 2934
0 0 3074
0 0 3207
0 0 3331
0 0 3444
0 0 3549
0 0 3651
0 0 3750
33 54 3805
107 171 0
21 232 31
38 252 271
20 259 501
0 249 748
0 235 968
0 225 1178
0 214 1378
0 207 1578
0 199 1771
0 192 1956
0 188 2135
0 184 2302
0 181 2461
0 177 2618
0 175 2772
0 173 2922
0 171 3066
0 171 3201
0 169 3325
0 169 3440
0 167 3547
0 167 3648
0 166 3747
0 166 3805
96 244 0
0 287 0
0 329 226
0 376 405
0 397 638
0 392 858
0 385 1077
0 378 1289
0 373 1501
0 367 1708
0 362 1905
0 357 2092
0 354 2271
0 350 2436
0 346 2598
0 344 2756
0 341 2908
0 339 3054
0 338 3192
0 337 3318
0 336 3434
0 335 3541
0 334 3644
0 333 3744
0 332 3804
90 321 0
0 354 0
0 401 187
0 457 359
0 506 545
0 548 804
0 544 1022
0 539 1236
0 535 1451
0 532 1662
0 527 1865
0 523 2058
0 520 2242
0 517 2412
0 514 2577
0 512 2739
0 510 2894
0 508 3043
0 506 3183
0 503 3310
0 503 3427
0 501 3536
0 501 3639
0 500 3740
0 499 3804
88 406 0
3 430 3
8 474 177
0 539 326
0 603 501
0 659 709
0 709 976
0 716 1204
0 713 1418
0 710 1629
0 708 1837
0 705 2033
0 701 2219
0 699 2391
0 696 2559
0 694 2722
0 693 2881
0 690 3031
0 689 3172
0 687 3303
0 686 3421
0 685 3531
0 685 3634
0 684 3735
0 683 3804
92 495 0
15 515 23
30 553 189
26 620 299
0 698 470
0 771 657
0 833 890
0 887 1154
0 908 1397
0 906 1609
0 904 1816
0 901 2014
0 900 2202
0 898 2377
0 896 2545
0 894 2710
0 893 2869
0 891 3020
0 890 3164
0 889 3295
0 887 3414
0 886 3525
0 885 3629
0 885 3730
0 884 3803
96 593 3
34 606 48
60 641 210
59 707 308
45 789 444
0 878 627
0 954 832
0 1019 1077
0 1075 1334
0 1112 1593
0 1110 1800
0 1109 2000
0 1107 2189
0 1106 2364
0 1105 2533
0 1104 2698
0 1103 2859
0 1101 3011
0 1101 3155
0 1100 3288
0 1099 3408
0 1099 3519
0 1098 3624
0 1097 3726
2 1099 3802
116 696 36
60 708 86
97 737 238
96 800 325
101 882 437
66 975 603
0 1069 802
0 1148 1018
0 1216 1266
0 1273 1521
0 1324 1788
0 1324 1990
0 1323 2179
0 1322 2355
0 1321 2524
0 1320 2690
0 1319 2850
0 1319 3004
0 1318 3148
0 1317 3281
0 1316 3402
1 1318 3510
20 1320 3611
43 1322 3708
69 1326 3801
139 806 78
92 816 134
134 842 272
135 902 349
138 981 451
136 1074 585
87 1172 778
6 1267 986
0 1349 1207
0 1418 1457
0 1477 1710
10 1530 1966
16 1540 2166
14 1540 2342
12 1540 2511
11 1540 2677
12 1539 2837
17 1539 2989
24 1539 3132
34 1539 3264
48 1540 3384
63 1541 3493
82 1543 3596
100 1546 3693
121 1549 3790
164 922 131
125 931 182
170 953 311
171 1008 379
175 1085 471
180 1175 589
162 1274 756
108 1375 962
15 1471 1171
0 1553 1397
0 1622 1648
0 1682 1896
17 1735 2136
46 1757 2333
47 1757 2501
50 1757 2665
55 1757 2824
61 1757 2977
70 1758 3120
81 1758 3252
94 1760 3373
108 1761 3483
124 1763 3586
141 1765 3684
158 1767 3780
