Toning/Toning-TealOrange-VideoAB.3dl
#25pt 3DLUT created by 3D LUT Creator Pro (c) Oleg Sharonov
#Copyright Oleg Sharonov
#IMAGEPROFILE 
#INPUTGAMMA 
#OUTPUTGAMMA 
0 43 86 128 171 214 256 299 341 384 427 469 512 555 597 640 682 725 768 810 853 896 938 981 1023 
0 0 0
0 12 30
3 30 73
6 58 135
9 95 217
12 141 299
15 199 383
21 259 470
30 315 552
37 375 640
46 433 727
58 492 816
70 552 905
83 612 996
98 672 1088
116 733 1181
135 795 1277
157 855 1373
177 916 1472
199 977 1573
222 1038 1675
246 1099 1779
270 1160 1887
295 1220 1996
318 1280 2108
0 163 9
0 163 166
0 174 243
0 199 289
0 229 358
0 264 427
3 305 498
12 349 570
21 394 643
30 444 720
40 496 800
52 550 882
64 604 966
76 659 1052
92 715 1140
110 773 1230
129 830 1322
150 889 1417
174 948 1513
196 1007 1612
220 1066 1713
243 1125 1816
268 1184 1922
293 1244 2030
318 1302 2141
0 326 21
0 326 177
0 326 330
0 337 425
0 358 468
0 386 523
0 416 594
0 449 664
0 488 738
6 531 812
21 573 886
34 620 961
49 669 1041
64 719 1123
83 771 1207
101 824 1293
119 879 1382
141 933 1472
166 990 1566
191 1046 1663
215 1103 1761
239 1160 1863
264 1217 1967
291 1274 2074
316 1331 2184
0 494 43
0 495 202
0 495 342
0 496 499
0 503 612
0 523 658
0 548 701
0 576 763
0 607 837
0 640 909
0 678 987
0 717 1063
12 759 1139
34 804 1217
55 850 1297
76 899 1380
98 948 1466
123 999 1553
147 1051 1644
177 1104 1738
202 1157 1834
229 1211 1933
257 1266 2035
285 1320 2140
313 1374 2249
0 666 70
0 666 225
0 666 363
0 667 513
0 668 672
0 674 803
0 692 852
0 715 898
0 743 944
0 770 1013
0 801 1090
0 835 1166
0 871 1244
0 910 1325
0 951 1409
27 994 1488
55 1038 1571
86 1084 1655
116 1131 1744
147 1180 1835
180 1229 1928
212 1279 2025
243 1330 2125
272 1381 2228
303 1432 2334
0 841 107
0 842 250
0 841 388
0 842 529
0 843 687
0 844 849
0 848 995
0 865 1051
0 886 1099
0 911 1147
0 940 1197
0 968 1275
0 999 1354
0 1032 1435
0 1068 1518
0 1106 1603
0 1147 1690
18 1187 1776
58 1229 1862
98 1273 1951
138 1317 2042
177 1363 2137
217 1409 2235
253 1456 2336
287 1503 2440
0 1020 147
0 1021 279
0 1021 409
0 1021 553
0 1021 699
0 1021 864
0 1022 1028
0 1025 1192
0 1041 1253
0 1061 1306
0 1085 1358
0 1112 1408
0 1140 1468
0 1168 1550
0 1199 1633
0 1232 1719
0 1267 1808
0 1303 1897
0 1341 1989
15 1381 2082
64 1420 2172
116 1461 2265
169 1503 2362
215 1545 2461
257 1588 2564
0 1202 194
0 1202 309
0 1202 430
0 1202 576
0 1203 720
0 1203 875
0 1203 1044
0 1205 1211
0 1206 1384
0 1221 1457
0 1239 1517
0 1262 1573
0 1286 1628
0 1314 1683
0 1342 1754
0 1370 1842
0 1399 1931
0 1432 2022
0 1465 2116
0 1499 2211
0 1535 2310
24 1572 2408
86 1608 2504
147 1646 2602
207 1684 2705
0 1385 234
0 1385 339
0 1385 453
0 1385 591
0 1385 745
0 1387 891
0 1387 1054
0 1387 1226
0 1389 1395
0 1390 1571
0 1402 1663
0 1419 1730
0 1440 1792
0 1463 1853
0 1488 1913
0 1516 1975
0 1542 2058
0 1569 2151
0 1598 2247
0 1628 2345
0 1659 2444
0 1691 2547
0 1724 2652
46 1757 2754
119 1790 2856
0 1571 270
0 1571 367
0 1571 474
0 1571 607
0 1570 759
0 1571 911
0 1573 1066
0 1573 1234
0 1573 1409
0 1575 1581
0 1575 1758
0 1585 1868
0 1600 1944
0 1619 2014
0 1640 2082
0 1663 2148
0 1688 2215
0 1715 2284
0 1740 2380
0 1765 2481
0 1791 2583
0 1819 2687
0 1847 2794
0 1876 2904
0 1905 3017
0 1757 299
0 1757 390
0 1757 492
0 1757 622
0 1757 770
0 1757 930
0 1758 1081
0 1758 1244
0 1759 1418
0 1759 1593
0 1760 1767
0 1761 1944
0 1768 2072
0 1782 2157
0 1798 2236
0 1817 2312
0 1837 2386
0 1860 2461
0 1884 2536
0 1909 2616
0 1931 2721
0 1954 2830
0 1977 2939
0 2002 3051
0 2026 3166
0 1942 318
0 1942 407
0 1942 507
0 1942 632
0 1942 777
0 1942 936
0 1942 1096
0 1943 1255
0 1943 1424
0 1944 1601
0 1944 1777
0 1945 1951
0 1946 2128
0 1951 2270
0 1963 2365
0 1977 2454
0 1993 2540
0 2011 2623
0 2030 2706
0 2051 2789
0 2073 2873
0 2095 2968
0 2114 3081
0 2134 3197
0 2154 3314
0 2125 331
0 2125 418
0 2125 516
0 2125 640
0 2125 783
0 2125 939
0 2125 1106
0 2126 1265
0 2127 1431
0 2127 1605
0 2127 1784
0 2128 1959
0 2129 2134
0 2129 2309
0 2132 2462
0 2142 2568
0 2154 2668
0 2167 2763
0 2182 2856
0 2199 2949
0 2216 3041
0 2235 3133
0 2254 3227
0 2272 3337
0 2288 3458
0 2307 335
0 2307 421
0 2307 518
0 2307 642
0 2307 783
0 2307 939
0 2307 1105
0 2307 1273
0 2308 1438
0 2308 1610
0 2308 1787
0 2308 1966
0 2309 2141
0 2309 2314
0 2310 2488
0 2312 2648
0 2320 2764
0 2329 2874
0 2339 2980
0 2352 3083
0 2365 3185
0 2379 3287
0 2394 3389
0 2410 3492
0 2426 3596
0 2485 328
0 2485 415
0 2485 513
0 2485 638
0 2485 781
0 2485 936
0 2485 1101
0 2485 1274
0 2485 1442
0 2486 1613
0 2486 1789
0 2486 1967
0 2487 2146
0 2487 2320
0 2487 2492
0 2488 2663
0 2489 2827
0 2495 2952
0 2502 3071
0 2510 3187
0 2519 3300
0 2529 3412
0 2540 3523
0 2551 3635
0 2564 3747
0 2660 311
0 2660 401
0 2660 503
0 2660 629
0 2660 773
0 2660 930
0 2660 1095
0 2660 1268
0 2660 1444
0 2660 1614
0 2661 1790
0 2661 1968
0 2661 2146
0 2661 2324
0 2662 2495
0 2662 2665
0 2662 2834
0 2663 2998
0 2667 3132
0 2672 3260
0 2678 3385
0 2685 3507
0 2692 3628
0 2700 3748
0 2709 3868
0 2832 285
0 2831 382
0 2832 486
0 2832 615
0 2832 763
0 2832 920
0 2832 1087
0 2831 1260
0 2831 1438
0 2832 1614
0 2832 1790
0 2832 1967
0 2832 2146
0 2833 2323
0 2833 2498
0 2833 2668
0 2833 2836
0 2833 3001
0 2834 3163
0 2836 3306
0 2840 3440
0 2844 3572
0 2849 3702
0 2854 3830
0 2859 3958
0 2999 253
0 2999 355
0 2999 464
0 2999 599
0 2999 748
0 2999 909
0 2999 1077
0 2999 1252
0 2999 1430
0 2999 1611
0 2999 1788
0 3000 1966
0 3000 2144
0 3000 2322
0 3000 2497
0 3000 2670
0 3000 2837
0 3000 3002
0 3001 3165
0 3001 3325
0 3002 3472
0 3005 3612
0 3007 3750
0 3011 3885
0 3014 4019
0 3164 210
0 3164 324
0 3164 441
0 3164 580
0 3164 734
0 3164 896
0 3164 1067
0 3164 1243
0 3164 1422
0 3164 1603
0 3164 1784
0 3164 1963
0 3164 2142
0 3164 2320
0 3164 2496
0 3165 2669
0 3165 2838
0 3165 3003
0 3165 3166
0 3165 3327
0 3165 3484
0 3166 3634
0 3167 3777
0 3169 3918
0 3171 4058
0 3326 163
0 3325 291
0 3326 416
0 3326 562
0 3326 719
0 3326 884
0 3326 1056
0 3325 1233
0 3326 1414
0 3326 1596
0 3326 1780
0 3326 1960
0 3326 2140
0 3326 2318
0 3326 2494
0 3326 2667
0 3326 2838
0 3326 3004
0 3326 3167
0 3326 3327
0 3326 3485
0 3326 3640
0 3327 3791
0 3328 3936
0 3328 4080
0 3484 116
0 3484 259
0 3484 393
0 3484 543
0 3484 705
0 3484 873
0 3484 1047
0 3484 1225
0 3484 1407
0 3484 1590
0 3484 1774
0 3484 1957
0 3484 2138
0 3484 2317
0 3484 2493
0 3484 2666
0 3484 2836
0 3484 3003
0 3484 3167
0 3484 3327
0 3484 3485
0 3484 3640
0 3484 3794
0 3485 3944
0 3485 4090
0 3640 76
0 3640 229
0 3640 372
0 3640 528
0 3640 693
0 3640 864
0 3640 1039
0 3640 1219
0 3640 1400
0 3640 1585
0 3640 1769
0 3640 1953
0 3640 2135
0 3640 2315
0 3640 2491
0 3640 2665
0 3640 2836
0 3640 3003
0 3640 3166
0 3640 3327
0 3640 3485
0 3640 3641
0 3640 3794
0 3640 3945
0 3640 4095
0 3794 46
0 3794 204
0 3794 355
0 3794 516
0 3794 683
0 3794 856
0 3794 1033
0 3794 1213
0 3794 1396
0 3794 1581
0 3794 1766
0 3794 1950
0 3794 2133
0 3794 2313
0 3794 2490
0 3794 2664
0 3794 2835
0 3794 3002
0 3794 3166
0 3794 3327
0 3794 3485
0 3794 3641
0 3794 3794
0 3794 3945
0 3794 4095
0 3945 24
0 3945 186
0 3945 342
0 3945 507
0 3945 676
0 3945 850
0 3945 1028
0 3945 1210
0 3945 1393
0 3945 1578
0 3945 1763
0 3945 1948
0 3945 2131
0 3945 2312
0 3945 2489
0 3945 2663
0 3945 2834
0 3945 3001
0 3945 3165
0 3945 3327
0 3945 3485
0 3945 3641
0 3945 3794
0 3945 3945
0 3945 4095
0 4095 9
0 4095 174
0 4095 333
0 4095 500
0 4095 672
0 4095 847
0 4095 1026
0 4095 1207
0 4095 1391
0 4095 1576
0 4095 1762
0 4095 1947
0 4095 2130
0 4095 2311
0 4095 2488
0 4095 2663
0 4095 2834
0 4095 3001
0 4095 3165
3 4095 3326
3 4095 3485
0 4095 3640
3 4095 3794
3 4095 3945
6 4095 4095
86 21 0
101 24 98
70 40 227
43 70 316
37 116 337
37 169 394
40 222 456
43 277 531
52 333 608
58 390 685
67 447 770
76 504 852
89 563 938
104 623 1027
119 681 1115
135 742 1209
153 802 1301
174 862 1396
194 922 1493
215 983 1593
237 1043 1694
259 1104 1798
283 1165 1905
307 1225 2014
331 1284 2125
157 163 3
49 188 212
49 202 266
46 222 331
43 250 396
43 283 459
46 322 526
52 365 596
58 412 669
64 459 743
73 508 820
86 561 902
98 614 984
110 668 1068
126 725 1156
141 781 1245
163 839 1337
183 896 1430
202 954 1525
222 1013 1624
246 1072 1724
268 1131 1827
291 1189 1932
315 1248 2040
330 1306 2158
141 333 0
83 333 264
58 344 362
18 360 443
0 382 500
12 404 564
21 431 628
30 463 692
40 500 760
49 542 831
61 585 903
73 630 979
86 678 1057
101 728 1138
116 780 1221
135 833 1307
153 886 1395
174 941 1486
196 996 1579
220 1052 1674
241 1109 1774
264 1166 1875
289 1222 1978
313 1278 2084
330 1335 2201
107 503 0
98 498 283
67 503 388
49 508 522
0 521 628
0 542 676
0 564 726
0 589 795
0 619 867
3 652 940
21 688 1009
40 726 1080
55 768 1155
73 812 1232
92 858 1311
113 906 1393
135 955 1478
160 1005 1565
183 1058 1656
207 1109 1749
232 1162 1845
257 1216 1943
283 1270 2045
309 1324 2150
324 1378 2265
83 676 0
98 669 299
73 672 410
52 675 540
34 678 691
0 688 816
0 706 867
0 728 911
0 754 965
0 781 1039
0 811 1114
0 844 1189
0 881 1268
18 918 1344
46 958 1421
70 1000 1500
98 1044 1582
126 1090 1667
157 1137 1755
186 1185 1845
215 1234 1938
243 1284 2034
272 1334 2134
301 1385 2237
316 1435 2350
49 853 0
95 845 316
76 846 427
52 849 558
27 852 706
15 854 866
0 859 1006
0 876 1062
0 897 1111
0 922 1158
0 949 1219
0 977 1295
0 1006 1374
0 1040 1454
0 1075 1537
0 1112 1621
30 1152 1703
67 1192 1786
104 1233 1871
141 1277 1960
180 1321 2051
217 1367 2146
250 1413 2243
283 1460 2344
301 1506 2456
6 1033 0
89 1023 337
73 1024 443
43 1026 578
30 1028 718
0 1031 879
0 1032 1043
0 1034 1201
0 1051 1262
0 1070 1316
0 1094 1367
0 1120 1418
0 1148 1486
0 1176 1568
0 1206 1652
0 1238 1737
0 1273 1825
0 1309 1914
18 1346 2004
67 1384 2091
116 1424 2181
166 1464 2273
212 1506 2370
253 1548 2469
272 1590 2580
0 1214 40
83 1205 356
70 1206 460
46 1207 593
21 1209 736
9 1211 887
0 1211 1056
0 1212 1223
0 1213 1397
0 1228 1466
0 1246 1525
0 1268 1582
0 1293 1637
0 1320 1692
0 1347 1770
0 1375 1857
0 1405 1947
0 1436 2038
0 1469 2131
0 1504 2227
18 1539 2323
79 1575 2415
141 1611 2511
202 1648 2610
225 1686 2720
0 1396 89
73 1388 375
64 1390 476
46 1391 606
12 1392 754
0 1394 901
0 1394 1063
0 1394 1236
0 1395 1406
0 1396 1582
0 1409 1671
0 1426 1738
0 1446 1801
0 1468 1861
0 1494 1922
0 1521 1983
0 1547 2072
0 1574 2166
0 1602 2262
0 1631 2359
0 1662 2459
0 1695 2562
37 1727 2663
110 1759 2761
141 1792 2872
0 1580 138
67 1575 391
58 1575 491
43 1576 617
15 1577 763
0 1578 917
0 1578 1073
0 1579 1242
0 1579 1417
0 1580 1590
0 1581 1768
0 1591 1876
0 1606 1951
0 1624 2022
0 1645 2090
0 1668 2157
0 1693 2223
0 1719 2295
0 1743 2393
0 1768 2494
0 1795 2597
0 1822 2702
0 1850 2809
0 1879 2918
21 1907 3032
0 1765 177
61 1760 405
55 1761 503
40 1761 626
18 1762 770
0 1763 929
0 1763 1085
0 1764 1249
0 1764 1423
0 1764 1600
0 1765 1774
0 1766 1952
0 1773 2078
0 1787 2163
0 1803 2243
0 1821 2319
0 1842 2394
0 1864 2469
0 1888 2544
0 1912 2628
0 1934 2734
0 1957 2842
0 1980 2952
0 2004 3065
0 2028 3182
