Toning/Toning-LaChurch.3dl
#25pt 3DLUT created by 3D LUT Creator Pro (c) Oleg Sharonov
#Copyright Oleg Sharonov
#INPUTGAMMA sRGB
#IMAGEPROFILE sRGB
#OUTPUTGAMMA sRGB
0 43 86 128 171 214 256 299 341 384 427 469 512 555 597 640 682 725 768 810 853 896 938 981 1023 
0 0 0
0 0 0
0 0 0
0 0 0
0 0 0
0 0 0
0 0 0
0 0 0
0 0 0
0 0 0
0 0 0
0 0 0
0 0 0
0 0 0
0 0 0
0 0 0
0 0 0
0 0 0
0 0 0
0 0 0
0 0 0
0 0 0
0 0 0
0 0 0
0 0 0
0 0 0
0 0 0
0 0 0
0 0 0
0 0 0
0 0 0
0 0 0
0 0 0
0 0 0
0 0 0
0 0 0
0 0 0
0 0 0
0 0 0
0 0 0
0 0 0
0 0 0
0 0 0
0 0 0
0 0 0
0 0 0
0 0 0
0 0 0
0 0 0
0 0 0
0 0 0
0 60 0
0 161 161
0 37 179
0 0 0
0 0 0
0 0 0
0 0 0
0 0 0
0 0 0
0 0 0
0 0 0
0 0 0
0 0 0
0 0 0
0 0 0
0 0 0
0 0 0
0 0 0
0 0 0
0 0 0
0 0 0
0 0 0
0 0 0
0 0 0
0 52 0
0 131 0
0 297 113
0 373 373
0 257 431
0 98 329
0 0 0
0 0 0
0 0 0
0 0 0
0 0 0
0 0 0
0 0 0
0 0 0
0 0 0
0 0 0
0 0 0
0 0 0
0 0 0
0 0 0
0 0 0
0 0 0
0 0 0
0 0 0
0 0 0
0 150 0
0 211 0
0 373 60
0 536 332
0 592 592
0 486 687
0 322 623
0 154 466
0 0 43
0 0 0
0 0 0
0 0 0
0 0 0
0 0 0
0 0 0
0 0 0
0 0 0
0 0 0
0 0 0
0 0 0
0 0 0
0 0 0
0 0 0
0 0 0
0 0 0
0 250 0
0 299 0
0 446 28
0 627 265
0 800 565
0 838 838
0 733 974
0 553 934
0 384 811
0 209 591
0 0 116
0 0 0
0 0 0
0 0 0
0 0 0
0 0 0
0 0 0
0 0 0
0 0 0
0 0 0
0 0 0
0 0 0
0 0 0
0 0 0
0 0 0
0 355 0
0 391 0
0 524 6
0 711 213
0 913 486
0 1097 826
0 1114 1114
0 1018 1292
0 812 1269
0 624 1174
0 448 996
0 259 715
0 0 188
0 0 0
0 0 0
0 0 0
0 0 0
0 0 0
0 0 0
0 0 0
0 0 0
0 0 0
0 0 0
0 0 0
0 0 0
0 457 0
0 490 0
0 608 0
0 796 179
0 1015 422
0 1230 728
0 1411 1115
0 1411 1411
0 1329 1624
0 1104 1617
0 894 1544
0 697 1403
0 510 1179
0 311 846
0 9 261
0 0 0
0 0 0
0 0 0
0 0 0
0 0 0
0 0 0
0 0 0
0 0 0
0 0 0
0 0 0
0 564 0
0 592 0
0 703 0
0 887 152
0 1114 373
0 1348 650
0 1564 1008
0 1720 1410
0 1720 1720
0 1659 1965
0 1421 1970
0 1194 1917
0 978 1806
0 771 1626
0 572 1362
0 361 979
0 46 339
0 0 0
0 0 0
0 0 0
0 0 0
0 0 0
0 0 0
0 0 0
0 0 0
0 678 0
0 703 0
0 807 0
0 984 133
0 1211 334
0 1456 587
0 1694 913
0 1910 1317
0 2035 1720
0 2035 2035
0 1996 2304
0 1754 2319
0 1516 2282
0 1285 2196
0 1063 2050
0 846 1840
0 632 1538
0 410 1109
0 79 413
0 0 0
0 0 0
0 0 0
0 0 0
0 0 0
0 0 0
0 799 0
0 823 0
0 918 0
0 1089 118
0 1312 302
0 1563 536
0 1813 833
0 2046 1208
0 2254 1645
0 2348 2035
0 2348 2348
0 2331 2633
0 2091 2654
0 1849 2631
0 1612 2566
0 1378 2452
0 1148 2282
0 921 2043
0 695 1712
0 457 1243
0 116 492
0 0 0
0 0 0
0 0 0
0 0 0
0 928 0
0 950 0
0 1038 0
0 1200 106
0 1418 278
0 1668 494
0 1925 767
0 2170 1115
0 2393 1526
0 2588 1981
0 2650 2348
0 2650 2650
0 2650 2935
0 2424 2965
0 2187 2954
0 1948 2906
0 1708 2819
0 1472 2687
0 1235 2499
0 999 2240
0 758 1882
0 506 1377
0 154 569
0 0 0
0 0 0
0 1062 0
0 1082 0
0 1165 0
0 1318 98
0 1529 259
0 1775 461
0 2033 712
0 2286 1034
0 2518 1422
0 2725 1858
0 2903 2317
0 2935 2650
0 2935 2935
0 2935 3195
0 2744 3245
0 2517 3241
0 2282 3208
0 2045 3145
0 1805 3045
0 1564 2901
0 1321 2701
0 1074 2426
0 821 2048
0 552 1509
0 190 651
0 1202 0
0 1220 0
0 1298 0
0 1442 90
0 1644 244
0 1884 433
0 2141 665
0 2395 964
0 2632 1330
0 2846 1746
0 3031 2193
0 3187 2642
0 3195 2935
0 3195 3195
0 3195 3421
0 3040 3482
0 2831 3483
0 2609 3463
0 2379 3419
0 2143 3348
0 1901 3242
0 1656 3092
0 1406 2887
0 1151 2603
0 886 2209
0 1345 0
0 1362 0
0 1436 0
0 1571 85
0 1763 230
0 1995 410
0 2247 627
0 2500 905
0 2738 1247
0 2955 1645
0 3143 2077
0 3302 2522
0 3422 2935
0 3422 3195
0 3422 3422
0 3422 3610
0 3305 3673
0 3119 3678
0 2916 3666
0 2701 3637
0 2474 3588
0 2239 3515
0 1997 3412
0 1748 3264
0 1492 3058
0 1492 0
0 1509 0
0 1575 0
0 1704 79
0 1886 220
0 2108 389
0 2353 594
0 2602 854
0 2839 1176
0 3054 1554
0 3242 1971
0 3401 2407
0 3529 2834
0 3610 3195
0 3610 3422
0 3610 3610
0 3610 3763
0 3527 3825
0 3372 3830
0 3195 3824
0 3000 3805
0 2790 3773
0 2567 3725
0 2334 3654
0 2091 3555
0 1644 0
0 1658 0
0 1720 0
0 1840 77
0 2012 211
0 2224 373
0 2459 567
0 2701 810
0 2934 1114
0 3146 1472
0 3331 1874
0 3485 2299
0 3611 2724
0 3712 3122
0 3764 3422
0 3764 3610
0 3763 3763
0 3764 3884
0 3707 3939
0 3582 3944
0 3436 3941
0 3268 3930
0 3082 3910
0 2877 3879
0 2659 3833
0 1794 0
0 1809 0
0 1867 0
0 1979 74
0 2140 203
0 2342 360
0 2566 544
0 2800 772
0 3025 1058
0 3232 1399
0 3411 1784
0 3560 2198
0 3681 2619
0 3778 3021
0 3855 3375
0 3884 3610
0 3884 3764
0 3884 3884
0 3884 3975
0 3849 4019
0 3751 4024
0 3634 4023
0 3497 4017
0 3340 4006
0 3160 3987
0 1948 0
0 1960 0
0 2014 0
0 2118 71
0 2270 199
0 2460 348
0 2674 524
0 2897 739
0 3114 1011
0 3312 1333
0 3483 1703
0 3625 2104
0 3741 2518
0 3833 2921
0 3905 3286
0 3961 3584
0 3975 3763
0 3975 3884
0 3975 3975
0 3976 4039
0 3955 4070
0 3882 4073
0 3792 4073
0 3683 4071
0 3555 4065
0 2101 0
0 2112 0
0 2162 0
0 2258 69
0 2399 192
0 2578 338
0 2781 507
0 2992 711
0 3198 968
0 3387 1276
0 3548 1629
0 3684 2018
0 3793 2423
0 3880 2825
0 3947 3197
0 3998 3511
0 4035 3753
0 4039 3884
0 4039 3975
0 4039 4039
0 4039 4079
0 4030 4086
0 3979 4086
0 3913 4086
0 3830 4086
0 2252 0
0 2263 0
0 2309 0
0 2399 66
0 2530 188
0 2697 329
0 2887 492
0 3086 687
0 3280 930
0 3457 1225
0 3609 1563
0 3736 1938
0 3839 2334
0 3920 2732
0 3981 3108
0 4026 3435
0 4058 3694
0 4079 3884
0 4079 3975
0 4079 4039
0 4079 4079
0 4079 4086
0 4076 4086
0 4046 4086
0 4001 4086
0 2402 0
0 2413 0
0 2454 0
0 2537 66
0 2659 183
0 2814 320
0 2991 479
0 3178 665
0 3358 897
0 3523 1178
0 3665 1502
0 3784 1864
0 3879 2250
0 3954 2643
0 4009 3021
0 4049 3359
0 4075 3632
0 4086 3838
0 4086 3975
0 4086 4039
0 4086 4079
0 4086 4086
0 4086 4086
0 4086 4086
0 4084 4086
0 2550 0
0 2559 0
0 2598 0
0 2674 63
0 2786 181
0 2929 315
0 3094 467
0 3266 646
0 3433 868
0 3585 1137
0 3717 1448
0 3827 1797
0 3915 2172
0 3983 2559
0 4032 2936
0 4066 3281
0 4086 3568
0 4086 3790
0 4086 3947
0 4086 4039
0 4086 4079
0 4086 4086
0 4086 4086
0 4086 4086
0 4086 4086
0 2693 0
0 2702 0
0 2737 0
0 2807 63
0 2910 179
0 3041 308
0 3192 457
0 3351 630
0 3504 843
0 3643 1099
0 3765 1399
0 3866 1736
0 3947 2100
0 4008 2479
0 4051 2855
0 4079 3204
0 4086 3503
0 4086 3738
0 4086 3911
0 4086 4025
0 4086 4079
0 4086 4086
0 4086 4086
0 4086 4086
0 4086 4086
0 2833 0
0 2841 0
0 2873 0
0 2936 60
0 3030 175
0 3151 302
0 3288 448
0 3432 615
0 3571 819
0 3699 1066
0 3810 1354
0 3902 1679
0 3975 2033
0 4029 2405
0 4066 2776
0 4086 3129
0 4086 3437
0 4086 3685
0 4086 3871
0 4086 3999
0 4086 4073
0 4086 4086
0 4086 4086
0 4086 4086
0 4086 4086
0 0 0
0 0 0
0 0 0
0 0 0
0 0 0
0 0 0
0 0 0
0 0 0
0 0 0
0 0 0
0 0 0
0 0 0
0 0 0
0 0 0
0 0 0
0 0 0
0 0 0
0 0 0
0 0 0
0 0 0
0 0 0
0 0 0
0 0 0
0 0 0
0 0 0
0 0 0
0 0 0
0 0 0
0 0 0
0 0 0
0 0 0
0 0 0
0 0 0
0 0 0
0 0 0
0 0 0
0 0 0
0 0 0
0 0 0
0 0 0
0 0 0
0 0 0
0 0 0
0 0 0
0 0 0
0 0 0
0 0 0
0 0 0
0 0 0
0 0 0
0 0 0
0 108 0
0 163 163
0 34 199
0 0 0
0 0 0
0 0 0
0 0 0
0 0 0
0 0 0
0 0 0
0 0 0
0 0 0
0 0 0
0 0 0
0 0 0
0 0 0
0 0 0
0 0 0
0 0 0
0 0 0
0 0 0
0 0 0
0 0 0
0 0 0
0 71 0
0 161 0
0 315 106
0 373 373
0 256 440
0 95 339
0 0 12
0 0 0
0 0 0
0 0 0
0 0 0
0 0 0
0 0 0
0 0 0
0 0 0
0 0 0
0 0 0
0 0 0
0 0 0
0 0 0
0 0 0
0 0 0
0 0 0
0 0 0
0 0 0
0 163 0
0 234 0
0 389 49
0 547 332
0 592 592
0 486 695
0 320 632
0 154 471
0 0 69
0 0 0
0 0 0
0 0 0
0 0 0
0 0 0
0 0 0
0 0 0
0 0 0
0 0 0
0 0 0
0 0 0
0 0 0
0 0 0
0 0 0
0 0 0
0 0 0
0 263 0
0 315 0
0 461 12
0 639 259
0 806 564
0 839 839
0 734 981
0 553 943
0 386 820
0 209 600
0 0 135
0 0 0
0 0 0
0 0 0
0 0 0
0 0 0
0 0 0
0 0 0
0 0 0
0 0 0
0 0 0
0 0 0
0 0 0
0 0 0
0 0 0
0 363 0
0 407 0
0 536 0
0 722 207
0 921 483
0 1098 825
0 1115 1115
0 1019 1297
0 812 1273
0 624 1179
0 449 1005
0 259 723
0 0 205
0 0 0
0 0 0
0 0 0
0 0 0
0 0 0
0 0 0
0 0 0
0 0 0
0 0 0
0 0 0
0 0 0
0 0 0
0 464 0
0 501 0
0 619 0
0 807 170
0 1024 417
0 1237 727
0 1410 1114
0 1411 1411
0 1331 1628
0 1105 1622
0 894 1550
0 697 1409
0 511 1187
0 313 854
0 16 275
0 0 0
0 0 0
0 0 0
0 0 0
0 0 0
0 0 0
0 0 0
0 0 0
0 0 0
0 0 0
0 571 0
0 604 0
0 713 0
0 897 142
0 1122 368
0 1354 648
0 1569 1007
0 1720 1410
0 1720 1720
0 1659 1968
0 1421 1973
0 1193 1922
0 978 1809
0 771 1629
0 571 1366
0 360 982
0 49 348
0 0 0
0 0 0
0 0 0
0 0 0
0 0 0
0 0 0
0 0 0
0 0 0
0 683 0
0 713 0
0 817 0
0 994 123
0 1220 329
0 1464 584
0 1700 911
0 1914 1317
0 2035 1720
0 2035 2035
0 1996 2306
0 1754 2322
0 1516 2287
0 1285 2198
0 1063 2055
0 846 1843
0 633 1543
0 410 1116
0 85 425
0 0 0
0 0 0
0 0 0
0 0 0
0 0 0
0 0 0
0 805 0
0 832 0
0 928 0
0 1097 108
0 1321 297
0 1570 532
0 1819 831
0 2050 1207
0 2257 1644
0 2347 2035
0 2347 2347
0 2331 2633
0 2090 2655
0 1850 2633
0 1612 2568
0 1378 2455
0 1149 2286
0 922 2048
0 696 1718
0 458 1247
0 118 497
0 0 0
0 0 0
0 0 0
0 0 0
