Toning/Toning-Dark & Washed Out.3dl
#25pt 3DLUT created by 3D LUT Creator Pro (c) Oleg Sharonov
#Copyright Oleg Sharonov
#IMAGEPROFILE sRGB IEC61966-2.1 v.2.10
#INPUTGAMMA sRGB IEC61966-2.1 v.2.10
#OUTPUTGAMMA sRGB IEC61966-2.1 v.2.10
0 256 512 768 1023
645 600 436
646 601 722
651 603 1118
655 605 1515
657 605 2054
647 1029 436
649 1027 801
653 1030 1120
657 1043 1553
659 1067 2154
651 1592 437
654 1597 859
659 1616 1239
662 1649 1814
665 1697 2452
656 2541 437
660 2546 956
665 2563 1474
668 2589 2187
671 2627 2764
660 3342 438
665 3341 1038
671 3344 1700
674 3348 2477
678 3356 2942
1239 599 435
1262 600 798
1276 602 1122
1272 604 1514
1304 604 2081
1267 1027 434
1269 1027 800
1280 1033 1124
1307 1049 1572
1349 1073 2183
1396 1605 435
1403 1611 862
1419 1630 1248
1446 1662 1836
1485 1711 2474
1613 2552 435
1618 2558 955
1631 2573 1481
1649 2599 2198
1674 2636 2769
1808 3340 435
1813 3340 1035
1821 3342 1703
1831 3345 2481
1847 3353 2940
1974 599 433
1978 599 798
1996 601 1121
2044 603 1568
2124 604 2177
2036 1043 433
2044 1046 813
2075 1055 1153
2130 1072 1646
2208 1097 2277
2293 1655 434
2301 1660 877
2325 1678 1287
2363 1710 1908
2417 1756 2545
2584 2592 434
2588 2597 963
2600 2612 1507
2617 2635 2237
2643 2670 2792
2788 3347 435
2790 3347 1037
2795 3348 1721
2803 3350 2501
2815 3357 2948
2717 599 433
2725 600 830
2750 602 1185
2793 604 1713
2854 605 2351
2789 1091 433
2795 1094 849
2818 1103 1226
2857 1118 1798
2913 1140 2437
2980 1746 435
2985 1752 907
3002 1769 1363
3029 1796 2030
3068 1836 2648
3199 2661 435
3201 2666 981
3210 2679 1557
3223 2699 2304
3244 2729 2833
3369 3363 437
3370 3362 1046
3373 3362 1754
3379 3363 2536
3389 3369 2967
3310 601 434
3315 602 884
3334 605 1304
3365 606 1936
3409 607 2571
3363 1160 434
3368 1162 900
3384 1170 1346
3411 1183 2004
3448 1200 2627
3495 1867 436
3497 1872 946
3508 1885 1464
3524 1906 2177
3549 1937 2753
3637 2750 437
3638 2754 1004
3641 2765 1625
3647 2782 2391
3658 2807 2884
3728 3383 439
3727 3381 1060
3726 3381 1800
3725 3381 2580
3729 3385 2992
