Toning/Toning-Pale greens.3dl
#25pt 3DLUT created by 3D LUT Creator Pro (c) Oleg Sharonov
#Copyright Oleg Sharonov
#IMAGEPROFILE sRGB IEC61966-2.1 v.2.10
#INPUTGAMMA sRGB IEC61966-2.1 v.2.10
#OUTPUTGAMMA sRGB IEC61966-2.1 v.2.10
0 128 256 384 512 640 768 896 1023
0 0 0
15 31 276
62 103 553
129 188 829
166 279 1106
187 372 1382
207 464 1658
235 554 1935
330 635 2300
95 457 400
0 514 497
65 550 578
129 596 829
155 657 1106
179 728 1382
202 804 1658
279 877 1988
369 950 2377
269 914 792
0 986 903
36 1026 979
170 1057 1104
201 1098 1295
243 1146 1546
305 1198 1847
377 1254 2180
452 1313 2524
399 1391 1138
222 1449 1289
0 1505 1360
165 1535 1470
303 1561 1623
372 1593 1842
435 1630 2111
499 1672 2412
565 1718 2728
530 1872 1464
403 1917 1644
71 1978 1752
0 2020 1839
325 2039 1975
467 2059 2161
554 2085 2401
623 2116 2676
688 2152 2967
665 2359 1762
568 2393 1961
362 2449 2090
0 2502 2197
126 2531 2326
515 2539 2483
652 2554 2697
740 2576 2951
813 2603 3223
916 2853 1884
800 2877 2160
571 2927 2380
337 2979 2502
0 3020 2636
485 3030 2792
723 3035 2988
843 3048 3226
932 3067 3483
1228 3347 1884
1177 3362 2160
1041 3395 2437
721 3451 2713
389 3500 2917
194 3534 3094
751 3525 3273
928 3529 3498
1044 3542 3734
1516 3836 1884
1495 3843 2160
1441 3861 2437
1339 3891 2713
1161 3936 2989
818 3997 3266
662 4032 3512
974 4025 3711
1138 4029 3933
492 15 0
401 97 276
416 155 553
449 226 829
466 308 1106
485 394 1382
504 481 1658
537 567 1935
626 646 2306
558 461 364
490 522 470
452 570 572
456 618 829
467 677 1106
482 745 1382
502 819 1658
579 889 1993
664 960 2382
543 942 784
429 998 892
505 1030 967
522 1066 1101
526 1109 1295
554 1157 1548
607 1208 1851
673 1263 2184
745 1322 2528
674 1409 1133
503 1463 1286
287 1515 1374
562 1538 1464
632 1566 1622
681 1600 1843
735 1637 2113
794 1678 2414
857 1725 2731
806 1884 1461
681 1927 1642
361 1987 1753
346 2026 1848
673 2041 1972
780 2063 2160
854 2089 2402
918 2120 2678
980 2156 2970
940 2367 1759
845 2401 1959
641 2456 2090
276 2508 2198
590 2530 2321
838 2540 2481
956 2557 2697
1036 2579 2952
1104 2607 3225
1191 2860 1884
1075 2884 2160
849 2933 2380
618 2984 2503
276 3025 2639
833 3029 2789
1032 3036 2987
1142 3050 3226
1225 3070 3484
1506 3352 1884
1456 3366 2160
1321 3399 2437
1008 3454 2713
670 3504 2919
669 3531 3089
1072 3524 3270
1230 3530 3498
1339 3543 3735
1796 3840 1884
1775 3847 2160
1719 3865 2437
1621 3894 2713
1440 3939 2989
1122 3998 3266
1018 4029 3508
1286 4024 3710
1437 4029 3933
940 112 0
861 186 276
827 240 553
812 300 829
810 369 1106
819 443 1382
837 521 1658
867 600 1935
950 673 2321
1102 437 187
1018 518 480
899 608 553
844 665 829
827 722 1106
827 785 1382
844 852 1658
909 918 2006
985 985 2394
1133 928 663
1066 984 818
991 1040 938
933 1089 1092
902 1136 1295
907 1183 1553
943 1233 1860
998 1286 2193
1063 1342 2538
1026 1439 1103
1006 1472 1251
1011 1510 1337
1011 1546 1450
1012 1581 1619
1030 1617 1845
1066 1654 2118
1115 1695 2421
1171 1741 2739
1079 1914 1451
961 1953 1636
843 2002 1743
1006 2023 1827
1082 2047 1964
1135 2073 2160
1187 2101 2405
1238 2132 2682
1292 2168 2976
1214 2390 1753
1122 2422 1955
926 2474 2089
773 2518 2198
1086 2529 2310
1211 2545 2478
1294 2564 2698
1358 2587 2955
1417 2615 3229
1465 2876 1884
1352 2900 2160
1130 2947 2380
905 2997 2506
946 3026 2635
1245 3029 2782
1382 3039 2985
1469 3055 3227
1540 3076 3486
1786 3364 1884
1739 3378 2160
1603 3410 2437
1301 3464 2713
958 3515 2922
1205 3524 3077
1444 3523 3266
1567 3532 3496
1658 3546 3737
2077 3849 1884
2059 3856 2160
2006 3873 2437
1911 3902 2713
1736 3946 2989
1451 4001 3266
1445 4023 3501
1640 4023 3707
1764 4030 3932
1431 186 0
1356 261 276
1275 331 553
1230 389 829
1202 450 1106
1195 514 1382
1205 581 1658
1234 651 1935
1302 717 2342
1540 509 0
1532 520 473
1360 664 553
1276 728 829
1230 786 1106
1215 844 1382
1220 905 1658
1271 964 2026
1334 1026 2412
1658 917 507
1557 1008 603
1491 1052 933
1372 1126 1070
1312 1178 1289
1293 1226 1557
1311 1274 1871
1353 1324 2207
1407 1377 2553
1685 1406 956
1629 1450 1148
1544 1511 1284
1471 1563 1427
1425 1607 1612
1412 1646 1848
1428 1684 2126
1464 1724 2432
1510 1768 2751
1628 1915 1372
1599 1943 1561
1559 1985 1682
1530 2025 1798
1517 2060 1953
1524 2091 2159
1549 2121 2410
1586 2153 2690
1629 2189 2985
1487 2428 1740
1424 2454 1943
1466 2481 2061
1526 2507 2161
1574 2531 2293
1618 2554 2473
1663 2577 2699
1708 2602 2960
1754 2631 3235
1740 2905 1884
1626 2927 2160
1414 2973 2379
1398 3006 2495
1582 3017 2611
1689 3030 2773
1766 3045 2983
1826 3064 3228
1879 3086 3490
2070 3385 1884
2025 3398 2160
1891 3430 2437
1604 3482 2713
1488 3517 2912
1725 3517 3060
1852 3524 3259
1935 3536 3494
2003 3552 3741
2368 3865 1884
2349 3871 2160
2302 3887 2437
2212 3915 2713
2056 3956 2989
1845 4002 3266
1905 4016 3491
2029 4021 3704
2120 4032 3933
1915 267 0
1847 337 276
1747 419 553
1676 482 829
1632 538 1106
1609 596 1382
1607 656 1658
1627 717 1935
1680 776 2361
1987 585 0
2037 534 425
1917 676 553
1725 803 829
1665 860 1106
1634 916 1382
1625 972 1658
1660 1025 2038
1709 1081 2430
2124 949 329
2049 1022 526
2011 1054 945
1824 1176 1015
1743 1234 1259
1704 1283 1549
1705 1329 1877
1734 1375 2220
1776 1425 2569
2192 1408 814
2117 1480 905
2039 1530 1148
1944 1586 1408
1855 1644 1597
1818 1686 1846
1816 1726 2133
1838 1765 2444
1873 1807 2766
2226 1893 1234
2182 1926 1450
2101 1982 1611
2019 2037 1760
1961 2081 1936
1934 2118 2155
1936 2151 2414
1957 2184 2699
1989 2219 2997
2217 2394 1612
2186 2417 1827
2132 2459 1982
2081 2502 2117
2050 2539 2272
2042 2570 2466
2055 2596 2701
2080 2624 2966
2113 2653 3245
2161 2913 1884
2126 2927 2160
2113 2954 2314
2109 2985 2441
2119 3012 2583
2139 3036 2761
2170 3056 2980
2204 3078 3230
2241 3102 3496
2357 3417 1884
2314 3429 2160
2225 3451 2437
2108 3480 2713
2158 3498 2874
2222 3513 3042
2278 3527 3251
2326 3544 3492
2370 3563 3748
2663 3888 1884
2646 3894 2160
2604 3908 2437
2524 3934 2713
2448 3959 2989
2321 3996 3266
2370 4011 3481
2440 4022 3701
2498 4037 3935
2381 366 0
2320 427 276
2219 509 553
2130 578 829
2077 632 1106
2046 684 1382
2036 738 1658
2043 794 1935
2078 847 2358
2429 681 0
2535 562 388
2460 679 593
2183 884 829
2111 943 1106
2072 995 1382
2056 1048 1658
2070 1098 2014
2104 1149 2432
2536 1045 0
2547 1038 434
2512 1074 886
2348 1204 1040
2187 1300 1132
2135 1350 1490
2122 1395 1857
2138 1438 2217
2166 1485 2576
2651 1447 645
2581 1515 704
2535 1547 1059
2455 1599 1407
2296 1691 1556
2242 1737 1826
2226 1777 2128
2236 1816 2446
2258 1857 2775
2719 1905 1090
2667 1953 1241
2586 2007 1444
2503 2058 1671
2411 2111 1907
2359 2154 2141
2344 2189 2411
2352 2223 2704
2371 2259 3007
2772 2383 1474
2737 2408 1708
2665 2456 1894
2582 2509 2061
2516 2555 2242
2476 2593 2453
2466 2623 2699
2476 2652 2969
2494 2683 3253
2811 2876 1805
2783 2895 2038
2727 2933 2222
2665 2976 2381
2617 3015 2549
2592 3047 2744
2590 3073 2974
2604 3098 3231
2625 3124 3500
2862 3400 1884
2844 3407 2160
2794 3426 2437
2735 3457 2670
2710 3488 2832
2704 3513 3019
2714 3535 3240
2734 3555 3487
2759 3577 3748
3018 3905 1884
3011 3908 2160
2992 3917 2437
2960 3931 2713
2907 3954 2989
2804 3991 3266
2833 4009 3471
2864 4026 3699
2896 4045 3937
2810 498 0
2764 540 276
2678 608 553
2588 674 829
2525 729 1106
2493 776 1382
2478 825 1658
2480 875 1935
2492 928 2263
2851 802 0
3022 616 336
2961 719 615
2748 915 829
2554 1034 1106
2518 1081 1382
2500 1129 1658
2498 1178 1935
2516 1226 2377
2937 1150 0
3031 1072 334
2996 1117 721
2848 1248 829
2630 1375 1106
2579 1424 1382
2553 1469 1721
2557 1511 2160
2573 1555 2549
3078 1523 344
3056 1545 555
3019 1574 969
2958 1622 1352
2788 1730 1526
2680 1798 1752
2652 1838 2082
2650 1876 2419
2661 1916 2762
3163 1953 905
3112 2006 967
3055 2042 1262
2997 2080 1577
2906 2134 1884
2797 2199 2097
2768 2236 2385
2763 2271 2690
2769 2307 3003
3244 2407 1320
3208 2437 1534
3138 2483 1742
3055 2536 1940
2984 2580 2174
2919 2623 2421
2893 2657 2681
2887 2688 2962
2892 2720 3252
3324 2878 1664
3296 2897 1909
3236 2936 2119
3160 2984 2308
3092 3028 2501
3045 3065 2716
3023 3096 2959
3019 3123 3224
3024 3152 3499
3387 3376 1884
3376 3382 2160
3332 3409 2408
3268 3449 2595
3211 3488 2782
3174 3521 2988
3158 3547 3221
3158 3572 3477
3164 3597 3743
3428 3913 1884
3423 3916 2160
3410 3924 2437
3387 3937 2713
3346 3958 2989
3300 3986 3249
3294 4010 3461
3299 4032 3696
3310 4055 3940
3213 643 0
3180 670 276
3111 722 553
3031 780 829
2967 831 1106
2929 876 1382
2918 918 1658
2919 963 1935
2924 1012 2211
3246 943 0
3383 835 276
3311 911 553
3181 1018 829
3023 1119 1106
2953 1176 1382
2939 1218 1658
2937 1261 1935
2940 1310 2211
3318 1278 0
3410 1214 276
3458 1182 637
3341 1295 829
3128 1434 1106
3011 1508 1382
2989 1550 1658
2981 1592 1935
2988 1635 2409
3429 1651 0
3463 1632 276
3483 1626 633
3431 1675 1031
3286 1773 1356
3109 1873 1453
3077 1912 1926
3068 1948 2317
3071 1986 2692
3565 2041 599
3545 2061 788
3513 2085 1091
3468 2116 1465
3385 2170 1804
3251 2249 2027
3190 2296 2309
3177 2330 2634
3176 2365 2964
3660 2471 1119
3629 2499 1290
3575 2537 1509
3511 2575 1781
3451 2613 2083
3376 2658 2377
3314 2704 2636
3300 2735 2931
3296 2768 3232
3759 2919 1504
3734 2935 1760
3680 2970 1985
3608 3016 2194
3538 3060 2415
3485 3097 2664
3447 3130 2928
3432 3159 3203
3427 3189 3487
3819 3400 1787
3819 3402 2058
3798 3426 2296
3733 3465 2508
3668 3506 2720
3618 3541 2946
3588 3571 3194
3574 3598 3458
3568 3625 3731
3819 3935 1884
3819 3936 2160
3819 3941 2437
3818 3948 2713
3803 3964 2988
3759 3996 3211
3733 4023 3452
3721 4048 3697
3717 4074 3947
3600 793 0
3574 812 276
3520 850 553
3454 896 829
3395 942 1106
3352 985 1382
3331 1025 1658
3329 1065 1935
3335 1108 2211
3625 1090 0
3710 1038 276
3653 1085 553
3564 1151 829
3465 1219 1106
3373 1281 1382
3351 1321 1658
3348 1360 1935
3349 1404 2211
3687 1416 0
3750 1379 276
3897 1278 553
3793 1375 829
3619 1498 1106
3434 1602 1382
3401 1644 1658
3393 1683 1935
3383 1727 2211
3784 1775 0
3817 1759 276
3916 1702 553
3865 1750 838
3721 1850 1106
3553 1946 1382
3480 1999 1658
3460 2039 1935
3453 2076 2513
3908 2166 0
3912 2166 276
3948 2153 553
3903 2184 1173
3838 2228 1610
3713 2304 1899
3593 2374 2146
3570 2408 2517
3557 2443 2880
4028 2569 854
4013 2582 1078
3989 2602 1307
3941 2631 1631
3895 2661 1977
3817 2708 2300
3730 2762 2569
3692 2800 2870
3676 2833 3192
4095 3007 1343
4095 3012 1568
4070 3041 1776
4013 3075 2036
3956 3110 2306
3908 3142 2600
3859 3177 2891
3826 3211 3171
3807 3243 3466
4095 3500 1672
4095 3502 1940
4095 3509 2195
4095 3520 2430
4070 3549 2653
4022 3582 2898
3989 3611 3162
3969 3639 3436
3951 3668 3717
4095 4008 1854
4095 4009 2129
4095 4014 2402
4095 4020 2673
4095 4029 2939
4095 4042 3202
4095 4059 3462
4095 4079 3716
4095 4095 3963
