Toning/Toning-SplitToning-BlueShadows.3dl
#25pt 3DLUT created by 3D LUT Creator Pro (c) Oleg Sharonov
#Copyright Oleg Sharonov
#IMAGEPROFILE sRGB IEC61966-2.1 v.2.10
#INPUTGAMMA sRGB IEC61966-2.1 v.2.10
#OUTPUTGAMMA sRGB IEC61966-2.1 v.2.10
0 43 86 128 171 214 256 299 341 384 427 469 512 555 597 640 682 725 768 810 853 896 938 981 1023 
0 0 183
0 0 389
13 0 465
13 0 634
19 0 771
55 0 875
6 0 1055
0 0 1198
10 10 1331
32 13 1470
68 16 1610
100 26 1748
142 36 1885
183 48 2023
228 61 2160
269 78 2298
310 94 2437
351 110 2574
391 132 2711
431 152 2849
471 177 2987
510 201 3124
551 222 3262
590 245 3400
629 269 3537
0 152 299
0 152 428
0 149 552
0 145 679
0 145 807
0 152 934
0 158 1065
0 168 1199
16 174 1333
36 183 1470
58 192 1607
90 201 1744
126 212 1881
165 222 2018
209 235 2156
252 248 2293
293 260 2431
336 273 2569
376 289 2706
416 304 2845
457 318 2982
497 336 3120
537 351 3257
577 369 3395
617 386 3533
0 326 304
0 324 430
0 322 553
0 322 679
0 324 807
0 326 937
0 330 1069
3 336 1200
16 339 1335
32 347 1470
52 352 1605
81 362 1740
110 369 1878
149 377 2015
192 386 2152
233 396 2289
276 406 2426
318 417 2563
360 428 2700
399 439 2839
440 452 2976
482 464 3114
522 477 3251
562 490 3389
602 505 3527
0 497 308
0 496 434
0 494 559
0 494 685
0 494 812
0 497 941
3 500 1071
6 504 1203
16 508 1336
29 513 1468
48 518 1604
71 525 1738
100 532 1873
132 538 2009
174 546 2145
214 554 2282
255 563 2420
297 571 2556
337 582 2694
379 591 2832
419 601 2969
461 611 3107
501 622 3245
542 632 3382
586 647 3516
3 667 312
3 667 437
3 665 564
0 665 690
3 665 817
3 667 946
6 669 1075
10 672 1205
19 676 1336
29 680 1469
45 685 1602
65 690 1736
87 696 1870
119 702 2005
155 709 2140
195 716 2277
233 725 2413
273 731 2550
314 739 2687
354 749 2824
394 757 2961
436 766 3099
477 776 3236
522 787 3370
584 811 3483
6 837 314
6 836 440
6 835 566
6 835 693
6 835 820
6 836 948
10 838 1077
13 841 1207
23 843 1337
32 848 1469
45 852 1601
61 856 1734
81 862 1868
107 868 2002
139 874 2136
174 880 2271
212 887 2408
250 894 2543
291 901 2680
330 909 2817
370 917 2954
411 925 3091
465 937 3218
528 954 3336
593 974 3449
13 1006 316
13 1006 443
10 1005 569
10 1005 696
10 1005 823
13 1006 951
16 1007 1080
19 1010 1209
26 1012 1339
32 1015 1470
45 1019 1601
58 1023 1733
78 1028 1866
100 1033 1999
126 1038 2133
158 1044 2267
195 1050 2403
233 1057 2538
269 1064 2673
308 1071 2810
358 1079 2940
422 1091 3064
485 1103 3185
548 1118 3302
613 1136 3415
19 1176 320
19 1175 445
16 1175 571
16 1175 698
16 1175 826
19 1175 954
19 1177 1082
23 1178 1211
29 1180 1341
36 1184 1471
48 1186 1602
58 1190 1733
74 1195 1865
97 1199 1997
119 1204 2130
149 1210 2264
183 1215 2398
220 1221 2532
278 1228 2661
336 1236 2787
394 1246 2912
457 1255 3035
518 1267 3154
580 1281 3271
646 1296 3384
29 1345 322
26 1344 448
26 1344 573
23 1344 700
23 1344 827
26 1345 955
26 1346 1084
29 1347 1213
36 1349 1342
42 1351 1471
52 1355 1602
65 1357 1732
78 1361 1864
100 1365 1996
136 1370 2126
180 1375 2256
228 1380 2386
278 1386 2513
332 1393 2641
388 1400 2766
445 1408 2889
503 1417 3010
563 1428 3128
624 1440 3244
687 1454 3357
39 1514 328
39 1513 452
36 1513 578
36 1512 704
36 1513 831
39 1513 959
42 1514 1087
48 1515 1215
55 1517 1343
65 1519 1472
81 1521 1602
100 1524 1731
126 1528 1861
161 1531 1990
201 1535 2118
248 1539 2247
291 1544 2374
339 1550 2500
393 1556 2625
445 1563 2749
500 1570 2870
558 1579 2990
616 1588 3107
676 1599 3222
737 1611 3334
90 1681 360
87 1681 479
87 1680 595
87 1680 716
90 1680 840
90 1681 965
94 1682 1091
100 1683 1218
110 1684 1346
116 1686 1474
129 1688 1602
158 1691 1730
192 1694 1858
228 1697 1986
269 1700 2113
312 1704 2240
358 1708 2366
406 1713 2491
457 1719 2614
508 1725 2736
562 1732 2856
617 1739 2974
675 1748 3090
736 1758 3203
801 1769 3312
165 1847 408
165 1846 520
165 1846 622
165 1846 735
165 1846 854
168 1847 975
171 1848 1099
177 1849 1224
183 1850 1350
192 1852 1476
203 1854 1604
217 1857 1731
252 1859 1859
291 1862 1985
334 1865 2112
376 1868 2237
423 1872 2361
471 1876 2485
522 1881 2607
575 1887 2727
632 1893 2844
693 1899 2959
758 1907 3071
826 1916 3177
897 1926 3280
260 2013 479
257 2013 566
257 2013 657
260 2013 761
257 2013 874
262 2013 991
264 2014 1111
269 2015 1234
273 2017 1357
282 2018 1481
291 2020 1607
299 2023 1733
314 2026 1860
354 2027 1986
401 2030 2111
448 2033 2235
499 2036 2358
553 2039 2479
612 2043 2598
672 2047 2715
735 2053 2828
802 2059 2938
871 2065 3045
944 2073 3146
1019 2083 3243
363 2178 562
365 2177 631
365 2178 707
367 2178 799
367 2178 904
369 2179 1015
374 2179 1130
379 2180 1249
386 2181 1369
394 2183 1491
403 2185 1614
414 2187 1738
428 2189 1862
442 2192 1988
493 2194 2111
548 2195 2233
606 2198 2354
665 2200 2472
729 2203 2587
795 2207 2700
864 2211 2810
934 2216 2916
1007 2222 3017
1083 2229 3114
1160 2237 3206
509 2339 675
510 2339 726
512 2339 786
513 2339 864
514 2340 956
518 2340 1057
522 2341 1164
528 2342 1276
535 2343 1390
543 2344 1508
552 2346 1627
564 2348 1747
577 2350 1868
591 2353 1991
607 2356 2113
668 2357 2233
731 2358 2351
798 2360 2466
865 2361 2578
935 2364 2688
1008 2367 2793
1081 2371 2894
1157 2376 2991
1234 2381 3083
1313 2389 3169
686 2497 811
687 2497 848
688 2497 893
690 2498 957
693 2498 1034
696 2498 1122
700 2499 1218
706 2500 1321
713 2501 1427
721 2502 1538
731 2504 1650
742 2506 1765
755 2508 1881
769 2511 1999
784 2514 2117
801 2517 2236
871 2517 2351
942 2517 2463
1014 2518 2572
1088 2520 2678
1164 2522 2779
1241 2524 2876
1317 2528 2968
1394 2533 3056
1472 2539 3138
887 2651 964
888 2651 990
890 2652 1025
891 2652 1075
894 2652 1138
898 2653 1212
903 2653 1295
909 2654 1386
915 2656 1482
924 2657 1583
933 2658 1688
944 2660 1795
956 2663 1905
969 2665 2016
984 2668 2128
1000 2671 2242
1017 2674 2356
1093 2674 2466
1168 2674 2572
1244 2674 2674
1321 2675 2771
1398 2676 2865
1474 2679 2954
1551 2683 3038
1627 2688 3118
1103 2801 1127
1104 2801 1147
1105 2801 1173
1107 2802 1212
1110 2802 1262
1114 2803 1323
1118 2803 1393
1124 2804 1472
1130 2806 1556
1137 2807 1646
1146 2809 1741
1156 2811 1839
1166 2813 1941
1178 2816 2045
1192 2819 2150
1207 2822 2257
1222 2825 2366
1239 2829 2475
1318 2828 2578
1396 2827 2677
1474 2827 2772
1551 2827 2863
1629 2829 2949
1705 2832 3030
1781 2836 3107
1323 2948 1291
1324 2948 1306
1325 2948 1327
1327 2949 1357
1330 2949 1397
1333 2950 1448
1337 2951 1506
1342 2952 1573
1348 2953 1646
1355 2955 1725
1363 2956 1810
1372 2959 1898
1382 2961 1991
1393 2964 2086
1406 2967 2183
1419 2970 2283
1434 2973 2385
1450 2977 2487
1467 2982 2591
1548 2980 2688
1627 2978 2780
1706 2978 2868
1784 2978 2952
1861 2980 3030
1936 2983 3105
1547 3092 1458
1548 3092 1471
1549 3092 1487
1551 3092 1511
1553 3093 1544
1556 3094 1584
1560 3095 1633
1565 3096 1689
1570 3097 1751
1577 3099 1820
1585 3101 1894
1593 3103 1973
1603 3105 2055
1614 3108 2141
1625 3111 2230
1638 3115 2322
1652 3118 2415
1667 3122 2511
1684 3127 2608
1701 3132 2706
1782 3129 2795
1863 3127 2881
1942 3127 2962
2019 3127 3038
2095 3129 3110
1776 3232 1630
1777 3232 1639
1778 3233 1652
1780 3233 1671
1782 3234 1698
1785 3234 1731
1789 3235 1771
1794 3236 1818
1799 3238 1871
1805 3240 1930
1813 3242 1993
1821 3244 2062
1830 3246 2135
1840 3249 2212
1852 3252 2291
1864 3256 2374
1878 3259 2459
1892 3264 2546
1908 3268 2635
1925 3273 2726
1943 3278 2817
2025 3275 2900
2105 3273 2979
2182 3273 3052
2355 3259 3087
2013 3369 1806
2013 3369 1814
2015 3369 1824
2016 3370 1839
2018 3371 1861
2021 3371 1888
2025 3372 1921
2030 3374 1960
2035 3375 2004
2041 3377 2053
2048 3379 2108
2056 3381 2167
2065 3384 2230
2075 3386 2298
2086 3390 2368
2099 3393 2441
2112 3397 2517
2126 3401 2596
2141 3406 2676
2158 3411 2759
2176 3416 2842
2195 3422 2927
2276 3419 3002
2451 3401 3050
2639 3382 3073
2257 3502 1988
2258 3502 1994
2259 3502 2002
2260 3503 2015
2263 3504 2032
2265 3504 2054
2269 3505 2081
2274 3507 2113
2279 3508 2150
2285 3510 2191
2292 3512 2237
2300 3514 2287
2309 3517 2341
2319 3520 2399
2330 3523 2460
2342 3527 2524
2369 3528 2594
2398 3529 2664
2431 3531 2735
2465 3533 2807
2501 3535 2878
2539 3537 2948
2579 3540 3017
2783 3514 3052
2930 3499 3077
2752 3572 2357
2754 3572 2361
2755 3572 2367
2758 3572 2375
2762 3573 2386
2767 3573 2400
2773 3574 2418
2781 3574 2439
2790 3575 2463
2800 3576 2491
2812 3577 2521
2825 3579 2555
2840 3581 2591
2856 3583 2629
2874 3585 2670
2894 3587 2712
2916 3590 2756
2939 3593 2801
2964 3596 2847
2990 3600 2893
3018 3605 2940
3048 3609 2986
3079 3615 3032
3111 3620 3077
3220 3611 3103
3184 3641 2679
3185 3641 2681
3187 3642 2684
3189 3642 2689
3192 3643 2696
3196 3644 2704
3201 3645 2714
3207 3646 2727
3214 3647 2741
3223 3649 2757
3233 3651 2776
3243 3653 2796
3255 3656 2818
3269 3659 2841
3283 3662 2866
3300 3666 2893
3317 3670 2920
3335 3674 2948
3355 3679 2977
3377 3684 3007
3399 3690 3036
3423 3697 3066
3448 3704 3096
3475 3712 3124
3502 3720 3153
152 0 299
149 0 414
152 0 497
165 0 650
168 0 794
165 0 936
165 0 1063
171 0 1197
183 6 1334
209 13 1470
233 16 1610
260 26 1746
287 39 1883
316 48 2022
347 61 2158
377 78 2297
409 94 2435
443 113 2571
477 132 2709
510 155 2847
545 177 2984
580 201 3122
615 225 3260
651 248 3398
687 269 3535
158 152 299
155 152 427
155 149 552
158 145 680
161 145 811
158 149 944
155 152 1081
158 152 1225
165 152 1372
177 145 1519
189 136 1670
203 123 1822
222 113 1972
243 100 2121
267 84 2270
302 90 2406
339 107 2536
377 126 2666
416 145 2797
454 168 2930
493 189 3062
531 212 3195
570 235 3329
613 278 3451
676 386 3531
161 326 304
158 326 427
161 324 554
158 322 683
155 324 812
155 326 945
152 328 1082
152 328 1221
158 330 1365
161 332 1510
171 330 1657
180 328 1805
198 324 1953
217 320 2101
240 318 2247
273 318 2387
314 328 2518
352 339 2651
393 351 2784
433 362 2916
471 376 3050
512 388 3185
553 408 3314
604 446 3429
662 505 3526
171 497 308
161 496 430
161 494 558
161 494 686
158 496 815
155 497 947
155 500 1081
152 503 1217
149 505 1358
152 508 1499
155 509 1642
165 510 1786
177 513 1932
195 513 2076
217 513 2221
245 516 2363
284 521 2498
326 527 2632
365 536 2767
406 545 2901
446 553 3035
493 568 3163
542 591 3284
595 618 3400
645 644 3518
174 667 310
165 668 430
161 666 559
161 666 689
165 666 817
158 668 948
155 670 1080
152 672 1214
149 675 1351
149 679 1489
152 682 1629
155 686 1769
168 689 1911
183 692 2053
203 696 2194
233 698 2335
264 703 2473
302 708 2610
339 715 2745
386 724 2876
433 735 3004
485 749 3129
537 766 3250
592 788 3367
626 797 3508
180 837 314
161 838 428
161 837 560
161 836 690
161 836 819
161 838 949
158 839 1080
155 842 1212
155 845 1346
152 848 1481
155 852 1618
161 855 1756
171 859 1894
183 864 2032
206 868 2170
233 872 2308
262 878 2445
302 884 2579
341 891 2712
386 900 2843
437 910 2970
488 923 3094
541 937 3215
597 955 3333
612 956 3490
186 1006 316
161 1008 427
161 1007 560
161 1006 691
161 1006 821
161 1008 950
165 1009 1080
165 1011 1211
165 1013 1343
161 1017 1476
165 1020 1611
174 1024 1745
183 1028 1881
201 1032 2016
222 1037 2151
248 1042 2286
278 1048 2420
316 1054 2552
356 1062 2683
403 1070 2812
451 1080 2938
504 1091 3062
558 1103 3182
614 1119 3299
629 1124 3450
192 1176 318
168 1177 428
168 1176 562
168 1176 694
168 1176 823
168 1176 952
171 1177 1081
177 1179 1211
177 1182 1341
183 1184 1473
186 1187 1605
195 1191 1737
209 1195 1870
228 1199 2003
248 1204 2136
276 1209 2268
310 1215 2400
345 1221 2530
386 1228 2659
433 1236 2786
481 1245 2910
532 1255 3033
586 1267 3152
642 1281 3269
659 1288 3414
198 1345 322
183 1345 436
180 1345 566
180 1345 696
180 1344 826
186 1345 954
186 1346 1083
192 1347 1212
198 1349 1341
203 1351 1472
212 1355 1602
225 1358 1733
243 1361 1864
260 1365 1995
284 1370 2125
314 1374 2255
349 1380 2385
386 1386 2513
427 1393 2639
472 1400 2764
521 1408 2887
571 1418 3009
625 1428 3127
680 1440 3243
698 1449 3382
209 1514 328
209 1513 452
206 1513 577
206 1512 703
209 1513 831
212 1513 958
212 1514 1086
217 1515 1215
225 1517 1343
233 1519 1472
245 1521 1601
260 1524 1730
278 1527 1860
302 1531 1989
330 1535 2118
360 1539 2246
396 1544 2373
434 1550 2500
475 1556 2625
521 1562 2748
569 1570 2870
618 1579 2989
672 1589 3106
726 1599 3221
747 1609 3355
250 1681 360
248 1680 481
248 1680 594
248 1680 716
250 1680 840
250 1681 965
252 1681 1091
255 1683 1218
262 1684 1345
269 1686 1473
278 1688 1602
295 1691 1730
320 1694 1858
345 1696 1986
376 1700 2113
409 1704 2240
448 1708 2366
486 1713 2490
530 1719 2614
575 1725 2736
623 1732 2856
673 1739 2974
726 1748 3090
783 1758 3202
811 1768 3329
