Toning/Toning-WinterFairy.3dl
#25pt 3DLUT created by 3D LUT Creator Pro (c) Oleg Sharonov
#Copyright !UNREGISTERED VERSION OF 3D LUT CREATOR!
#IMAGEPROFILE sRGB IEC61966-2.1 v.2.10
#INPUTGAMMA sRGB IEC61966-2.1 v.2.10
#OUTPUTGAMMA sRGB IEC61966-2.1 v.2.10
0 256 512 768 1023
198 264 288
0 0 1024
0 0 2048
0 0 3071
0 0 4095
0 1024 0
0 1024 1024
0 1024 2048
0 1024 3071
0 1024 4095
0 2048 0
0 2048 1024
0 2048 2048
0 2048 3071
0 2048 4095
0 3071 0
0 3071 1024
0 3071 2048
0 3071 3071
0 3071 4095
0 4095 0
0 4095 1024
0 4095 2048
0 4095 3071
0 4095 4095
1024 0 0
1024 0 1024
1024 0 2048
1024 0 3071
1024 0 4095
1024 1024 0
766 1140 1458
127 1651 2608
328 1843 3455
921 1222 4063
1024 2048 0
1050 2087 1404
262 2461 2842
317 2521 3438
912 2180 4060
1024 3071 0
989 3308 871
719 3379 2630
304 3249 3409
916 3133 4058
1024 4095 0
1071 4060 940
1062 4069 2149
957 4091 3161
936 4058 4058
2048 0 0
2048 0 1024
2048 0 2048
2048 0 3071
2048 0 4095
2048 1024 0
2170 912 1021
1861 1549 2522
936 1969 3712
1834 1217 4063
2048 2048 0
2173 2089 770
1894 2336 2885
906 2829 3916
1503 2441 4067
2048 3071 0
2146 3157 362
2032 3288 2740
1407 3431 3835
1708 3269 4067
2048 4095 0
2087 4052 936
2132 4023 2268
2002 4024 3289
1989 4028 4061
3071 0 0
3071 0 1024
3071 0 2048
3071 0 3071
3071 0 4095
3071 1024 0
3089 613 616
3024 1220 2230
2940 1743 3509
3021 1203 4083
3071 2048 0
3099 1960 654
3073 2282 2134
2931 2675 3655
2939 2337 4060
3071 3071 0
3099 3095 585
3076 3068 2068
2918 3454 3741
2942 3343 4004
3071 4095 0
3067 4050 932
3038 4066 1584
3050 3934 3491
3176 3913 3999
4095 0 0
4095 0 1024
4095 0 2048
4095 0 3071
4095 0 4095
4095 1024 0
4050 937 940
4049 966 2046
4052 1091 3108
4046 1181 4078
4095 2048 0
4049 1982 935
3972 2029 1973
3987 2145 3148
3971 2297 4050
4095 3071 0
4049 3038 930
3970 2991 2025
3863 3144 3198
3828 3315 3985
4095 4095 0
4038 4046 924
3953 3980 1928
3848 3898 3180
3718 3901 3930
