Toning/Toning-Golden Sunset.3dl
#25pt 3DLUT created by 3D LUT Creator Pro (c) Oleg Sharonov
#Copyright Oleg Sharonov
#IMAGEPROFILE ProPhoto RGB v.2.10
#INPUTGAMMA ProPhoto RGB v.2.10
#OUTPUTGAMMA ProPhoto RGB v.2.10
0 43 86 128 171 214 256 299 341 384 427 469 512 555 597 640 682 725 768 810 853 896 938 981 1023 
383 0 0
383 0 108
384 0 200
385 7 241
397 19 269
487 35 292
606 32 323
663 49 354
711 70 382
751 95 412
787 120 445
819 152 481
852 183 525
890 213 583
930 243 654
970 266 718
1014 286 777
1064 299 834
1122 312 883
1191 324 938
1265 336 1017
1344 347 1103
1421 358 1195
1496 369 1317
1564 378 1586
383 183 0
410 177 123
384 185 213
385 192 250
401 206 278
475 218 301
585 230 323
647 243 353
702 255 380
746 267 410
781 279 443
814 289 479
847 297 524
887 307 581
928 315 652
968 324 717
1012 333 776
1062 342 832
1119 351 882
1187 361 937
1263 370 1016
1341 379 1102
1419 388 1194
1494 397 1315
1562 405 1582
383 315 0
384 315 132
446 311 207
386 315 256
390 316 292
437 319 316
512 324 338
604 329 359
688 335 379
737 340 409
775 344 442
807 350 478
841 355 522
880 360 580
923 366 650
964 372 715
1008 378 774
1057 385 831
1115 393 880
1183 400 935
1258 407 1014
1337 415 1100
1415 422 1192
1491 428 1313
1559 434 1578
384 386 0
385 385 132
385 385 212
487 382 249
438 384 291
389 386 332
420 388 358
495 391 379
596 395 399
700 399 421
762 404 446
798 410 477
832 414 521
869 418 578
913 422 648
957 426 713
1002 431 772
1051 435 829
1108 440 879
1177 445 934
1252 450 1012
1331 456 1098
1409 461 1190
1485 467 1309
1554 472 1572
385 450 0
386 450 133
386 450 212
387 450 255
550 446 286
551 446 325
391 450 366
392 450 399
466 453 422
573 456 447
699 458 470
781 462 496
825 466 533
860 471 582
898 476 647
943 479 712
991 483 771
1041 487 828
1098 492 877
1166 497 932
1240 502 1009
1320 509 1096
1400 515 1187
1477 523 1305
1546 530 1563
386 513 0
386 513 133
387 513 212
388 513 255
390 513 294
627 508 322
677 506 356
393 514 399
394 514 438
434 516 472
538 520 502
684 523 535
796 527 567
853 532 613
902 540 668
943 549 721
979 559 772
1024 568 826
1083 574 876
1149 582 929
1224 591 1007
1304 600 1093
1386 609 1184
1465 619 1301
1536 629 1554
387 617 0
387 617 133
388 617 211
389 618 255
390 619 293
391 619 331
694 609 355
763 605 385
395 621 438
396 622 480
397 622 535
494 628 581
645 635 630
807 640 663
883 647 702
945 656 745
994 667 790
1042 678 837
1089 691 879
1135 705 928
1203 715 1004
1284 722 1090
1367 731 1180
1448 739 1297
1522 747 1545
387 754 0
388 754 133
388 754 211
390 755 254
391 755 292
392 756 330
393 757 364
745 745 387
826 739 418
576 754 474
397 759 535
398 760 609
438 762 681
575 768 727
815 772 748
914 777 779
989 785 817
1054 793 855
1119 803 894
1185 813 944
1248 825 1014
1299 838 1094
1343 852 1178
1426 859 1293
1503 866 1537
388 886 0
388 886 133
389 886 210
390 887 253
391 888 292
392 889 329
393 889 363
406 890 397
787 877 422
895 867 454
730 883 521
399 892 609
400 893 692
401 893 763
513 898 810
819 901 829
943 906 851
1037 913 880
1125 920 916
1214 929 969
1297 939 1038
1369 950 1111
1427 963 1194
1475 976 1304
1513 990 1543
388 1029 0
388 1029 133
389 1030 210
390 1031 253
392 1031 291
393 1032 328
394 1033 363
395 1034 397
481 1033 433
825 1019 461
973 1005 495
812 1022 584
400 1037 692
401 1038 763
402 1038 831
438 1041 883
819 1044 899
970 1049 920
1091 1055 956
1210 1063 1009
1317 1072 1071
1411 1082 1138
1487 1093 1220
1545 1106 1338
1593 1120 1592
388 1196 0
389 1196 133
390 1197 209
391 1198 252
392 1199 290
393 1200 328
394 1201 362
395 1202 396
396 1203 435
573 1200 473
866 1184 508
1052 1166 552
891 1184 660
475 1205 760
402 1208 830
403 1209 889
404 1209 962
813 1211 997
998 1215 1024
1154 1221 1065
1302 1229 1115
1422 1238 1178
1517 1249 1261
1593 1260 1405
1656 1273 1664
388 1383 0
389 1383 132
390 1384 208
391 1385 251
392 1386 289
393 1387 327
394 1388 361
395 1389 395
397 1390 434
398 1391 476
667 1386 524
914 1370 572
1126 1350 629
977 1366 727
727 1387 820
403 1396 888
404 1397 961
405 1398 1062
801 1395 1121
1024 1399 1142
1223 1403 1181
1394 1410 1240
1518 1418 1331
1616 1427 1520
1697 1437 1761
388 1573 0
389 1573 132
390 1574 207
395 1575 250
392 1576 288
393 1577 325
394 1578 360
396 1579 394
397 1580 433
398 1581 475
399 1582 531
731 1575 593
963 1559 652
1214 1539 704
1078 1551 789
831 1573 873
404 1587 961
405 1588 1062
406 1589 1166
832 1584 1242
1050 1584 1293
1296 1588 1357
1481 1593 1495
1607 1599 1687
1712 1608 1868
389 1765 0
389 1766 131
390 1766 206
391 1767 249
396 1768 287
397 1769 324
398 1771 358
396 1772 393
397 1773 431
398 1774 474
399 1775 530
400 1776 606
779 1767 673
1017 1750 724
1309 1730 771
1213 1738 845
932 1760 932
405 1780 1061
406 1781 1166
591 1780 1289
895 1774 1447
1075 1770 1664
1365 1773 1755
1559 1777 1867
1696 1784 1986
389 1957 0
389 1957 133
390 1958 205
391 1959 248
392 1960 286
397 1960 323
398 1961 357
400 1963 391
397 1964 430
398 1965 473
399 1966 529
400 1966 605
401 1967 687
820 1957 742
1080 1941 790
1407 1921 833
1367 1925 898
1040 1947 1018
649 1967 1158
406 1971 1302
728 1967 1563
962 1961 1789
1168 1957 1951
1432 1957 2050
1635 1960 2122
389 2120 0
389 2121 132
390 2121 204
391 2122 247
392 2123 285
394 2123 323
399 2124 356
404 2125 391
401 2126 429
398 2127 473
399 2127 528
400 2128 604
401 2129 687
402 2129 758
866 2119 808
1159 2104 849
1499 2087 889
1513 2088 972
1182 2105 1110
818 2124 1279
406 2131 1621
801 2125 1879
1040 2119 2030
1289 2115 2156
1497 2113 2243
389 2293 0
390 2294 132
390 2295 204
392 2296 246
393 2297 284
394 2298 322
395 2299 356
396 2299 390
405 2300 428
402 2301 472
399 2303 528
400 2303 603
401 2304 686
402 2305 757
403 2306 825
918 2292 865
1249 2275 907
1584 2255 966
1646 2252 1065
1350 2273 1215
944 2293 1535
405 2307 1937
876 2300 2102
1143 2292 2209
1416 2288 2281
389 2487 0
390 2487 131
391 2488 203
392 2489 245
393 2491 284
394 2492 321
395 2493 355
396 2494 389
397 2495 428
406 2496 470
403 2497 527
400 2498 603
401 2499 685
402 2500 756
403 2501 824
408 2501 882
971 2486 928
1345 2467 993
1669 2446 1064
1776 2438 1160
1508 2460 1388
1078 2481 1855
405 2503 2161
957 2493 2251
1271 2485 2312
389 2695 0
390 2696 131
391 2697 201
392 2698 244
393 2699 282
394 2700 320
395 2702 354
396 2703 388
397 2704 427
398 2705 470
403 2706 526
404 2707 602
401 2708 684
402 2709 755
403 2710 823
404 2711 881
576 2710 952
1030 2693 1021
1438 2673 1091
1754 2651 1166
1905 2639 1285
1648 2660 1723
1296 2682 2068
895 2703 2269
1052 2700 2337
389 2908 0
390 2909 132
390 2910 201
392 2911 243
393 2912 281
394 2913 318
395 2915 352
396 2916 387
397 2917 426
398 2918 469
399 2919 525
400 2920 601
405 2921 683
402 2922 754
403 2923 822
404 2924 880
405 2925 955
705 2922 1049
1102 2905 1120
1524 2885 1200
1836 2863 1306
2030 2845 1566
1809 2865 1967
1549 2885 2214
1191 2905 2336
389 3123 0
389 3123 131
390 3124 200
391 3125 242
393 3127 280
394 3128 317
395 3129 351
396 3130 385
397 3131 425
398 3133 468
399 3133 525
400 3134 601
401 3135 682
402 3136 753
403 3137 820
404 3138 879
405 3139 954
406 3140 1056
775 3135 1149
1189 3118 1237
1607 3097 1377
1917 3074 1633
2152 3053 1871
1964 3072 2155
1752 3091 2304
389 3298 0
390 3298 131
391 3299 199
392 3299 241
393 3300 279
394 3300 316
395 3301 350
396 3302 385
397 3303 424
399 3303 467
400 3304 524
400 3304 601
401 3304 682
402 3305 753
403 3305 820
404 3306 878
405 3306 954
406 3306 1056
407 3306 1161
830 3301 1278
1283 3288 1468
1689 3272 1733
1997 3256 1930
2258 3239 2093
2108 3250 2271
390 3411 0
390 3410 131
391 3411 198
392 3411 241
393 3411 279
395 3412 316
396 3412 350
397 3413 384
398 3413 423
399 3414 467
400 3414 524
401 3414 601
402 3414 682
403 3414 753
404 3414 820
405 3415 878
406 3415 954
406 3415 1056
407 3415 1161
408 3415 1301
891 3407 1569
1381 3395 1820
1771 3384 1997
2077 3371 2145
2334 3359 2244
391 3513 2
391 3512 133
392 3513 198
393 3513 240
394 3513 278
395 3514 315
397 3514 349
398 3515 384
399 3515 423
400 3516 466
401 3516 523
402 3516 601
403 3516 682
404 3517 753
405 3517 820
406 3517 878
406 3517 954
407 3517 1056
408 3517 1161
408 3517 1302
407 3516 1631
954 3507 1891
1474 3495 2060
1853 3483 2190
2157 3471 2274
391 3616 2
392 3616 133
393 3616 198
394 3616 240
395 3617 278
396 3617 315
397 3618 349
398 3618 383
400 3619 422
401 3619 466
402 3619 523
403 3620 601
403 3620 682
404 3620 753
405 3620 820
406 3621 878
407 3621 954
408 3621 1056
409 3621 1161
409 3620 1303
408 3619 1633
407 3617 1940
1023 3609 2118
1559 3597 2227
1935 3585 2300
585 0 0
582 0 127
564 0 198
554 14 235
598 23 265
661 28 295
708 36 327
739 53 357
767 74 385
795 99 415
821 124 447
851 156 483
886 187 528
924 216 587
960 246 657
1000 268 721
1045 287 779
1097 300 835
1159 313 884
1228 325 940
1303 337 1020
1379 348 1106
1454 359 1198
1524 370 1321
1590 379 1594
585 183 0
585 184 132
575 191 204
572 202 242
601 215 270
659 224 295
697 233 326
731 243 355
762 257 383
790 269 412
817 281 445
846 290 481
881 298 526
921 307 585
958 316 655
998 325 719
1042 334 778
1095 343 834
1156 352 883
1226 361 939
1300 370 1018
1376 379 1104
1452 388 1197
1522 397 1319
1588 405 1590
585 315 0
586 314 131
616 312 208
588 314 255
599 317 284
630 321 309
674 326 333
721 332 355
754 335 382
784 340 411
812 345 444
841 350 480
874 355 525
914 361 583
954 366 653
994 373 718
1039 379 777
1091 386 833
1152 393 882
1221 400 937
1297 408 1017
1373 415 1103
1449 422 1195
1519 429 1317
1586 434 1586
586 385 0
587 384 132
587 384 211
651 382 250
589 385 293
590 385 330
623 388 353
669 392 374
720 396 396
766 400 419
803 406 445
832 410 479
865 414 524
904 418 582
945 422 652
988 426 716
1033 431 775
1084 436 831
1145 441 880
1215 445 936
1289 450 1014
1367 456 1101
1442 461 1192
1514 467 1313
1581 472 1579
587 449 0
584 449 132
588 449 211
589 449 254
689 445 286
659 447 327
592 449 365
607 450 394
656 453 418
712 456 443
768 459 468
819 463 495
857 467 532
893 473 582
931 476 650
974 480 715
1022 483 773
1074 487 830
1134 492 879
1203 497 934
1279 503 1012
1357 509 1098
1434 515 1190
1506 523 1309
1574 530 1571
588 512 0
585 512 133
586 512 211
587 512 254
591 512 293
729 507 323
737 508 357
594 513 398
592 513 437
637 516 468
698 520 498
762 524 532
833 528 565
887 534 612
933 541 668
970 550 721
1004 561 773
1057 568 828
1118 575 877
1188 583 931
1263 591 1009
1342 600 1095
1421 609 1186
1495 620 1304
1563 629 1562
589 617 0
585 617 133
586 617 210
587 618 254
588 618 292
593 619 330
764 610 355
797 607 387
596 621 436
594 621 479
605 622 531
676 629 575
745 636 626
844 641 660
918 649 701
974 658 744
1023 669 791
1070 680 837
1118 693 880
1166 707 929
1242 715 1006
1322 723 1093
1403 731 1183
1479 740 1300
1549 748 1553
589 753 0
589 753 133
587 754 210
588 754 253
589 755 291
590 756 329
591 756 363
796 746 387
853 740 419
673 756 476
595 759 534
596 759 609
642 763 676
718 769 723
853 773 747
947 779 778
1018 786 817
1085 795 855
1151 804 894
1218 815 944
1279 826 1016
1328 839 1095
1379 852 1180
1459 860 1296
1531 867 1545
589 886 0
590 886 132
587 886 209
588 887 252
589 888 291
590 888 328
591 889 362
592 889 396
827 878 422
923 869 455
770 884 523
592 892 609
593 892 691
597 893 762
687 899 806
858 902 827
976 907 850
1069 914 880
1160 922 916
1247 931 970
1328 941 1039
1398 952 1112
1453 964 1195
1498 978 1306
1534 992 1548
590 1029 0
590 1029 132
591 1030 208
592 1030 252
589 1031 290
590 1032 327
591 1033 362
593 1034 396
645 1033 433
863 1019 461
998 1007 497
839 1023 587
590 1037 691
594 1037 762
595 1038 830
642 1041 880
859 1045 897
1004 1050 919
1127 1056 956
1246 1064 1009
1350 1073 1072
1440 1084 1138
1511 1095 1221
1567 1108 1340
1613 1122 1596
590 1196 0
590 1196 132
591 1197 208
592 1198 251
593 1199 289
591 1200 326
592 1201 361
593 1202 395
594 1203 433
700 1200 473
907 1185 508
1090 1166 552
918 1186 662
594 1207 761
592 1208 829
596 1209 888
597 1209 961
854 1213 995
1033 1216 1023
1193 1222 1065
1338 1230 1115
1452 1240 1179
1541 1250 1262
1615 1262 1407
1676 1274 1668
