Toning/Toning-Film palette.3dl
#25pt 3DLUT created by 3D LUT Creator Pro (c) Oleg Sharonov
#Copyright Oleg Sharonov
#IMAGEPROFILE sRGB IEC61966-2.1 v.2.10
#INPUTGAMMA sRGB IEC61966-2.1 v.2.10
#OUTPUTGAMMA sRGB IEC61966-2.1 v.2.10
0 43 86 128 171 214 256 299 341 384 427 469 512 555 597 640 682 725 768 810 853 896 938 981 1023 
0 0 0
0 0 230
0 0 445
0 0 653
0 0 862
0 0 1065
0 0 1265
0 0 1448
0 0 1629
0 0 1797
0 0 1963
0 0 2124
0 0 2281
0 0 2437
0 0 2593
0 0 2746
0 0 2898
0 0 3046
0 0 3192
0 0 3334
0 0 3473
0 0 3611
0 0 3748
0 0 3891
0 0 4052
0 51 0
0 174 230
0 94 443
0 0 654
0 0 865
0 0 1069
0 0 1268
0 0 1453
0 0 1632
0 0 1800
0 0 1965
0 0 2126
0 0 2284
0 0 2440
0 0 2595
0 0 2748
0 0 2900
0 0 3048
0 0 3194
0 0 3336
0 0 3475
0 0 3612
0 0 3750
0 0 3893
0 0 4054
0 111 0
0 263 230
0 372 442
0 318 657
0 208 867
0 105 1071
0 14 1270
0 0 1456
0 0 1635
0 0 1803
0 0 1968
0 0 2129
0 0 2286
0 0 2442
0 0 2598
0 0 2750
0 0 2902
0 0 3050
0 0 3196
0 0 3338
0 0 3477
0 0 3614
0 0 3752
0 0 3895
0 0 4056
0 213 0
0 343 178
0 461 443
0 577 658
0 539 869
0 432 1075
0 335 1271
0 244 1460
0 162 1636
0 91 1807
0 30 1972
0 0 2133
0 0 2290
0 0 2446
0 0 2600
0 0 2754
0 0 2904
0 0 3054
0 0 3200
0 0 3342
0 0 3481
0 0 3617
0 0 3754
0 0 3899
0 0 4058
0 331 0
0 435 114
0 550 418
0 661 658
0 780 872
0 757 1079
0 649 1276
0 551 1462
0 462 1637
0 382 1808
0 312 1974
0 252 2134
0 200 2292
0 156 2448
0 120 2603
0 89 2756
0 65 2907
0 46 3056
0 31 3203
0 19 3345
0 11 3484
0 5 3620
0 2 3757
0 1 3902
0 2 4063
0 452 0
0 534 46
0 634 363
0 758 657
0 860 872
0 974 1079
0 962 1278
0 856 1466
0 758 1642
0 670 1811
0 593 1975
0 524 2136
0 465 2294
0 415 2451
0 372 2605
0 338 2759
0 308 2910
0 286 3059
0 268 3206
0 254 3348
0 244 3487
0 237 3623
0 231 3761
0 229 3906
0 230 4066
0 569 0
0 639 0
0 724 304
0 835 608
0 952 873
0 1051 1080
0 1158 1279
0 1159 1467
0 1051 1645
0 955 1816
0 870 1979
0 796 2138
0 731 2296
0 674 2452
0 626 2608
0 586 2761
0 553 2912
0 527 3062
0 506 3209
0 490 3351
0 478 3490
0 469 3627
0 463 3765
0 460 3910
0 459 4071
0 689 0
0 748 0
0 819 242
0 917 550
0 1035 844
0 1138 1081
0 1233 1280
0 1332 1468
0 1344 1647
0 1239 1818
0 1144 1983
0 1063 2143
0 993 2300
0 931 2454
0 878 2609
0 834 2762
0 797 2915
0 767 3064
0 744 3211
0 726 3354
0 712 3494
0 702 3631
0 696 3769
0 691 3914
0 690 4074
0 806 0
0 855 0
0 918 180
0 1005 493
0 1111 794
0 1230 1076
0 1317 1280
0 1404 1469
0 1496 1647
0 1520 1818
0 1419 1984
0 1329 2146
0 1251 2304
0 1184 2459
0 1128 2612
0 1080 2764
0 1040 2917
0 1007 3066
0 981 3213
0 961 3356
0 946 3496
0 935 3634
0 927 3772
0 922 3916
0 921 4078
0 920 0
0 963 0
0 1019 116
0 1096 436
0 1190 740
0 1300 1027
0 1407 1281
0 1483 1469
0 1565 1647
0 1652 1819
0 1690 1985
0 1594 2147
0 1509 2306
0 1436 2463
0 1374 2618
0 1322 2770
0 1280 2919
0 1245 3068
0 1217 3215
0 1195 3359
0 1178 3499
0 1166 3636
0 1158 3775
0 1152 3919
0 1150 4081
0 1035 0
0 1071 0
0 1119 56
0 1187 380
0 1273 685
0 1372 976
0 1480 1248
0 1569 1470
0 1640 1648
0 1718 1819
0 1802 1985
0 1855 2147
0 1765 2307
0 1686 2464
0 1619 2620
0 1563 2774
0 1517 2926
0 1480 3074
0 1450 3218
0 1427 3361
0 1409 3501
0 1395 3638
0 1386 3777
0 1381 3922
0 1378 4083
0 1145 0
0 1176 0
0 1220 0
0 1280 323
0 1356 630
0 1446 923
0 1545 1200
0 1651 1458
0 1719 1648
0 1789 1819
0 1865 1985
0 1948 2147
0 2018 2306
0 1935 2464
0 1863 2620
0 1802 2776
0 1752 2929
0 1712 3079
0 1679 3225
0 1655 3367
0 1637 3505
0 1624 3640
0 1613 3779
0 1607 3925
0 1605 4086
0 1253 0
0 1281 0
0 1318 0
0 1372 265
0 1440 576
0 1522 871
0 1613 1149
0 1710 1411
0 1805 1649
0 1865 1819
0 1933 1985
0 2008 2147
0 2091 2306
0 2179 2463
0 2104 2620
0 2039 2775
0 1986 2929
0 1943 3079
0 1908 3228
0 1882 3372
0 1862 3512
0 1847 3648
0 1838 3784
0 1832 3926
0 1829 4088
0 1357 0
0 1381 0
0 1414 0
0 1462 210
0 1524 523
0 1597 818
0 1680 1099
0 1771 1363
0 1867 1612
0 1945 1819
0 2005 1985
0 2073 2147
0 2149 2306
0 2232 2463
0 2320 2619
0 2273 2774
0 2217 2928
0 2171 3079
0 2134 3228
0 2106 3372
0 2084 3513
0 2069 3651
0 2058 3790
0 2052 3935
0 2050 4094
0 1456 0
0 1479 0
0 1508 0
0 1550 158
0 1606 470
0 1673 767
0 1749 1048
0 1833 1315
0 1923 1567
0 2018 1804
0 2081 1985
0 2142 2147
0 2211 2305
0 2288 2463
0 2371 2619
0 2460 2773
0 2443 2927
0 2395 3078
0 2357 3227
0 2327 3371
0 2304 3513
0 2287 3651
0 2276 3791
0 2269 3937
0 2267 4094
0 1553 0
0 1572 0
0 1599 0
0 1636 108
0 1686 420
0 1747 716
0 1818 999
0 1896 1268
0 1981 1522
0 2070 1762
0 2160 1985
0 2214 2146
0 2276 2305
0 2347 2462
0 2426 2618
0 2510 2773
0 2599 2926
0 2616 3077
0 2576 3225
0 2544 3370
0 2521 3512
0 2503 3651
0 2491 3790
0 2483 3937
0 2480 4092
0 1645 0
0 1662 0
0 1685 0
0 1720 58
0 1765 371
0 1821 668
0 1887 951
0 1960 1222
0 2039 1477
0 2124 1719
0 2213 1949
0 2287 2146
0 2344 2305
0 2410 2462
0 2483 2618
0 2563 2772
0 2648 2925
0 2737 3076
0 2790 3224
0 2757 3369
0 2732 3511
0 2714 3649
0 2701 3789
0 2693 3936
0 2689 4090
0 1733 0
0 1749 0
0 1769 0
0 1801 12
0 1843 327
0 1894 620
0 1955 905
0 2023 1176
0 2098 1434
0 2178 1678
0 2263 1909
0 2351 2129
0 2414 2304
0 2474 2462
0 2542 2618
0 2617 2772
0 2699 2925
0 2785 3076
0 2873 3223
0 2964 3368
0 2939 3509
0 2920 3648
0 2907 3788
0 2899 3935
0 2894 4089
0 1817 0
0 1831 0
0 1851 0
0 1879 0
0 1918 282
0 1965 577
0 2022 859
0 2086 1132
0 2156 1391
0 2233 1637
0 2314 1871
0 2399 2094
0 2486 2304
0 2540 2461
0 2603 2617
0 2674 2771
0 2751 2925
0 2834 3075
0 2920 3223
0 3007 3367
0 3096 3508
0 3121 3647
0 3108 3787
0 3099 3934
0 3094 4087
0 1899 0
0 1912 0
0 1929 0
0 1956 0
0 1991 240
0 2035 535
0 2088 817
0 2148 1090
0 2215 1350
0 2288 1598
0 2366 1834
0 2448 2058
0 2533 2272
0 2608 2460
0 2666 2616
0 2732 2771
0 2806 2924
0 2885 3075
0 2967 3222
0 3053 3367
0 3139 3507
0 3228 3646
0 3302 3785
0 3294 3932
0 3288 4085
0 1976 0
0 1989 0
0 2006 0
0 2030 0
0 2063 200
0 2104 496
0 2153 776
0 2210 1049
0 2273 1310
0 2343 1560
0 2418 1797
0 2497 2024
0 2579 2240
0 2665 2445
0 2730 2615
0 2792 2770
0 2862 2923
0 2937 3074
0 3017 3222
0 3100 3366
0 3184 3507
0 3270 3645
0 3360 3785
0 3457 3931
0 3477 4083
0 2053 0
0 2064 0
0 2079 0
0 2102 0
0 2133 163
0 2171 459
0 2218 738
0 2272 1010
0 2332 1272
0 2399 1522
0 2471 1762
0 2547 1990
0 2627 2208
0 2710 2416
0 2795 2613
0 2853 2769
0 2919 2922
0 2991 3073
0 3068 3221
0 3148 3366
0 3230 3506
0 3314 3645
0 3402 3784
0 3497 3930
0 3601 4080
0 2127 0
0 2138 0
0 2152 0
0 2173 0
0 2202 127
0 2239 421
0 2283 702
0 2334 973
0 2391 1235
0 2455 1486
0 2524 1727
0 2598 1958
0 2675 2178
0 2757 2387
0 2840 2587
0 2916 2767
0 2978 2921
0 3046 3072
0 3120 3221
0 3197 3365
0 3278 3506
0 3360 3644
0 3446 3784
0 3539 3930
0 3641 4079
0 2201 0
0 2211 0
0 2224 0
0 2244 0
0 2271 94
0 2306 386
0 2347 667
0 2396 937
0 2451 1199
0 2512 1452
0 2579 1694
0 2650 1926
0 2726 2148
0 2805 2359
0 2886 2561
0 2969 2753
0 3038 2920
0 3104 3071
0 3174 3220
0 3249 3364
0 3327 3505
0 3407 3644
0 3491 3783
0 3583 3929
0 3683 4078
0 2275 0
0 2285 0
0 2297 0
0 2316 0
0 2342 61
0 2374 352
0 2414 633
0 2460 902
0 2513 1164
0 2571 1417
0 2636 1660
0 2705 1894
0 2778 2118
0 2855 2331
0 2935 2536
0 3017 2730
0 3099 2914
0 3164 3070
0 3232 3218
0 3304 3363
0 3379 3504
0 3457 3643
0 3539 3782
0 3629 3929
0 3726 4077
128 0 0
59 0 224
0 0 442
0 0 655
0 0 869
0 0 1076
0 0 1279
0 0 1471
0 0 1647
0 0 1821
0 0 1988
0 0 2150
0 0 2310
0 0 2468
0 0 2623
0 0 2780
0 0 2933
0 0 3085
0 0 3234
0 0 3379
0 0 3520
0 0 3658
0 0 3798
0 0 3945
0 0 4095
140 45 0
50 202 242
0 95 442
0 0 654
0 0 865
0 0 1071
0 0 1270
0 0 1461
0 0 1637
0 0 1810
0 0 1976
0 0 2137
0 0 2296
0 0 2453
0 0 2607
0 0 2763
0 0 2915
0 0 3066
0 0 3213
0 0 3356
0 0 3496
0 0 3633
0 0 3772
0 0 3918
0 0 4095
133 144 0
45 291 246
0 396 451
0 316 659
0 207 869
0 104 1074
0 13 1273
0 0 1463
0 0 1639
0 0 1811
0 0 1977
0 0 2139
0 0 2297
0 0 2454
0 0 2609
0 0 2764
0 0 2916
0 0 3067
0 0 3214
0 0 3357
0 0 3497
0 0 3634
0 0 3773
0 0 3919
0 0 4095
73 243 0
22 366 184
0 479 453
0 594 664
0 539 875
0 432 1080
0 334 1277
0 240 1463
0 159 1642
0 87 1812
0 26 1978
0 0 2140
0 0 2298
0 0 2455
0 0 2611
0 0 2765
0 0 2918
0 0 3067
0 0 3215
0 0 3358
0 0 3498
0 0 3636
0 0 3775
0 0 3919
0 0 4095
26 355 0
0 454 118
0 564 422
0 676 666
0 792 877
0 753 1081
0 648 1280
0 549 1466
0 459 1643
0 379 1815
0 309 1979
0 247 2141
0 196 2301
0 150 2458
0 113 2613
0 83 2766
0 58 2919
0 36 3069
0 21 3216
0 10 3361
0 0 3501
0 0 3638
0 0 3777
0 0 3921
0 0 4095
0 470 0
0 550 46
0 645 366
0 768 662
0 869 877
0 982 1083
0 962 1281
0 854 1468
0 757 1647
0 668 1815
0 590 1981
0 521 2142
0 462 2301
0 411 2458
0 368 2614
0 332 2768
0 303 2921
0 280 3070
0 261 3218
0 247 3361
0 236 3502
0 229 3640
0 224 3778
0 220 3923
0 215 4095
0 584 0
0 651 0
0 734 307
0 845 608
0 960 878
0 1058 1084
0 1165 1282
0 1156 1469
0 1050 1648
0 953 1818
0 868 1983
0 794 2143
0 728 2303
0 671 2460
0 623 2615
0 582 2769
0 549 2922
0 522 3072
0 501 3219
0 485 3363
0 473 3504
0 464 3641
0 458 3780
0 454 3925
0 450 4095
0 701 0
0 756 0
0 830 244
0 925 554
0 1042 847
0 1145 1084
0 1239 1282
0 1338 1470
0 1342 1648
0 1238 1820
0 1144 1985
0 1061 2147
0 991 2305
0 929 2461
0 876 2617
0 831 2770
0 794 2923
0 764 3074
0 741 3221
0 722 3365
0 709 3505
0 698 3642
0 692 3781
0 688 3927
0 685 4095
0 817 0
0 864 0
0 927 181
0 1012 498
0 1118 794
0 1236 1077
0 1322 1283
0 1409 1471
0 1501 1649
0 1519 1820
0 1418 1986
0 1328 2148
0 1250 2307
0 1183 2463
0 1126 2618
0 1078 2772
0 1037 2924
0 1005 3075
0 979 3222
0 959 3366
0 943 3506
0 932 3644
0 924 3783
0 920 3929
0 917 4095
0 931 0
0 971 0
0 1027 117
0 1102 437
0 1196 741
0 1304 1027
0 1412 1284
0 1487 1471
0 1569 1649
0 1656 1820
0 1689 1986
0 1593 2148
0 1508 2307
0 1435 2465
0 1373 2620
0 1321 2774
0 1279 2926
0 1244 3076
0 1215 3223
0 1193 3367
0 1177 3507
0 1164 3645
0 1156 3784
0 1151 3930
0 1148 4095
0 1042 0
0 1079 0
0 1126 55
0 1194 380
0 1278 687
0 1377 976
0 1484 1249
0 1573 1472
0 1644 1649
0 1721 1820
0 1806 1986
0 1855 2148
0 1765 2307
0 1686 2465
0 1619 2621
0 1562 2776
0 1516 2928
0 1479 3078
0 1449 3224
0 1426 3368
0 1408 3508
0 1395 3647
0 1386 3786
0 1380 3931
0 1378 4095
