Toning/Toning - Contrast & Red shaping.3dl
#25pt 3DLUT created by 3D LUT Creator Pro (c) Oleg Sharonov
#Copyright Oleg Sharonov
#IMAGEPROFILE ProPhoto RGB v.2.10
#INPUTGAMMA ProPhoto RGB v.2.10
#OUTPUTGAMMA ProPhoto RGB v.2.10
0 128 256 384 512 640 768 896 1023
0 0 0
1 0 431
0 0 1091
0 0 1829
0 0 2611
0 0 3309
0 0 3786
0 0 4045
0 0 4095
1 415 0
1 439 433
0 474 1094
0 512 1832
0 556 2613
0 591 3310
0 617 3785
0 633 4043
0 640 4095
0 955 0
1 1003 433
0 1075 1096
0 1155 1835
0 1244 2616
0 1319 3311
0 1372 3784
0 1403 4041
0 1415 4095
0 1587 0
0 1651 433
0 1748 1097
0 1854 1837
0 1971 2617
0 2069 3311
0 2137 3782
0 2175 4036
0 2188 4094
0 2249 0
0 2316 432
0 2417 1096
0 2529 1836
0 2654 2616
0 2759 3310
0 2832 3780
0 2873 4033
0 2887 4094
0 2984 0
0 3037 432
0 3118 1096
0 3207 1837
0 3307 2617
0 3391 3309
0 3448 3777
0 3481 4030
0 3492 4095
0 3649 0
0 3675 431
0 3714 1097
0 3757 1838
0 3805 2618
0 3846 3309
0 3874 3775
0 3890 4027
0 3896 4095
0 4044 0
0 4045 433
0 4048 1099
0 4051 1841
0 4056 2621
0 4061 3311
0 4065 3775
0 4067 4025
0 4068 4095
2 4095 0
2 4095 438
0 4095 1103
0 4095 1846
0 4095 2625
0 4095 3314
0 4095 3777
0 4095 4025
0 4095 4095
635 4 0
636 4 508
634 4 1250
631 4 1948
628 4 2676
626 4 3352
627 4 3804
629 4 4046
632 4 4095
603 431 0
601 454 504
596 485 1203
591 519 1938
586 557 2701
583 591 3376
582 614 3835
583 629 4067
586 636 4095
577 981 0
575 1026 458
571 1090 1160
567 1160 1922
563 1239 2704
560 1308 3389
558 1356 3808
558 1384 4042
560 1395 4095
554 1624 0
553 1683 446
548 1770 1142
544 1862 1899
539 1965 2690
534 2057 3345
532 2118 3794
533 2153 4037
535 2166 4095
533 2297 0
530 2355 440
526 2440 1119
522 2534 1874
515 2641 2643
510 2734 3323
510 2798 3784
511 2835 4033
513 2848 4095
508 3010 0
507 3058 436
505 3126 1107
501 3202 1851
496 3286 2627
492 3361 3314
490 3411 3778
491 3440 4028
495 3451 4095
487 3655 0
487 3679 432
485 3713 1099
482 3749 1841
478 3790 2621
475 3827 3310
474 3851 3775
476 3866 4024
479 3871 4095
477 4043 0
477 4044 434
476 4046 1100
474 4049 1843
472 4052 2623
470 4057 3311
470 4060 3774
472 4062 4023
476 4063 4095
480 4095 0
480 4095 439
478 4095 1104
476 4095 1848
474 4095 2627
472 4095 3315
472 4095 3776
475 4095 4023
478 4095 4095
1286 9 0
1288 9 527
1286 9 1326
1283 9 2163
1281 9 2908
1280 9 3448
1280 9 3835
1283 9 4049
1287 9 4095
1225 446 0
1223 466 505
1218 493 1279
1211 524 2060
1204 558 2829
1198 586 3496
1195 606 3848
1195 620 4050
1198 626 4095
1169 1008 0
1167 1048 476
1164 1105 1235
1157 1169 2006
1150 1239 2799
1145 1299 3488
1142 1338 3927
1142 1364 4061
1145 1374 4095
1130 1663 0
1128 1715 464
1122 1790 1184
1115 1877 1969
1106 1968 2776
1099 2047 3421
1096 2098 3819
1096 2131 4040
1099 2143 4095
1083 2345 0
1081 2394 454
1076 2464 1151
1071 2545 1923
1063 2634 2701
1056 2712 3351
1053 2764 3793
1052 2797 4032
1055 2809 4095
1038 3040 0
1035 3080 441
1030 3136 1120
1024 3202 1875
1018 3274 2644
1013 3337 3323
1012 3378 3780
1012 3404 4026
1015 3414 4095
996 3669 0
995 3689 435
993 3716 1104
989 3746 1847
985 3779 2625
982 3808 3312
981 3828 3774
982 3841 4022
985 3846 4095
975 4041 0
976 4043 435
975 4044 1102
973 4046 1845
971 4049 2625
970 4052 3312
970 4055 3773
972 4056 4021
975 4057 4095
975 4095 0
975 4095 438
974 4095 1104
973 4095 1849
971 4095 2629
969 4095 3315
970 4095 3775
972 4095 4021
976 4095 4095
2022 12 0
2024 12 533
2024 12 1398
2021 12 2250
2019 12 2945
2018 12 3503
2019 12 3862
2023 12 4053
2027 12 4095
1928 467 0
1926 483 505
1920 507 1313
1911 532 2133
1903 560 2924
1898 584 3457
1894 602 3835
1894 614 4046
1898 620 4095
1841 1045 0
1839 1078 485
1835 1125 1254
1829 1177 2084
1821 1235 2896
1816 1285 3584
1814 1320 3888
1815 1342 4054
1818 1351 4095
1780 1707 0
1777 1750 474
1771 1814 1226
1762 1883 2054
1752 1960 2865
1745 2025 3559
1742 2072 3912
1741 2100 4055
1744 2110 4095
1710 2400 0
1706 2438 467
1698 2494 1185
1689 2555 1977
1678 2625 2779
1672 2686 3418
1669 2731 3816
1669 2758 4035
1671 2768 4095
1637 3072 0
1635 3103 449
1630 3149 1138
1624 3199 1904
1616 3256 2686
1610 3304 3343
1607 3339 3787
1607 3360 4025
1610 3369 4095
1572 3677 0
1571 3692 437
1568 3714 1109
1564 3737 1857
1559 3763 2632
1557 3785 3314
1556 3802 3773
1557 3813 4020
1560 3818 4095
1537 4040 0
1538 4041 435
1537 4041 1103
1536 4043 1848
1534 4044 2627
1533 4046 3313
1534 4048 3772
1536 4050 4018
1540 4051 4095
1536 4095 0
1537 4095 439
1536 4095 1105
1535 4095 1851
1533 4095 2630
1533 4095 3315
1534 4095 3774
1537 4095 4018
1540 4095 4095
2821 151 0
2823 152 548
2822 151 1500
2819 150 2267
2817 150 2974
2816 149 3534
2818 150 3880
2821 151 4055
2825 153 4095
2650 647 0
2648 661 530
2643 678 1396
2634 698 2274
2627 717 2929
2621 734 3484
2619 749 3852
2619 760 4047
2621 770 4095
2539 1214 0
2537 1238 511
2532 1271 1321
2523 1309 2202
2516 1345 3033
2510 1380 3531
2507 1405 3865
2508 1424 4048
2511 1435 4095
2449 1842 0
2446 1875 501
2439 1918 1290
2428 1969 2160
2419 2018 3002
2412 2067 3689
2409 2102 3952
2409 2126 4065
2412 2137 4095
2355 2498 0
2351 2527 484
2344 2565 1233
2334 2610 2062
2325 2655 2892
2318 2698 3579
2314 2730 3898
2313 2750 4049
2315 2761 4095
2253 3127 0
2250 3149 458
2244 3181 1164
2238 3219 1942
2231 3256 2751
2225 3292 3396
2222 3318 3805
2222 3334 4027
2225 3343 4095
2164 3698 0
2162 3709 442
2159 3724 1119
2156 3742 1874
2151 3758 2656
2148 3775 3327
2147 3787 3777
2148 3795 4018
2150 3799 4095
2115 4038 0
2116 4038 436
2116 4038 1104
2115 4039 1850
2113 4038 2629
2112 4039 3313
2113 4041 3770
2115 4042 4015
2118 4043 4095
2112 4095 0
2113 4095 437
2113 4095 1107
2112 4095 1853
2110 4094 2632
2110 4094 3316
2110 4095 3771
2112 4095 4015
2115 4095 4095
3695 831 0
3697 832 577
3696 831 1596
3694 829 2379
3692 827 3064
3691 826 3589
3693 828 3903
3696 831 4058
3700 835 4095
3412 1368 0
3408 1380 608
3400 1394 1627
3387 1411 2591
3377 1426 3171
3368 1440 3632
3362 1455 3916
3360 1466 4059
3362 1475 4095
3225 1886 0
3224 1899 608
3220 1913 1561
3211 1930 2584
3205 1946 3268
3199 1961 3667
3197 1976 3925
3197 1986 4059
3200 1994 4095
3112 2329 0
3109 2344 583
3103 2365 1472
3092 2389 2415
3084 2411 3299
3078 2432 3745
3074 2453 3954
3074 2466 4064
3077 2474 4095
2991 2801 0
2988 2817 531
2982 2839 1346
2971 2865 2232
2964 2889 3112
2957 2911 3784
2953 2930 4082
2952 2942 4094
2955 2949 4095
2852 3276 0
2850 3289 478
2845 3307 1210
2838 3329 2016
2831 3348 2845
2826 3367 3540
2823 3382 3865
2823 3393 4039
2825 3399 4095
2750 3752 0
2749 3758 448
2747 3767 1136
2743 3777 1900
2738 3785 2693
2736 3793 3360
2735 3801 3788
2736 3806 4018
2738 3809 4095
2696 4040 0
2697 4040 437
2697 4039 1106
2696 4039 1854
2694 4037 2636
2694 4037 3317
2695 4038 3770
2697 4039 4012
2700 4039 4095
2691 4094 0
2692 4095 441
2691 4095 1107
2690 4095 1854
2688 4094 2633
2688 4094 3315
2689 4094 3770
2691 4094 4012
2695 4095 4094
4028 1668 0
4029 1670 609
4031 1668 1627
4028 1667 2586
4028 1665 3207
4027 1663 3668
4028 1665 3935
4028 1668 4063
4029 1673 4095
3898 1926 0
3897 1930 618
3896 1933 1646
3893 1935 2677
3890 1937 3238
3885 1943 3673
3882 1951 3933
3882 1957 4062
3882 1964 4095
3705 2351 0
3705 2356 631
3702 2364 1611
3697 2372 2644
3694 2378 3330
3691 2386 3705
3690 2394 3941
3690 2399 4062
3692 2404 4095
3600 2705 0
3599 2712 609
3596 2723 1525
3590 2733 2485
3587 2743 3388
3583 2753 3737
3582 2763 3950
3582 2769 4062
3584 2774 4095
3500 3073 0
3499 3080 553
3495 3091 1395
3489 3102 2292
3485 3113 3176
3481 3126 3819
3480 3137 3982
3480 3143 4068
3482 3148 4095
3393 3457 0
3393 3463 496
3389 3473 1251
3385 3482 2077
3381 3490 2924
3378 3499 3628
3376 3508 4001
3377 3512 4071
3379 3516 4095
3309 3832 0
3310 3835 457
3308 3839 1156
3306 3843 1931
3303 3846 2733
3301 3851 3424
3302 3855 3824
3303 3857 4025
3306 3860 4095
3273 4053 0
3274 4052 439
3273 4051 1111
3273 4050 1862
3271 4048 2645
3270 4047 3329
3271 4047 3774
3274 4047 4011
3277 4048 4095
3270 4095 0
3271 4095 441
3271 4095 1107
3270 4095 1855
3267 4094 2634
3267 4094 3315
3268 4095 3768
3271 4095 4009
3274 4095 4095
4094 2456 0
4094 2457 638
4095 2456 1629
4093 2455 2779
4094 2453 3382
4094 2452 3758
4094 2453 3969
4094 2456 4069
4094 2460 4095
4090 2591 0
4090 2593 629
4090 2592 1657
4088 2592 2746
4088 2590 3387
4088 2590 3750
4088 2592 3963
4088 2595 4067
4088 2600 4095
4020 2839 0
4020 2841 642
4020 2842 1628
4018 2842 2653
4018 2842 3415
4018 2843 3753
4019 2845 3960
4019 2848 4065
4020 2852 4095
3967 3103 0
3968 3104 621
3968 3106 1547
3966 3108 2509
3966 3108 3414
3965 3110 3756
3966 3113 3958
3967 3115 4063
3969 3119 4095
3941 3356 0
3942 3358 573
3941 3360 1430
3939 3363 2329
3938 3365 3207
3937 3367 3756
3938 3371 3955
3939 3374 4061
3941 3377 4095
3909 3640 0
3910 3642 512
3909 3644 1288
3907 3646 2130
3906 3648 2976
3905 3650 3675
3905 3653 3969
3907 3655 4063
3909 3658 4095
3861 3911 0
3862 3912 464
3862 3912 1173
3860 3913 1955
3858 3913 2762
3857 3914 3456
3858 3915 3910
3860 3917 4071
3863 3918 4095
3847 4065 0
3847 4064 441
3847 4063 1116
3846 4062 1870
3844 4060 2654
3844 4059 3338
3845 4059 3791
3847 4058 4016
3850 4059 4095
3846 4095 0
3847 4095 435
3847 4095 1111
3845 4095 1859
3843 4095 2637
3843 4095 3316
3844 4095 3767
3846 4095 4006
3849 4095 4095
4094 2783 0
4095 2783 656
4095 2783 1640
4093 2783 2776
4094 2783 3480
4094 2783 3806
4094 2783 3988
4094 2783 4073
4094 2783 4095
4094 2916 0
4095 2916 638
4095 2916 1665
4093 2915 2744
4094 2914 3489
4094 2914 3801
4094 2913 3983
4094 2914 4071
4094 2915 4095
4095 3091 0
4095 3091 649
4095 3091 1636
4094 3091 2656
4094 3090 3487
4094 3090 3790
4094 3091 3975
4094 3091 4068
4094 3092 4095
4095 3293 0
4095 3293 629
4095 3293 1556
4094 3293 2517
4094 3292 3414
4094 3292 3776
4095 3293 3966
4095 3294 4065
4095 3295 4095
4095 3508 0
4095 3508 583
4095 3508 1444
4094 3508 2346
4094 3508 3219
4095 3508 3760
4095 3509 3957
4095 3510 4061
4095 3511 4095
4095 3744 0
4095 3745 520
4095 3745 1301
4094 3745 2149
4094 3744 2991
4095 3744 3684
4095 3745 3949
4095 3746 4057
4095 3747 4095
4095 3953 0
4095 3953 469
4095 3953 1181
4095 3953 1967
4094 3952 2776
4095 3952 3468
4095 3952 3918
4095 3953 4053
4095 3954 4095
4095 4073 0
4095 4072 446
4095 4071 1119
4095 4070 1876
4094 4069 2661
4095 4068 3344
4095 4067 3795
4095 4067 4035
4095 4067 4095
4095 4095 0
4095 4095 441
4095 4095 1108
4095 4095 1858
4094 4095 2638
4095 4095 3317
4095 4095 3767
4095 4095 4006
4095 4095 4095
