Toning/Toning-SoftContrast.3dl
#25pt 3DLUT created by 3D LUT Creator Pro (c) Oleg Sharonov
#Copyright Oleg Sharonov
#IMAGEPROFILE sRGB IEC61966-2.1 v.2.10
#INPUTGAMMA sRGB IEC61966-2.1 v.2.10
#OUTPUTGAMMA sRGB IEC61966-2.1 v.2.10
0 256 512 768 1023
119 195 180
309 320 574
640 548 1034
982 781 1472
1327 1028 1919
133 1102 199
827 1001 1000
1003 1055 1229
1278 1124 1717
1558 1297 2138
134 2034 215
132 2184 1277
1626 1856 1817
1800 1917 2032
2009 2013 2406
136 3001 230
133 3106 1313
1283 2985 1958
2433 2749 2655
2616 2812 2890
139 3974 243
133 3981 1346
133 3978 2199
2879 3677 3040
3465 3592 3466
1038 148 154
1007 151 1043
1035 227 1895
1178 749 1862
1458 1031 2175
1047 1024 164
1010 1063 1058
1187 1053 1544
1398 1155 1914
1671 1298 2377
1059 2040 181
1045 2090 1133
1713 1895 1852
1863 1957 2075
2097 2020 2596
1063 3016 194
1058 3071 1176
1370 3006 1992
2485 2774 2677
2650 2840 2931
1065 3975 205
1063 4010 1210
1062 3978 2105
2868 3707 3039
3491 3612 3486
2005 125 123
1891 124 900
1963 124 1886
1989 124 2848
1979 618 3320
1984 939 129
1916 933 909
1960 939 1860
1985 943 2793
2127 1005 3450
1997 2011 143
1963 1998 988
1974 2007 1951
2139 2013 2520
2417 1951 3434
2002 2999 154
1989 2984 1034
1996 2996 1992
2654 2852 2748
2770 2922 3047
2005 3959 162
2003 3945 1068
2004 3958 2014
2781 3815 3013
3575 3676 3550
2968 100 87
2879 99 759
2904 99 1784
2944 100 2793
2966 100 3798
2959 871 91
2871 850 773
2904 857 1759
2941 870 2732
2965 878 3716
2962 1987 100
2908 1938 840
2931 1962 1847
2951 1987 2838
2967 2006 3824
2966 2992 108
2947 2932 889
2953 2957 1894
2959 2985 2874
3139 2989 3628
2969 3939 116
2965 3867 924
2967 3898 1914
2969 3936 2885
3727 3793 3665
3945 81 58
3923 80 621
3865 80 1684
3912 80 2736
3941 81 3789
3944 802 61
3863 776 639
3875 781 1666
3908 794 2674
3940 806 3700
3940 1974 71
3884 1917 704
3902 1941 1745
3924 1968 2781
3943 1997 3812
3944 2992 74
3917 2909 748
3925 2937 1793
3934 2979 2818
3944 3017 3835
3946 3933 80
3941 3831 784
3943 3867 1815
3945 3915 2829
3947 3965 3836
