Toning/Toning-SplitToning-BlueShadows.3dl
#25pt 3DLUT created by 3D LUT Creator Pro (c) Oleg Sharonov
#Copyright Oleg Sharonov
#IMAGEPROFILE sRGB IEC61966-2.1 v.2.10
#INPUTGAMMA sRGB IEC61966-2.1 v.2.10
#OUTPUTGAMMA sRGB IEC61966-2.1 v.2.10
0 256 512 768 1023
0 0 183
6 0 1055
142 36 1885
391 132 2711
629 269 3537
13 1006 316
16 1007 1080
78 1028 1866
269 1064 2673
613 1136 3415
260 2013 479
264 2014 1111
314 2026 1860
612 2043 2598
1019 2083 3243
1323 2948 1291
1337 2951 1506
1382 2961 1991
1467 2982 2591
1936 2983 3105
3184 3641 2679
3201 3645 2714
3255 3656 2818
3355 3679 2977
3502 3720 3153
1014 0 299
1018 0 1064
1061 42 1867
1136 139 2688
1240 291 3509
1031 1004 314
1033 1006 1077
1052 1023 1868
1106 1061 2659
1194 1110 3470
1078 2012 494
1080 2013 1112
1098 2025 1858
1205 2044 2591
1247 2084 3375
1625 2951 1318
1636 2954 1526
1670 2965 2000
1737 2986 2594
2017 3003 3150
3262 3650 2715
3262 3658 2737
3314 3670 2838
3410 3694 2994
3551 3736 3165
2043 0 302
2045 0 1066
2070 42 1850
2113 161 2653
2135 512 3380
2054 1003 310
2054 1004 1073
2067 1023 1847
2087 1076 2614
2149 1114 3433
2067 2012 565
2068 2014 1126
2079 2025 1856
2108 2053 2575
2150 2091 3350
2289 2964 1400
2295 2968 1588
2317 2979 2033
2359 3003 2605
2505 3031 3159
3475 3683 2828
3479 3691 2846
3485 3717 2903
3569 3743 3048
3693 3788 3204
3032 180 445
3031 206 1081
3040 295 1827
3061 434 2588
3035 769 3282
3021 1053 572
3022 1058 1111
3032 1082 1832
3050 1134 2579
3112 1164 3373
3000 2041 950
3001 2045 1277
3006 2063 1882
3020 2098 2557
3067 2138 3279
3082 3001 1548
3086 3005 1707
3099 3018 2102
3125 3043 2635
3169 3087 3201
3766 3766 3026
3772 3774 3038
3791 3796 3078
3817 3842 3150
3916 3891 3283
3855 822 928
3852 844 1252
3845 918 1845
3831 1055 2500
3811 1252 3147
3807 1348 1079
3992 1153 1181
3988 1192 1853
3962 1298 2557
3915 1474 3223
3711 2221 1493
3813 2179 1539
3888 2162 1956
3878 2213 2568
3861 2301 3183
3688 3124 2198
3699 3129 2250
3738 3142 2412
3835 3155 2718
3836 3221 3164
4037 3932 3280
4044 3939 3288
4066 3960 3313
4095 4000 3356
4095 4056 3607
