Toning/Toning-Ice cold.3dl
#25pt 3DLUT created by 3D LUT Creator Pro (c) Oleg Sharonov
#Copyright Oleg Sharonov
#IMAGEPROFILE sRGB IEC61966-2.1 v.2.10
#INPUTGAMMA sRGB IEC61966-2.1 v.2.10
#OUTPUTGAMMA sRGB IEC61966-2.1 v.2.10
0 256 512 768 1023
294 294 294
290 331 818
282 512 1776
392 811 2448
686 1202 2835
463 981 997
282 1066 1260
273 1070 2534
576 1263 2825
942 1567 2993
1175 2110 2148
1090 2150 2239
848 2260 2494
1324 2266 3006
1773 2380 3151
2647 2950 3038
2662 2957 3050
2739 2975 3080
2893 3003 3112
2974 3065 3163
3331 3361 3402
3333 3363 3403
3343 3371 3409
3359 3384 3418
3381 3402 3430
676 403 292
704 427 966
600 604 1998
610 893 2643
850 1287 2908
896 1040 795
883 1070 1266
835 1159 2193
916 1357 2694
1101 1639 3029
1381 2160 2120
1430 2167 2260
1231 2275 2507
1575 2295 3007
1883 2426 3161
2732 2965 3056
2761 2969 3068
2862 2979 3093
2920 3024 3128
2997 3082 3178
3339 3368 3407
3342 3370 3408
3351 3377 3413
3366 3390 3422
3387 3407 3433
1557 730 286
1836 602 635
1524 885 1959
1368 1227 2489
1399 1547 2984
1784 1217 842
1906 1186 1218
1718 1342 2167
1575 1590 2704
1609 1842 3101
2095 2263 2038
2096 2279 2188
2104 2329 2556
2133 2420 2952
2222 2556 3184
2912 3018 3124
2921 3025 3129
2949 3046 3147
2997 3082 3178
3060 3135 3221
3364 3388 3421
3366 3390 3422
3374 3396 3426
3387 3407 3433
3405 3421 3442
2307 1348 1028
2393 1333 1201
2462 1385 1915
2315 1632 2678
2201 1993 2897
2439 1697 1465
2481 1702 1643
2570 1736 2125
2433 1940 2778
2361 2222 2992
2690 2491 2429
2708 2500 2503
2722 2544 2720
2710 2638 2990
2716 2774 3145
3049 3125 3214
3055 3130 3218
3075 3147 3232
3110 3177 3257
3160 3219 3291
3402 3418 3441
3404 3420 3441
3409 3424 3444
3419 3431 3448
3431 3440 3452
2766 2110 2050
2791 2121 2119
2872 2149 2336
2834 2296 2753
2814 2488 3045
2824 2339 2324
2854 2348 2352
2914 2379 2528
2900 2494 2853
2875 2660 3085
2917 2865 2947
2923 2875 2963
2933 2909 3014
2871 2986 3099
2956 3051 3151
3199 3252 3317
3203 3256 3320
3218 3268 3330
3244 3289 3347
3280 3319 3370
3439 3446 3454
3440 3447 3454
3443 3449 3454
3447 3451 3454
3452 3454 3452
