Toning/Toning-Magenta.3dl
#25pt 3DLUT created by 3D LUT Creator Pro (c) Oleg Sharonov
#Copyright Oleg Sharonov
#IMAGEPROFILE 
#INPUTGAMMA 
#OUTPUTGAMMA 
0 43 86 128 171 214 256 299 341 384 427 469 512 555 597 640 682 725 768 810 853 896 938 981 1023 
0 0 84
4 0 107
8 0 142
16 0 207
28 0 293
45 0 383
71 12 482
103 33 589
141 58 694
189 88 806
241 124 919
295 170 1034
353 219 1148
413 274 1261
476 331 1373
540 390 1482
606 452 1589
673 515 1689
742 581 1784
812 648 1873
883 717 1958
954 787 2043
1026 857 2127
1097 929 2211
1169 1001 2295
28 6 143
26 10 190
31 12 301
39 18 381
59 26 462
81 38 545
110 55 636
144 75 732
184 101 829
231 132 933
280 171 1040
333 217 1143
388 266 1245
446 317 1348
506 372 1451
570 429 1551
633 489 1649
700 551 1743
768 615 1831
837 682 1914
906 748 1996
976 816 2078
1047 885 2161
1117 955 2243
1187 1026 2325
76 75 243
76 79 285
71 85 343
83 88 481
96 96 581
118 109 672
153 125 763
193 145 853
236 173 948
281 206 1046
329 243 1144
379 283 1243
432 328 1345
489 376 1445
546 428 1544
606 482 1639
670 539 1726
733 598 1810
800 660 1889
867 724 1968
935 790 2046
1003 856 2125
1073 923 2205
1142 991 2284
1210 1059 2364
163 195 372
166 201 402
159 208 451
152 219 518
171 220 676
189 231 794
210 247 891
247 267 987
294 290 1083
341 315 1175
390 348 1270
439 384 1362
491 424 1455
546 467 1547
603 514 1636
661 565 1723
722 618 1808
783 673 1887
846 731 1965
911 790 2044
976 850 2121
1043 914 2196
1110 979 2271
1177 1044 2347
1245 1110 2423
279 359 514
282 363 537
282 368 574
272 379 635
264 392 706
289 395 880
308 403 1011
330 420 1119
356 442 1214
404 462 1307
456 488 1400
508 517 1489
560 552 1575
615 590 1660
671 631 1741
728 676 1819
787 725 1894
847 774 1968
908 827 2042
970 882 2117
1033 939 2192
1096 997 2269
1160 1056 2345
1224 1117 2422
1288 1178 2499
410 544 666
412 547 686
417 553 712
410 561 764
398 574 829
391 588 904
419 588 1085
440 598 1225
463 612 1338
489 632 1436
519 658 1522
576 681 1611
632 708 1694
688 739 1773
745 774 1847
802 813 1917
861 856 1988
919 900 2059
978 947 2130
1039 997 2202
1099 1048 2275
1160 1101 2347
1222 1156 2421
1283 1211 2495
1344 1267 2569
552 744 823
554 748 840
557 752 863
560 758 900
548 769 960
536 784 1028
530 800 1105
560 799 1290
584 807 1432
606 819 1546
633 840 1643
661 863 1726
701 889 1801
760 914 1875
819 941 1946
878 974 2016
937 1009 2086
995 1047 2155
1054 1087 2225
1113 1131 2295
1172 1176 2365
1231 1224 2435
1290 1272 2506
1349 1322 2577
1408 1372 2649
704 955 985
706 958 999
708 961 1019
713 967 1048
709 975 1097
696 987 1159
683 1002 1230
677 1019 1306
710 1017 1486
734 1023 1626
758 1036 1736
784 1054 1827
812 1075 1904
844 1101 1973
891 1127 2043
953 1151 2114
1013 1179 2184
1073 1211 2254
1131 1244 2322
1189 1281 2391
1248 1320 2460
1306 1360 2529
1363 1403 2598
1420 1446 2667
1476 1491 2737
860 1166 1148
862 1169 1160
864 1172 1176
868 1177 1201
872 1183 1237
861 1193 1294
848 1207 1357
836 1222 1426
830 1239 1499
865 1237 1671
891 1242 1801
915 1253 1903
940 1268 1991
968 1288 2070
999 1310 2142
1031 1337 2210
1085 1360 2280
1146 1384 2350
1206 1411 2419
1265 1441 2488
1323 1472 2557
1380 1506 2624
1436 1542 2692
1491 1579 2760
1545 1616 2829
1022 1376 1310
1022 1377 1320
1024 1380 1334
1027 1384 1354
1032 1389 1384
1031 1397 1428
1018 1408 1485
1005 1421 1547
993 1436 1612
987 1453 1681
1023 1450 1837
1050 1454 1957
1074 1464 2061
1099 1477 2152
1126 1494 2233
1155 1514 2308
1186 1536 2378
1218 1562 2445
1279 1583 2515
1338 1605 2584
1396 1630 2653
1453 1657 2721
1508 1685 2789
1562 1715 2856
1615 1746 2924
1183 1576 1467
1184 1577 1475
1185 1579 1487
1187 1582 1505
1192 1586 1529
1198 1592 1561
1188 1601 1610
1175 1612 1665
1162 1624 1723
1151 1638 1783
1145 1653 1844
1181 1651 1988
1209 1654 2111
1233 1662 2216
1257 1673 2310
1283 1687 2394
1311 1703 2471
1340 1723 2543
1370 1744 2611
1406 1766 2677
1465 1784 2747
1523 1804 2817
1577 1825 2884
1630 1849 2952
1681 1873 3019
1342 1758 1616
1342 1760 1623
1344 1761 1633
1345 1764 1647
1349 1767 1668
1354 1772 1694
1354 1778 1731
1343 1786 1778
1330 1797 1828
1317 1809 1881
1307 1821 1936
1301 1833 1994
1337 1832 2139
1365 1834 2262
1389 1840 2370
1412 1848 2466
1436 1859 2552
1462 1873 2632
1489 1889 2706
1517 1907 2776
1547 1926 2842
1586 1946 2909
1642 1963 2978
1694 1982 3046
1744 2003 3114
1495 1921 1755
1496 1923 1761
1497 1924 1769
1499 1926 1781
1501 1929 1798
1506 1933 1819
1511 1937 1845
1504 1944 1885
1493 1953 1930
1480 1963 1978
1468 1974 2030
1459 1986 2086
1454 1998 2144
1488 1996 2288
1516 1997 2412
1538 2002 2522
1561 2011 2620
1583 2021 2709
1607 2033 2790
1631 2048 2867
1657 2065 2938
1684 2083 3006
1711 2103 3071
1753 2121 3139
1802 2139 3207
1641 2079 1881
1642 2081 1886
1643 2082 1893
1644 2084 1903
1646 2086 1917
1650 2090 1936
1654 2093 1959
1656 2099 1989
1647 2107 2032
1635 2116 2077
1624 2126 2127
1612 2137 2179
1603 2149 2234
1599 2161 2293
1631 2159 2437
1658 2160 2562
1680 2165 2673
1700 2172 2773
1721 2181 2864
1742 2193 2947
1764 2206 3025
1787 2222 3098
1810 2239 3168
1835 2258 3235
1859 2279 3299
1776 2237 2003
1777 2237 2007
1778 2239 2013
1779 2240 2022
1780 2242 2035
1783 2246 2052
1787 2249 2073
1792 2253 2098
1787 2260 2135
1778 2268 2178
1768 2278 2225
1757 2288 2274
1747 2299 2327
1738 2311 2382
1735 2323 2440
1764 2321 2584
1790 2321 2710
1810 2326 2822
1828 2332 2924
1846 2341 3017
1865 2352 3102
1885 2365 3182
1906 2379 3257
1928 2395 3328
1950 2413 3396
1899 2392 2124
1900 2393 2128
1901 2394 2133
1901 2396 2142
1903 2398 2153
1905 2401 2168
1908 2404 2188
1912 2408 2211
1915 2413 2239
1907 2420 2280
1898 2429 2324
1888 2438 2371
1878 2449 2421
1868 2460 2474
1862 2472 2529
1858 2484 2587
1884 2482 2731
1910 2482 2857
1929 2486 2971
1947 2492 3074
1965 2500 3169
1983 2510 3256
2003 2522 3337
2023 2536 3414
2044 2551 3486
2019 2548 2244
2020 2548 2247
2021 2549 2253
2021 2551 2261
2023 2553 2271
2025 2555 2285
2027 2558 2302
2030 2562 2323
2035 2566 2348
2033 2572 2383
2024 2580 2425
2015 2589 2470
2005 2598 2517
1995 2609 2568
1986 2620 2621
1979 2632 2676
1976 2644 2733
2002 2642 2877
2028 2642 3004
2048 2645 3118
2066 2651 3223
2083 2658 3319
2101 2668 3408
2120 2679 3491
2140 2692 3569
2139 2701 2363
2139 2702 2367
2139 2703 2372
2140 2704 2378
2141 2706 2388
2143 2709 2401
2145 2711 2417
2148 2715 2437
2152 2719 2459
2157 2723 2486
2149 2730 2526
2140 2738 2569
2131 2747 2614
2121 2758 2663
2111 2768 2713
2103 2780 2766
2096 2791 2821
2093 2803 2878
2118 2801 3022
2145 2801 3149
2165 2803 3264
2183 2808 3370
2201 2815 3468
2218 2824 3558
2237 2835 3643
2257 2855 2483
2258 2855 2486
2258 2856 2490
2259 2857 2497
2260 2859 2506
2262 2861 2517
2264 2864 2532
2266 2867 2550
2270 2871 2571
2274 2875 2596
2273 2881 2628
2265 2888 2669
2256 2896 2713
2247 2906 2759
2237 2916 2807
2227 2927 2858
2219 2938 2911
2212 2950 2966
2209 2962 3023
2234 2959 3166
2261 2958 3294
2282 2961 3410
2300 2965 3517
2317 2972 3616
2368 2978 3681
2376 3007 2601
2376 3007 2604
2376 3008 2608
2377 3010 2614
2378 3011 2623
2379 3013 2634
2381 3016 2647
2384 3019 2664
2387 3022 2683
2391 3026 2706
2396 3031 2732
2389 3037 2770
2381 3045 2812
2371 3054 2856
2362 3063 2903
2352 3073 2951
2342 3084 3002
2334 3095 3055
2328 3107 3110
2325 3119 3167
2350 3117 3310
2377 3116 3438
2399 3118 3555
2450 3118 3642
2539 3116 3684
2493 3158 2719
2493 3159 2722
2494 3160 2725
2494 3161 2731
2495 3162 2739
2497 3164 2749
2498 3167 2762
2500 3169 2777
2503 3173 2795
2507 3176 2817
2511 3180 2841
2512 3186 2872
2504 3193 2912
2495 3201 2954
2486 3210 2999
2476 3219 3046
2466 3230 3095
2457 3240 3146
2449 3252 3198
2443 3263 3253
2440 3275 3310
2464 3273 3453
2495 3271 3580
2618 3259 3643
2709 3255 3691
2610 3309 2837
2610 3310 2839
2611 3311 2843
2611 3312 2848
2612 3313 2855
2613 3315 2865
2615 3317 2877
2617 3320 2891
2619 3323 2908
2623 3326 2928
2627 3330 2950
2632 3334 2976
2627 3341 3012
2619 3348 3053
2610 3356 3096
2600 3365 3141
2590 3375 3188
2580 3386 3238
2572 3396 3289
2564 3408 3342
2558 3419 3396
2555 3431 3452
2645 3418 3577
2783 3399 3649
2880 3391 3703
2781 3445 2988
2781 3445 2991
2782 3446 2994
2784 3447 2999
2786 3448 3006
2789 3449 3015
2792 3451 3027
2797 3452 3040
2802 3455 3057
2809 3457 3075
2816 3460 3097
2825 3463 3120
2833 3467 3148
2829 3473 3183
2825 3481 3220
2821 3489 3259
2817 3497 3299
2813 3506 3342
2812 3516 3386
2812 3526 3431
2814 3536 3477
2821 3546 3524
2831 3556 3571
2945 3539 3663
3050 3527 3723
3037 3554 3196
3038 3555 3198
3039 3555 3201
3040 3556 3205
3042 3557 3210
3045 3558 3217
3048 3560 3226
3052 3562 3236
3057 3564 3248
3063 3567 3262
3070 3569 3279
3078 3573 3297
3088 3576 3317
3091 3581 3342
3091 3588 3370
3092 3595 3400
3093 3603 3432
3094 3611 3465
3097 3620 3499
3101 3630 3534
3106 3639 3570
3114 3649 3607
3125 3659 3644
3139 3669 3682
3222 3660 3753
3277 3665 3396
3278 3666 3397
3279 3666 3399
3280 3667 3402
3282 3668 3406
3285 3669 3411
3288 3671 3418
3292 3672 3426
3296 3675 3435
3302 3677 3446
3308 3680 3458
3316 3684 3472
3324 3687 3488
3333 3691 3505
3336 3697 3526
3339 3704 3549
3344 3711 3573
3349 3719 3598
3354 3727 3624
3361 3736 3651
3370 3745 3679
3379 3754 3707
3391 3764 3736
3406 3774 3765
3422 3784 3794
14 0 97
35 0 147
38 0 201
44 0 270
57 0 346
77 4 437
103 21 525
136 42 625
177 68 731
221 98 836
272 136 948
323 180 1058
379 230 1170
438 284 1282
498 339 1390
562 399 1500
626 460 1602
692 523 1701
760 589 1794
829 656 1882
899 724 1966
969 793 2050
1040 864 2134
1111 935 2218
1181 1006 2301
57 17 148
71 17 211
76 19 315
86 25 402
101 34 484
122 47 564
148 63 651
184 85 742
222 114 838
265 145 934
312 184 1035
363 230 1139
416 278 1243
473 329 1348
531 384 1450
592 441 1551
657 500 1650
721 562 1743
787 625 1831
855 690 1914
923 757 1997
992 825 2079
1062 894 2161
1131 963 2243
1200 1032 2331
100 91 244
123 88 302
121 96 360
127 98 495
139 107 596
166 117 692
198 133 785
233 153 876
272 181 971
314 215 1068
359 252 1165
408 293 1264
459 338 1361
514 386 1453
571 438 1546
631 493 1637
691 549 1725
756 609 1810
820 671 1889
885 733 1967
953 799 2047
1021 864 2126
1088 931 2205
1156 999 2284
1223 1065 2371
177 213 364
209 211 417
209 216 461
202 229 529
218 230 686
229 242 804
251 259 904
289 275 1002
332 297 1098
376 326 1193
420 357 1286
468 392 1377
519 432 1471
571 476 1562
627 523 1650
683 573 1736
742 625 1818
802 680 1896
865 738 1973
928 798 2046
994 859 2120
1059 922 2194
1125 986 2270
1191 1051 2346
1257 1115 2429
291 376 507
319 372 550
324 377 582
314 388 643
308 401 715
329 403 888
344 413 1019
361 429 1125
391 450 1222
439 470 1319
487 495 1412
536 525 1500
588 559 1588
640 597 1671
694 639 1752
750 683 1829
807 730 1902
866 781 1976
926 834 2050
986 888 2125
1048 945 2199
1110 1002 2275
1174 1061 2352
1237 1122 2428
1299 1182 2507
421 558 659
445 556 695
447 560 722
447 569 768
437 581 835
430 597 912
454 596 1092
472 605 1231
493 621 1344
515 642 1440
553 665 1531
606 687 1619
659 714 1702
714 746 1780
768 781 1854
823 819 1924
880 861 1995
937 906 2065
995 953 2136
1055 1002 2209
1114 1053 2281
1174 1106 2354
1235 1160 2427
1296 1216 2501
1354 1271 2581
563 757 818
583 754 849
585 759 870
591 764 905
582 775 965
570 790 1035
564 806 1112
592 805 1295
612 813 1437
633 827 1551
656 847 1647
684 870 1729
729 895 1808
786 919 1882
843 947 1953
900 979 2022
957 1014 2092
1013 1052 2161
1072 1093 2231
1129 1136 2300
1187 1181 2370
1245 1228 2440
1303 1276 2511
1362 1326 2582
1418 1375 2661
713 965 981
731 963 1007
733 967 1026
737 972 1055
737 980 1101
724 992 1164
713 1007 1235
707 1024 1311
737 1022 1491
759 1029 1629
782 1042 1740
806 1059 1830
833 1081 1906
862 1107 1976
914 1131 2047
974 1155 2119
1033 1184 2189
1090 1215 2258
1148 1249 2327
1206 1285 2396
1263 1324 2465
1319 1364 2533
1375 1406 2602
1432 1450 2672
1485 1493 2748
869 1176 1145
884 1174 1166
886 1178 1183
890 1182 1208
896 1188 1242
887 1198 1297
874 1211 1361
861 1226 1430
856 1242 1503
889 1241 1675
914 1246 1804
936 1258 1906
960 1273 1994
987 1292 2072
1016 1316 2144
1047 1342 2212
1105 1364 2284
1165 1389 2355
1224 1415 2424
1281 1444 2492
1338 1476 2560
1394 1510 2629
1449 1545 2697
1503 1581 2764
1554 1619 2839
1028 1384 1307
1043 1383 1325
1044 1385 1339
1047 1389 1360
1051 1394 1389
1053 1401 1430
1040 1412 1488
1027 1425 1550
1015 1440 1615
1010 1456 1684
1044 1454 1840
1070 1458 1960
1093 1468 2063
1117 1481 2154
1143 1498 2235
1171 1518 2310
1201 1540 2380
1235 1565 2447
1295 1585 2518
1354 1608 2588
1411 1633 2657
1467 1660 2725
1521 1688 2793
1573 1718 2860
1622 1748 2933
1189 1582 1464
1201 1581 1480
1202 1583 1491
1204 1586 1509
1208 1590 1533
1214 1596 1564
1207 1604 1612
1195 1615 1668
1181 1627 1726
1170 1642 1786
1165 1656 1847
1200 1654 1991
1227 1657 2113
1249 1665 2218
1273 1676 2311
1298 1690 2396
1324 1707 2473
1352 1726 2545
1383 1747 2613
1421 1768 2680
1479 1786 2750
1535 1807 2819
1589 1828 2888
1641 1851 2955
1689 1875 3029
