Toning/Toning-Film Warmth.3dl
#25pt 3DLUT created by 3D LUT Creator Pro (c) Oleg Sharonov
#Copyright Oleg Sharonov
#INPUTGAMMA sRGB IEC61966-2.1 v.2.10
#IMAGEPROFILE sRGB IEC61966-2.1 v.2.10
#OUTPUTGAMMA sRGB IEC61966-2.1 v.2.10
0 43 86 128 171 214 256 299 341 384 427 469 512 555 597 640 682 725 768 810 853 896 938 981 1023 
0 9 9
0 0 190
0 0 351
0 0 515
0 0 682
0 0 846
0 0 1008
0 0 1168
0 0 1323
0 0 1473
0 0 1617
0 0 1753
0 0 1881
0 0 2001
0 0 2109
0 0 2207
0 0 2294
0 0 2371
0 0 2437
0 0 2492
0 0 2538
0 0 2573
0 0 2599
0 0 2615
0 0 2621
0 182 15
0 190 190
0 185 354
0 182 518
0 176 682
0 173 846
0 167 1009
0 161 1168
0 155 1323
0 146 1473
0 133 1617
0 121 1753
0 105 1881
0 90 2000
0 71 2109
0 53 2206
0 31 2294
0 6 2370
0 0 2436
0 0 2492
0 0 2538
0 0 2573
0 0 2599
0 0 2615
0 0 2621
0 342 19
0 360 179
0 358 356
0 354 524
0 351 687
0 347 850
0 346 1011
0 342 1170
0 339 1324
0 335 1474
0 330 1617
0 324 1753
0 316 1881
0 307 2000
0 297 2109
0 287 2206
0 274 2294
0 259 2370
0 246 2436
0 229 2492
0 212 2537
0 196 2573
0 182 2599
0 176 2615
0 173 2621
0 505 22
0 515 193
0 530 347
0 526 525
0 526 693
0 521 855
0 519 1016
0 516 1173
0 514 1327
0 511 1476
0 509 1619
0 505 1754
0 502 1882
0 496 2001
0 491 2109
0 486 2207
0 478 2294
0 470 2370
0 462 2436
0 454 2492
0 446 2537
0 437 2573
0 430 2599
0 426 2615
0 424 2621
0 670 28
0 676 201
0 687 356
0 697 521
0 695 694
0 696 862
0 692 1021
0 690 1178
0 687 1331
0 685 1479
0 682 1621
0 681 1756
0 678 1884
0 675 2002
0 671 2110
0 668 2208
0 664 2294
0 658 2371
0 654 2436
0 648 2492
0 642 2537
0 636 2573
0 631 2599
0 627 2615
0 624 2621
0 833 31
0 837 206
0 845 363
0 859 519
0 864 691
0 863 862
0 865 1028
0 861 1184
0 858 1337
0 855 1483
0 853 1625
0 852 1759
0 850 1886
0 847 2004
0 845 2112
0 842 2209
0 839 2295
0 836 2371
0 831 2437
0 828 2492
0 823 2538
0 819 2573
0 814 2599
0 811 2615
0 808 2621
0 993 37
0 998 212
0 1003 370
0 1013 530
0 1032 677
0 1029 860
0 1029 1028
0 1030 1190
0 1028 1343
0 1025 1489
0 1022 1630
0 1020 1763
0 1018 1889
0 1016 2007
0 1014 2114
0 1011 2210
0 1009 2296
0 1006 2372
0 1003 2437
0 999 2493
0 996 2538
0 992 2573
0 988 2599
0 985 2615
0 981 2621
0 1152 46
0 1155 219
0 1159 375
0 1167 535
0 1179 695
0 1197 848
0 1191 1026
0 1191 1189
0 1193 1347
0 1191 1496
0 1188 1635
0 1185 1768
0 1183 1893
0 1180 2010
0 1178 2116
0 1176 2212
0 1173 2298
0 1171 2373
0 1168 2438
0 1165 2493
0 1162 2538
0 1158 2573
0 1155 2599
0 1151 2615
0 1148 2621
0 1306 53
0 1308 224
0 1312 380
0 1318 540
0 1326 702
0 1341 857
0 1351 1020
0 1348 1188
0 1348 1347
0 1350 1499
0 1349 1642
0 1346 1774
0 1343 1898
0 1340 2014
0 1338 2119
0 1335 2215
0 1333 2300
0 1330 2375
0 1327 2439
0 1324 2494
0 1321 2539
0 1318 2574
0 1314 2599
0 1310 2615
0 1307 2621
0 1455 65
0 1457 234
0 1460 384
0 1465 545
0 1471 707
0 1482 867
0 1498 1015
0 1501 1184
0 1499 1345
0 1500 1498
0 1501 1644
0 1502 1779
0 1498 1903
0 1495 2018
0 1492 2123
0 1489 2217
0 1486 2302
0 1484 2376
0 1481 2441
0 1478 2495
0 1475 2539
0 1471 2574
0 1467 2599
0 1464 2615
0 1460 2621
0 1598 74
0 1599 241
0 1602 391
0 1606 551
0 1611 713
0 1619 873
0 1631 1028
0 1652 1161
0 1646 1342
0 1644 1497
0 1644 1643
0 1646 1780
0 1647 1909
0 1643 2023
0 1640 2127
0 1636 2221
0 1634 2305
0 1631 2378
0 1628 2442
0 1625 2496
0 1621 2540
0 1618 2574
0 1614 2599
0 1610 2615
0 1605 2621
0 1733 87
0 1735 250
0 1737 397
0 1740 555
0 1745 716
0 1751 878
0 1760 1035
0 1772 1184
0 1789 1328
0 1782 1494
0 1781 1641
0 1781 1779
0 1782 1908
0 1783 2027
0 1780 2131
0 1776 2224
0 1773 2307
0 1770 2380
0 1767 2444
0 1763 2497
0 1760 2541
0 1756 2575
0 1752 2600
0 1748 2615
0 1743 2621
0 1862 96
0 1863 259
0 1864 402
0 1867 560
0 1871 720
0 1876 882
0 1883 1040
0 1892 1193
0 1906 1335
0 1914 1486
0 1910 1639
0 1909 1778
0 1909 1907
0 1910 2026
0 1911 2134
0 1908 2228
0 1904 2310
0 1901 2383
0 1897 2445
0 1894 2498
0 1890 2542
0 1886 2575
0 1882 2600
0 1877 2615
0 1873 2621
0 1981 108
0 1982 266
0 1983 408
0 1985 564
0 1988 724
0 1993 885
0 1998 1044
0 2005 1199
0 2015 1346
0 2030 1478
0 2030 1633
0 2028 1776
0 2027 1906
0 2027 2025
0 2027 2133
0 2028 2230
0 2026 2313
0 2022 2385
0 2018 2447
0 2014 2500
0 2010 2543
0 2006 2576
0 2002 2600
0 1998 2615
0 1993 2621
0 2090 121
0 2091 274
0 2092 414
0 2094 567
0 2096 727
0 2100 888
0 2104 1047
0 2110 1203
0 2117 1352
0 2126 1492
0 2144 1607
0 2137 1771
0 2134 1904
0 2133 2024
0 2133 2132
0 2133 2229
0 2134 2314
0 2132 2388
0 2128 2449
0 2124 2501
0 2120 2544
0 2116 2577
0 2112 2600
0 2107 2615
0 2102 2621
0 2189 127
0 2190 279
0 2190 418
0 2192 571
0 2194 730
0 2197 890
0 2200 1050
0 2204 1206
0 2210 1356
0 2217 1499
0 2226 1631
0 2238 1757
0 2232 1900
0 2230 2022
0 2229 2130
0 2229 2227
0 2228 2313
0 2228 2388
0 2227 2451
0 2223 2503
0 2219 2545
0 2215 2577
0 2211 2601
0 2206 2615
0 2201 2621
0 2277 133
0 2278 283
0 2278 420
0 2280 573
0 2281 731
0 2283 892
0 2286 1051
0 2289 1207
0 2294 1359
0 2299 1504
0 2306 1639
0 2315 1762
0 2320 1891
0 2316 2018
0 2314 2128
0 2313 2226
0 2313 2312
0 2312 2386
0 2312 2450
0 2311 2504
0 2307 2545
0 2303 2578
0 2299 2601
0 2294 2616
0 2289 2621
0 2355 133
0 2355 283
0 2356 420
0 2357 573
0 2358 731
0 2360 892
0 2362 1052
0 2365 1208
0 2368 1360
0 2372 1506
0 2377 1644
0 2383 1771
0 2392 1882
0 2392 2012
0 2389 2125
0 2388 2224
0 2387 2310
0 2386 2385
0 2385 2449
0 2384 2503
0 2383 2546
0 2380 2578
0 2375 2601
0 2371 2616
0 2366 2621
0 2423 127
0 2423 279
0 2423 417
0 2424 570
0 2425 730
0 2426 890
0 2428 1050
0 2430 1207
0 2433 1360
0 2435 1507
0 2439 1646
0 2443 1776
0 2449 1894
0 2459 1988
0 2454 2121
0 2452 2221
0 2450 2308
0 2449 2383
0 2448 2447
0 2447 2501
0 2446 2545
0 2445 2578
0 2442 2602
0 2438 2616
0 2433 2621
0 2480 112
0 2480 268
0 2481 408
0 2481 564
0 2482 725
0 2483 886
0 2484 1047
0 2486 1205
0 2488 1358
0 2490 1505
0 2492 1646
0 2495 1777
0 2499 1899
0 2504 2008
0 2510 2108
0 2506 2217
0 2504 2305
0 2503 2381
0 2501 2446
0 2500 2500
0 2499 2543
0 2498 2577
0 2496 2601
0 2494 2616
0 2490 2621
0 2528 81
0 2528 246
0 2528 392
0 2528 552
0 2529 715
0 2530 879
0 2530 1041
0 2532 1200
0 2533 1354
0 2534 1503
0 2536 1644
0 2538 1777
0 2541 1900
0 2544 2013
0 2548 2111
0 2550 2209
0 2547 2302
0 2546 2379
0 2545 2444
0 2544 2498
0 2542 2542
0 2541 2576
0 2540 2600
0 2538 2615
0 2536 2621
0 2565 34
0 2565 206
0 2565 368
0 2566 533
0 2566 701
0 2567 867
0 2567 1032
0 2568 1193
0 2569 1348
0 2570 1497
0 2571 1640
0 2572 1774
0 2574 1899
0 2576 2014
0 2578 2116
0 2582 2202
0 2581 2296
0 2579 2375
0 2578 2441
0 2577 2496
0 2576 2540
0 2575 2575
0 2574 2599
0 2572 2615
0 2571 2621
319 2594 229
228 2595 300
97 2594 373
0 2593 505
0 2594 680
0 2594 851
0 2594 1018
0 2595 1181
0 2595 1338
0 2596 1489
0 2597 1633
0 2597 1769
0 2598 1895
0 2599 2011
0 2601 2116
0 2602 2209
0 2605 2282
0 2603 2371
0 2602 2438
0 2601 2494
0 2600 2538
0 2599 2573
0 2598 2598
0 2597 2614
0 2596 2621
727 2623 523
688 2623 566
631 2622 619
529 2622 690
354 2619 769
14 2612 830
0 2612 998
0 2612 1165
0 2613 1324
0 2613 1478
0 2613 1624
0 2614 1761
0 2614 1889
0 2615 2007
0 2615 2114
0 2616 2209
0 2617 2291
0 2617 2363
0 2616 2435
0 2616 2491
0 2615 2536
0 2615 2571
0 2614 2597
0 2613 2613
0 2612 2621
1060 2654 788
1037 2654 819
1005 2654 859
954 2653 917
875 2652 988
756 2648 1067
573 2641 1146
218 2627 1203
0 2621 1306
0 2621 1462
0 2621 1610
0 2621 1749
0 2621 1880
0 2621 1999
0 2621 2108
0 2621 2205
0 2621 2291
0 2621 2364
0 2621 2430
0 2621 2488
0 2621 2534
0 2621 2569
0 2621 2595
0 2621 2612
1109 2738 3020
204 25 10
179 22 201
165 16 368
150 9 534
136 6 701
111 0 863
82 0 1022
48 0 1177
10 0 1325
0 0 1473
0 0 1617
0 0 1753
0 0 1881
0 0 2000
0 0 2109
0 0 2206
0 0 2294
0 0 2370
0 0 2436
0 0 2492
0 0 2538
0 0 2573
0 0 2599
0 0 2615
0 0 2621
199 165 37
165 195 200
150 166 379
136 157 545
121 147 709
97 138 870
63 125 1027
29 115 1180
0 99 1329
0 84 1478
0 68 1621
0 49 1756
0 28 1884
0 6 2003
0 0 2111
0 0 2208
0 0 2295
0 0 2372
0 0 2437
0 0 2493
0 0 2538
0 0 2574
0 0 2599
0 0 2615
0 0 2621
150 348 44
106 362 208
58 367 370
39 358 536
24 351 697
0 346 856
0 340 1017
0 335 1175
0 330 1329
0 324 1477
0 318 1620
0 309 1756
0 301 1884
0 289 2002
0 276 2110
0 264 2208
0 248 2295
0 231 2371
0 214 2437
0 193 2493
0 173 2538
0 155 2573
0 140 2599
0 133 2615
0 133 2621
126 512 47
82 521 214
34 537 352
0 533 532
0 530 699
0 524 860
0 519 1020
0 515 1178
0 513 1330
0 509 1479
0 505 1622
0 502 1757
0 496 1884
0 490 2002
0 485 2111
0 477 2208
0 469 2295
0 461 2371
0 451 2437
0 443 2492
0 433 2538
0 424 2573
0 417 2599
0 412 2615
0 411 2621
111 675 51
63 681 221
0 691 366
0 707 521
0 701 699
0 699 867
0 694 1026
0 691 1182
0 687 1334
0 684 1482
0 682 1624
0 679 1759
0 676 1886
0 672 2004
0 669 2112
0 664 2209
0 659 2295
0 655 2371
0 649 2437
0 642 2493
0 636 2538
0 630 2573
0 625 2599
0 621 2615
0 619 2621
92 838 58
43 842 225
0 848 373
0 862 526
0 870 694
0 868 866
0 868 1032
0 863 1188
0 860 1340
0 857 1486
0 854 1627
0 851 1762
0 849 1888
0 846 2005
0 843 2113
0 841 2210
0 837 2296
0 833 2372
0 829 2437
0 825 2493
0 820 2538
0 816 2573
0 811 2599
0 808 2615
0 805 2621
73 998 63
19 1001 228
0 1006 380
0 1016 535
0 1034 685
0 1034 862
0 1032 1031
0 1034 1194
0 1030 1346
0 1026 1492
0 1023 1632
0 1021 1765
0 1018 1891
0 1016 2008
0 1014 2115
0 1011 2211
0 1008 2297
0 1005 2373
0 1002 2438
0 998 2493
0 994 2538
0 990 2573
0 986 2599
0 983 2615
0 980 2621
48 1155 68
0 1158 234
0 1162 384
0 1169 542
0 1181 699
0 1205 837
0 1194 1028
0 1194 1192
0 1195 1350
0 1193 1498
0 1189 1637
0 1186 1770
0 1183 1895
0 1181 2011
0 1178 2117
0 1176 2213
0 1173 2299
0 1171 2374
0 1167 2439
0 1164 2494
0 1161 2539
0 1157 2574
0 1154 2599
0 1150 2615
0 1147 2621
24 1308 76
0 1311 241
0 1314 389
0 1320 547
0 1329 707
0 1342 861
0 1355 1020
0 1351 1190
0 1350 1349
0 1352 1501
0 1350 1644
0 1347 1775
0 1344 1899
0 1341 2015
0 1338 2120
0 1335 2216
0 1333 2301
0 1330 2375
0 1327 2440
0 1324 2494
0 1321 2539
0 1317 2574
0 1314 2599
0 1310 2615
0 1306 2621
0 1457 84
0 1459 248
0 1462 394
0 1467 552
0 1473 713
0 1483 870
0 1499 1019
0 1505 1184
0 1502 1347
0 1502 1500
0 1503 1645
0 1503 1781
0 1499 1904
0 1495 2019
0 1492 2124
0 1489 2218
0 1487 2303
0 1484 2377
0 1481 2441
0 1478 2495
0 1475 2540
0 1471 2574
0 1467 2599
0 1464 2615
0 1459 2621
0 1599 93
0 1601 255
0 1604 400
0 1607 557
0 1613 717
0 1621 876
0 1632 1031
0 1652 1167
0 1648 1343
0 1646 1499
0 1646 1644
0 1647 1782
0 1648 1910
0 1644 2024
0 1640 2128
0 1637 2221
0 1634 2305
0 1631 2379
0 1628 2443
0 1625 2496
0 1621 2540
0 1618 2575
0 1614 2599
0 1610 2615
0 1605 2621
