Toning/Toning-LaChurch.3dl
#25pt 3DLUT created by 3D LUT Creator Pro (c) Oleg Sharonov
#Copyright Oleg Sharonov
#INPUTGAMMA sRGB
#IMAGEPROFILE sRGB
#OUTPUTGAMMA sRGB
0 128 256 384 512 640 768 896 1023
0 0 0
0 0 0
0 0 0
0 0 0
0 0 0
0 0 0
0 0 0
0 0 0
0 0 0
0 52 0
0 373 373
0 0 0
0 0 0
0 0 0
0 0 0
0 0 0
0 0 0
0 0 0
0 355 0
0 711 213
0 1114 1114
0 624 1174
0 0 188
0 0 0
0 0 0
0 0 0
0 0 0
0 678 0
0 984 133
0 1694 913
0 2035 2035
0 1516 2282
0 846 1840
0 79 413
0 0 0
0 0 0
0 1062 0
0 1318 98
0 2033 712
0 2725 1858
0 2935 2935
0 2517 3241
0 1805 3045
0 1074 2426
0 190 651
0 1492 0
0 1704 79
0 2353 594
0 3054 1554
0 3529 2834
0 3610 3610
0 3372 3830
0 2790 3773
0 2091 3555
0 1948 0
0 2118 71
0 2674 524
0 3312 1333
0 3741 2518
0 3961 3584
0 3975 3975
0 3882 4073
0 3555 4065
0 2402 0
0 2537 66
0 2991 479
0 3523 1178
0 3879 2250
0 4049 3359
0 4086 3975
0 4086 4086
0 4084 4086
0 2833 0
0 2936 60
0 3288 448
0 3699 1066
0 3975 2033
0 4086 3129
0 4086 3871
0 4086 4086
0 4086 4086
256 0 0
0 0 0
0 0 0
0 0 0
0 0 0
0 0 0
0 0 0
0 0 0
0 0 0
170 170 0
373 373 373
0 0 302
0 0 0
0 0 0
0 0 0
0 0 0
0 0 0
0 0 0
95 446 0
103 812 103
373 1114 1114
0 615 1260
0 40 371
0 0 0
0 0 0
0 0 0
0 0 0
71 749 0
0 1114 0
194 1721 897
373 2035 2035
0 1515 2324
0 846 1897
0 126 533
0 0 0
0 0 0
63 1120 0
0 1420 0
0 2107 662
259 2728 1850
373 2935 2935
0 2519 3264
0 1803 3073
0 1078 2467
0 224 745
57 1539 0
0 1785 0
0 2414 543
0 3091 1529
273 3530 2830
373 3610 3610
0 3374 3838
0 2789 3784
0 2090 3570
57 1985 0
0 2182 0
0 2723 471
0 3341 1303
0 3754 2507
275 3962 3582
373 3975 3975
0 3883 4075
0 3555 4067
54 2431 0
0 2588 0
0 3030 427
0 3545 1144
0 3889 2232
0 4052 3354
373 4086 3975
373 4086 4086
0 4084 4086
54 2856 0
0 2975 0
0 3317 395
0 3714 1031
0 3981 2012
0 4086 3120
0 4086 3870
374 4086 4086
374 4086 4086
808 0 0
663 0 194
116 0 116
0 0 0
0 0 0
0 0 0
0 0 0
0 0 0
0 0 0
744 228 0
976 267 267
540 0 540
0 0 0
0 0 0
0 0 0
0 0 0
0 0 0
0 0 0
606 606 0
786 786 66
1115 1115 1115
627 627 1320
0 0 915
0 0 0
0 0 0
0 0 0
0 0 0
504 947 0
585 1200 0
870 1682 870
1115 2035 2035
745 1512 2323
226 842 2088
0 226 957
0 0 0
0 0 0
445 1311 0
474 1552 0
653 2134 653
957 2693 1819
1115 2935 2935
794 2506 3255
186 1791 3176
0 1076 2641
0 327 1112
413 1709 0
414 1919 0
467 2519 467
727 3090 1516
1006 3511 2804
1115 3610 3610
691 3368 3843
0 2781 3826
0 2081 3634
394 2127 0
379 2303 0
236 2880 236
463 3398 1237
683 3762 2484
1025 3955 3569
1115 3975 3975
63 3887 4081
0 3554 4076
383 2547 0
356 2688 0
0 3191 0
0 3636 957
0 3929 2140
269 4062 3334
1102 4086 3974
1115 4086 4086
0 4085 4086
374 2945 0
343 3054 0
0 3434 0
0 3779 849
0 4008 1904
0 4086 3078
0 4086 3865
1114 4086 4086
1115 4086 4086
1505 0 0
1426 0 236
994 0 529
295 0 295
0 0 0
0 0 0
0 0 0
0 0 0
0 0 0
1461 244 0
1678 166 166
1302 0 635
627 0 627
0 0 0
0 0 0
0 0 0
0 0 0
0 0 0
1315 701 0
1516 759 22
1875 1003 1003
1360 651 1360
713 126 1262
0 0 0
0 0 0
0 0 0
0 0 0
1141 1141 0
1283 1283 0
1629 1629 832
2035 2035 2035
1505 1505 2320
911 911 2226
186 186 1602
0 0 0
0 0 0
1001 1554 0
1087 1720 0
1377 2153 654
1766 2635 1766
2035 2935 2935
1611 2483 3238
1008 1813 3221
254 1028 2927
0 399 1719
904 1954 0
954 2114 0
1152 2587 476
1498 3080 1498
1858 3475 2757
2035 3610 3610
1605 3348 3833
682 2758 3871
0 2026 3752
840 2352 0
866 2492 0
942 2970 215
1224 3418 1224
1540 3752 2453
1904 3941 3542
2035 3975 3975
1372 3877 4079
0 3542 4086
798 2737 0
808 2854 0
784 3275 0
873 3681 873
1091 3936 2097
1383 4059 3308
1949 4086 3965
2035 4086 4086
400 4086 4086
769 3097 0
770 3188 0
713 3507 0
0 3895 0
0 4053 1571
0 4086 2952
621 4086 3849
2035 4086 4086
2035 4086 4086
2272 0 0
2242 0 250
1907 0 662
1318 0 845
486 0 486
0 0 0
0 0 0
0 0 0
0 0 0
2241 250 0
2410 82 82
2147 0 676
1551 0 975
755 0 755
0 0 0
0 0 0
0 0 0
0 0 0
2121 745 0
2291 738 0
2604 910 910
2174 665 1393
1533 295 1533
721 0 1084
0 0 0
0 0 0
0 0 0
1943 1270 0
2086 1339 0
2406 1579 790
2801 1911 1911
2313 1490 2313
1682 976 2380
937 376 2040
71 0 464
0 0 0
1758 1758 0
1864 1864 0
2171 2171 643
2565 2565 1699
2935 2935 2935
2447 2447 3215
1825 1825 3280
1066 1066 3120
0 0 2515
1599 2197 0
1673 2309 0
1935 2663 463
2308 3069 1462
2690 3426 2690
2935 3610 3610
2501 3314 3819
1720 2732 3886
344 1816 3894
1474 2595 0
1525 2700 0
1706 3078 111
2037 3443 1184
2402 3739 2402
2760 3922 3500
2935 3975 3975
2392 3860 4076
402 3491 4086
1381 2957 0
1415 3047 0
1522 3373 0
1717 3722 771
2026 3941 2026
2356 4056 3261
2792 4086 3949
2935 4086 4086
1838 4083 4086
1312 3278 0
1333 3349 0
1392 3597 0
1331 3912 0
1373 4064 1373
1555 4086 2851
1944 4086 3822
2873 4086 4086
2934 4086 4086
2988 0 0
2993 0 256
2771 0 728
2322 0 1100
1643 0 1173
686 0 686
0 0 0
0 0 0
0 0 0
2968 252 0
3091 0 0
2931 0 695
2493 0 1156
1829 0 1301
925 0 925
0 0 0
0 0 0
0 0 0
2886 769 0
3008 721 0
3238 830 830
2950 651 1407
2431 348 1733
1682 0 1682
681 0 930
0 0 0
0 0 0
2747 1350 0
2856 1372 0
3106 1530 737
3405 1794 1794
3060 1455 2300
2518 1000 2518
1793 436 2423
893 0 1701
0 0 0
2572 1906 0
2665 1967 0
2931 2180 597
3248 2493 1619
3530 2824 2824
3185 2392 3185
2656 1801 3339
1925 1021 3314
1030 0 2954
2395 2395 0
2470 2470 0
2731 2731 379
3053 3053 1395
3368 3368 2603
3610 3610 3610
3262 3262 3800
2662 2662 3902
1620 1620 3952
2233 2812 0
2292 2887 0
2518 3170 0
2832 3469 1082
3160 3723 2314
3442 3897 3442
3610 3975 3975
3231 3832 4072
2050 3405 4086
2097 3164 0
2142 3229 0
2311 3468 0
2567 3767 515
2881 3948 1881
3179 4051 3179
3469 4086 3925
3610 4086 4086
2891 4077 4086
1986 3452 0
2020 3503 0
2143 3685 0
2298 3929 0
2421 4075 978
2664 4086 2664
2962 4086 3771
3470 4086 4086
3610 4086 4086
3545 0 0
3565 0 257
3443 0 763
3171 0 1245
2688 0 1539
1962 0 1504
913 0 913
0 0 0
0 0 0
3533 252 0
3602 0 0
3532 0 705
3276 0 1261
2816 0 1608
2114 0 1621
1120 0 1120
0 0 0
0 0 0
3489 782 0
3556 715 0
3701 727 727
3559 571 1383
3239 234 1850
2661 0 2045
1816 0 1816
637 0 823
0 0 0
3404 1398 0
3470 1393 0
3634 1462 630
3805 1667 1667
3627 1372 2264
3282 920 2615
2720 234 2720
1863 0 2396
753 0 1263
3282 2007 0
3346 2038 0
3537 2166 455
3726 2410 1500
3889 2698 2698
3711 2294 3142
3385 1679 3385
2829 739 3479
2018 0 3272
3137 2542 0
3196 2591 0
3414 2776 0
3620 3027 1250
3809 3297 2480
3942 3535 3535
3773 3173 3773
3437 2486 3916
2727 1022 4007
2985 2985 0
3037 3037 0
3233 3233 0
3490 3490 827
3702 3702 2152
3864 3864 3352
3975 3975 3975
3781 3781 4066
3190 3190 4086
2839 3335 0
2883 3380 0
3051 3548 0
3316 3794 0
3553 3954 1562
3741 4045 3024
3885 4086 3885
3975 4086 4086
3620 4063 4086
2709 3598 0
2744 3634 0
2883 3763 0
3102 3945 0
3307 4081 0
3494 4086 2239
3662 4086 3662
3865 4086 4086
3976 4086 4086
3891 0 0
3909 0 259
3855 0 783
3726 0 1332
3471 0 1763
3010 0 1962
2275 0 1837
1160 0 1160
0 0 0
3886 254 0
3917 0 0
3895 0 711
3776 0 1324
3539 0 1798
3105 0 2030
2400 0 1941
1341 0 1341
0 0 0
3866 789 0
3897 712 0
3981 497 497
3930 263 1267
3768 0 1900
3436 0 2277
2854 0 2328
1973 0 1973
619 0 771
3824 1428 0
3856 1405 0
3956 1319 327
4029 1473 1473
3964 1158 2167
3811 579 2642
3471 0 2896
2832 0 2832
1902 0 2339
3760 2075 0
3793 2086 0
3911 2107 0
4001 2279 1268
4066 2526 2526
4007 2088 3059
3870 1306 3396
3572 0 3572
2946 0 3482
3675 2649 0
3708 2679 0
3830 2787 0
3961 2966 901
4042 3195 2265
4085 3428 3428
4040 2993 3726
3921 2009 3921
3610 0 4019
3575 3116 0
3607 3150 0
3728 3282 0
3906 3488 0
4007 3665 1799
4067 3815 3189
4086 3936 3936
4054 3667 4054
3886 2466 4086
3465 3465 0
3496 3496 0
3612 3612 0
3791 3791 0
3957 3957 693
4035 4035 2672
4078 4078 3803
4086 4086 4086
4012 4012 4086
3354 3712 0
3382 3736 0
3490 3826 0
3661 3959 0
3840 4070 0
3968 4086 881
4027 4086 3336
4069 4086 4069
4086 4086 4086
4062 0 0
4068 0 257
4055 0 795
4009 0 1389
3905 0 1909
3691 0 2250
3285 0 2358
2572 0 2158
1421 0 1421
4061 254 0
4070 0 0
4067 0 715
4028 0 1364
3933 0 1921
3735 0 2289
3354 0 2419
2676 0 2252
1581 0 1581
4054 794 0
4064 710 0
4086 0 0
4080 0 1190
4024 0 1942
3884 0 2431
3595 0 2653
3053 0 2597
2151 0 2151
4039 1448 0
4051 1414 0
4085 1207 0
4086 1042 1042
4086 524 1900
4052 0 2607
3897 0 3007
3562 0 3112
2940 0 2940
4014 2121 0
4027 2119 0
4069 2085 0
4086 1995 654
4086 2200 2200
4086 1565 2857
4085 0 3332
3950 0 3592
3621 0 3621
3977 2726 0
3991 2742 0
4041 2796 0
4086 2839 0
4086 2990 1770
4086 3222 3222
4086 2525 3613
4086 0 3894
3997 0 3997
3926 3212 0
3942 3234 0
3999 3319 0
4071 3451 0
4086 3575 763
4086 3713 2794
4086 3855 3855
4086 3281 4019
4086 0 4086
3865 3561 0
3881 3582 0
3943 3661 0
4030 3788 0
4086 3921 0
4086 4010 1524
4086 4055 3553
4086 4086 4086
4086 3478 4086
3796 3796 0
3812 3812 0
3875 3875 0
3971 3971 0
4059 4059 0
4086 4086 0
4086 4086 1147
4086 4086 3878
4086 4086 4086
