Toning/Toning-Sunny desert.3dl
#25pt 3DLUT created by 3D LUT Creator Pro (c) Oleg Sharonov
#Copyright Oleg Sharonov
#IMAGEPROFILE sRGB IEC61966-2.1 v.2.10
#INPUTGAMMA sRGB IEC61966-2.1 v.2.10
#OUTPUTGAMMA sRGB IEC61966-2.1 v.2.10
0 256 512 768 1023
0 0 0
44 286 922
112 583 1872
219 927 2825
336 1321 3613
356 704 305
372 687 879
259 819 1976
320 1099 2905
411 1453 3661
791 1608 684
793 1595 1135
838 1578 2027
630 1702 3088
678 1933 3807
1306 2583 1125
1326 2585 1462
1244 2552 2333
1386 2536 3083
1158 2607 3883
1770 3257 1526
1764 3264 1783
1782 3233 2472
1630 3211 3197
1853 3177 3738
1254 0 0
583 277 637
242 530 1816
193 889 2841
320 1296 3623
1266 504 86
730 684 725
480 810 1864
300 1070 2924
394 1431 3670
1051 1576 587
943 1687 896
950 1610 2007
785 1707 3048
668 1921 3820
1492 2566 1039
1408 2620 1265
1349 2583 2274
1456 2552 3069
1285 2615 3850
1898 3247 1458
1833 3270 1618
1851 3247 2403
1694 3221 3175
1897 3183 3727
1823 0 0
1742 132 383
1194 594 1346
893 839 2365
566 1181 3539
1858 417 0
1852 420 425
1292 738 1445
978 974 2490
697 1336 3584
1949 1411 441
1972 1460 639
1639 1595 1681
1304 1679 2871
1117 1900 3694
2061 2494 891
2046 2540 1038
1859 2658 1863
1727 2612 3045
1673 2624 3772
2310 3207 1287
2284 3228 1408
2070 3318 1956
1949 3265 3053
2067 3206 3692
2472 148 141
2461 148 138
2211 493 1159
1960 983 2194
1618 1273 3054
2494 153 144
2518 159 147
2320 680 1213
2028 1079 2256
1671 1374 3111
2662 1324 0
2671 1340 485
2716 1294 1301
2272 1493 2477
1854 1759 3332
2813 2369 789
2825 2392 922
2871 2487 1359
2637 2532 2639
2225 2570 3621
2888 3120 1159
2884 3136 1247
2840 3210 1596
2615 3259 2612
2455 3228 3579
3224 296 283
3218 294 281
3059 618 1100
2891 905 2025
2740 1415 2943
3238 298 285
3249 301 288
3092 626 1105
2956 1035 2069
2781 1484 2978
3352 1140 11
3365 1134 12
3344 1157 1166
3168 1487 2182
2931 1747 3106
3432 2258 436
3441 2265 675
3464 2291 1286
3453 2275 2279
3136 2423 3241
3436 3013 1057
3439 3022 1149
3456 3055 1489
3420 3107 2202
3243 3125 3191
