Toning/Toning-Coffee.3dl
#25pt 3DLUT created by 3D LUT Creator Pro (c) Oleg Sharonov
#Copyright Oleg Sharonov
#INPUTGAMMA sRGB IEC61966-2.1 v.2.10
#IMAGEPROFILE sRGB IEC61966-2.1 v.2.10
#OUTPUTGAMMA sRGB IEC61966-2.1 v.2.10
0 256 512 768 1023
493 217 230
493 218 620
551 261 1157
714 380 1728
906 537 2318
752 894 385
597 805 800
736 834 1384
881 920 1923
1040 1050 2479
1271 1993 741
1195 1895 1120
1015 1738 1588
1179 1759 2237
1322 1833 2824
1706 3057 1085
1648 2974 1441
1500 2795 1845
1479 2838 2470
1655 2856 3174
2258 3808 1562
2265 3812 1945
2287 3825 2376
2320 3851 2863
2373 3891 3498
1126 233 243
1056 242 718
1068 301 1299
1173 416 1855
1334 571 2408
1353 890 342
1252 826 825
1256 868 1425
1343 955 1965
1460 1079 2562
1720 1983 725
1673 1895 1126
1461 1764 1618
1619 1782 2267
1724 1855 2887
2100 3059 1067
2072 2976 1447
1940 2809 1859
1890 2858 2491
2038 2877 3216
2650 3821 1577
2655 3826 1957
2676 3838 2389
2708 3864 2877
2758 3904 3527
2028 379 374
1966 370 791
1879 428 1397
1875 526 2033
1932 669 2614
2197 962 449
2150 936 904
2020 959 1493
1997 1041 2147
2037 1154 2793
2473 1986 661
2423 1939 1101
2262 1795 1649
2240 1846 2333
2250 1902 3143
2691 3078 1100
2654 3028 1472
2541 2850 1889
2392 2923 2560
2564 2927 3313
3122 3854 1652
3122 3861 2023
3122 3882 2429
3151 3906 2927
3191 3944 3623
3061 750 662
3062 742 1055
2934 783 1572
2779 797 2189
2693 835 2809
3165 1277 724
3147 1270 1145
3044 1277 1643
2863 1276 2258
2799 1296 2956
3394 2190 905
3373 2170 1319
3295 2100 1859
3082 2023 2433
3031 1983 3325
3527 3228 1187
3509 3204 1579
3435 3113 2053
3290 2952 2582
3275 2997 3513
3638 3951 1871
3635 3950 2228
3622 3946 2570
3622 3982 3052
3647 4015 3813
4028 1943 1540
4029 1961 1922
4028 2033 2376
4021 2133 2888
4001 2176 3574
4032 2373 1579
4035 2386 1964
4034 2448 2408
4027 2534 2913
4007 2565 3599
4046 2968 1724
4048 2974 2100
4055 2997 2528
4049 3039 3039
4029 3039 3699
4067 3588 2020
4068 3590 2392
4071 3593 2811
4077 3591 3303
4061 3572 3875
4091 4085 2587
4091 4085 2948
4092 4087 3318
4093 4090 3699
4095 4095 4095
