Toning/Toning-Warm-2DCurves.3dl
#25pt 3DLUT created by 3D LUT Creator Pro (c) Oleg Sharonov
#Copyright Oleg Sharonov
#IMAGEPROFILE 
#INPUTGAMMA 
#OUTPUTGAMMA 
0 256 512 768 1023
0 0 0
0 0 1024
0 0 2047
0 0 3069
0 0 4095
0 1025 0
0 1027 1027
0 1025 2048
0 1026 3070
0 1026 4095
0 2048 0
0 2048 1025
0 2047 2047
0 2047 3072
0 2048 4095
0 3069 0
0 3071 1027
0 3072 2047
0 3072 3072
0 3069 4095
4 4095 2
0 4095 1026
0 4095 2048
0 4095 3069
3 4095 4095
1084 0 0
1212 0 742
1299 0 1944
1382 0 3150
1026 0 4095
1032 895 0
1184 808 641
1292 928 1782
1393 953 3020
961 867 3935
1015 2238 0
1190 2142 739
1295 2331 2004
1397 2417 3254
941 2179 4095
923 3441 0
1087 3339 757
1173 3547 1998
1276 3509 3181
855 3407 4095
1085 4095 0
1191 4072 744
1299 4095 1944
1382 4095 3150
1026 4095 4095
2109 0 0
2185 0 744
2223 0 1916
2258 0 3090
2047 0 4095
2270 932 0
2354 869 722
2401 923 1902
2442 953 3088
2198 920 4095
2334 2370 0
2424 2256 804
2462 2365 2146
2499 2425 3421
2264 2349 4095
2159 3440 0
2269 3334 798
2293 3462 2070
2317 3547 3240
2087 3429 4095
2108 4095 0
2179 4050 751
2222 4095 1916
2257 4095 3090
2047 4095 4095
3097 0 0
3125 0 914
3130 0 1989
3133 0 3058
3069 0 4095
3410 881 0
3443 870 925
3448 878 2015
3452 885 3069
3378 880 4095
3377 2160 0
3407 2129 976
3410 2151 2133
3416 2168 3205
3349 2164 4095
3293 3362 0
3325 3325 995
3330 3360 2168
3335 3391 3334
3262 3364 4095
3097 4095 3
3129 4079 917
3130 4095 1989
3133 4095 3059
3069 4095 4095
4095 0 0
4095 0 1025
4095 0 2047
4094 0 3069
4095 0 4095
4095 1025 0
4095 1027 1027
4095 1026 2048
4095 1027 3070
4095 1025 4095
4095 2048 0
4095 2048 1026
4095 2048 2048
4095 2047 3072
4095 2047 4095
4095 3069 0
4095 3070 1026
4095 3072 2047
4095 3072 3072
4094 3069 4094
4095 4095 0
4095 4095 1024
4095 4095 2046
4094 4094 3069
4095 4095 4095
