Toning/Toning-SplitToning-GreenShadows.3dl
#25pt 3DLUT created by 3D LUT Creator Pro (c) Oleg Sharonov
#Copyright Oleg Sharonov
#IMAGEPROFILE sRGB IEC61966-2.1 v.2.10
#INPUTGAMMA sRGB IEC61966-2.1 v.2.10
#OUTPUTGAMMA sRGB IEC61966-2.1 v.2.10
0 128 256 384 512 640 768 896 1023
0 0 0
55 10 403
113 29 894
230 36 1401
339 48 1902
437 78 2396
536 113 2889
632 155 3383
734 203 3874
123 493 74
145 503 433
203 508 919
284 516 1410
370 523 1904
462 536 2396
556 551 2888
647 568 3381
744 590 3871
217 1009 110
248 1010 471
291 1012 950
356 1015 1436
428 1019 1923
510 1025 2410
595 1033 2899
677 1043 3388
769 1055 3875
388 1516 158
394 1517 523
412 1519 988
458 1519 1471
518 1521 1956
587 1524 2437
661 1529 2920
745 1533 3411
831 1540 3894
538 2024 278
543 2025 585
546 2026 1027
577 2026 1506
623 2027 1990
682 2028 2471
757 2029 2958
835 2030 3446
917 2034 3927
697 2532 401
702 2532 658
699 2533 1080
713 2533 1546
751 2533 2032
807 2531 2519
871 2531 3005
941 2531 3491
1017 2533 3968
857 3039 523
861 3039 740
857 3040 1136
863 3040 1593
894 3039 2078
935 3037 2562
988 3037 3046
1049 3036 3531
1117 3037 4007
1015 3546 644
1018 3547 828
1021 3546 1201
1028 3546 1649
1046 3545 2125
1076 3544 2606
1117 3543 3088
1167 3542 3573
1226 3542 4047
1183 4053 772
1192 4053 935
1198 4052 1282
1204 4052 1716
1215 4051 2184
1235 4050 2660
1265 4048 3140
1306 4047 3624
1357 4046 4095
403 61 107
471 42 452
525 36 931
580 36 1425
640 42 1919
712 58 2407
792 81 2896
871 107 3388
966 158 3869
443 526 116
505 520 451
553 518 928
602 521 1419
659 525 1913
725 533 2400
799 545 2889
875 558 3381
965 580 3861
508 1022 119
558 1019 468
601 1018 942
645 1019 1429
695 1022 1920
753 1028 2402
819 1036 2887
887 1046 3376
968 1061 3854
610 1524 171
652 1522 508
685 1521 974
723 1521 1458
766 1522 1945
819 1525 2423
882 1530 2905
946 1536 3391
1022 1545 3866
729 2029 267
769 2026 560
796 2025 1015
827 2024 1498
868 2024 1983
919 2025 2460
978 2027 2940
1043 2029 3427
1113 2035 3898
865 2534 379
901 2532 631
921 2531 1066
942 2530 1540
977 2529 2024
1027 2528 2505
1087 2527 2987
1149 2527 3472
1216 2531 3939
1003 3041 488
1035 3039 706
1051 3038 1117
1067 3037 1583
1099 3035 2069
1145 3033 2551
1198 3032 3032
1255 3031 3515
1318 3032 3981
1147 3547 603
1178 3545 790
1190 3545 1175
1211 3543 1638
1237 3541 2119
1274 3539 2597
1319 3537 3077
1370 3536 3559
1428 3537 4025
1318 4052 744
1352 4050 909
1369 4048 1269
1383 4047 1715
1402 4045 2189
1429 4043 2661
1465 4041 3138
1509 4039 3618
1559 4039 4082
977 48 214
1029 3 467
1065 0 913
1097 0 1415
1132 0 1912
1192 0 2389
1254 0 2873
1321 0 3360
1391 13 3849
973 535 183
1038 506 467
1080 496 919
1107 496 1420
1139 497 1916
1196 499 2392
1256 503 2874
1322 509 3361
1391 517 3850
987 1031 165
1053 1017 471
1095 1011 926
1120 1011 1425
1150 1012 1919
1200 1015 2393
1256 1020 2873
1319 1024 3359
1388 1029 3847
1046 1529 206
1115 1518 496
1156 1514 950
1177 1514 1447
1205 1514 1939
1251 1516 2410
1303 1519 2887
1360 1523 3369
1421 1528 3853
1144 2028 282
1212 2020 543
1251 2016 989
1270 2015 1485
1296 2013 1978
1341 2013 2446
1390 2015 2921
1441 2018 3398
1501 2019 3884
1252 2531 381
1319 2524 607
1356 2520 1038
1371 2519 1529
1394 2517 2020
1437 2516 2488
1487 2515 2963
1543 2515 3444
1600 2515 3926
1366 3036 481
1431 3030 677
1465 3027 1086
1477 3025 1571
1497 3024 2060
1540 3021 2531
1591 3019 3010
1644 3017 3490
1701 3016 3971
1490 3542 591
1553 3536 759
1585 3533 1144
1594 3532 1618
1616 3530 2109
1658 3527 2582
1704 3524 3059
1754 3521 3538
1807 3519 4018
1616 4048 700
1677 4043 848
1711 4040 1210
1724 4038 1677
1741 4036 2160
1777 4033 2630
1819 4030 3106
1864 4028 3583
1914 4026 4063
1491 81 262
1545 0 488
1562 0 912
1583 0 1417
1616 0 1926
1666 0 2394
1720 0 2868
1779 0 3348
1842 0 3830
1485 550 250
1556 492 496
1596 467 929
1609 465 1439
1631 461 1939
1678 452 2406
1731 446 2879
1789 445 3357
1850 446 3838
1471 1049 238
1564 1011 501
1611 994 940
1622 994 1451
1643 992 1951
1690 986 2417
1743 983 2890
1800 982 3367
1860 984 3845
1491 1545 252
1590 1519 512
1637 1508 954
1647 1508 1463
1665 1507 1962
1709 1505 2428
1757 1504 2899
1808 1505 3374
1866 1507 3851
1564 2039 304
1651 2022 540
1694 2014 977
1701 2014 1487
1717 2013 1985
1756 2011 2449
1801 2011 2917
1846 2013 3390
1896 2017 3863
1659 2536 388
1749 2521 597
1791 2515 1023
1797 2514 1529
1810 2513 2026
1849 2511 2489
1891 2509 2956
1936 2510 3427
1989 2509 3904
1759 3037 477
1849 3025 660
1891 3019 1070
1896 3018 1570
1908 3017 2066
1944 3014 2529
1988 3011 2999
2038 3009 3475
2089 3007 3949
1869 3541 579
1958 3530 738
1999 3525 1124
2002 3523 1616
2012 3522 2110
2050 3518 2576
2095 3514 3049
2143 3511 3524
2192 3509 3997
1980 4046 682
2068 4036 820
2108 4031 1184
2112 4030 1665
2125 4027 2160
2161 4024 2626
2203 4020 3097
2248 4017 3572
2295 4014 4044
1991 158 322
2050 0 528
2063 0 944
2081 0 1448
2094 0 1944
2138 0 2418
2175 0 2883
2226 0 3373
2282 0 3846
1986 579 322
2059 492 535
2096 452 953
2103 451 1463
2116 448 1964
2152 431 2432
2191 420 2906
2236 409 3382
2292 399 3855
1968 1069 320
2067 1009 538
2112 984 962
2118 983 1473
2130 981 1975
2167 972 2444
2205 967 2917
2250 962 3393
2304 958 3865
1951 1571 318
2071 1525 542
2123 1506 970
2129 1505 1482
2140 1504 1984
2177 1497 2454
2217 1493 2928
2262 1489 3403
2316 1486 3875
1964 2068 334
2088 2035 552
2145 2019 982
2150 2019 1494
2162 2017 1997
2200 2012 2467
2238 2008 2941
2281 2006 3416
2333 2005 3886
2047 2556 396
2166 2530 594
2217 2519 1014
2221 2519 1524
2230 2517 2025
2263 2514 2494
2297 2512 2966
2336 2510 3439
2383 2510 3908
2140 3051 475
2252 3030 648
2300 3022 1052
2302 3021 1558
2310 3020 2059
2339 3017 2526
2372 3015 2999
2409 3013 3472
2458 3010 3943
2240 3550 568
2352 3532 716
2400 3524 1102
2401 3524 1600
2407 3522 2099
2435 3519 2566
2468 3516 3041
2507 3513 3518
2555 3509 3989
2342 4052 664
2452 4036 791
2500 4029 1156
2501 4028 1645
2507 4027 2142
2538 4023 2613
2570 4019 3089
2608 4016 3565
2655 4012 4036
2476 295 417
2548 36 575
2576 0 978
2577 0 1480
2593 0 1981
2613 0 2455
2634 0 2941
2667 0 3425
2718 0 3893
2466 647 416
2552 520 577
2587 465 982
2593 461 1487
2602 455 1987
2624 440 2466
2646 430 2955
2676 416 3438
2725 394 3901
2442 1113 409
2552 1027 578
2595 994 988
2601 991 1494
2611 988 1994
2633 980 2474
2654 975 2963
2684 969 3445
2734 959 3909
2417 1605 406
2554 1536 582
2605 1511 994
2611 1510 1500
2620 1507 2001
2643 1501 2481
2665 1498 2971
2695 1494 3453
2745 1486 3917
2406 2100 409
2561 2045 586
2614 2027 1001
2619 2025 1507
2628 2024 2008
2650 2020 2488
2672 2017 2978
2703 2013 3461
2753 2008 3925
2444 2589 440
2585 2550 601
2637 2536 1012
2643 2535 1518
2651 2534 2019
2671 2531 2499
2691 2529 2989
2718 2527 3470
2763 2525 3933
2505 3080 490
2643 3049 633
2692 3038 1035
2697 3037 1539
2703 3037 2039
2722 3034 2519
2740 3033 3008
2765 3032 3489
2808 3029 3952
2592 3573 563
2735 3546 692
2786 3535 1078
2789 3535 1577
2796 3533 2076
2813 3531 2556
2830 3529 3044
2857 3527 3529
2902 3523 3994
2686 4070 649
2830 4045 760
2881 4037 1127
2884 4036 1618
2891 4034 2115
2910 4031 2597
2928 4028 3089
2955 4025 3574
2999 4021 4039
2956 439 520
3044 132 630
3072 0 1030
3077 0 1529
3081 0 2027
3089 0 2522
3098 0 3022
3116 0 3511
3159 0 3966
2941 738 516
3042 568 630
3073 505 1030
3078 496 1529
3083 492 2029
3091 485 2524
3100 479 3024
3118 465 3513
3161 433 3968
2908 1177 508
3036 1058 628
3075 1019 1031
3080 1015 1530
3085 1011 2030
3093 1008 2526
3102 1005 3026
3121 998 3515
3165 982 3971
2875 1656 500
3030 1561 626
3077 1531 1032
3083 1527 1532
3089 1525 2032
3098 1523 2528
3106 1521 3029
3125 1515 3518
3171 1504 3975
2845 2146 496
3025 2068 626
3078 2044 1034
3085 2041 1535
3091 2039 2035
3100 2037 2531
3109 2035 3032
3129 2031 3522
3175 2023 3979
2834 2638 499
3020 2576 627
3079 2556 1036
3086 2554 1537
3093 2552 2037
3102 2550 2534
3112 2549 3035
3131 2546 3525
3179 2538 3983
2863 3126 521
3041 3079 636
3098 3063 1043
3105 3061 1543
3112 3059 2043
3121 3058 2540
3131 3056 3042
3151 3053 3532
3195 3049 3990
2942 3610 580
3113 3571 676
3164 3559 1070
3170 3557 1567
3175 3556 2066
3182 3555 2562
3189 3554 3064
3205 3553 3552
3246 3549 4011
3029 4095 653
3204 4065 737
3256 4054 1113
3261 4052 1604
3266 4051 2101
3272 4050 2597
3279 4048 3099
3297 4046 3591
3340 4041 4052
3444 562 615
3505 374 832
3539 222 1187
3543 174 1665
3552 119 2137
3562 65 2616
3575 19 3093
3592 0 3567
3619 0 4035
3428 821 612
3497 689 828
3536 605 1184
3541 585 1663
3550 563 2136
3561 541 2615
3574 521 3092
3592 500 3567
3619 474 4036
3396 1235 603
3482 1138 821
3528 1081 1179
3536 1068 1658
3546 1055 2133
3558 1041 2613
3573 1030 3091
3592 1019 3567
3620 1004 4036
3358 1702 594
3464 1623 814
3521 1579 1175
3531 1568 1654
3544 1558 2130
3557 1548 2611
3573 1540 3090
3593 1532 3567
3621 1522 4037
3322 2186 587
3445 2121 807
3510 2084 1170
3523 2075 1650
3538 2066 2127
3553 2059 2610
3571 2051 3090
3593 2044 3568
3624 2036 4039
3292 2677 583
3432 2620 803
3506 2589 1169
3521 2581 1649
3537 2574 2127
3554 2568 2610
3572 2562 3091
3595 2556 3570
3626 2549 4041
3287 3167 586
3421 3123 799
3500 3097 1165
3516 3090 1646
3534 3084 2124
3551 3079 2607
3571 3074 3090
3595 3069 3569
3626 3063 4042
3323 3652 614
3446 3619 811
3513 3600 1169
3529 3595 1649
3546 3590 2126
3563 3586 2610
3581 3582 3092
3604 3578 3572
3636 3573 4045
3429 4095 869
3526 4095 853
3595 4088 1203
3609 4084 1677
3624 4080 2153
3640 4076 2637
3656 4073 3120
3676 4070 3599
3705 4066 4073
3937 671 706
3943 618 1122
3951 554 1546
3962 489 1972
3978 417 2391
3999 334 2813
4025 238 3238
4059 113 3664
4095 0 4095
3923 899 702
3932 855 1116
3943 807 1541
3955 760 1967
3973 712 2387
3996 660 2811
4024 610 3237
4058 558 3663
4095 513 4095
3893 1288 696
3908 1253 1104
3925 1216 1529
3942 1182 1957
3963 1147 2379
3990 1113 2805
4020 1082 3233
4056 1050 3662
4094 1025 4095
3855 1744 687
3876 1716 1090
3900 1685 1513
3923 1656 1943
3949 1630 2369
3980 1603 2798
4014 1579 3228
4053 1556 3659
4094 1538 4094
3816 2222 679
3845 2197 1075
3875 2171 1499
3905 2147 1930
3936 2124 2359
3972 2102 2791
4009 2082 3225
4052 2063 3658
4095 2047 4095
3784 2709 675
3818 2687 1064
3854 2665 1487
3889 2644 1920
3925 2624 2351
3964 2605 2786
4005 2588 3222
4051 2572 3657
4095 2558 4095
3755 3201 669
3794 3183 1053
3834 3163 1475
3873 3145 1909
3914 3128 2342
3957 3111 2779
4001 3096 3218
4048 3082 3655
4095 3071 4095
3741 3694 669
3784 3678 1050
3828 3661 1468
3869 3645 1903
3908 3632 2335
3950 3618 2773
3997 3605 3214
4046 3593 3653
4095 3583 4095
3911 4095 1797
3912 4095 1799
3920 4095 1946
3933 4095 2183
3943 4095 2402
3974 4095 2777
4012 4095 3217
4054 4095 3654
4095 4095 4095
