Toning/Toning-TealOrange-VideoAB-2.3dl
#25pt 3DLUT created by 3D LUT Creator Pro (c) Oleg Sharonov
#Copyright Oleg Sharonov
#IMAGEPROFILE sRGB IEC61966-2.1 v.2.10
#INPUTGAMMA sRGB IEC61966-2.1 v.2.10
#OUTPUTGAMMA sRGB IEC61966-2.1 v.2.10
0 43 86 128 171 214 256 299 341 384 427 469 512 555 597 640 682 725 768 810 853 896 938 981 1023 
0 0 0
0 3 9
0 9 20
0 21 47
0 37 88
0 61 144
0 92 213
1 135 287
1 188 361
1 241 440
1 295 518
1 346 589
1 390 655
1 433 720
2 478 786
2 525 856
2 572 930
2 620 1006
2 670 1085
2 721 1168
2 773 1254
3 825 1344
3 878 1438
3 931 1536
3 985 1639
0 64 3
0 67 64
0 73 106
0 89 135
0 110 188
0 138 242
1 172 304
1 215 368
1 257 433
1 301 501
1 344 566
1 385 628
1 424 689
1 466 752
2 509 818
2 554 888
2 599 959
2 646 1035
2 695 1114
2 744 1197
2 795 1282
3 846 1371
3 898 1465
3 951 1563
3 1004 1666
0 183 12
0 186 85
0 188 183
1 199 253
1 220 289
1 244 333
1 272 392
1 303 448
1 335 505
1 367 561
1 398 615
1 431 670
1 468 731
2 508 793
2 549 858
2 592 927
2 635 998
2 680 1072
2 727 1151
2 775 1233
3 825 1318
3 875 1408
3 925 1501
3 977 1599
3 1029 1701
0 337 23
0 337 112
1 339 211
1 341 328
1 346 412
1 362 446
1 380 477
1 399 521
1 421 572
1 443 621
1 470 674
1 498 727
2 530 784
2 567 848
2 605 913
2 645 981
2 688 1054
2 731 1128
2 775 1205
3 821 1287
3 869 1372
3 917 1462
3 966 1555
3 1016 1653
3 1067 1756
1 465 38
1 465 123
1 466 224
1 466 333
1 466 449
1 468 542
1 481 577
1 498 610
1 517 641
1 537 690
2 560 744
2 584 798
2 611 854
2 641 913
2 677 980
2 716 1050
2 756 1123
2 796 1198
3 838 1276
3 883 1358
3 928 1444
3 974 1533
3 1021 1627
3 1069 1725
4 1118 1828
1 590 55
1 590 138
1 590 238
1 590 340
1 590 454
1 592 570
1 594 675
2 607 715
2 623 750
2 642 784
2 663 821
2 685 878
2 709 935
2 735 995
2 764 1058
2 800 1129
2 838 1204
3 876 1281
3 917 1361
3 959 1445
3 1001 1531
3 1045 1622
3 1090 1717
4 1136 1815
4 1182 1918
1 724 76
1 724 159
1 724 253
1 724 358
1 725 463
1 725 582
2 727 700
2 729 819
2 742 863
2 758 902
2 777 941
2 797 979
2 820 1024
2 843 1086
2 868 1149
3 897 1218
3 933 1296
3 970 1376
3 1008 1459
3 1048 1545
3 1088 1633
3 1130 1725
4 1172 1822
4 1216 1922
4 1259 2027
1 870 103
1 869 183
1 867 271
1 866 377
2 867 482
2 868 594
2 868 718
2 871 839
2 872 965
2 885 1020
2 900 1065
2 918 1108
2 939 1151
3 961 1194
3 985 1249
3 1009 1318
3 1041 1396
3 1076 1481
3 1113 1568
3 1150 1656
4 1189 1749
4 1228 1844
4 1268 1943
4 1309 2045
4 1350 2151
1 1026 132
1 1026 210
1 1026 296
2 1024 398
2 1021 510
2 1024 617
2 1025 737
2 1021 860
2 1027 989
3 1026 1118
3 1035 1186
3 1050 1237
3 1067 1286
3 1088 1335
3 1110 1384
3 1134 1434
3 1160 1505
3 1194 1594
3 1229 1686
4 1265 1779
4 1301 1875
4 1338 1974
4 1375 2075
4 1413 2180
5 1452 2289
1 1194 164
2 1194 240
2 1193 319
2 1192 420
2 1191 533
2 1191 646
2 1193 763
2 1193 890
3 1191 1019
3 1197 1153
3 1198 1287
3 1200 1366
3 1211 1423
3 1227 1479
3 1247 1536
3 1270 1594
3 1297 1654
4 1325 1718
4 1359 1812
4 1392 1911
4 1426 2011
4 1460 2114
4 1495 2219
5 1530 2327
5 1566 2438
2 1370 193
2 1370 265
2 1370 343
2 1369 442
2 1369 555
2 1367 678
2 1370 794
3 1372 919
3 1372 1052
3 1372 1187
3 1377 1326
3 1379 1465
3 1382 1564
4 1392 1631
4 1407 1697
4 1427 1763
4 1449 1830
4 1475 1899
4 1502 1971
4 1532 2048
4 1563 2153
5 1595 2262
5 1627 2370
5 1659 2482
5 1691 2596
2 1555 217
2 1554 286
2 1555 366
2 1554 463
2 1554 576
2 1554 700
3 1554 824
3 1556 949
3 1558 1083
3 1559 1222
3 1561 1363
4 1566 1506
4 1568 1652
4 1572 1767
4 1582 1846
4 1596 1923
4 1614 2000
4 1636 2077
5 1660 2156
5 1685 2235
5 1712 2317
5 1741 2412
5 1770 2525
5 1799 2641
6 1828 2758
2 1746 235
2 1747 305
2 1747 382
2 1747 482
3 1747 596
3 1747 720
3 1746 852
3 1749 980
3 1751 1114
3 1753 1255
4 1754 1400
4 1757 1546
4 1762 1694
4 1765 1844
4 1769 1973
5 1778 2064
5 1793 2154
5 1809 2241
5 1828 2329
5 1850 2418
5 1873 2507
5 1898 2598
6 1924 2691
6 1950 2800
6 1976 2922
2 1944 246
2 1944 316
2 1944 394
3 1944 497
3 1945 612
3 1945 739
3 1945 873
3 1946 1010
3 1949 1145
4 1952 1288
4 1954 1436
4 1955 1586
4 1959 1736
4 1964 1888
5 1968 2039
5 1972 2180
5 1981 2284
5 1993 2384
5 2008 2483
5 2026 2582
6 2045 2680
6 2065 2779
6 2087 2879
10 2110 2981
201 2132 3071
2 2145 248
3 2145 321
3 2146 403
3 2146 506
3 2146 625
3 2147 754
3 2148 891
4 2148 1035
4 2151 1175
4 2154 1320
4 2156 1469
4 2159 1622
5 2161 1777
5 2165 1931
5 2170 2085
12 2174 2238
23 2178 2387
13 2187 2501
44 2198 2610
112 2210 2716
220 2223 2817
333 2238 2917
442 2254 3013
547 2271 3107
648 2289 3200
239 2342 362
239 2343 420
239 2343 489
239 2344 581
242 2344 690
242 2345 812
243 2346 942
243 2347 1081
243 2349 1225
261 2351 1368
278 2354 1516
291 2357 1667
302 2359 1820
300 2362 1973
335 2366 2125
365 2371 2276
422 2374 2424
476 2378 2569
514 2385 2688
566 2394 2800
632 2404 2908
705 2416 3012
782 2428 3114
864 2442 3212
945 2457 3307
534 2537 534
534 2537 578
536 2537 632
538 2538 708
539 2539 801
543 2540 910
544 2541 1030
548 2542 1159
549 2544 1296
557 2546 1435
570 2549 1578
582 2552 1724
593 2555 1873
602 2558 2022
608 2561 2172
633 2566 2320
656 2571 2467
722 2574 2610
786 2577 2748
842 2582 2869
902 2590 2982
968 2599 3091
1039 2608 3196
1114 2619 3296
1191 2631 3394
789 2729 715
790 2729 750
791 2730 793
792 2730 856
794 2731 936
797 2732 1032
801 2733 1139
804 2735 1258
808 2737 1385
812 2739 1519
823 2742 1655
833 2744 1794
844 2748 1937
855 2751 2081
865 2755 2226
874 2759 2371
895 2764 2514
913 2769 2657
984 2771 2793
1055 2774 2925
1121 2779 3045
1189 2785 3157
1262 2793 3264
1336 2801 3368
1413 2811 3468
1028 2920 910
1029 2920 938
1030 2920 973
1031 2921 1026
1034 2922 1094
1037 2923 1176
1040 2924 1272
1044 2926 1380
1048 2928 1495
1054 2930 1619
1061 2932 1748
1070 2935 1880
1080 2939 2015
1091 2943 2153
1103 2947 2292
1114 2951 2432
1126 2957 2571
1144 2962 2709
1162 2969 2847
1240 2971 2979
1318 2975 3105
1393 2980 3223
1468 2987 3334
1545 2995 3440
1624 3004 3543
1270 3113 1121
1270 3113 1143
1271 3114 1173
1273 3114 1216
1276 3115 1274
1278 3117 1347
1282 3118 1431
1287 3120 1526
1292 3122 1631
1298 3125 1745
1304 3128 1864
1313 3131 1987
1323 3136 2115
1334 3140 2246
1346 3145 2378
1357 3150 2512
1371 3156 2646
1385 3163 2780
1403 3170 2913
1421 3177 3047
1504 3180 3173
1587 3185 3294
1668 3190 3408
1748 3197 3516
1829 3205 3620
1522 3313 1350
1522 3314 1369
1524 3314 1394
1525 3315 1431
1528 3316 1481
1531 3318 1543
1535 3320 1617
1539 3321 1701
1544 3324 1795
1551 3327 1897
1558 3330 2006
1566 3334 2120
1576 3338 2238
1586 3343 2360
1598 3348 2484
1610 3354 2610
1624 3360 2738
1637 3367 2865
1653 3374 2994
1671 3382 3122
1690 3390 3251
1776 3393 3371
1862 3398 3486
1947 3403 3596
2029 3410 3700
1785 3518 1599
1786 3518 1614
1787 3519 1635
1788 3520 1666
1791 3521 1709
1794 3522 1762
1798 3524 1825
1802 3526 1899
1807 3529 1981
1814 3531 2072
1821 3535 2170
1829 3539 2273
1838 3543 2381
1848 3548 2493
1859 3553 2608
1872 3559 2726
1885 3565 2845
1899 3572 2966
1914 3579 3087
1931 3587 3210
1949 3595 3332
1968 3604 3455
2056 3607 3570
2142 3611 3679
2228 3616 3783
2055 3721 1860
2056 3722 1873
2057 3722 1890
2058 3723 1917
2060 3724 1952
2064 3726 1997
2067 3727 2052
2071 3729 2115
2077 3732 2187
2083 3735 2266
2090 3738 2352
2097 3742 2444
2106 3746 2542
2116 3751 2643
2127 3756 2748
2139 3761 2856
2151 3767 2966
2165 3773 3078
2180 3781 3192
2196 3788 3307
2212 3796 3422
2231 3805 3539
2250 3814 3656
2337 3816 3764
2423 3819 3867
2327 3920 2129
2328 3921 2140
2329 3921 2154
2330 3922 2176
2332 3923 2206
2335 3924 2244
2339 3926 2290
2343 3928 2344
2348 3930 2405
2353 3933 2474
2360 3936 2549
2368 3940 2629
2376 3943 2715
2385 3948 2806
2395 3952 2900
2407 3958 2998
2419 3963 3098
2432 3969 3201
2446 3976 3306
2461 3983 3412
2477 3990 3520
2494 3998 3629
2512 4007 3739
2531 4016 3850
2616 4017 3926
2597 4095 2401
2598 4095 2410
2599 4095 2422
2600 4095 2440
2603 4095 2464
2605 4095 2496
2608 4095 2534
2612 4095 2580
2617 4095 2632
2623 4095 2690
2629 4095 2755
2636 4095 2825
2644 4095 2899
2652 4095 2979
2662 4095 3062
2672 4095 3150
2684 4095 3240
2696 4095 3333
2709 4095 3428
2723 4095 3526
2738 4095 3625
2754 4095 3725
2771 4095 3827
2789 4095 3926
2863 4095 3926
38 6 0
81 6 67
46 6 222
0 24 269
0 52 222
0 83 253
1 113 298
1 160 358
1 210 425
1 262 493
1 313 564
1 356 627
1 399 687
1 443 751
2 487 815
2 533 884
2 580 955
2 627 1029
2 676 1108
2 727 1190
2 779 1275
3 830 1364
3 882 1458
3 936 1556
3 989 1657
77 70 0
14 123 138
4 123 178
0 129 220
0 144 261
1 169 307
1 202 360
1 239 419
1 281 482
1 320 542
1 360 602
1 399 659
1 437 717
2 478 778
2 520 842
2 564 910
2 609 982
2 655 1056
2 704 1134
2 753 1216
3 802 1301
3 854 1390
3 905 1483
3 957 1581
3 1010 1683
81 194 0
21 253 175
1 241 249
1 225 277
1 241 316
1 262 371
1 289 426
1 317 481
1 348 537
1 380 591
1 412 644
1 446 700
1 482 757
2 520 818
2 560 883
2 602 950
2 645 1020
2 690 1094
2 736 1171
2 784 1252
3 833 1338
3 882 1427
3 932 1520
3 983 1616
3 1035 1719
70 344 0
1 388 162
1 375 259
1 367 363
1 360 425
1 375 460
1 391 495
1 409 543
1 428 592
1 452 643
1 478 695
2 509 751
2 543 811
2 579 873
2 617 937
2 656 1005
2 697 1075
2 740 1148
2 785 1226
3 830 1306
3 876 1391
3 924 1480
3 973 1573
3 1023 1670
3 1073 1772
53 472 0
1 502 153
1 492 257
1 486 360
1 481 470
1 478 551
1 491 587
1 507 619
1 526 655
1 545 708
2 567 761
2 590 815
2 620 874
2 653 938
2 689 1004
2 726 1072
2 765 1144
2 806 1218
3 848 1296
3 891 1377
3 935 1462
3 981 1551
3 1028 1644
3 1075 1742
4 1124 1844
32 598 0
1 622 159
1 617 259
1 611 364
1 606 473
1 604 587
2 603 684
2 615 723
2 632 759
2 649 793
2 670 836
2 692 892
2 715 950
2 741 1010
2 775 1079
2 810 1151
2 847 1225
3 885 1300
3 925 1380
3 966 1463
3 1008 1549
3 1052 1639
3 1096 1733
4 1142 1832
4 1188 1935
4 733 0
1 754 175
1 751 269
1 745 378
1 743 483
2 739 597
2 739 717
2 736 826
2 749 871
2 765 910
2 783 948
2 804 986
2 826 1037
2 849 1100
2 874 1163
3 907 1238
3 942 1316
3 979 1394
3 1017 1478
3 1055 1563
3 1095 1651
3 1136 1743
4 1178 1839
4 1221 1939
4 1265 2043
1 880 20
1 898 196
1 896 285
1 892 392
2 889 502
2 888 615
2 883 733
2 886 857
2 881 978
2 891 1027
2 906 1072
2 924 1115
2 944 1158
3 967 1201
3 990 1262
3 1016 1333
3 1050 1416
3 1085 1499
3 1121 1586
3 1158 1675
4 1195 1766
4 1234 1861
4 1274 1959
4 1314 2061
4 1355 2167
1 1036 49
1 1051 217
1 1051 303
2 1049 408
2 1044 524
2 1045 635
2 1044 755
2 1038 879
2 1044 1008
3 1040 1136
3 1042 1193
3 1055 1244
3 1073 1293
3 1093 1342
3 1115 1390
3 1139 1441
3 1170 1523
3 1203 1612
4 1238 1704
4 1273 1796
4 1308 1892
4 1345 1991
4 1382 2092
4 1419 2196
5 1457 2305
1 1202 76
2 1216 238
2 1215 323
2 1214 426
2 1211 542
2 1210 660
2 1211 778
2 1210 905
3 1207 1035
3 1213 1170
3 1210 1304
3 1212 1381
3 1222 1436
3 1237 1492
3 1257 1548
3 1279 1606
4 1305 1667
4 1334 1732
4 1366 1829
4 1399 1927
4 1433 2028
4 1467 2130
4 1501 2236
5 1536 2343
5 1571 2454
2 1378 105
2 1389 257
2 1389 340
2 1388 443
2 1387 559
2 1385 683
2 1386 804
3 1388 930
3 1387 1065
3 1386 1201
3 1391 1341
3 1391 1481
3 1393 1577
4 1402 1643
4 1417 1709
4 1436 1775
4 1457 1842
4 1482 1911
4 1509 1982
4 1538 2064
4 1570 2170
5 1601 2277
5 1632 2386
5 1664 2498
5 1696 2612
