Toning/Toning-Cool Shadows.3dl
#25pt 3DLUT created by 3D LUT Creator Pro (c) Oleg Sharonov
#Copyright Oleg Sharonov
#IMAGEPROFILE sRGB IEC61966-2.1 v.2.10
#INPUTGAMMA sRGB IEC61966-2.1 v.2.10
#OUTPUTGAMMA sRGB IEC61966-2.1 v.2.10
0 256 512 768 1023
0 0 0
0 0 772
0 0 1800
0 0 2771
8 268 3800
0 866 0
0 868 868
0 876 1827
0 910 2856
172 1042 3860
0 1944 0
0 1958 947
0 1986 1986
0 2032 3047
531 2160 3959
0 3213 0
0 3221 1060
0 3228 2167
268 3220 3220
1092 3231 4015
1102 4095 1292
1129 4095 1665
1177 4095 2493
1324 4095 3344
1725 4076 4076
650 0 0
651 0 872
639 0 1797
672 0 2803
792 350 3813
655 876 0
944 1145 1145
756 969 2059
697 914 3019
919 1121 3916
737 1967 0
803 2142 1013
797 2154 2154
796 2100 3150
1130 2216 3986
858 3227 0
850 3300 1057
886 3286 2211
1064 3257 3257
1527 3247 4023
1505 4095 1324
1547 4095 1709
1588 4095 2515
1697 4095 3347
1987 4078 4078
1653 0 0
1668 0 875
1703 0 1857
1764 0 2884
1889 576 3834
1719 901 0
1942 980 980
1959 974 2096
1889 953 3060
1999 1229 3912
1872 2015 0
2033 2166 1013
2241 2359 2359
2154 2277 3318
2245 2363 4031
2052 3249 0
2092 3297 1097
2204 3364 2325
2287 3320 3320
2413 3286 4039
2398 4095 1395
2418 4095 1765
2456 4095 2560
2490 4095 3351
2613 4080 4080
2836 0 0
2852 0 942
2880 0 1968
2919 35 2996
2972 981 3840
2907 962 0
3041 957 957
3041 981 2069
3041 1101 3109
3043 1488 3892
3058 2091 0
3141 2143 1037
3277 2289 2289
3234 2366 3289
3178 2464 3989
3199 3257 573
3226 3283 1288
3273 3326 2409
3308 3359 3359
3297 3348 4073
3309 4095 1598
3311 4095 1912
3308 4095 2605
3320 4095 3370
3339 4088 4088
3998 573 573
3989 615 1170
3948 759 2161
3883 1080 3107
3839 1588 3856
4023 1201 658
4047 1261 1261
3997 1342 2238
3925 1558 3158
3882 1910 3896
4054 2273 905
4063 2312 1421
4069 2412 2412
4006 2490 3260
3976 2623 3985
4069 3289 1380
4068 3296 1759
4064 3312 2549
4077 3353 3353
4067 3372 4069
4095 4095 1933
4095 4095 2161
4095 4095 2721
4092 4093 3390
4095 4095 4095
