Toning/Toning-SoftContrast.3dl
#25pt 3DLUT created by 3D LUT Creator Pro (c) Oleg Sharonov
#Copyright Oleg Sharonov
#IMAGEPROFILE sRGB IEC61966-2.1 v.2.10
#INPUTGAMMA sRGB IEC61966-2.1 v.2.10
#OUTPUTGAMMA sRGB IEC61966-2.1 v.2.10
0 43 86 128 171 214 256 299 341 384 427 469 512 555 597 640 682 725 768 810 853 896 938 981 1023 
119 195 180
132 205 214
147 216 253
174 233 319
209 254 396
253 281 472
309 320 574
365 361 667
417 400 739
473 438 814
528 476 892
585 514 967
640 548 1034
697 584 1105
753 623 1177
810 662 1251
868 703 1326
925 743 1399
982 781 1472
1040 820 1547
1097 860 1620
1154 901 1695
1212 941 1769
1270 984 1844
1327 1028 1919
125 355 185
208 328 304
228 337 338
257 353 393
296 366 477
340 386 574
385 410 661
430 435 728
476 461 794
526 492 867
575 524 938
627 554 1004
680 585 1070
732 621 1139
786 656 1209
841 693 1281
895 731 1353
951 768 1424
1006 805 1496
1062 844 1569
1118 882 1641
1174 921 1714
1231 961 1787
1288 1003 1862
1344 1045 1936
128 504 186
182 517 321
317 470 432
343 479 468
367 494 510
409 508 613
454 510 702
496 521 773
540 537 844
585 559 916
630 582 982
677 608 1046
727 637 1113
777 669 1179
827 701 1248
879 734 1317
931 768 1386
983 802 1455
1037 837 1525
1091 874 1596
1146 911 1668
1200 948 1739
1256 987 1812
1311 1028 1885
1367 1070 1958
130 654 188
127 702 357
300 663 458
442 615 596
470 622 641
496 628 674
522 642 705
566 639 797
613 643 885
655 655 961
700 671 1030
743 689 1097
788 711 1162
835 737 1228
883 764 1295
931 793 1363
981 823 1430
1031 853 1497
1082 885 1566
1134 919 1636
1186 954 1705
1239 989 1776
1292 1028 1848
1346 1066 1919
1400 1106 1991
132 803 194
129 854 364
197 871 504
446 805 636
568 744 735
598 747 768
624 753 804
650 765 839
678 783 872
727 776 983
774 781 1065
817 791 1139
861 806 1208
905 825 1277
950 845 1345
996 868 1412
1043 893 1479
1090 921 1547
1139 949 1614
1188 980 1683
1238 1011 1751
1288 1046 1822
1339 1082 1892
1391 1118 1962
1443 1155 2032
132 952 197
130 1004 371
129 1052 552
346 1020 675
598 917 773
697 874 869
726 877 902
755 882 941
780 892 973
807 906 1004
836 921 1042
891 913 1159
937 919 1241
980 929 1318
1024 944 1390
1068 961 1459
1113 982 1529
1158 1004 1597
1205 1029 1666
1252 1056 1735
1300 1085 1805
1348 1116 1874
1397 1149 1943
1446 1182 2012
1496 1219 2082
133 1102 199
131 1156 377
130 1206 560
195 1228 744
497 1139 800
757 1030 922
827 1001 1000
855 1004 1029
886 1007 1067
912 1016 1101
939 1030 1133
966 1046 1163
1003 1055 1229
1055 1052 1337
1101 1059 1420
1145 1070 1497
1189 1084 1572
1234 1102 1643
1278 1124 1717
1324 1148 1789
1369 1173 1859
1415 1201 1928
1462 1232 1998
1510 1264 2068
1558 1297 2138
133 1253 201
132 1307 380
131 1362 567
131 1405 775
375 1348 855
647 1261 934
926 1135 1071
958 1129 1128
986 1132 1156
1017 1135 1194
1045 1144 1229
1072 1156 1262
1098 1171 1293
1125 1189 1323
1169 1193 1416
1221 1194 1517
1267 1205 1604
1312 1219 1686
1356 1237 1764
1400 1256 1839
1445 1280 1913
1489 1304 1984
1535 1330 2055
1581 1359 2126
1627 1389 2198
133 1407 204
132 1459 386
131 1514 574
131 1560 782
172 1554 932
538 1471 979
799 1386 1065
1081 1252 1220
1091 1262 1258
1119 1266 1287
1150 1270 1325
1178 1278 1361
1205 1290 1395
1232 1306 1427
1259 1325 1460
1287 1347 1493
1337 1349 1616
1387 1355 1713
1434 1366 1800
1479 1380 1881
1523 1398 1958
1567 1418 2033
1611 1440 2107
1656 1465 2182
1702 1492 2256
134 1557 207
133 1609 391
132 1667 581
132 1715 790
132 1724 949
387 1681 1040
695 1596 1100
953 1509 1195
1214 1391 1352
1223 1401 1390
1251 1407 1421
1282 1412 1459
1312 1422 1499
1340 1435 1535
1366 1450 1570
1393 1469 1603
1420 1490 1636
1449 1512 1670
1505 1510 1815
1555 1517 1907
1601 1529 1993
1646 1545 2074
1691 1563 2154
1736 1585 2233
1780 1608 2310
134 1716 211
133 1760 398
132 1819 589
132 1869 798
132 1880 957
132 1876 1114
568 1802 1147
847 1726 1224
1110 1639 1332
1347 1539 1491
1357 1549 1531
1385 1555 1562
1416 1562 1600
1446 1571 1641
1474 1583 1678
1501 1599 1713
1528 1616 1748
1556 1637 1781
1584 1659 1815
1617 1678 1868
1673 1677 2010
1723 1686 2101
1770 1699 2190
1816 1716 2275
1861 1734 2356
134 1876 213
133 1910 402
133 1968 596
132 2020 804
132 2034 965
132 2039 1123
381 2001 1211
732 1929 1263
1001 1860 1353
1270 1771 1474
1482 1691 1634
1491 1702 1674
1520 1708 1706
1551 1715 1742
1582 1723 1783
1610 1735 1822
1637 1750 1857
1664 1768 1892
1691 1787 1925
1718 1808 1958
1746 1831 1991
1787 1844 2072
1843 1847 2207
1893 1858 2302
1939 1873 2393
134 2034 215
133 2058 407
133 2116 601
132 2169 810
132 2186 971
132 2193 1130
132 2184 1277
586 2122 1315
890 2059 1385
1155 1992 1484
1434 1909 1627
1616 1845 1777
1626 1856 1817
1654 1862 1849
1685 1870 1883
1716 1877 1925
1746 1888 1963
1773 1901 1998
1800 1917 2032
1827 1934 2066
1854 1953 2098
1881 1974 2131
1909 1997 2165
1956 2007 2277
2009 2013 2406
134 2191 216
133 2204 409
133 2264 607
133 2321 816
133 2342 977
133 2352 1137
133 2350 1285
351 2320 1386
761 2252 1431
1046 2192 1511
1311 2126 1621
1601 2040 1781
1751 1991 1915
1760 2002 1954
1789 2008 1986
1819 2015 2017
1851 2022 2060
1880 2032 2099
1907 2046 2137
1934 2062 2173
1961 2080 2208
1987 2099 2242
2014 2120 2276
2041 2143 2310
2069 2166 2344
134 2354 220
133 2355 411
133 2416 613
133 2473 822
133 2497 983
133 2509 1143
133 2509 1291
133 2500 1438
590 2445 1487
927 2386 1552
1201 2326 1639
1468 2263 1763
1773 2170 1937
1885 2136 2052
1894 2147 2091
1922 2154 2124
1951 2164 2155
1983 2172 2200
2013 2182 2242
2041 2196 2280
2067 2211 2317
2094 2228 2352
2121 2246 2386
2147 2266 2419
2174 2288 2453
136 2516 222
133 2516 415
133 2565 617
133 2625 829
133 2652 989
133 2666 1148
133 2668 1296
133 2665 1443
288 2645 1563
782 2577 1600
1087 2521 1676
1357 2465 1774
1628 2401 1905
1947 2300 2099
2017 2285 2192
2027 2297 2232
2054 2304 2265
2083 2314 2295
2116 2321 2339
2146 2332 2381
2174 2344 2420
2202 2359 2457
2229 2376 2494
2257 2394 2529
2284 2414 2564
136 2678 224
133 2678 421
133 2715 623
133 2776 837
133 2806 997
133 2823 1155
133 2827 1302
133 2812 1448
133 2790 1594
582 2768 1654
955 2711 1716
1245 2657 1801
1513 2604 1910
1790 2537 2046
2124 2432 2275
2150 2435 2331
2159 2447 2371
2188 2454 2404
2217 2464 2435
2250 2472 2478
2282 2483 2522
2311 2496 2563
2340 2510 2601
2367 2526 2638
2395 2544 2674
136 2840 225
133 2840 424
133 2865 629
133 2925 841
133 2958 1004
133 2978 1161
133 2968 1308
133 2950 1453
133 2934 1598
177 2917 1736
793 2899 1762
1121 2848 1837
1402 2797 1931
1671 2742 2045
1952 2673 2190
2278 2575 2435
2286 2586 2472
2295 2598 2512
2324 2606 2546
2354 2615 2577
2387 2624 2619
2419 2634 2663
2449 2646 2704
2477 2660 2743
2505 2675 2781
136 3001 230
133 3001 429
133 3013 634
133 3075 847
133 3112 1009
133 3118 1166
133 3106 1313
133 3092 1458
133 3079 1604
133 3065 1747
558 3066 1821
977 3033 1875
1283 2985 1958
1559 2936 2061
1829 2880 2180
2115 2810 2340
2415 2726 2576
2423 2737 2614
2433 2749 2655
2461 2757 2689
2491 2766 2720
2524 2775 2759
2557 2786 2806
2587 2798 2849
2616 2812 2890
136 3164 232
133 3164 434
133 3164 640
133 3226 853
133 3254 1015
133 3254 1171
133 3246 1317
133 3236 1463
133 3226 1609
133 3216 1752
133 3205 1896
792 3202 1923
1149 3169 1992
1442 3124 2085
1715 3074 2190
1988 3019 2322
2283 2947 2493
2552 2877 2718
2561 2888 2756
2570 2900 2797
2598 2908 2833
2629 2918 2864
2660 2927 2902
2694 2937 2949
2724 2948 2992
136 3326 234
133 3326 441
133 3326 648
133 3372 859
133 3391 1020
133 3394 1177
133 3389 1323
133 3382 1466
133 3374 1612
133 3367 1755
133 3360 1899
514 3358 1985
990 3338 2033
1316 3306 2112
1601 3264 2212
1874 3212 2325
2146 3157 2465
2455 3084 2651
2689 3026 2861
2698 3038 2900
2707 3050 2941
2736 3058 2976
2776 3065 3003
2817 3073 3031
2860 3080 3065
136 3488 236
133 3488 444
133 3489 656
133 3515 865
133 3533 1026
133 3537 1182
133 3534 1328
133 3530 1472
133 3524 1616
133 3519 1759
133 3514 1903
133 3509 2046
783 3503 2085
1171 3478 2147
1478 3445 2237
1759 3402 2343
2030 3353 2464
2309 3297 2612
2654 3216 2823
2864 3166 3002
2877 3176 3036
2891 3187 3072
2928 3194 3100
2964 3202 3124
2999 3211 3148
136 3651 242
133 3651 450
133 3651 662
133 3663 871
133 3678 1031
133 3683 1188
133 3682 1334
133 3679 1478
133 3676 1622
133 3672 1763
133 3669 1907
133 3666 2049
445 3662 2149
996 3645 2192
1343 3619 2267
1640 3587 2365
1918 3542 2475
2224 3485 2620
2609 3402 2819
2932 3324 3021
3058 3298 3141
3072 3309 3171
3086 3320 3201
3118 3328 3225
3149 3337 3247
136 3812 244
133 3812 456
133 3812 669
133 3816 877
133 3827 1036
133 3831 1194
133 3831 1339
133 3829 1484
133 3827 1628
133 3825 1769
133 3824 1912
133 3822 2053
133 3820 2195
763 3810 2244
1186 3789 2305
1511 3763 2392
1996 3691 2562
2387 3615 2739
2693 3552 2900
2947 3496 3048
3178 3440 3207
3248 3432 3282
3262 3443 3307
3277 3455 3333
3304 3464 3354
139 3974 243
139 3974 464
136 3974 675
136 3974 886
136 3979 1044
133 3981 1199
133 3981 1346
136 3981 1490
133 3980 1634
133 3979 1775
133 3979 1918
136 3978 2058
133 3978 2199
554 3971 2312
1553 3909 2460
2034 3838 2626
2379 3773 2777
2654 3722 2916
2879 3677 3040
3071 3637 3153
3239 3602 3261
3400 3565 3381
3435 3568 3423
3449 3580 3444
3465 3592 3466
253 176 172
252 182 316
257 184 473
266 195 624
278 241 596
315 279 642
356 317 688
402 359 745
453 399 808
502 438 874
555 477 944
607 514 1008
661 548 1071
716 584 1140
770 623 1208
826 663 1281
882 703 1352
937 743 1423
993 782 1495
1051 821 1567
1107 860 1640
1164 901 1713
1221 942 1786
1278 985 1860
1335 1029 1934
265 329 174
256 349 322
278 349 415
305 358 491
338 372 576
374 394 651
414 415 710
456 441 771
501 470 837
547 499 901
595 529 967
645 558 1029
695 590 1094
747 625 1161
799 661 1229
852 697 1299
907 736 1371
961 771 1440
1016 808 1511
1071 847 1583
1126 885 1654
1182 924 1727
1239 964 1799
1295 1006 1873
1352 1046 1951
274 483 177
265 508 328
351 485 447
371 495 489
402 504 579
443 505 678
482 511 749
519 522 814
561 541 882
604 563 947
648 585 1008
695 613 1072
742 641 1135
790 672 1200
840 704 1267
891 738 1335
942 771 1403
994 806 1471
1047 841 1541
1100 876 1610
1155 913 1681
1209 951 1752
1264 991 1824
1318 1031 1896
1375 1071 1974
279 635 178
271 665 332
319 675 471
466 625 609
491 629 651
515 638 687
545 643 744
591 637 840
633 645 921
675 657 991
716 673 1057
758 692 1120
803 715 1184
848 740 1248
895 767 1314
942 795 1380
991 825 1446
1041 855 1512
1092 889 1581
1142 922 1649
1194 956 1718
1247 992 1788
1299 1031 1859
1352 1069 1930
1407 1107 2005
283 789 185
277 822 341
272 862 512
452 818 641
586 750 741
613 753 777
638 761 814
663 774 847
698 781 917
747 776 1013
790 782 1090
831 792 1161
874 808 1230
918 827 1297
961 848 1363
1006 871 1429
1052 896 1495
1100 923 1562
1148 952 1629
1196 982 1695
1246 1014 1764
1296 1048 1834
1346 1084 1903
1398 1120 1972
1450 1155 2046
285 943 189
280 979 348
275 1021 521
372 1023 685
597 930 773
711 880 875
738 883 909
765 888 947
791 898 980
816 912 1010
856 915 1089
905 912 1182
949 919 1262
992 930 1336
1035 945 1407
1078 963 1475
1123 984 1544
1167 1006 1611
1213 1030 1679
1260 1058 1748
1307 1088 1817
1355 1119 1885
1403 1151 1953
1453 1185 2022
1503 1219 2096
287 1099 191
283 1135 355
279 1180 530
280 1215 738
510 1143 806
754 1044 919
839 1006 1004
866 1008 1033
895 1013 1072
921 1022 1106
947 1035 1138
973 1051 1168
1018 1052 1265
1067 1053 1357
1112 1060 1438
1155 1071 1513
1198 1086 1586
1242 1104 1658
1287 1126 1730
1331 1149 1801
1376 1175 1870
1422 1204 1939
1469 1234 2009
1516 1266 2077
1565 1298 2152
287 1255 193
284 1292 358
281 1340 539
281 1378 746
404 1347 861
654 1267 938
919 1148 1063
969 1132 1131
995 1136 1159
1026 1139 1198
1052 1148 1233
1079 1160 1266
1105 1176 1297
1132 1194 1328
1181 1191 1444
1230 1195 1534
1276 1206 1620
1320 1221 1700
1364 1238 1777
1408 1259 1852
1452 1281 1924
1496 1306 1995
1541 1332 2065
1586 1360 2136
1634 1389 2211
288 1414 197
286 1450 364
283 1500 546
283 1541 754
283 1543 916
554 1473 984
803 1392 1067
1090 1256 1223
1100 1265 1260
1126 1270 1290
1157 1274 1328
1185 1282 1365
1211 1294 1398
1238 1310 1431
1264 1330 1464
1292 1351 1497
1347 1348 1635
1396 1356 1728
1442 1367 1813
1486 1382 1893
1529 1399 1969
1573 1420 2045
1618 1443 2118
1662 1467 2192
1708 1493 2269
288 1572 199
287 1609 369
284 1658 554
284 1700 762
284 1704 923
418 1679 1044
704 1599 1103
955 1515 1197
1222 1394 1354
1231 1404 1393
1258 1410 1424
1289 1416 1463
1318 1425 1502
1345 1438 1539
1372 1455 1573
1398 1473 1607
1425 1493 1640
1457 1513 1686
1513 1510 1828
1562 1518 1919
1608 1531 2004
1653 1546 2085
1697 1565 2165
1741 1587 2243
1786 1609 2323
289 1730 203
287 1766 376
286 1815 562
285 1859 771
285 1865 932
285 1866 1091
586 1802 1151
854 1730 1227
1110 1644 1333
1354 1541 1494
1364 1552 1533
1391 1559 1565
1422 1565 1603
1452 1574 1644
1479 1587 1681
1506 1602 1717
1533 1620 1751
1560 1640 1784
1588 1662 1818
1626 1677 1890
1681 1678 2022
1730 1687 2112
1776 1701 2200
1822 1717 2285
1867 1735 2369
