Toning/Toning-Cinematic & Warm-BlueShadows.3dl
#25pt 3DLUT created by 3D LUT Creator Pro (c) Oleg Sharonov
#Copyright Oleg Sharonov
#IMAGEPROFILE sRGB IEC61966-2.1 v.2.10
#INPUTGAMMA sRGB IEC61966-2.1 v.2.10
#OUTPUTGAMMA sRGB IEC61966-2.1 v.2.10
0 128 256 384 512 640 768 896 1023
152 152 273
161 161 334
206 209 448
276 308 593
332 427 794
381 558 1042
452 705 1322
552 868 1629
676 1038 1955
293 347 372
291 360 479
326 408 625
358 478 788
386 572 986
420 687 1219
477 817 1483
577 964 1778
713 1124 2084
499 727 558
496 738 613
458 717 777
472 777 1026
518 859 1283
571 954 1533
607 1063 1799
718 1184 2072
874 1322 2345
794 1177 676
803 1190 678
782 1219 919
713 1214 1227
676 1235 1531
758 1314 1854
864 1403 2146
915 1502 2425
1134 1613 2673
1166 1655 888
1173 1663 894
1158 1714 992
1119 1748 1346
1045 1725 1742
1031 1711 2066
1159 1794 2410
1274 1874 2714
1504 1960 2966
1576 2118 1226
1582 2125 1231
1590 2146 1262
1540 2230 1489
1497 2267 1854
1421 2196 2222
1479 2191 2587
1679 2254 2922
1880 2325 3195
2003 2570 1599
2007 2574 1603
2018 2586 1613
1993 2645 1769
1936 2725 1984
1921 2741 2351
1854 2620 2709
1999 2630 3075
2212 2683 3369
2429 2983 1977
2432 2986 1980
2441 2994 1988
2444 3019 2049
2401 3079 2262
2359 3141 2470
2392 3109 2836
2326 3008 3154
2512 3034 3503
2845 3323 2373
2848 3325 2376
2855 3330 2383
2868 3339 2397
2846 3372 2564
2825 3412 2750
2811 3461 2938
2823 3407 3269
2828 3375 3610
312 189 322
326 189 408
280 252 501
295 334 618
347 442 814
393 569 1057
465 715 1335
562 876 1640
684 1045 1963
446 433 416
370 442 563
339 448 748
374 493 813
399 584 1001
430 696 1231
486 826 1495
585 972 1787
721 1131 2093
612 800 538
576 802 586
527 773 851
478 802 1086
526 867 1296
580 961 1544
616 1070 1808
725 1190 2081
881 1327 2352
887 1240 649
892 1252 652
802 1247 919
706 1222 1274
682 1247 1559
763 1320 1864
871 1409 2154
921 1508 2432
1140 1618 2679
1242 1688 896
1250 1698 901
1186 1722 973
1133 1767 1362
1025 1715 1763
1035 1716 2076
1164 1798 2417
1279 1878 2720
1510 1964 2971
1632 2142 1233
1638 2149 1239
1633 2160 1252
1557 2241 1490
1508 2281 1873
1420 2195 2246
1485 2194 2595
1683 2258 2928
1884 2328 3199
2046 2585 1605
2051 2590 1609
2063 2602 1620
2010 2649 1758
1948 2733 1989
1929 2748 2366
1858 2620 2732
2003 2633 3080
2216 2686 3374
2461 2994 1982
2466 2997 1986
2475 3006 1995
2461 3019 2025
2412 3083 2261
2368 3146 2477
2402 3113 2850
2335 3012 3174
2515 3036 3508
2869 3329 2379
2872 3331 2382
2880 3336 2390
2894 3345 2404
2855 3375 2558
2832 3415 2752
2818 3466 2943
2826 3410 3278
2836 3379 3627
670 302 475
693 312 568
695 287 692
513 408 765
478 497 928
443 600 1105
492 738 1366
586 896 1665
706 1063 1986
829 440 490
882 474 576
765 542 848
600 547 1044
482 630 1196
468 732 1304
509 848 1522
605 990 1812
738 1148 2114
950 955 523
1038 963 655
717 932 1026
609 921 1300
565 937 1551
604 995 1647
639 1088 1830
744 1206 2101
896 1341 2371
1088 1344 610
1076 1349 619
1031 1401 904
935 1368 1446
772 1310 1786
763 1362 2000
888 1422 2174
938 1521 2448
1154 1629 2695
1403 1756 904
1407 1762 908
1320 1762 939
1233 1846 1438
1095 1751 1871
1057 1769 2231
1205 1820 2480
1290 1888 2735
1522 1973 2984
1782 2205 1254
1786 2210 1258
1764 2217 1274
1606 2262 1476
1532 2314 1928
1420 2204 2333
1551 2224 2696
1703 2269 2953
1894 2336 3211
2173 2634 1627
2177 2638 1631
2186 2649 1640
2068 2645 1679
1977 2754 1999
1951 2767 2411
1868 2620 2794
2054 2653 3142
2226 2692 3385
2558 3025 2005
2562 3029 2009
2571 3037 2018
2536 3042 2031
2442 3093 2253
2389 3161 2494
2424 3124 2887
2365 3025 3230
2550 3050 3554
2941 3347 2400
2945 3349 2404
2953 3354 2411
2967 3364 2425
2884 3379 2529
2852 3424 2755
2834 3477 2957
2833 3416 3306
2857 3389 3670
1115 440 513
1131 457 602
1170 493 732
1182 536 1112
881 566 1133
773 696 1342
696 807 1545
658 937 1759
741 1091 2024
1166 479 546
1196 501 631
1314 563 774
1374 647 1333
970 675 1347
844 797 1561
711 914 1757
691 1042 1941
768 1174 2149
1483 866 411
1605 826 389
1487 990 861
1112 1070 1365
1033 990 1816
835 1063 2069
770 1174 2208
823 1263 2250
921 1365 2402
1614 1562 658
1740 1593 692
1600 1653 1139
1185 1526 1665
1101 1484 1934
912 1468 2399
983 1513 2524
1083 1577 2610
1177 1649 2722
1768 1934 982
1764 1937 984
1649 1942 1087
1558 2035 1422
1427 1937 2082
1339 1891 2429
1302 1893 2760
1443 1943 2911
1576 2000 3043
2049 2326 1311
2054 2332 1316
1988 2317 1318
1880 2378 1536
1773 2451 2086
1668 2319 2478
1684 2279 2903
1834 2321 3125
1968 2369 3300
2344 2696 1654
2349 2701 1659
2361 2713 1670
2218 2695 1684
2131 2825 2060
2069 2824 2519
1978 2668 2932
2159 2692 3275
2317 2728 3498
2690 3063 2028
2692 3066 2031
2699 3073 2040
2653 3077 2054
2511 3099 2185
2428 3185 2522
2447 3135 2953
2422 3046 3338
2621 3077 3657
3058 3375 2429
3060 3377 2431
3065 3381 2438
3075 3389 2449
2955 3387 2465
2889 3439 2754
2863 3498 2983
2848 3427 3361
2888 3413 3744
1619 610 457
1627 626 605
1655 654 759
1696 713 995
1703 808 1554
1330 781 1585
1157 914 1815
1077 1041 2036
1011 1175 2252
1659 642 479
1666 656 629
1694 684 782
1769 756 1036
1835 879 1715
1406 855 1744
1225 1006 1988
1145 1129 2195
1083 1254 2402
1912 831 479
2005 806 471
2113 835 718
2096 1050 1277
1832 1184 1904
1547 1083 2165
1364 1221 2380
1237 1338 2560
1193 1460 2725
2154 1496 467
2248 1459 425
2259 1490 884
2107 1633 1545
1463 1617 1941
1515 1583 2433
1472 1593 2911
1380 1681 3071
1408 1764 3110
2303 2105 1073
2360 2102 1070
2403 2170 1308
1997 2212 1729
1669 2079 2283
1670 2060 2554
1698 2042 2956
1755 2038 3284
1821 2090 3342
2440 2503 1421
2445 2509 1426
2430 2518 1440
2189 2540 1703
2087 2617 2118
2024 2461 2718
2027 2438 3009
2065 2407 3381
2159 2438 3542
2660 2827 1752
2662 2830 1755
2644 2831 1758
2500 2820 1810
2431 2916 2120
2344 2914 2718
2337 2818 3077
2394 2791 3414
2458 2778 3703
2936 3146 2116
2938 3148 2118
2941 3153 2125
2859 3146 2122
2751 3177 2283
2695 3267 2660
2645 3195 3074
2673 3145 3459
2723 3119 3811
3215 3419 2488
3217 3421 2491
3223 3426 2498
3216 3431 2507
3092 3422 2500
3061 3486 2794
2979 3548 3054
2928 3461 3464
2972 3459 3842
2147 807 389
2147 825 578
2158 859 807
2186 910 1036
2209 997 1405
2165 1080 1992
1805 1034 2062
1604 1156 2287
1527 1305 2510
2178 831 408
2177 849 600
2188 883 828
2214 932 1055
2239 1020 1424
2266 1156 2133
1864 1080 2172
1671 1236 2416
1586 1377 2629
2275 902 428
2296 926 620
2359 974 871
2455 1065 1151
2544 1220 1694
2414 1278 2357
1995 1256 2467
1808 1422 2713
1733 1554 2896
2610 1396 494
2680 1372 477
2765 1380 614
2637 1558 1246
2623 1739 1976
2173 1716 2412
2092 1644 2837
2003 1732 3144
1948 1838 3283
2806 2039 1026
2869 2028 1021
2988 2021 1084
2807 2157 1548
2471 2276 2320
1914 2188 2561
2069 2160 2989
2144 2166 3381
2181 2181 3758
2900 2608 1541
2935 2606 1547
3012 2617 1643
2878 2735 1976
2321 2685 2526
2276 2592 2904
2322 2591 3119
2383 2573 3448
2414 2547 3765
3017 2977 1923
3019 2980 1927
3022 2989 1939
2926 3007 2073
2677 3035 2297
2635 3026 2855
2703 2957 3291
2704 2937 3520
2720 2919 3765
3222 3239 2262
3223 3241 2265
3223 3246 2271
3173 3244 2262
3014 3267 2449
2999 3328 2691
2856 3260 3271
3011 3280 3631
3079 3302 3777
3416 3490 2564
3418 3492 2566
3422 3497 2571
3395 3496 2574
3284 3480 2577
3276 3554 2849
3228 3643 3214
3183 3560 3640
3486 3706 3791
2645 1058 582
2645 1073 731
2647 1109 926
2659 1157 1159
2677 1221 1414
2666 1326 1878
2589 1375 2401
2262 1300 2500
2062 1424 2719
2670 1077 594
2669 1093 744
2671 1127 943
2682 1176 1176
2699 1239 1429
2686 1343 1891
2661 1427 2489
2310 1339 2577
2121 1490 2815
2729 1121 620
2726 1138 777
2727 1173 981
2736 1219 1214
2825 1330 1521
2885 1515 2115
2786 1528 2659
2434 1478 2796
2255 1652 3033
3006 1406 602
3049 1403 672
3148 1403 845
3172 1495 1323
3186 1623 1798
3047 1872 2406
2781 1808 2818
2618 1761 3167
2453 1908 3366
3200 2030 1081
3242 2024 1088
3343 2010 1105
3208 2125 1457
3095 2207 1915
3019 2348 2649
2554 2233 2911
2618 2228 3325
2638 2227 3761
3326 2556 1592
3365 2551 1600
3468 2534 1621
3413 2621 1862
3204 2748 2218
2541 2664 2874
2519 2719 3139
2674 2689 3482
2725 2689 3749
3355 3027 2071
3372 3025 2074
3426 3018 2080
3436 3060 2307
3259 3157 2530
2832 3054 3109
2929 3068 3449
2963 3067 3639
2986 3078 3750
3454 3332 2396
3456 3334 2398
3463 3342 2406
3457 3365 2460
3347 3385 2638
3175 3419 2850
3200 3379 3469
3326 3425 3753
3343 3449 3762
3644 3591 2646
3646 3593 2648
3649 3597 2652
3629 3599 2658
3566 3609 2754
3477 3647 2982
3512 3722 3209
3482 3729 3796
3784 3847 3800
3096 1363 881
3089 1377 1036
3086 1404 1179
3087 1443 1351
3092 1494 1568
3090 1564 1855
3040 1679 2339
2955 1654 2733
2695 1577 2883
3116 1378 897
3108 1393 1051
3105 1420 1193
3106 1459 1365
3109 1509 1582
3106 1579 1868
3056 1693 2350
3005 1687 2791
2739 1621 2947
3162 1417 937
3154 1432 1086
3151 1458 1227
3150 1496 1399
3152 1546 1614
3165 1631 1919
3176 1828 2502
3118 1771 2926
2850 1737 3113
3306 1533 1018
3325 1545 1045
3333 1595 1279
3362 1662 1504
3394 1760 1796
3408 1889 2199
3367 2043 2743
3273 1905 3160
3030 1958 3396
3536 2031 1224
3567 2022 1244
3636 2013 1315
3580 2112 1554
3533 2202 1910
3462 2320 2397
3379 2402 2918
3162 2307 3254
3142 2290 3665
3621 2572 1714
3645 2570 1724
3706 2565 1749
3732 2600 1851
3538 2735 2156
3435 2741 2601
3329 2700 3170
3043 2768 3421
3123 2750 3746
3695 2992 2134
3723 2987 2140
3800 2973 2154
3887 2973 2246
3761 3088 2458
3595 3157 2746
3076 3137 3434
3132 3186 3682
3203 3198 3749
3750 3369 2451
3766 3369 2453
3811 3368 2458
3874 3380 2550
3831 3450 2772
3664 3538 3002
3424 3477 3710
3499 3552 3754
3523 3579 3759
3867 3686 2711
3869 3688 2713
3877 3695 2720
3892 3707 2731
3870 3739 2913
3774 3766 3129
3685 3810 3391
3878 3901 3818
3967 3947 3831
3469 1695 1241
3457 1708 1349
3448 1727 1467
3441 1756 1612
3434 1797 1788
3424 1850 2007
3400 1916 2286
3333 2010 2697
3287 1906 3020
3484 1709 1253
3472 1722 1362
3463 1741 1480
3456 1769 1624
3448 1809 1799
3438 1862 2018
3414 1928 2296
3346 2021 2706
3333 1929 3070
3522 1742 1286
3509 1754 1393
3500 1773 1510
3492 1802 1654
3484 1841 1829
3472 1893 2046
3446 1958 2320
3444 2101 2804
3438 1983 3196
3583 1798 1339
3570 1809 1445
3560 1828 1561
3550 1855 1704
3574 1933 1907
3596 2040 2183
3615 2150 2520
3647 2210 3015
3604 2079 3418
3779 2125 1536
3796 2130 1568
3834 2144 1645
3860 2180 1827
3860 2241 2099
3865 2305 2397
3857 2368 2753
3774 2423 3217
3667 2354 3612
3886 2605 1851
3906 2604 1861
3948 2607 1895
4001 2619 1972
3835 2740 2179
3830 2748 2489
3837 2777 2952
3784 2731 3429
3599 2791 3743
3982 2989 2219
4003 2987 2224
4048 2983 2252
4095 2983 2328
4066 3070 2452
3939 3145 2670
3848 3163 3259
3705 3134 3690
3470 3292 3750
4088 3345 2519
4095 3343 2531
4095 3337 2555
4095 3376 2691
4095 3441 2861
4095 3493 2982
4007 3533 3253
3601 3631 3767
3657 3704 3758
4095 3707 2809
4095 3709 2848
4095 3711 2852
4095 3755 3082
4095 3807 3286
4095 3852 3397
4095 3906 3575
4013 3981 3849
4078 4052 3864
