Toning/Toning-CyanHighlights.3dl
#25pt 3DLUT created by 3D LUT Creator Pro (c) Oleg Sharonov
#Copyright Oleg Sharonov
#IMAGEPROFILE sRGB IEC61966-2.1 v.2.10
#INPUTGAMMA sRGB IEC61966-2.1 v.2.10
#OUTPUTGAMMA sRGB IEC61966-2.1 v.2.10
0 256 512 768 1023
0 0 0
0 0 1024
0 0 2047
0 0 3069
0 0 4095
0 1025 0
0 1220 1211
0 1378 2389
0 1341 3377
0 1026 4095
0 2048 0
0 2400 1369
0 2754 2729
0 2706 3709
0 2048 4095
0 3069 0
0 3388 1334
0 3726 2687
0 4021 4004
0 3070 4095
2 4095 3
0 4095 1026
0 4095 2048
0 4095 3070
2 4095 4095
965 0 0
974 0 1109
983 0 2157
995 0 3126
1004 0 4095
851 941 0
998 1077 1236
978 1318 2430
921 1290 3400
877 1011 4095
742 1883 0
852 2212 1331
909 2593 2662
869 2632 3675
759 2024 4077
618 2943 0
677 3273 1369
743 3665 2725
748 3975 3978
646 3079 4078
497 4028 0
512 3967 1042
523 4019 2073
527 4075 3080
528 4095 4063
1692 0 0
1706 0 1060
1726 0 2114
1742 0 3111
1758 0 4095
1516 941 0
1739 1085 1182
1794 1256 2343
1690 1265 3342
1569 990 4074
1347 1881 0
1604 2109 1275
1762 2399 2517
1672 2599 3620
1411 2027 4024
1175 2813 0
1338 3134 1356
1496 3561 2671
1525 3942 3943
1259 3111 4052
1004 3753 0
1027 3829 1057
1056 3949 2082
1072 4050 3081
1059 4095 4021
2357 0 0
2366 0 1040
2375 0 2070
2385 0 3080
2395 0 4095
2113 980 0
2362 1086 1163
2455 1195 2289
2308 1207 3290
2167 928 4027
1902 1868 0
2235 2050 1246
2503 2315 2438
2403 2478 3545
1995 1922 3977
1676 2794 0
1952 3065 1327
2202 3400 2585
2294 3694 3802
1835 3003 4018
1447 3727 3
1515 3735 1063
1594 3864 2123
1624 4006 3111
1597 4095 4078
3025 0 0
3026 0 1030
3025 0 2053
3025 0 3072
3025 0 4095
2714 1006 0
2973 1093 1161
3077 1171 2264
2855 1152 3260
2766 871 4001
2458 1862 0
2846 2066 1242
3128 2278 2420
3046 2382 3502
2550 1842 3937
2178 2784 0
2498 3027 1316
2920 3320 2552
3073 3606 3720
2431 2901 3984
1893 3715 0
1971 3708 1059
2122 3825 2104
2225 3971 3117
2216 4016 4094
