Toning/Toning-Cinematic & Warm-BlueShadows.3dl
#25pt 3DLUT created by 3D LUT Creator Pro (c) Oleg Sharonov
#Copyright Oleg Sharonov
#IMAGEPROFILE sRGB IEC61966-2.1 v.2.10
#INPUTGAMMA sRGB IEC61966-2.1 v.2.10
#OUTPUTGAMMA sRGB IEC61966-2.1 v.2.10
0 256 512 768 1023
152 152 273
206 209 448
332 427 794
452 705 1322
676 1038 1955
499 727 558
458 717 777
518 859 1283
607 1063 1799
874 1322 2345
1166 1655 888
1158 1714 992
1045 1725 1742
1159 1794 2410
1504 1960 2966
2003 2570 1599
2018 2586 1613
1936 2725 1984
1854 2620 2709
2212 2683 3369
2845 3323 2373
2855 3330 2383
2846 3372 2564
2811 3461 2938
2828 3375 3610
670 302 475
695 287 692
478 497 928
492 738 1366
706 1063 1986
950 955 523
717 932 1026
565 937 1551
639 1088 1830
896 1341 2371
1403 1756 904
1320 1762 939
1095 1751 1871
1205 1820 2480
1522 1973 2984
2173 2634 1627
2186 2649 1640
1977 2754 1999
1868 2620 2794
2226 2692 3385
2941 3347 2400
2953 3354 2411
2884 3379 2529
2834 3477 2957
2857 3389 3670
1619 610 457
1655 654 759
1703 808 1554
1157 914 1815
1011 1175 2252
1912 831 479
2113 835 718
1832 1184 1904
1364 1221 2380
1193 1460 2725
2303 2105 1073
2403 2170 1308
1669 2079 2283
1698 2042 2956
1821 2090 3342
2660 2827 1752
2644 2831 1758
2431 2916 2120
2337 2818 3077
2458 2778 3703
3215 3419 2488
3223 3426 2498
3092 3422 2500
2979 3548 3054
2972 3459 3842
2645 1058 582
2647 1109 926
2677 1221 1414
2589 1375 2401
2062 1424 2719
2729 1121 620
2727 1173 981
2825 1330 1521
2786 1528 2659
2255 1652 3033
3200 2030 1081
3343 2010 1105
3095 2207 1915
2554 2233 2911
2638 2227 3761
3355 3027 2071
3426 3018 2080
3259 3157 2530
2929 3068 3449
2986 3078 3750
3644 3591 2646
3649 3597 2652
3566 3609 2754
3512 3722 3209
3784 3847 3800
3469 1695 1241
3448 1727 1467
3434 1797 1788
3400 1916 2286
3287 1906 3020
3522 1742 1286
3500 1773 1510
3484 1841 1829
3446 1958 2320
3438 1983 3196
3779 2125 1536
3834 2144 1645
3860 2241 2099
3857 2368 2753
3667 2354 3612
3982 2989 2219
4048 2983 2252
4066 3070 2452
3848 3163 3259
3470 3292 3750
4095 3707 2809
4095 3711 2852
4095 3807 3286
4095 3906 3575
4078 4052 3864
