Toning/Toning-Dark & Warm.3dl
#25pt 3DLUT created by 3D LUT Creator Pro (c) Oleg Sharonov
#Copyright Oleg Sharonov
#IMAGEPROFILE sRGB IEC61966-2.1 v.2.10
#INPUTGAMMA sRGB IEC61966-2.1 v.2.10
#OUTPUTGAMMA sRGB IEC61966-2.1 v.2.10
0 256 512 768 1023
0 1 0
209 108 231
658 299 724
949 517 1204
1214 770 1771
489 773 160
516 800 555
887 806 1033
1125 909 1541
1374 1090 2080
1086 1710 445
1101 1728 793
1125 1763 1421
1418 1799 2089
1680 1869 2546
1567 2581 851
1576 2590 1108
1587 2600 1689
1594 2608 2350
1875 2620 2784
1966 3092 1202
1970 3096 1402
1976 3099 1905
1979 3101 2484
1986 3105 2905
1014 117 5
1060 147 377
1097 357 845
1222 574 1322
1417 820 1873
1217 772 147
1054 993 960
1247 874 1251
1399 952 1631
1507 1058 2326
1531 1744 468
1454 1810 845
1477 1838 1552
1713 1830 2130
1757 1880 2656
1876 2596 865
1873 2606 1111
1884 2616 1701
1891 2624 2365
1908 2635 2828
2169 3105 1216
1979 3107 1214
1986 3112 1810
1989 3113 2465
1994 3115 2916
1726 411 226
1753 431 517
1813 469 1050
1832 708 1597
1926 962 2140
1909 896 340
1955 929 712
1993 963 1365
1998 1080 1837
2087 1167 2472
2208 1840 531
2195 1888 905
2074 2025 1979
2220 1943 2420
2252 1891 2868
2407 2647 912
2412 2656 1159
2333 2757 1811
2337 2762 2562
2251 2678 2948
2583 3144 1256
2507 3148 1257
2017 3151 1252
2021 3151 2355
2020 3145 2950
2380 801 564
2400 817 784
2452 855 1276
2520 902 1955
2549 1172 2457
2533 1177 666
2556 1185 892
2595 1219 1421
2647 1263 2112
2702 1318 2656
2787 1969 842
2799 1978 1085
2876 2004 1744
2886 2016 2500
2897 1931 2922
2936 2707 967
2944 2715 1216
2979 2801 1857
3056 3025 2990
2947 2718 3030
3045 3184 1298
3025 3190 1302
2926 3210 1317
2489 3234 1813
2146 3202 3013
2989 1236 939
2999 1246 1113
3022 1268 1570
3052 1296 2171
3088 1330 2660
3064 1503 1001
3129 1358 1045
3144 1375 1614
3157 1391 2282
3175 1410 2762
3201 2105 1120
3244 2059 1153
3332 1930 1590
3332 1922 2435
3333 1907 2946
3331 2758 1242
3351 2753 1258
3416 2729 1468
3436 2708 2446
3435 2685 3053
3415 3210 1326
3418 3213 1328
3427 3222 1336
3443 3240 1350
4004 3977 3950
