Toning/Toning-Stretch blues and oranges 2.3dl
#25pt 3DLUT created by 3D LUT Creator Pro (c) Oleg Sharonov
#Copyright Oleg Sharonov
#INPUTGAMMA sRGB
#IMAGEPROFILE sRGB
#OUTPUTGAMMA sRGB
0 43 86 128 171 214 256 299 341 384 427 469 512 555 597 640 682 725 768 810 853 896 938 981 1023 
0 0 0
0 0 175
0 0 370
0 0 580
0 0 797
0 0 1008
0 0 1220
0 0 1428
0 0 1627
0 0 1821
0 0 2005
0 0 2182
0 0 2353
0 0 2520
0 0 2683
0 0 2841
0 0 2995
0 0 3144
0 0 3290
0 0 3434
0 0 3573
0 0 3710
0 0 3842
0 0 3970
0 0 4095
0 171 0
0 180 175
0 190 370
0 200 581
0 209 797
0 219 1009
0 229 1220
0 238 1428
0 248 1628
0 258 1821
0 267 2005
0 277 2182
0 287 2354
0 296 2521
0 306 2683
0 316 2841
0 325 2994
0 335 3144
0 345 3290
0 355 3434
0 364 3574
0 374 3710
0 384 3842
0 393 3971
0 403 4095
0 341 0
0 360 175
0 379 369
0 399 580
0 418 796
0 437 1009
0 457 1221
0 476 1427
0 495 1628
0 514 1821
0 534 2005
0 553 2182
0 572 2354
0 591 2521
0 611 2683
0 630 2841
0 649 2995
0 668 3144
0 687 3290
0 707 3433
0 726 3573
0 745 3709
0 764 3842
0 784 3970
0 803 4094
0 512 0
0 539 175
0 567 370
0 594 580
0 621 796
0 649 1009
0 676 1220
0 703 1427
0 731 1628
0 758 1821
0 785 2006
0 813 2182
0 840 2353
0 867 2520
0 895 2683
0 922 2841
0 949 2995
0 977 3144
0 1004 3290
0 1031 3433
0 1059 3573
0 1086 3710
0 1113 3842
0 1141 3970
0 1168 4095
0 683 0
0 715 175
0 748 370
0 780 580
0 813 796
0 846 1009
0 878 1220
0 911 1427
0 943 1628
0 975 1821
0 1009 2005
0 1041 2182
0 1073 2353
0 1106 2520
0 1138 2683
0 1171 2841
0 1204 2995
0 1236 3144
0 1268 3290
0 1302 3433
0 1335 3573
0 1367 3709
0 1400 3842
0 1432 3970
0 1465 4095
0 853 0
0 888 175
0 923 370
0 958 580
0 993 797
0 1028 1009
0 1063 1220
0 1098 1427
0 1132 1628
0 1168 1821
0 1202 2005
0 1237 2182
0 1272 2354
0 1307 2521
0 1342 2683
0 1377 2841
0 1412 2995
0 1447 3144
0 1482 3290
0 1517 3434
0 1552 3573
0 1587 3710
0 1622 3842
0 1657 3970
0 1692 4095
0 1024 0
0 1060 175
0 1096 370
0 1132 580
0 1168 797
0 1204 1009
0 1241 1220
0 1277 1427
0 1313 1628
0 1349 1821
0 1385 2005
0 1421 2182
0 1457 2354
0 1494 2521
0 1530 2683
0 1566 2841
0 1602 2995
0 1638 3144
0 1674 3290
0 1711 3433
0 1747 3573
0 1783 3710
0 1819 3842
0 1856 3970
0 1892 4095
0 1194 0
0 1231 175
0 1267 370
0 1304 580
0 1340 797
0 1376 1009
0 1413 1220
0 1449 1427
0 1485 1628
0 1522 1821
0 1558 2005
0 1595 2182
0 1631 2354
0 1668 2521
0 1704 2683
0 1740 2841
0 1777 2994
0 1813 3144
0 1850 3290
0 1886 3433
0 1923 3573
0 1959 3710
0 1995 3842
0 2032 3971
0 2068 4095
0 1365 0
0 1401 175
0 1437 370
0 1472 580
0 1508 796
0 1544 1009
0 1580 1220
0 1615 1427
0 1651 1628
0 1687 1821
0 1723 2005
0 1758 2182
0 1794 2354
0 1830 2521
0 1866 2683
0 1902 2841
0 1937 2995
0 1973 3144
0 2009 3290
0 2044 3433
0 2080 3573
0 2116 3709
0 2152 3842
0 2188 3970
0 2223 4095
0 1536 0
0 1570 175
0 1604 370
0 1639 580
0 1673 796
0 1708 1009
0 1742 1220
0 1776 1427
0 1811 1628
0 1845 1821
0 1880 2005
0 1914 2182
0 1948 2354
0 1983 2521
0 2017 2683
0 2052 2841
0 2086 2994
0 2120 3144
0 2155 3290
0 2189 3433
0 2223 3573
0 2258 3709
0 2292 3842
0 2327 3970
0 2361 4095
0 1706 0
0 1739 175
0 1771 370
0 1803 580
0 1836 796
0 1868 1009
0 1901 1220
0 1933 1427
0 1965 1628
0 1998 1821
0 2030 2005
0 2062 2182
0 2095 2354
0 2127 2521
0 2160 2683
0 2192 2841
0 2224 2994
0 2257 3144
0 2289 3290
0 2321 3433
0 2354 3573
0 2386 3710
0 2419 3842
0 2451 3970
0 2483 4095
0 1877 0
0 1907 175
0 1937 370
0 1967 580
0 1997 797
0 2027 1009
0 2057 1220
0 2087 1427
0 2117 1628
0 2147 1821
0 2177 2005
0 2207 2182
0 2237 2354
0 2267 2521
0 2297 2683
0 2327 2841
0 2357 2994
0 2388 3144
0 2418 3290
0 2447 3433
0 2477 3573
0 2507 3709
0 2538 3842
0 2568 3970
0 2598 4095
0 2047 0
0 2075 175
0 2103 370
0 2130 580
0 2158 797
0 2186 1009
0 2213 1220
0 2241 1427
0 2269 1628
0 2296 1821
0 2324 2005
0 2352 2182
0 2379 2354
0 2407 2521
0 2435 2683
0 2462 2841
0 2490 2995
0 2518 3144
0 2545 3290
0 2573 3433
0 2601 3573
0 2628 3710
0 2656 3842
0 2683 3970
0 2711 4095
0 2218 0
0 2243 175
0 2269 370
0 2294 580
0 2319 797
0 2344 1009
0 2370 1220
0 2395 1427
0 2420 1628
0 2445 1821
0 2471 2005
0 2496 2182
0 2521 2354
0 2546 2521
0 2571 2683
0 2597 2841
0 2622 2995
0 2647 3144
0 2672 3290
0 2698 3433
0 2723 3573
0 2748 3710
0 2773 3842
0 2799 3970
0 2824 4095
0 2389 0
0 2412 175
0 2434 370
0 2457 580
0 2480 797
0 2503 1009
0 2526 1220
0 2548 1427
0 2571 1628
0 2594 1821
0 2617 2005
0 2640 2182
0 2662 2354
0 2685 2521
0 2708 2683
0 2731 2841
0 2754 2994
0 2776 3144
0 2799 3290
0 2822 3433
0 2845 3573
0 2868 3710
0 2890 3842
0 2913 3970
0 2936 4095
0 2559 0
0 2580 175
0 2600 370
0 2621 580
0 2641 797
0 2661 1009
0 2682 1220
0 2702 1427
0 2722 1628
0 2743 1821
0 2763 2005
0 2784 2182
0 2804 2354
0 2824 2521
0 2845 2683
0 2865 2841
0 2885 2994
0 2906 3144
0 2926 3290
0 2947 3433
0 2967 3573
0 2987 3710
0 3008 3842
0 3028 3970
0 3048 4095
0 2730 0
0 2748 175
0 2766 370
0 2784 580
0 2802 797
0 2820 1009
0 2838 1220
0 2856 1427
0 2874 1628
0 2892 1821
0 2910 2005
0 2928 2182
0 2946 2354
0 2964 2521
0 2982 2683
0 3000 2841
0 3018 2994
0 3036 3144
0 3054 3290
0 3071 3433
0 3089 3573
0 3107 3710
0 3125 3842
0 3143 3970
0 3161 4095
0 2901 0
0 2916 175
0 2932 370
0 2947 580
0 2963 797
0 2979 1009
0 2994 1220
0 3010 1427
0 3025 1628
0 3041 1821
0 3057 2005
0 3072 2182
0 3088 2354
0 3103 2521
0 3119 2683
0 3134 2841
0 3150 2995
0 3166 3144
0 3181 3290
0 3197 3433
0 3212 3573
0 3228 3710
0 3243 3842
0 3259 3970
0 3275 4095
0 3071 0
0 3085 175
0 3098 370
0 3111 580
0 3124 797
0 3138 1009
0 3151 1220
0 3164 1427
0 3177 1628
0 3191 1821
0 3204 2005
0 3217 2182
0 3230 2354
0 3244 2521
0 3257 2683
0 3270 2841
0 3283 2994
0 3297 3144
0 3310 3290
0 3323 3433
0 3336 3573
0 3350 3710
0 3363 3842
0 3376 3970
0 3389 4095
0 3242 0
0 3253 175
0 3264 370
0 3275 580
0 3286 797
0 3297 1009
0 3308 1220
0 3319 1427
0 3330 1628
0 3341 1821
0 3352 2005
0 3363 2182
0 3374 2354
0 3385 2521
0 3396 2683
0 3407 2841
0 3418 2994
0 3429 3144
0 3440 3290
0 3450 3433
0 3461 3573
0 3472 3710
0 3483 3842
0 3494 3970
0 3505 4095
0 3412 0
0 3421 175
0 3430 370
0 3439 580
0 3448 797
0 3456 1009
0 3465 1220
0 3474 1427
0 3483 1628
0 3491 1821
0 3500 2005
0 3509 2182
0 3518 2354
0 3526 2521
0 3535 2683
0 3544 2841
0 3553 2995
0 3561 3144
0 3570 3290
0 3579 3433
0 3588 3573
0 3597 3710
0 3605 3842
0 3614 3970
0 3623 4095
0 3583 0
0 3590 175
0 3596 370
0 3603 580
0 3609 797
0 3616 1009
0 3623 1220
0 3629 1427
0 3636 1628
0 3642 1821
0 3649 2005
0 3655 2182
0 3662 2354
0 3669 2521
0 3675 2683
0 3682 2841
0 3688 2994
0 3695 3144
0 3701 3290
0 3708 3433
0 3715 3573
0 3721 3710
0 3728 3842
0 3734 3970
0 3741 4095
0 3754 0
0 3758 175
0 3763 370
0 3767 580
0 3771 797
0 3776 1009
0 3780 1220
0 3784 1427
0 3789 1628
0 3793 1821
0 3798 2005
0 3802 2182
0 3806 2354
0 3811 2521
0 3815 2683
0 3819 2841
0 3824 2994
0 3828 3144
0 3833 3290
0 3837 3433
0 3841 3573
0 3846 3710
0 3850 3842
0 3854 3970
0 3859 4095
0 3924 0
0 3927 175
0 3929 370
0 3931 580
0 3933 797
0 3935 1009
0 3937 1220
0 3940 1427
0 3942 1628
0 3944 1821
0 3946 2005
0 3948 2182
0 3951 2354
0 3953 2521
0 3955 2683
0 3957 2841
0 3959 2995
0 3961 3144
0 3964 3290
0 3966 3433
0 3968 3573
0 3970 3710
0 3972 3842
0 3975 3970
0 3977 4095
0 4095 0
0 4095 175
0 4095 370
0 4095 581
0 4095 797
0 4095 1009
0 4095 1220
0 4095 1427
0 4095 1628
0 4095 1821
0 4095 2005
0 4095 2182
0 4095 2354
0 4095 2521
0 4095 2683
0 4095 2841
0 4095 2994
0 4095 3144
0 4095 3290
0 4095 3433
0 4095 3573
0 4095 3710
0 4095 3842
0 4095 3970
0 4095 4095
171 0 0
164 0 167
157 0 353
150 0 553
143 0 760
137 0 964
130 0 1173
122 0 1383
115 0 1588
108 0 1786
101 0 1973
94 0 2154
86 0 2329
79 0 2498
72 0 2662
65 0 2824
58 0 2979
50 0 3131
43 0 3280
36 0 3425
29 0 3567
22 0 3705
14 0 3839
7 0 3969
0 0 4095
171 164 0
164 172 167
157 181 353
150 189 553
143 198 760
137 207 964
130 216 1172
122 225 1383
115 234 1587
108 246 1786
101 255 1973
94 265 2154
86 274 2328
79 284 2498
72 293 2663
65 303 2823
58 312 2979
50 322 3131
43 331 3280
36 341 3424
29 350 3566
22 359 3705
14 369 3839
7 378 3969
0 380 4095
171 327 0
164 345 167
157 363 353
150 380 553
143 397 761
137 415 964
130 433 1173
122 452 1383
115 470 1588
108 490 1786
101 507 1973
94 528 2154
86 547 2328
79 566 2498
72 584 2663
65 603 2823
58 619 2979
50 641 3131
43 659 3280
36 678 3424
29 697 3567
22 716 3705
14 735 3839
7 753 3969
0 768 4095
171 491 0
164 516 167
157 541 352
150 567 553
143 592 761
137 617 965
130 643 1173
122 670 1383
115 697 1588
108 724 1785
101 750 1973
94 777 2153
86 804 2328
79 831 2498
72 857 2663
65 884 2823
58 911 2979
50 938 3131
43 965 3279
36 991 3425
29 1018 3567
22 1045 3704
14 1072 3838
7 1099 3969
0 1125 4095
171 654 0
164 685 167
157 715 353
150 746 553
143 777 761
137 807 965
130 839 1173
122 871 1383
115 903 1588
108 936 1785
101 968 1973
94 1000 2153
86 1033 2328
79 1065 2498
72 1098 2663
65 1130 2823
58 1162 2979
50 1195 3131
43 1227 3279
36 1259 3425
29 1292 3567
22 1324 3704
14 1356 3838
7 1389 3969
0 1421 4095
171 817 0
164 850 167
157 883 352
150 917 553
143 950 761
137 983 965
130 1017 1173
122 1052 1384
115 1087 1588
108 1121 1785
101 1157 1974
94 1191 2153
86 1226 2328
79 1261 2498
72 1296 2663
65 1331 2823
58 1367 2979
50 1401 3131
43 1436 3279
36 1471 3424
29 1506 3566
22 1541 3704
14 1576 3839
7 1611 3969
0 1647 4095
171 985 0
164 1020 167
157 1054 353
150 1089 553
143 1123 761
137 1157 965
130 1193 1173
122 1229 1383
115 1266 1588
108 1302 1785
101 1338 1973
94 1375 2153
86 1412 2328
79 1448 2498
72 1484 2663
65 1521 2823
58 1557 2979
50 1593 3131
43 1630 3280
36 1666 3424
29 1703 3567
22 1739 3705
14 1776 3839
7 1812 3969
0 1848 4095
171 1158 0
164 1193 167
157 1228 353
150 1263 553
143 1297 761
137 1332 965
130 1368 1173
122 1405 1383
115 1442 1588
108 1479 1785
101 1516 1973
94 1553 2153
86 1589 2328
79 1626 2498
72 1663 2663
65 1700 2823
58 1737 2979
50 1774 3131
43 1811 3279
36 1847 3424
29 1884 3566
22 1921 3704
14 1958 3839
7 1995 3969
0 2032 4095
171 1331 0
164 1365 167
157 1400 353
150 1434 553
143 1468 761
137 1503 965
130 1538 1173
122 1575 1383
115 1611 1588
108 1648 1785
101 1684 1973
94 1720 2153
86 1757 2328
79 1793 2498
72 1830 2663
65 1866 2823
58 1902 2979
50 1939 3131
43 1975 3279
36 2011 3424
29 2048 3566
22 2085 3705
14 2121 3839
7 2157 3969
0 2193 4095
171 1503 0
164 1537 167
157 1570 353
150 1603 553
143 1636 761
137 1670 965
130 1704 1173
122 1739 1383
115 1774 1588
108 1809 1785
101 1844 1973
94 1879 2153
86 1915 2328
79 1950 2498
72 1985 2663
65 2020 2823
58 2055 2979
50 2090 3131
43 2125 3279
36 2160 3424
29 2196 3566
22 2231 3704
14 2266 3839
7 2301 3969
0 2336 4095
171 1676 0
164 1708 167
157 1739 353
150 1770 553
143 1802 761
137 1833 965
130 1865 1173
122 1899 1383
115 1932 1588
108 1965 1785
101 1998 1973
94 2031 2153
86 2064 2328
79 2098 2498
72 2131 2663
65 2164 2823
58 2197 2979
50 2230 3131
43 2264 3279
36 2297 3424
29 2330 3566
22 2363 3704
14 2396 3839
7 2429 3969
0 2463 4095
