Toning/Toning-Warm-GreenShadows.3dl
#25pt 3DLUT created by 3D LUT Creator Pro (c) Oleg Sharonov
#Copyright Oleg Sharonov
#INPUTGAMMA sRGB IEC61966-2.1 v.2.10
#IMAGEPROFILE sRGB IEC61966-2.1 v.2.10
#OUTPUTGAMMA sRGB IEC61966-2.1 v.2.10
0 43 86 128 171 214 256 299 341 384 427 469 512 555 597 640 682 725 768 810 853 896 938 981 1023 
251 192 70
253 193 71
257 197 73
261 200 76
265 219 135
263 251 244
271 263 397
280 272 548
291 282 700
305 297 851
322 313 1006
339 330 1159
358 348 1310
376 367 1462
395 386 1614
415 406 1767
435 427 1919
456 449 2066
479 473 2214
502 497 2366
527 523 2519
552 547 2671
578 572 2823
605 600 2976
633 628 3128
281 235 86
282 236 86
284 238 88
289 241 92
290 272 197
288 303 304
296 310 449
304 318 597
316 328 749
329 341 896
343 354 1043
359 370 1193
375 385 1341
393 402 1491
412 420 1641
431 439 1791
451 459 1941
472 480 2087
494 503 2236
517 526 2386
542 550 2537
567 573 2687
592 597 2839
619 623 2990
646 650 3142
319 283 103
321 284 103
321 285 105
324 287 108
326 320 225
323 351 336
328 361 480
336 368 631
346 377 780
359 388 932
372 399 1079
387 413 1227
402 427 1374
420 443 1522
437 460 1671
455 478 1820
475 497 1967
496 517 2112
517 538 2258
539 559 2408
563 582 2559
587 604 2708
612 627 2858
638 652 3009
666 679 3156
365 340 123
367 342 124
368 343 124
369 345 127
370 376 243
367 408 361
370 430 497
377 435 654
387 442 807
399 452 960
412 463 1112
427 475 1262
442 488 1410
457 502 1558
474 517 1706
491 533 1854
510 550 2000
529 569 2144
549 588 2290
570 607 2438
593 628 2588
616 648 2736
640 669 2886
665 693 3035
703 729 3157
420 409 147
422 411 148
423 412 148
424 414 150
424 441 258
421 475 384
419 509 503
427 517 664
437 523 824
448 531 981
460 540 1135
473 550 1288
487 561 1439
502 573 1591
517 586 1738
534 601 1888
551 616 2032
569 631 2177
589 649 2324
609 667 2472
630 685 2620
652 703 2768
676 724 2918
712 756 3041
751 792 3159
479 482 172
480 484 173
482 486 174
483 487 175
484 511 268
479 545 400
475 579 524
479 603 664
488 609 830
499 617 993
511 624 1152
524 633 1308
538 643 1463
551 653 1616
566 665 1768
582 677 1918
598 691 2065
615 705 2210
633 720 2358
653 737 2506
673 753 2655
699 772 2796
733 801 2921
769 832 3044
806 865 3164
540 557 199
542 559 200
544 562 201
545 563 202
546 591 261
543 627 398
534 661 524
531 691 656
541 697 828
552 705 996
564 713 1160
578 722 1320
590 730 1478
604 740 1635
618 750 1790
634 761 1943
649 773 2092
666 786 2240
684 800 2389
706 818 2533
735 839 2667
767 862 2798
799 888 2925
833 917 3050
869 947 3171
605 633 228
608 636 229
610 638 230
612 640 230
612 663 262
607 714 384
599 752 513
591 784 643
595 787 819
607 795 992
619 804 1160
632 812 1325
645 820 1486
659 829 1646
673 839 1804
688 849 1959
706 862 2110
728 877 2253
752 895 2393
779 915 2531
809 935 2668
839 957 2802
870 982 2932
903 1008 3059
937 1037 3182
675 714 258
677 716 258
679 718 259
681 720 260
682 728 270
677 801 371
669 843 501
660 880 628
659 883 804
663 886 981
676 896 1154
689 905 1322
705 915 1485
722 926 1646
740 937 1804
759 950 1957
781 964 2106
804 980 2251
829 997 2394
856 1017 2533
885 1036 2674
914 1057 2810
945 1080 2942
976 1105 3070
1009 1133 3195
751 798 289
753 800 290
756 803 291
759 807 292
761 808 292
758 876 385
748 941 487
740 982 616
738 990 787
738 991 965
745 998 1140
761 1010 1311
777 1020 1477
795 1032 1640
815 1044 1800
835 1057 1955
858 1072 2106
882 1088 2253
908 1106 2398
935 1124 2540
963 1142 2682
993 1162 2821
1022 1185 2954
1053 1209 3085
1086 1235 3211
841 892 323
842 893 323
844 895 324
847 898 325
850 901 326
849 959 403
838 1032 498
827 1088 605
824 1102 770
825 1104 948
826 1109 1124
832 1115 1298
850 1126 1467
870 1139 1633
891 1152 1796
913 1166 1954
937 1182 2107
962 1198 2256
988 1216 2402
1016 1234 2546
1044 1252 2691
1073 1271 2833
1103 1293 2967
1134 1317 3098
1165 1340 3227
934 987 358
936 989 358
937 990 359
941 994 360
945 998 362
944 1044 424
934 1119 522
920 1192 605
915 1217 755
915 1220 933
916 1225 1108
918 1230 1282
922 1234 1456
944 1247 1625
967 1261 1791
990 1276 1951
1017 1292 2106
1043 1309 2259
1070 1327 2406
1097 1346 2551
1125 1364 2696
1155 1383 2839
1185 1404 2976
1215 1426 3108
1247 1450 3239
1032 1086 393
1033 1088 394
1035 1089 394
1038 1092 395
1041 1096 396
1043 1131 448
1035 1207 550
1022 1279 640
1010 1340 737
1011 1343 917
1012 1346 1094
1013 1352 1267
1014 1353 1441
1019 1357 1614
1044 1372 1783
1070 1388 1947
1097 1405 2105
1124 1422 2259
1151 1440 2410
1180 1458 2557
1208 1478 2702
1238 1497 2846
1268 1517 2984
1299 1540 3119
1331 1562 3252
1135 1203 451
1135 1204 452
1138 1207 454
1140 1209 455
1143 1214 458
1147 1226 472
1140 1301 581
1130 1368 682
1118 1433 775
1111 1473 900
1112 1474 1079
1114 1478 1254
1115 1480 1428
1116 1481 1600
1121 1484 1774
1149 1502 1941
1177 1518 2102
1205 1536 2259
1233 1554 2413
1263 1573 2563
1292 1592 2710
1322 1612 2853
1353 1633 2994
1384 1654 3130
1416 1675 3266
1242 1336 532
1243 1337 533
1245 1339 534
1248 1342 536
1251 1346 539
1255 1351 542
1252 1400 615
1242 1466 719
1232 1527 819
1222 1581 924
1218 1607 1066
1220 1609 1243
1221 1611 1416
1222 1613 1587
1224 1615 1760
1228 1617 1931
1257 1634 2094
1286 1652 2255
1315 1671 2411
1346 1690 2564
1376 1710 2714
1407 1730 2861
1438 1749 3003
1470 1770 3142
1502 1791 3280
1354 1470 624
1355 1471 625
1357 1473 626
1359 1476 628
1362 1479 630
1366 1484 634
1368 1504 660
1359 1563 771
1349 1624 870
1339 1678 973
1330 1728 1079
1329 1743 1235
1330 1746 1405
1331 1748 1575
1332 1752 1744
1334 1754 1915
1336 1755 2082
1366 1773 2246
1397 1790 2408
1429 1809 2563
1461 1829 2717
1492 1849 2867
1524 1868 3012
1556 1888 3154
1589 1910 3294
1467 1604 717
1468 1605 718
1470 1608 720
1472 1610 721
1475 1613 724
1479 1617 727
1484 1623 732
1478 1668 820
1469 1723 924
1459 1777 1026
1450 1826 1130
1441 1873 1236
1441 1881 1399
1443 1885 1567
1444 1888 1733
1445 1892 1900
1446 1893 2066
1449 1895 2233
1479 1911 2399
1512 1929 2561
1545 1948 2718
1578 1969 2871
1611 1988 3019
1643 2008 3163
1677 2029 3306
1583 1735 818
1584 1737 819
1586 1738 819
1588 1740 822
1590 1743 824
1594 1748 827
1599 1753 831
1599 1775 872
1589 1827 975
1580 1880 1076
1571 1929 1181
1563 1976 1286
1554 2018 1392
1556 2022 1559
1557 2027 1722
1558 2031 1887
1560 2034 2050
1562 2034 2217
1564 2032 2390
1594 2047 2556
1628 2067 2716
1662 2088 2872
1697 2109 3024
1731 2129 3172
1765 2149 3317
1701 1869 919
1702 1870 920
1703 1871 921
1705 1874 923
1708 1877 925
1711 1881 928
1716 1886 932
1720 1891 936
1712 1938 1031
1702 1988 1129
1694 2036 1233
1687 2082 1339
1677 2128 1438
1671 2162 1554
1672 2168 1716
1674 2174 1877
1675 2177 2039
1676 2178 2203
1679 2174 2377
1682 2173 2548
1711 2188 2713
1746 2208 2872
1782 2229 3027
1818 2251 3179
1853 2272 3327
1819 2005 1021
1821 2006 1022
1822 2007 1023
1824 2010 1024
1826 2012 1026
1829 2016 1029
1833 2021 1032
1838 2026 1036
1837 2053 1089
1827 2101 1186
1819 2146 1288
1812 2192 1393
1803 2238 1491
1793 2283 1588
1789 2314 1710
1791 2320 1869
1792 2321 2031
1794 2323 2194
1797 2318 2368
1800 2315 2539
1803 2316 2708
1831 2330 2871
1868 2351 3029
1905 2373 3184
1942 2394 3336
1940 2144 1123
1941 2145 1123
1942 2146 1125
1943 2148 1126
1946 2151 1128
1949 2154 1131
1953 2159 1134
1958 2164 1138
1961 2171 1146
1954 2219 1245
1946 2261 1346
1938 2303 1449
1930 2349 1546
1921 2395 1641
1912 2445 1732
1910 2469 1863
1911 2468 2025
1913 2468 2187
1916 2462 2362
1920 2459 2534
1923 2459 2701
1926 2460 2867
1953 2474 3030
1991 2495 3188
2030 2518 3343
2062 2282 1227
2063 2283 1228
2064 2284 1229
2066 2286 1230
2068 2289 1232
2071 2292 1235
2074 2296 1238
2079 2301 1242
2084 2306 1246
2082 2336 1307
2074 2377 1408
2066 2416 1509
2058 2461 1604
2050 2507 1698
2041 2555 1789
2033 2604 1878
2032 2614 2022
2034 2613 2185
2037 2607 2358
2041 2602 2530
2044 2603 2696
2048 2603 2861
2051 2604 3027
2076 2618 3190
2116 2640 3348
2187 2419 1337
2187 2420 1337
2189 2421 1339
2190 2423 1340
2192 2425 1342
2195 2428 1344
2198 2431 1347
2203 2436 1351
2208 2442 1355
2210 2453 1376
2204 2493 1474
2196 2532 1571
2188 2575 1665
2180 2620 1758
2172 2662 1852
2163 2710 1941
2155 2754 2032
2156 2756 2187
2160 2750 2358
2164 2746 2528
2168 2746 2693
2171 2747 2858
2174 2748 3021
2178 2748 3186
2202 2761 3349
2313 2554 1449
2313 2554 1450
2314 2555 1451
2316 2557 1452
2318 2559 1454
2320 2562 1456
2324 2566 1459
2328 2570 1463
2333 2575 1468
2338 2581 1473
2334 2610 1544
2327 2650 1638
2319 2692 1730
2312 2733 1823
2303 2774 1915
2295 2816 2008
2287 2859 2098
2281 2899 2195
2284 2893 2364
2288 2888 2532
2292 2888 2696
2296 2889 2860
2299 2890 3022
2303 2891 3185
2307 2892 3350
2440 2688 1568
2441 2689 1568
2442 2690 1569
2443 2691 1571
2445 2693 1572
2448 2696 1575
2451 2699 1578
2455 2703 1581
2459 2708 1585
2464 2713 1590
2465 2728 1621
2460 2767 1713
2453 2808 1805
2445 2845 1896
2437 2882 1989
2429 2923 2082
2423 2963 2176
2416 3005 2268
2412 3035 2381
2416 3029 2548
2420 3025 2714
2423 3026 2876
2427 3028 3035
2430 3029 3195
2434 3032 3355
334 193 70
319 194 71
304 197 73
286 200 76
264 221 144
262 253 251
271 263 405
280 272 555
291 282 705
305 297 856
322 313 1006
339 330 1159
358 348 1313
376 367 1465
395 386 1614
415 406 1767
435 427 1919
456 449 2066
479 473 2216
502 497 2368
527 523 2519
552 547 2673
578 572 2823
605 600 2976
633 628 3128
329 251 91
342 262 95
332 263 97
321 258 98
299 276 198
287 302 306
296 310 456
304 318 602
316 328 749
329 341 897
344 355 1047
359 370 1196
376 386 1344
394 403 1493
412 420 1643
431 439 1794
451 459 1943
472 480 2089
494 503 2236
517 526 2387
542 550 2538
567 573 2689
592 597 2840
619 623 2992
646 650 3142
366 304 110
379 313 113
380 314 115
372 311 116
349 331 227
322 352 339
328 361 486
336 368 636
347 377 785
359 388 933
372 400 1082
387 413 1227
403 428 1377
420 443 1525
437 460 1674
455 478 1822
475 497 1967
496 517 2114
517 538 2260
540 560 2410
563 582 2560
587 604 2710
612 627 2860
638 652 3010
666 679 3157
416 363 131
426 370 133
430 374 135
431 375 138
416 399 254
380 416 367
370 430 500
378 436 658
388 443 812
399 452 963
412 463 1113
427 475 1262
442 488 1410
457 502 1558
474 517 1707
491 533 1855
510 550 2000
528 568 2144
549 588 2291
571 608 2440
593 628 2588
616 648 2737
640 670 2886
665 693 3035
703 729 3158
473 433 155
477 437 157
488 443 159
489 445 161
489 474 276
463 496 393
420 511 507
427 517 667
436 523 827
448 531 984
460 540 1138
474 551 1291
488 561 1442
502 573 1591
518 587 1741
534 601 1890
551 616 2034
569 632 2178
589 649 2325
609 667 2473
630 685 2622
653 704 2770
675 724 2918
712 757 3042
751 792 3160
531 506 181
534 509 182
546 517 184
547 518 185
549 545 289
544 578 415
514 598 533
478 603 668
488 609 833
499 616 995
512 625 1155
525 634 1311
538 643 1465
552 654 1618
567 665 1770
582 678 1920
598 691 2066
616 705 2212
633 720 2359
653 737 2507
673 753 2657
699 773 2797
733 801 2922
769 833 3045
807 866 3165
593 582 209
595 584 209
601 588 211
609 593 213
608 631 276
604 664 407
596 699 530
568 714 660
541 697 832
552 705 999
565 713 1163
577 722 1322
591 731 1481
604 740 1637
618 750 1792
634 762 1945
649 773 2094
666 786 2241
684 800 2389
706 817 2533
736 839 2668
767 862 2799
799 888 2926
833 917 3051
869 947 3172
657 658 237
658 659 237
661 662 238
673 669 241
674 700 283
667 751 395
660 789 521
651 820 649
630 808 823
607 795 995
619 804 1162
632 812 1327
645 820 1487
659 829 1648
673 839 1805
688 849 1960
706 861 2110
728 877 2253
753 896 2394
780 915 2532
809 935 2668
839 957 2803
870 982 2932
903 1008 3059
937 1037 3182
724 736 266
726 738 267
727 740 268
738 747 270
741 764 292
734 834 388
726 879 510
717 916 634
716 917 809
695 905 985
676 896 1156
689 905 1324
705 915 1487
722 926 1648
740 938 1805
759 950 1957
781 964 2107
804 980 2253
830 998 2395
856 1017 2535
885 1036 2674
914 1057 2811
945 1081 2943
977 1106 3071
1009 1133 3196
796 821 297
798 822 298
800 824 298
803 828 300
815 835 302
811 909 403
799 976 496
791 1015 623
790 1022 793
790 1023 969
773 1016 1143
761 1010 1313
777 1020 1480
795 1032 1642
815 1044 1802
836 1058 1957
858 1072 2108
883 1088 2255
908 1106 2399
935 1124 2540
964 1143 2684
993 1163 2822
1023 1185 2956
1054 1209 3086
1086 1235 3212
880 911 330
882 912 330
883 914 331
887 917 332
899 925 335
896 989 420
885 1061 512
873 1119 612
871 1131 778
870 1132 954
872 1138 1127
858 1131 1300
850 1126 1470
869 1139 1635
890 1152 1798
913 1166 1955
937 1181 2108
962 1198 2257
989 1216 2403
1016 1234 2547
1044 1252 2692
1073 1271 2833
1103 1293 2967
1134 1316 3099
1166 1341 3227
