Toning/Toning-Cool Shadows.3dl
#25pt 3DLUT created by 3D LUT Creator Pro (c) Oleg Sharonov
#Copyright Oleg Sharonov
#IMAGEPROFILE sRGB IEC61966-2.1 v.2.10
#INPUTGAMMA sRGB IEC61966-2.1 v.2.10
#OUTPUTGAMMA sRGB IEC61966-2.1 v.2.10
0 43 86 128 171 214 256 299 341 384 427 469 512 555 597 640 682 725 768 810 853 896 938 981 1023 
0 0 0
0 0 54
0 0 143
0 0 290
0 0 446
0 0 604
0 0 772
0 0 948
0 0 1120
0 0 1304
0 0 1485
0 0 1651
0 0 1800
0 0 1951
0 0 2108
0 0 2268
0 0 2434
0 0 2601
0 0 2771
0 0 2945
0 0 3118
0 0 3293
0 0 3468
0 0 3643
8 268 3800
0 82 0
0 86 86
0 86 206
0 90 350
0 93 501
0 97 656
0 100 820
0 107 990
0 110 1160
0 112 1331
0 108 1492
0 106 1645
0 102 1795
0 101 1949
0 100 2108
0 99 2270
0 98 2435
0 97 2605
0 101 2776
0 102 2950
0 103 3124
0 105 3299
0 111 3475
0 115 3649
19 306 3805
0 232 1
0 232 100
0 235 235
0 238 385
0 244 539
0 249 699
0 255 862
0 258 1022
0 258 1181
0 256 1335
0 254 1485
0 247 1636
0 243 1793
0 240 1951
0 241 2112
0 241 2276
0 242 2443
0 243 2611
0 247 2783
0 251 2958
0 253 3132
0 258 3307
0 263 3483
0 274 3656
34 405 3811
0 409 0
0 411 115
0 411 258
0 413 413
0 413 566
0 413 719
0 411 871
0 411 1022
0 409 1172
0 406 1322
0 403 1478
0 398 1633
0 396 1791
0 397 1952
0 396 2116
0 397 2283
0 396 2454
0 398 2624
0 401 2797
0 406 2972
0 413 3146
0 421 3321
0 431 3495
0 446 3668
59 545 3820
0 560 0
0 560 111
0 560 255
0 560 407
0 559 559
0 559 712
0 557 862
0 557 1014
0 557 1167
0 556 1320
0 555 1478
0 552 1636
0 552 1797
0 553 1960
0 555 2126
0 557 2295
0 561 2467
0 564 2638
0 570 2812
0 576 2987
0 583 3162
0 592 3337
0 603 3511
0 617 3683
90 702 3831
0 709 0
0 709 111
0 709 255
0 709 405
0 709 557
0 710 710
0 711 863
0 711 1016
0 710 1169
0 710 1326
0 709 1485
0 709 1646
0 712 1809
0 714 1975
0 717 2143
0 721 2313
0 727 2486
0 732 2658
0 739 2832
0 747 3008
0 754 3182
0 765 3357
0 776 3531
0 794 3700
129 869 3845
0 866 0
0 866 111
0 866 255
0 866 409
0 867 562
0 867 714
0 868 868
0 869 1023
0 871 1179
0 870 1338
0 871 1500
0 873 1662
0 876 1827
0 880 1994
0 885 2164
0 890 2335
0 896 2508
0 902 2681
0 910 2856
0 919 3032
0 928 3207
0 940 3381
0 951 3554
0 978 3718
172 1042 3860
0 1029 0
0 1030 114
0 1030 261
0 1030 415
0 1031 569
0 1032 723
0 1033 879
0 1035 1035
0 1036 1193
0 1037 1354
0 1040 1517
0 1043 1682
0 1046 1849
0 1051 2018
0 1057 2189
0 1063 2361
0 1070 2535
0 1078 2709
0 1087 2884
0 1096 3059
0 1107 3234
0 1118 3408
0 1131 3580
0 1164 3738
222 1220 3877
0 1199 0
0 1199 117
0 1199 266
0 1200 422
0 1201 577
0 1203 733
0 1205 890
0 1207 1048
0 1209 1209
0 1212 1373
0 1215 1538
0 1219 1705
0 1223 1874
0 1229 2044
0 1235 2217
0 1242 2390
0 1250 2564
0 1258 2739
0 1267 2914
0 1277 3090
0 1288 3264
0 1300 3437
0 1314 3608
68 1351 3758
275 1402 3895
0 1375 0
0 1375 118
0 1376 270
0 1377 428
0 1379 585
0 1382 742
0 1384 901
0 1387 1063
0 1390 1227
0 1393 1393
0 1397 1560
0 1401 1729
0 1406 1901
0 1412 2073
0 1419 2246
0 1426 2421
0 1434 2596
0 1443 2772
0 1453 2947
0 1463 3122
0 1474 3295
0 1486 3468
0 1504 3634
139 1541 3778
333 1588 3912
0 1559 0
0 1560 118
0 1561 272
0 1562 432
0 1564 592
0 1567 752
0 1570 915
0 1572 1079
0 1576 1246
0 1580 1415
0 1584 1584
0 1589 1755
0 1595 1928
0 1601 2103
0 1608 2277
0 1615 2453
0 1623 2628
0 1632 2805
0 1642 2980
0 1653 3155
0 1664 3328
0 1677 3500
0 1699 3657
212 1734 3798
395 1777 3929
0 1748 0
0 1749 119
0 1751 275
0 1752 439
0 1754 600
0 1758 765
0 1761 931
0 1764 1098
0 1768 1267
0 1773 1437
0 1778 1609
0 1783 1783
0 1788 1957
0 1794 2133
0 1801 2309
0 1809 2485
0 1817 2662
0 1826 2838
0 1836 3014
0 1846 3188
0 1857 3361
0 1870 3530
88 1895 3679
286 1927 3816
461 1968 3945
0 1944 0
0 1945 122
0 1947 276
0 1949 445
0 1952 612
0 1955 779
0 1958 947
0 1962 1116
0 1967 1288
0 1971 1461
0 1976 1635
0 1981 1810
0 1986 1986
0 1992 2163
0 1999 2340
0 2006 2518
0 2015 2696
0 2023 2872
0 2032 3047
0 2043 3222
0 2054 3393
0 2070 3555
182 2093 3699
364 2123 3833
531 2160 3959
0 2145 0
0 2146 125
0 2150 282
0 2152 453
0 2154 623
0 2157 793
0 2161 964
0 2165 1136
0 2169 1310
0 2173 1485
0 2179 1661
0 2183 1838
0 2189 2016
0 2194 2194
0 2201 2373
0 2208 2551
0 2215 2729
0 2223 2905
0 2232 3081
0 2242 3255
0 2253 3425
80 2269 3576
274 2291 3717
445 2319 3848
606 2352 3971
0 2353 0
0 2353 128
0 2356 288
0 2359 462
0 2361 636
0 2364 808
0 2368 982
0 2371 1156
0 2375 1333
0 2380 1510
0 2384 1688
0 2389 1866
0 2394 2046
0 2399 2226
0 2405 2405
0 2411 2584
0 2418 2762
0 2425 2939
0 2434 3114
0 2442 3287
0 2454 3448
194 2469 3595
369 2488 3732
531 2513 3861
685 2543 3982
0 2564 0
0 2565 131
0 2568 297
0 2570 470
0 2572 647
0 2575 824
0 2578 1000
0 2582 1178
0 2585 1356
0 2589 1535
0 2593 1715
0 2597 1896
0 2601 2076
0 2606 2257
0 2611 2437
0 2616 2616
0 2622 2795
0 2629 2971
0 2636 3146
0 2644 3315
130 2653 3468
306 2667 3611
467 2685 3745
622 2705 3872
774 2728 3991
0 2778 0
0 2779 135
0 2782 304
0 2785 480
0 2787 661
0 2789 840
0 2791 1019
0 2794 1199
0 2797 1379
0 2800 1561
0 2804 1743
0 2807 1924
0 2810 2106
0 2814 2288
0 2818 2469
0 2822 2649
0 2827 2827
0 2833 3003
0 2837 3176
90 2842 3336
261 2850 3485
420 2861 3625
574 2874 3757
725 2888 3881
872 2904 3999
0 2995 0
0 2995 140
0 2998 313
0 3000 493
0 3002 676
0 3004 857
0 3005 1039
0 3008 1222
0 3010 1404
0 3012 1587
0 3015 1770
0 3017 1953
0 3019 2137
0 3022 2319
0 3024 2500
0 3028 2681
0 3031 2859
0 3033 3033
87 3033 3198
246 3036 3354
397 3040 3500
547 3045 3638
693 3052 3767
837 3061 3890
979 3071 4007
0 3213 0
0 3214 145
0 3216 321
0 3217 505
0 3218 691
0 3219 876
0 3221 1060
0 3222 1245
0 3223 1429
0 3224 1614
0 3226 1799
0 3227 1983
0 3228 2167
0 3229 2350
0 3230 2532
0 3231 2712
0 3227 2888
133 3223 3059
268 3220 3220
406 3218 3372
544 3218 3515
683 3219 3650
821 3222 3778
958 3226 3899
1092 3231 4015
0 3431 0
0 3431 152
0 3433 332
0 3434 522
0 3434 710
0 3434 895
0 3435 1082
0 3435 1269
0 3435 1455
0 3435 1641
0 3435 1828
0 3434 2013
0 3434 2199
0 3429 2383
17 3423 2565
120 3416 2743
220 3408 2918
328 3401 3084
446 3394 3241
570 3389 3389
696 3386 3529
826 3383 3662
955 3382 3788
1083 3382 3908
1209 3383 4023
0 3647 0
0 3648 159
0 3648 352
0 3647 542
0 3647 729
0 3647 918
0 3646 1106
0 3644 1295
0 3640 1486
0 3635 1676
0 3630 1865
58 3623 2052
121 3615 2237
187 3607 2421
258 3597 2601
333 3587 2778
418 3576 2948
516 3566 3109
622 3558 3262
735 3550 3407
852 3543 3543
971 3538 3673
1091 3534 3797
1210 3530 3916
1323 3529 4032
75 3837 331
78 3837 375
84 3837 491
93 3836 645
105 3833 815
122 3830 992
142 3826 1174
166 3822 1359
194 3816 1544
226 3809 1730
263 3801 1915
305 3792 2100
352 3782 2283
404 3770 2464
463 3758 2642
530 3746 2815
610 3734 2979
699 3722 3135
797 3711 3283
900 3702 3424
1008 3693 3558
1118 3685 3685
1228 3679 3808
1333 3673 3926
1433 3670 4041
329 4004 568
331 4004 595
335 4003 674
342 4002 791
352 3999 935
364 3995 1094
380 3990 1263
399 3984 1438
422 3977 1616
449 3968 1796
480 3958 1977
516 3947 2157
557 3935 2336
604 3922 2514
657 3908 2687
721 3895 2853
796 3881 3010
878 3869 3161
968 3857 3304
1063 3845 3441
1162 3835 3571
1261 3826 3697
1356 3818 3818
1448 3812 3936
1536 3807 4052
591 4095 813
594 4095 834
597 4095 889
599 4095 977
600 4095 1090
599 4095 1223
597 4095 1369
608 4095 1530
629 4095 1699
652 4095 1872
681 4095 2046
713 4091 2221
750 4078 2395
793 4064 2566
846 4049 2731
907 4035 2889
976 4021 3041
1053 4007 3186
1135 3995 3325
1222 3983 3458
1308 3972 3586
1393 3962 3710
1476 3954 3830
1557 3947 3947
1634 3942 4063
1102 4095 1292
1104 4095 1304
1108 4095 1336
1112 4095 1391
1117 4095 1465
1122 4095 1557
1129 4095 1665
1136 4095 1784
1143 4095 1914
1151 4095 2052
1159 4095 2196
1168 4095 2343
1177 4095 2493
1190 4095 2641
1208 4095 2787
1231 4095 2931
1258 4095 3072
1290 4095 3209
1324 4095 3344
1368 4095 3475
1442 4095 3601
1515 4095 3723
1588 4088 3843
1658 4081 3960
1725 4076 4076
1 1 1
1 1 68
0 1 169
0 1 314
0 0 465
0 0 630
0 0 788
0 0 961
0 0 1139
0 0 1315
0 0 1494
0 0 1651
0 0 1800
0 0 1955
0 0 2110
0 0 2274
0 0 2438
0 0 2605
0 0 2776
0 0 2949
0 0 3123
0 0 3298
0 0 3472
0 0 3646
42 272 3801
1 87 1
1 191 191
0 148 319
0 126 436
0 115 568
0 111 709
0 110 863
0 112 1026
0 111 1194
0 85 1355
0 0 1512
0 0 1661
0 0 1811
0 0 1965
0 0 2123
0 0 2285
0 0 2452
0 0 2619
0 0 2790
0 0 2963
0 0 3136
0 0 3311
0 0 3486
0 0 3660
61 317 3810
1 238 1
0 328 155
0 331 331
0 294 458
0 278 598
0 272 744
0 269 898
0 266 1049
0 264 1202
0 253 1353
0 237 1504
0 229 1656
0 224 1809
0 217 1967
0 217 2127
0 220 2290
0 221 2457
0 221 2627
0 225 2798
0 226 2970
0 228 3145
0 230 3320
0 236 3495
0 251 3666
77 416 3817
0 412 0
0 469 141
0 469 302
0 469 469
0 447 608
0 436 753
0 427 899
0 421 1043
0 416 1191
0 409 1344
0 399 1498
0 394 1652
0 391 1810
0 389 1971
0 388 2134
0 386 2300
0 388 2468
0 387 2637
0 390 2811
0 394 2984
0 399 3158
0 409 3332
0 419 3506
0 431 3678
97 552 3825
0 561 0
0 602 126
0 602 281
0 602 442
0 602 602
0 588 745
0 580 891
0 572 1038
0 569 1188
0 564 1343
0 557 1500
0 552 1656
0 552 1817
0 551 1979
0 552 2144
0 554 2312
0 557 2481
0 559 2653
0 564 2826
0 570 3000
0 576 3173
0 584 3348
0 596 3521
0 617 3691
126 708 3836
0 710 0
0 744 122
0 744 272
0 744 431
0 745 588
0 746 746
0 736 892
0 730 1040
0 726 1193
0 720 1348
0 715 1508
0 714 1666
0 714 1828
0 716 1992
0 718 2159
0 720 2328
0 725 2500
0 730 2672
0 736 2845
0 743 3020
0 750 3194
0 760 3368
0 770 3541
0 800 3706
162 874 3850
0 867 0
0 896 117
0 896 269
0 896 427
0 897 583
0 898 741
0 899 899
0 892 1048
0 887 1203
0 883 1362
0 881 1521
0 880 1681
0 882 1846
0 884 2012
0 888 2181
0 892 2351
0 896 2522
0 902 2695
0 910 2870
0 917 3044
0 927 3217
0 937 3391
0 948 3564
0 983 3724
203 1046 3865
0 1031 0
0 1055 119
0 1055 269
0 1055 426
0 1056 584
0 1057 742
0 1058 901
0 1060 1060
0 1056 1216
0 1053 1376
0 1052 1537
0 1052 1701
0 1054 1866
0 1057 2034
0 1061 2204
0 1067 2376
0 1073 2549
0 1079 2722
0 1087 2896
0 1096 3071
0 1106 3245
0 1117 3418
0 1130 3590
44 1169 3743
251 1225 3882
0 1201 0
0 1221 113
0 1222 269
0 1223 429
0 1224 588
0 1225 746
0 1228 906
0 1230 1067
0 1232 1232
0 1230 1394
0 1229 1558
0 1230 1723
0 1233 1891
0 1236 2061
0 1241 2231
0 1247 2404
0 1253 2578
0 1261 2752
0 1269 2927
0 1278 3101
0 1289 3274
0 1300 3448
0 1316 3616
109 1355 3762
303 1408 3899
0 1377 0
0 1398 82
0 1399 263
0 1400 427
0 1402 590
0 1404 751
0 1407 914
0 1409 1078
0 1410 1245
0 1413 1413
0 1413 1579
0 1414 1747
0 1417 1917
0 1421 2088
0 1426 2260
0 1432 2434
0 1439 2608
0 1447 2784
0 1456 2958
0 1465 3132
0 1476 3306
0 1488 3478
0 1509 3640
176 1546 3783
359 1593 3916
0 1561 0
0 1583 0
0 1583 254
0 1584 426
0 1586 592
0 1587 757
0 1590 924
0 1592 1091
0 1595 1260
0 1598 1430
0 1602 1602
0 1603 1772
0 1606 1944
0 1611 2117
0 1616 2291
0 1622 2465
0 1629 2640
0 1637 2816
0 1646 2991
0 1656 3165
0 1667 3338
0 1679 3509
43 1704 3662
245 1738 3802
420 1782 3933
