Toning/Toning-Magenta.3dl
#25pt 3DLUT created by 3D LUT Creator Pro (c) Oleg Sharonov
#Copyright Oleg Sharonov
#IMAGEPROFILE 
#INPUTGAMMA 
#OUTPUTGAMMA 
0 256 512 768 1023
0 0 84
71 12 482
353 219 1148
742 581 1784
1169 1001 2295
552 744 823
530 800 1105
701 889 1801
1054 1087 2225
1408 1372 2649
1495 1921 1755
1511 1937 1845
1454 1998 2144
1607 2033 2790
1802 2139 3207
2257 2855 2483
2264 2864 2532
2256 2896 2713
2209 2962 3023
2368 2978 3681
3277 3665 3396
3288 3671 3418
3324 3687 3488
3354 3727 3624
3422 3784 3794
344 167 366
661 127 865
760 360 1420
1021 697 1927
1362 1089 2393
882 877 862
1005 882 1197
1110 966 1863
1320 1168 2276
1574 1419 2783
1566 1986 1727
1692 1973 1889
1672 2028 2175
1762 2069 2810
1889 2160 3334
2290 2892 2469
2355 2885 2558
2362 2915 2727
2318 2979 3040
2444 2999 3704
3317 3683 3415
3327 3689 3437
3361 3706 3506
3396 3744 3641
3462 3801 3810
1068 784 897
1343 734 1090
1689 678 1820
1753 961 2240
1865 1315 2646
1462 1254 1173
1567 1243 1453
1900 1167 2009
1941 1351 2464
2043 1573 2958
2004 2104 1811
2046 2105 1935
2171 2110 2265
2227 2151 2860
2284 2168 3744
2461 2988 2472
2490 2991 2538
2651 2975 2792
2635 3031 3099
2670 3063 3777
3438 3740 3485
3448 3746 3503
3478 3763 3564
3525 3797 3692
3583 3854 3862
1785 1491 1459
1902 1473 1552
2181 1411 1946
2487 1342 2567
2549 1587 2985
1986 1763 1624
2079 1738 1844
2333 1688 2151
2622 1634 2695
2734 1754 3211
2447 2338 1988
2486 2333 2138
2591 2336 2410
2896 2271 2955
3095 2228 3747
2914 3110 2557
2939 3110 2630
3012 3114 2845
3147 3118 3193
3188 3138 3888
3674 3833 3655
3680 3839 3667
3697 3862 3701
3739 3898 3787
3796 3951 3956
2357 2071 1936
2430 2064 1986
2726 2000 2166
2953 1970 2673
3251 1917 3293
2496 2234 2032
2534 2239 2070
2823 2177 2251
3109 2107 2784
3414 2025 3448
2864 2674 2291
2891 2679 2313
3004 2683 2426
3515 2506 3014
3714 2452 3734
3357 3315 2690
3375 3321 2699
3441 3336 2733
3582 3330 3105
3870 3247 3882
3953 3983 3908
3961 3989 3918
3984 4007 3949
4028 4042 4007
4095 4095 4095
