Toning/Toning-Greenish.3dl
#25pt 3DLUT created by 3D LUT Creator Pro (c) Oleg Sharonov
#Copyright Oleg Sharonov
#IMAGEPROFILE sRGB IEC61966-2.1 v.2.10
#INPUTGAMMA sRGB IEC61966-2.1 v.2.10
#OUTPUTGAMMA sRGB IEC61966-2.1 v.2.10
0 128 256 384 512 640 768 896 1023
0 0 0
0 0 62
0 0 548
0 0 1170
0 0 1823
0 0 2458
0 0 3025
0 0 3505
200 126 3698
0 187 0
0 193 58
0 193 554
0 193 1172
0 193 1824
0 193 2459
0 194 3027
0 240 3459
415 543 3577
0 842 0
0 845 56
0 847 553
0 848 1174
0 848 1823
0 848 2455
55 884 2898
412 965 3207
730 1096 3430
0 1528 0
0 1532 92
0 1533 570
0 1535 1166
92 1532 1768
321 1536 2311
567 1555 2759
818 1600 3101
1067 1675 3360
380 2175 114
385 2177 297
397 2178 700
415 2181 1219
442 2186 1793
693 2179 2324
941 2183 2764
1181 2204 3106
1413 2245 3372
940 2735 557
943 2735 687
951 2737 976
966 2740 1393
986 2744 1884
1014 2751 2397
1283 2743 2834
1531 2746 3171
1761 2763 3435
1522 3178 1108
1525 3179 1193
1532 3180 1393
1544 3182 1703
1561 3186 2092
1585 3192 2516
1615 3199 2935
1878 3192 3267
2112 3194 3528
2113 3529 1727
2115 3530 1782
2121 3531 1915
2130 3533 2132
2146 3537 2414
2166 3541 2736
2192 3548 3065
2225 3557 3383
2465 3550 3639
2921 3781 2663
2924 3781 2688
2933 3782 2750
2949 3783 2853
2973 3785 2991
3005 3787 3154
3046 3791 3330
3094 3796 3510
3148 3803 3687
264 0 0
265 0 55
269 0 551
270 0 1173
270 0 1821
270 0 2457
271 0 3027
272 0 3504
543 197 3655
267 191 0
271 195 58
252 177 666
159 89 1525
0 0 2352
0 0 2905
83 18 3220
374 290 3411
667 576 3550
267 844 0
243 854 41
248 854 558
227 851 1200
233 849 1856
305 856 2433
456 894 2877
663 979 3192
896 1112 3420
342 1530 0
348 1533 97
355 1535 573
369 1536 1167
464 1534 1767
601 1540 2310
774 1561 2756
971 1609 3099
1182 1685 3359
646 2177 121
649 2178 304
658 2180 705
670 2183 1222
691 2188 1795
880 2182 2326
1082 2188 2766
1290 2210 3108
1497 2252 3374
1090 2737 564
1092 2737 695
1099 2739 983
1111 2742 1398
1129 2746 1887
1155 2753 2400
1389 2746 2836
1614 2750 3173
1826 2768 3437
1612 3180 1116
1614 3181 1200
1620 3182 1400
1631 3184 1709
1648 3188 2096
1670 3193 2520
1699 3201 2937
1942 3194 3269
2162 3197 3530
2167 3531 1734
2169 3532 1788
2175 3533 1922
2184 3535 2137
2198 3538 2419
2218 3543 2740
2244 3550 3068
2275 3558 3385
2532 3550 3633
2948 3782 2676
2965 3779 2717
2973 3780 2776
2989 3781 2876
3011 3783 3008
3043 3786 3167
3081 3790 3338
3127 3795 3514
3179 3802 3687
929 0 0
930 0 54
932 0 552
934 0 1173
933 0 1822
933 0 2457
934 0 3024
944 0 3448
1039 338 3571
930 191 0
998 159 35
980 158 595
1001 97 1329
986 19 2075
948 21 2668
934 162 3061
982 391 3316
1092 654 3496
930 844 0
935 849 44
936 850 555
935 849 1182
938 852 1820
954 869 2389
1003 920 2836
1094 1015 3161
1224 1154 3400
958 1532 0
962 1535 108
966 1536 580
971 1539 1169
1010 1540 1767
1073 1550 2306
1166 1578 2752
1287 1630 3095
1432 1711 3357
1108 2182 138
1110 2183 323
1115 2185 716
1124 2188 1230
1136 2193 1801
1249 2190 2331
1382 2199 2770
1531 2225 3112
1690 2269 3378
1403 2742 585
1405 2743 714
1411 2744 998
1420 2747 1410
1434 2752 1896
1453 2758 2406
1627 2754 2842
1804 2760 3179
1978 2780 3443
1816 3185 1135
1818 3185 1219
1823 3187 1416
1833 3189 1723
1847 3193 2107
1866 3198 2528
1891 3205 2943
2093 3200 3275
2282 3204 3536
2297 3535 1752
2298 3536 1806
2303 3537 1938
2312 3539 2152
2325 3543 2432
2343 3547 2750
2366 3554 3075
2395 3563 3391
2679 3549 3620
3015 3784 2709
3030 3781 2748
3066 3776 2840
3079 3778 2929
3099 3780 3051
3127 3783 3197
3160 3788 3356
3202 3794 3522
3248 3801 3686
1581 0 0
1586 0 53
1585 0 551
1586 0 1172
1587 0 1824
1587 0 2458
1582 0 3008
1540 158 3283
1544 519 3476
1584 191 0
1671 114 7
1654 124 570
1629 138 1216
1623 130 1886
1593 184 2469
1556 326 2907
1542 532 3213
1567 773 3433
1585 845 0
1587 849 54
1586 851 555
1583 855 1169
1573 868 1786
1563 903 2342
1563 971 2791
1586 1079 3126
1640 1223 3377
1582 1538 0
1585 1540 127
1587 1543 593
1589 1545 1174
1595 1552 1769
1611 1571 2305
1645 1608 2749
1701 1669 3092
1752 1725 3463
1649 2191 169
1651 2192 354
1653 2194 739
1658 2197 1245
1666 2203 1810
1718 2205 2340
1788 2220 2779
1875 2251 3120
1942 2292 3453
1825 2752 621
1827 2752 746
1831 2754 1025
1838 2757 1431
1848 2761 1912
1861 2768 2418
1970 2767 2853
2089 2777 3189
2175 2800 3494
2119 3193 1170
2121 3194 1252
2125 3195 1445
2132 3197 1748
2143 3201 2127
2158 3206 2543
2179 3214 2954
2327 3211 3285
2434 3221 3570
2500 3543 1785
2501 3543 1838
2506 3545 1968
2513 3547 2178
2524 3550 2454
2539 3555 2767
2559 3562 3088
2584 3570 3401
2853 3555 3614
3122 3788 2766
3134 3786 2802
3163 3781 2888
3197 3777 2999
3216 3780 3109
3240 3783 3240
3270 3788 3386
3307 3794 3537
3349 3802 3687
2200 0 0
2202 0 51
2203 0 552
2204 0 1173
2203 0 1823
2162 0 2396
2104 134 2843
2051 427 3166
2021 720 3403
2202 191 0
2223 170 38
2212 185 553
2196 212 1170
2178 248 1797
2139 344 2356
2091 498 2805
2051 698 3137
2034 925 3384
2160 874 0
2161 878 116
2159 883 582
2156 892 1159
2153 905 1769
2121 961 2312
2092 1049 2759
2075 1171 3100
2080 1323 3360
2155 1556 48
2156 1558 235
2156 1561 658
2158 1567 1194
2161 1575 1779
2146 1605 2311
2139 1655 2752
2147 1728 3095
2180 1788 3452
2194 2206 217
2194 2207 399
2196 2209 772
2199 2212 1268
2204 2218 1826
2213 2228 2356
2234 2252 2793
2270 2291 3133
2255 2274 3721
2287 2767 674
2288 2767 794
2291 2769 1065
2295 2772 1463
2302 2776 1936
2311 2783 2435
2365 2788 2870
2429 2803 3205
2389 2820 3669
2477 3206 1220
2478 3206 1300
2482 3208 1489
2487 3210 1785
2495 3214 2157
2507 3219 2566
2522 3226 2970
2616 3227 3301
2637 3243 3630
2756 3555 1833
2757 3555 1885
2760 3556 2012
2766 3559 2217
2775 3562 2486
2787 3567 2793
2803 3574 3108
2822 3582 3416
3010 3573 3636
3259 3794 2846
3268 3793 2880
3290 3789 2958
3319 3785 3063
3307 3795 3131
3328 3798 3261
3354 3803 3405
3384 3808 3555
3420 3815 3703
2690 0 0
2688 0 119
2680 0 581
2667 12 1149
2651 89 1742
2638 174 2320
2575 411 2768
2512 668 3107
2463 932 3364
2662 364 0
2661 371 162
2655 388 603
2647 415 1153
2638 454 1737
2630 504 2311
2571 676 2758
2515 879 3099
2473 1101 3359
2631 969 86
2631 973 266
2629 981 667
2627 994 1179
2626 1014 1742
2625 1041 2306
2576 1152 2749
2534 1289 3092
2506 1450 3356
2633 1610 263
2633 1612 432
2634 1616 778
2635 1625 1248
2638 1637 1781
2642 1654 2327
2608 1720 2766
2584 1806 3108
2597 1874 3449
2671 2233 494
2672 2234 632
2673 2237 931
2676 2242 1359
2680 2250 1859
2686 2261 2379
2673 2295 2815
2670 2344 3154
2720 2312 3703
2738 2788 743
2738 2788 858
2740 2790 1119
2742 2793 1506
2747 2797 1969
2753 2804 2459
2764 2816 2893
2786 2838 3227
2791 2843 3688
2847 3224 1289
2848 3224 1365
2850 3225 1548
2853 3228 1835
2859 3231 2198
2867 3237 2598
2878 3244 2993
2925 3250 3322
2936 3265 3657
3033 3571 1899
3034 3571 1949
3036 3573 2071
3041 3575 2269
3047 3578 2531
3107 3570 2889
3132 3578 3162
3155 3584 3419
3189 3594 3663
3411 3804 2947
3417 3803 2977
3433 3800 3046
3455 3797 3143
3448 3805 3201
3434 3818 3282
3454 3821 3426
3478 3826 3575
3506 3832 3724
3016 406 185
3015 414 355
3012 435 711
3007 469 1183
3002 517 1709
2998 578 2245
2996 651 2750
2927 900 3093
2866 1152 3357
3007 671 240
3006 677 404
3004 692 744
3001 718 1202
2998 754 1719
2996 801 2249
2997 860 2751
2931 1072 3094
2874 1293 3359
2999 1148 374
2999 1152 518
2998 1161 825
2998 1177 1255
2998 1201 1752
3000 1234 2268
3005 1275 2762
2947 1429 3103
2899 1599 3369
3011 1718 569
3012 1720 690
3012 1726 960
3014 1737 1353
3017 1753 1820
3021 1774 2314
3028 1802 2791
2983 1904 3130
2979 1981 3457
3051 2295 806
3051 2296 908
3053 2300 1143
3055 2307 1497
3059 2317 1929
3064 2332 2392
3072 2350 2845
3043 2411 3182
3120 2368 3683
3114 2817 1075
3115 2818 1162
3116 2821 1365
3118 2824 1680
3122 2831 2073
3128 2840 2502
3136 2851 2923
3126 2882 3256
3161 2881 3676
3196 3247 1374
3197 3247 1447
3198 3249 1622
3200 3251 1899
3204 3255 2250
3210 3260 2638
3217 3267 3022
3227 3277 3376
3241 3290 3698
3313 3592 1982
3315 3594 2033
3317 3595 2148
3319 3596 2337
3322 3598 2586
3357 3589 2965
3352 3602 3184
3368 3609 3450
3389 3619 3701
3565 3818 3060
3568 3817 3086
3577 3815 3145
3592 3813 3234
3591 3819 3284
3585 3829 3350
3568 3843 3439
3584 3846 3593
3604 3850 3745
3285 857 559
3285 864 674
3284 879 929
3283 905 1303
3283 944 1749
3284 994 2223
3286 1056 2688
3292 1129 3109
3223 1377 3374
3285 1036 609
3284 1041 719
3284 1054 965
3284 1077 1330
3284 1109 1768
3286 1153 2236
3290 1208 2697
3297 1273 3115
3230 1498 3380
3290 1401 725
3290 1405 825
3290 1415 1054
3291 1432 1398
3293 1457 1818
3296 1491 2272
3302 1534 2721
3310 1586 3131
3249 1765 3396
3310 1885 906
3310 1887 995
3311 1894 1200
3313 1906 1516
3316 1924 1909
3321 1949 2339
3328 1980 2769
3337 2018 3164
3319 2105 3476
3352 2399 1142
3352 2401 1218
3353 2405 1399
3355 2413 1683
3359 2426 2042
3364 2442 2442
3372 2464 2844
3381 2491 3218
3456 2451 3662
3413 2875 1420
3413 2877 1485
3415 2879 1641
3417 2885 1891
3421 2892 2214
3426 2903 2577
3434 2917 2944
3443 2935 3291
3480 2935 3664
3492 3276 1734
3492 3277 1789
3493 3278 1922
3496 3282 2138
3500 3286 2420
3502 3294 2746
3524 3299 3063
3529 3311 3393
3536 3326 3696
3582 3614 2072
3582 3614 2117
3583 3615 2227
3585 3617 2407
3586 3617 2714
3586 3616 3057
3596 3626 3245
3605 3635 3482
3614 3643 3753
3709 3835 3176
3710 3834 3197
3714 3833 3247
3721 3832 3323
3724 3836 3374
3724 3843 3425
3720 3853 3494
3704 3865 3597
3714 3866 3765
3514 1299 949
3514 1304 1027
3515 1317 1211
3516 1339 1499
3518 1371 1862
3521 1414 2266
3527 1468 2676
3535 1533 3060
3545 1607 3410
3518 1426 991
3518 1431 1068
3519 1442 1248
3520 1462 1529
3523 1491 1886
3526 1531 2284
3532 1581 2689
3540 1641 3070
3551 1710 3417
3530 1706 1096
3530 1710 1168
3531 1720 1337
3533 1736 1604
3536 1760 1947
3540 1793 2331
3547 1835 2724
3555 1886 3095
3567 1944 3435
3555 2102 1266
3556 2105 1331
3557 2112 1485
3602 2082 1689
3604 2101 2034
3607 2126 2418
3612 2158 2807
3619 2197 3172
3628 2243 3507
3598 2543 1495
3598 2546 1551
3600 2550 1688
3634 2538 1866
3766 2448 2066
3761 2467 2508
3756 2492 2930
3751 2524 3307
3745 2564 3642
3659 2963 1771
3659 2965 1820
3660 2968 1938
3684 2965 2088
3738 2949 2288
3764 2946 2629
3761 2963 3003
3758 2984 3345
3756 3011 3656
3736 3327 2087
3736 3328 2128
3725 3333 2278
3716 3340 2467
3732 3343 2639
3756 3346 2858
3792 3346 3122
3792 3361 3421
3792 3378 3697
3768 3638 2771
3765 3639 2808
3761 3641 2893
3756 3644 3003
3768 3649 3080
3784 3655 3185
3807 3660 3324
3843 3661 3515
3843 3670 3755
3837 3853 3283
3837 3853 3301
3837 3853 3343
3837 3853 3407
3839 3855 3463
3844 3859 3501
3850 3865 3553
3856 3870 3630
3858 3872 3772
