Toning/Toning-Warm-BlueShadows.3dl
#25pt 3DLUT created by 3D LUT Creator Pro (c) Oleg Sharonov
#Copyright Oleg Sharonov
#IMAGEPROFILE sRGB IEC61966-2.1 v.2.10
#INPUTGAMMA sRGB IEC61966-2.1 v.2.10
#OUTPUTGAMMA sRGB IEC61966-2.1 v.2.10
0 128 256 384 512 640 768 896 1023
0 0 435
9 9 593
40 40 807
90 89 1102
169 168 1474
258 256 1893
346 343 2338
434 430 2813
523 518 3304
195 307 434
193 310 592
218 326 833
242 344 1159
266 363 1565
329 413 1990
406 476 2434
485 547 2904
563 618 3385
423 604 505
418 628 579
406 637 821
444 659 1160
496 691 1561
537 720 2009
568 743 2493
597 770 3003
653 814 3500
676 950 545
683 960 546
659 982 787
634 974 1138
687 1004 1558
750 1044 2012
798 1076 2493
839 1103 2996
874 1130 3511
943 1277 623
948 1283 625
925 1334 735
914 1337 1083
881 1317 1528
929 1347 2002
999 1392 2492
1056 1429 3000
1101 1459 3511
1216 1566 768
1221 1570 770
1223 1593 792
1177 1682 1034
1165 1685 1465
1130 1663 1966
1168 1687 2478
1243 1735 2994
1303 1775 3509
1489 1850 920
1492 1854 921
1500 1862 926
1464 1942 1108
1427 2041 1394
1414 2036 1892
1375 2007 2435
1407 2027 2978
1485 2075 3500
1765 2138 1075
1768 2140 1077
1774 2147 1080
1768 2187 1159
1709 2305 1457
1679 2413 1794
1664 2377 2364
1625 2353 2932
1648 2367 3484
2039 2426 1234
2041 2428 1235
2046 2434 1238
2056 2444 1244
2006 2555 1531
1957 2693 1829
1929 2760 2251
1916 2723 2856
1874 2696 3434
462 26 444
444 31 583
317 43 836
93 92 1113
169 168 1483
258 256 1898
346 343 2344
436 432 2819
523 519 3307
524 454 447
497 499 683
445 470 868
267 360 1173
266 363 1572
331 414 1995
408 478 2440
485 547 2908
565 619 3390
706 772 520
720 818 622
719 831 884
609 764 1184
496 692 1570
537 720 2016
568 743 2498
597 770 3008
654 814 3504
912 1090 551
919 1104 561
943 1157 840
916 1145 1187
772 1057 1573
751 1045 2019
799 1076 2498
840 1104 3002
874 1130 3514
1142 1375 664
1146 1380 666
1181 1473 812
1152 1485 1132
1128 1472 1568
944 1357 2010
999 1392 2498
1056 1429 3004
1102 1460 3515
1378 1641 807
1381 1645 810
1403 1684 847
1389 1796 1109
1365 1811 1505
1339 1796 1997
1169 1688 2484
1244 1736 2999
1304 1775 3513
1623 1914 951
1626 1917 952
1633 1925 957
1651 2040 1177
1605 2137 1454
1587 2146 1920
1558 2120 2462
1408 2027 2983
1486 2076 3505
1877 2189 1100
1880 2192 1102
1886 2198 1105
1933 2270 1209
1872 2393 1514
1832 2516 1818
1818 2478 2385
1790 2456 2954
1649 2367 3489
2134 2471 1256
2136 2474 1257
2141 2479 1260
2150 2490 1266
2150 2631 1587
2096 2767 1882
2064 2847 2278
2051 2808 2880
2018 2786 3454
943 98 469
1009 12 570
912 114 793
800 128 1158
632 183 1533
357 272 1908
350 346 2359
438 433 2829
525 521 3318
1040 312 469
927 462 618
904 556 857
819 544 1212
681 556 1574
458 497 2004
410 479 2455
487 549 2920
566 621 3400
1058 893 532
1087 933 705
1001 1004 1040
965 985 1271
874 928 1637
714 832 2054
570 745 2513
597 770 3020
655 816 3513
1217 1238 598
1217 1280 650
1231 1336 884
1246 1344 1330
1163 1298 1655
1026 1215 2064
800 1077 2513
840 1104 3014
875 1131 3525
1423 1503 730
1428 1508 732
1446 1610 897
1443 1664 1251
1431 1656 1674
1350 1606 2081
1170 1498 2529
1056 1429 3017
1103 1460 3525
1643 1762 866
1646 1765 868
1659 1814 940
1687 1960 1237
1649 1988 1602
1621 1968 2080
1535 1914 2541
1309 1778 3016
1305 1776 3523
1869 2026 1005
1871 2029 1006
1877 2036 1010
1953 2192 1275
1885 2299 1564
1856 2319 1994
1831 2288 2533
1731 2228 3030
1487 2077 3515
2103 2292 1151
2106 2295 1152
2111 2301 1155
2146 2379 1284
2143 2543 1630
2093 2664 1918
2074 2640 2452
2048 2614 3014
1939 2546 3528
2341 2567 1302
2343 2569 1304
2348 2575 1307
2356 2584 1312
2408 2765 1691
2348 2897 2000
2307 2994 2357
2292 2959 2942
2263 2940 3505
1419 221 511
1521 0 592
1476 123 745
1378 248 1081
1267 305 1501
1132 258 2028
945 366 2426
683 457 2845
528 525 3335
1431 224 512
1536 41 596
1455 406 773
1385 591 1137
1281 607 1560
1151 600 2047
977 642 2463
726 688 2899
569 623 3416
1580 784 560
1520 861 691
1414 983 918
1331 1084 1267
1299 1058 1677
1212 1055 2092
1069 1058 2539
881 950 3038
658 818 3530
1588 1329 639
1612 1385 747
1574 1448 1019
1502 1507 1534
1475 1494 1778
1408 1454 2158
1305 1392 2605
1148 1299 3074
876 1132 3543
1746 1635 797
1748 1659 821
1739 1764 1017
1747 1850 1282
1771 1855 1892
1691 1815 2198
1590 1758 2622
1451 1674 3086
1237 1543 3556
1953 1897 934
1956 1901 936
1953 1969 1063
1960 2097 1320
1932 2164 1770
1951 2162 2242
1891 2128 2651
1760 2054 3101
1586 1949 3569
2155 2157 1073
2157 2160 1075
2164 2168 1079
2185 2320 1374
2188 2488 1706
2144 2504 2131
2139 2476 2664
2087 2444 3126
1932 2350 3586
2380 2421 1215
2382 2423 1216
2387 2430 1220
2406 2518 1393
2462 2716 1765
2385 2833 2065
2360 2815 2577
2334 2789 3123
2285 2758 3609
2604 2689 1362
2606 2691 1364
2611 2696 1366
2619 2706 1372
2689 2904 1792
2645 3055 2160
2592 3159 2493
2572 3130 3051
2545 3114 3594
1895 351 560
2023 0 622
2026 7 770
1939 295 996
1842 384 1441
1730 457 1899
1612 376 2519
1455 444 2985
1260 548 3410
1904 355 561
2032 0 622
2036 4 771
1938 406 1005
1852 655 1491
1742 696 1949
1619 644 2566
1472 699 3002
1283 761 3440
2061 608 576
1943 770 704
1894 886 872
1897 990 1141
1835 1105 1596
1753 1108 2050
1644 1090 2596
1516 1106 3048
1343 1133 3501
2102 1258 630
2086 1305 742
2022 1385 992
1915 1486 1429
1760 1608 1786
1776 1575 2206
1718 1565 2656
1615 1564 3120
1481 1513 3613
2128 1712 837
2142 1764 934
2172 1849 1146
2039 1964 1499
1998 2005 2105
1976 1996 2347
1923 1965 2741
1844 1918 3187
1732 1850 3654
2266 2029 992
2269 2035 998
2267 2141 1206
2225 2255 1456
2228 2362 1830
2280 2353 2512
2206 2320 2804
2122 2273 3214
2015 2208 3666
2473 2294 1136
2476 2297 1138
2478 2340 1224
2459 2474 1514
2463 2620 1768
2408 2659 2375
2469 2671 2875
2415 2641 3261
2311 2580 3689
2682 2559 1288
2683 2561 1289
2688 2568 1293
2680 2673 1538
2697 2833 1864
2674 3000 2250
2634 2975 2779
2657 2983 3288
2620 2960 3692
2870 2820 1435
2871 2823 1437
2875 2828 1440
2887 2866 1518
2922 3034 1921
2957 3216 2327
2877 3317 2684
2850 3297 3213
2845 3298 3688
2363 480 614
2505 77 661
2525 1 806
2494 173 1014
2391 446 1342
2297 519 1849
2182 601 2328
2075 580 2935
1942 517 3553
2371 483 615
2513 77 661
2532 1 806
2502 170 1014
2398 458 1342
2308 738 1893
2194 798 2372
2084 782 2977
1951 754 3563
2438 476 588
2468 464 694
2492 541 847
2437 781 1086
2367 1013 1442
2306 1146 1981
2207 1169 2465
2097 1150 3067
1974 1150 3591
2594 1127 642
2545 1188 769
2396 1341 995
2327 1455 1258
2376 1507 1663
2258 1630 2129
2211 1620 2602
2121 1603 3170
2023 1605 3634
2656 1652 828
2653 1697 916
2633 1782 1113
2523 1898 1427
2325 2007 2050
2196 2116 2366
2241 2083 2794
2204 2069 3249
2129 2065 3704
2665 2092 1033
2676 2136 1128
2708 2220 1333
2662 2357 1593
2453 2473 2233
2491 2499 2730
2474 2493 2963
2425 2464 3346
2361 2427 3709
2787 2427 1193
2790 2430 1195
2792 2522 1397
2788 2653 1670
2696 2777 1929
2690 2830 2572
2794 2859 3174
2717 2824 3434
2669 2804 3705
2972 2696 1345
2974 2698 1346
2979 2717 1383
2990 2850 1709
2955 2982 2023
2980 3125 2286
2883 3130 3074
2991 3183 3535
3034 3211 3705
3152 2962 1504
3153 2964 1505
3157 2970 1508
3167 3044 1700
3171 3184 2078
3202 3325 2416
3164 3474 2914
3115 3464 3437
3461 3647 3706
2832 614 679
2983 233 715
3027 1 851
3032 2 1054
2957 380 1324
2847 595 1738
2753 656 2285
2642 748 2788
2535 755 3382
2837 615 680
2989 233 715
3033 1 852
3038 2 1055
2964 378 1325
2853 595 1736
2764 838 2322
2650 909 2823
2544 916 3417
2851 619 682
3003 238 717
3048 1 853
3052 2 1056
2937 702 1364
2829 1059 1812
2772 1202 2404
2666 1242 2907
2558 1240 3497
3070 927 687
2992 1039 804
2755 1303 1039
2846 1310 1237
2844 1423 1533
2831 1546 1981
2753 1659 2533
2673 1669 3031
2573 1658 3608
3146 1569 812
3115 1619 902
3028 1731 1092
2864 1881 1392
2817 1973 1766
2874 2000 2295
2679 2150 2723
2668 2129 3194
2594 2110 3717
3205 2032 1045
3213 2070 1129
3217 2150 1315
3174 2277 1571
3013 2429 1898
2705 2542 2683
2664 2625 3000
2712 2591 3409
2701 2593 3717
3174 2483 1241
3189 2521 1334
3222 2601 1534
3269 2723 1806
3143 2886 2091
2947 2951 2954
2989 2998 3381
2974 2993 3595
2970 3001 3714
3255 2829 1405
3256 2831 1406
3272 2909 1601
3292 3026 1895
3274 3149 2197
3175 3258 2509
3235 3334 3335
3332 3382 3714
3342 3403 3713
3439 3096 1571
3441 3098 1572
3444 3103 1576
3462 3221 1910
3472 3348 2279
3437 3456 2610
3502 3591 2928
3449 3664 3704
3800 3821 3753
3315 745 748
3462 387 773
3533 1 897
3535 2 1105
3514 198 1365
3420 566 1675
3308 742 2167
3218 795 2750
3108 896 3269
3319 746 748
3467 389 774
3538 1 897
3540 2 1106
3519 195 1365
3425 565 1675
3313 742 2166
3226 951 2782
3116 1034 3299
3331 750 750
3478 393 775
3550 1 898
3553 2 1107
3532 189 1366
3428 666 1689
3296 1125 2224
3239 1272 2856
3130 1325 3370
3464 764 712
3349 973 838
3442 899 990
3460 985 1209
3417 1183 1495
3354 1402 1850
3286 1596 2361
3232 1700 2970
3137 1724 3476
3622 1437 790
3577 1505 880
3468 1631 1120
3239 1846 1431
3263 1909 1687
3301 1969 2065
3313 2047 2604
3187 2173 3127
3131 2170 3613
3665 1958 1041
3655 2000 1118
3618 2095 1291
3526 2242 1536
3367 2412 1842
3307 2478 2365
3347 2501 2996
3099 2673 3346
3114 2655 3717
3697 2419 1263
3711 2454 1344
3739 2528 1527
3774 2649 1774
3668 2812 2059
3499 2935 2457
3138 3064 3346
3147 3132 3645
3206 3142 3718
3654 2871 1453
3667 2904 1544
3699 2975 1749
3761 3079 2043
3746 3218 2350
3624 3375 2707
3441 3448 3643
3526 3533 3718
3546 3556 3717
3725 3226 1631
3726 3229 1633
3739 3289 1824
3762 3391 2137
3790 3509 2481
3739 3610 2824
3678 3704 3177
3898 3880 3774
3980 3929 3792
3792 875 826
3938 537 840
4026 99 951
4039 2 1161
4044 3 1412
3983 432 1716
3879 740 2065
3768 886 2628
3684 936 3233
3795 876 826
3942 538 841
4030 99 951
4043 2 1162
4047 3 1413
3987 430 1716
3884 739 2065
3772 886 2626
3691 1070 3260
3805 878 828
3951 541 842
4040 102 952
4053 2 1163
4058 3 1414
3998 427 1717
3895 738 2063
3760 1207 2673
3705 1351 3326
3822 883 831
3968 546 845
4057 108 955
4071 2 1165
4039 592 1451
3941 1062 1799
3844 1399 2195
3747 1656 2787
3703 1751 3422
4080 1241 817
4027 1329 922
3885 1523 1158
3769 1690 1431
3823 1729 1678
3812 1843 1996
3792 1972 2402
3757 2101 2981
3678 2203 3554
4095 1856 1024
4095 1906 1100
4061 2014 1280
3930 2190 1530
3693 2406 1844
3729 2448 2197
3789 2476 2691
3808 2538 3296
3614 2697 3718
4095 2353 1263
4095 2390 1337
4095 2471 1505
4095 2609 1735
4031 2775 2005
3868 2921 2376
3807 2969 3080
3729 3051 3636
3488 3243 3718
4095 2811 1486
4095 2864 1626
4095 2977 1911
4095 3110 2220
4095 3231 2499
4094 3317 2695
3962 3436 3068
3621 3604 3718
3691 3689 3718
4095 3254 1685
4095 3279 1778
4095 3366 2072
4095 3523 2587
4095 3663 3005
4095 3731 3180
4088 3824 3440
4008 3950 3800
4094 4025 3827
