Toning/Toning-More saturation.3dl
#25pt 3DLUT created by 3D LUT Creator Pro (c) Oleg Sharonov
#Copyright Oleg Sharonov
#IMAGEPROFILE sRGB IEC61966-2.1 v.2.10
#INPUTGAMMA sRGB IEC61966-2.1 v.2.10
#OUTPUTGAMMA sRGB IEC61966-2.1 v.2.10
0 128 256 384 512 640 768 896 1023
0 0 0
0 0 583
0 0 1181
0 4 1812
0 4 2368
0 7 2851
0 7 3281
0 11 3685
4 18 4091
0 597 0
0 597 583
0 597 1184
0 597 1814
0 597 2370
0 598 2852
0 600 3282
0 601 3686
0 603 4091
0 1198 0
0 1199 583
0 1199 1184
0 1199 1816
0 1198 2372
0 1198 2854
0 1199 3283
0 1200 3687
0 1200 4093
0 1791 4
0 1791 583
0 1792 1184
0 1792 1817
0 1791 2373
0 1791 2855
0 1791 3285
0 1791 3688
0 1792 4094
0 2353 4
0 2353 584
0 2354 1184
0 2353 1815
0 2352 2371
0 2352 2854
0 2353 3284
0 2353 3688
0 2353 4094
0 2886 7
0 2886 584
0 2887 1185
0 2887 1815
0 2886 2371
0 2886 2854
0 2886 3284
0 2886 3688
7 2886 4094
0 3366 7
0 3366 586
0 3366 1186
0 3366 1816
0 3365 2371
0 3365 2854
0 3366 3284
0 3366 3688
26 3365 4094
0 3754 11
0 3754 587
0 3755 1186
0 3755 1816
0 3754 2371
0 3754 2854
0 3754 3284
0 3754 3688
11 3754 4095
4 4095 18
4 4095 590
0 4095 1187
0 4095 1817
0 4094 2372
0 4094 2854
6 4094 3291
4 4095 3688
4 4095 4095
588 0 0
582 0 583
498 0 1260
400 0 1971
317 0 2604
246 0 3149
203 0 3618
369 0 3878
584 3 4095
589 552 0
582 550 562
498 556 1235
402 564 1952
318 571 2592
247 577 3142
204 582 3615
368 573 3873
584 554 4078
589 1160 0
582 1156 575
498 1159 1244
402 1162 1955
318 1169 2591
247 1176 3140
204 1180 3611
368 1173 3867
584 1160 4072
588 1759 0
582 1755 579
498 1755 1252
402 1757 1963
317 1760 2597
247 1765 3143
204 1769 3613
369 1766 3868
585 1760 4075
587 2331 0
581 2327 583
497 2326 1257
401 2323 1966
316 2324 2599
247 2326 3145
204 2329 3614
370 2332 3872
587 2331 4078
587 2872 0
581 2868 584
497 2865 1259
402 2858 1969
318 2858 2602
246 2860 3146
204 2862 3616
370 2869 3876
591 2872 4086
585 3357 0
581 3354 585
497 3349 1261
401 3340 1971
317 3338 2603
247 3339 3148
202 3342 3615
369 3350 3877
597 3357 4090
584 3750 0
581 3748 587
497 3742 1262
401 3731 1972
317 3726 2604
247 3726 3149
203 3729 3617
368 3740 3875
594 3750 4093
590 4095 18
583 4092 590
497 4087 1264
401 4076 1973
317 4068 2605
247 4068 3150
207 4069 3622
370 4083 3882
590 4095 4095
1180 0 0
1201 0 551
1124 0 1220
1037 0 1926
962 0 2556
895 0 3099
837 0 3581
953 3 3886
1178 3 4095
1181 509 0
1202 505 534
1126 510 1179
1038 517 1877
962 523 2510
896 527 3057
837 532 3545
953 526 3846
1178 510 4041
1181 1120 0
1202 1114 538
1126 1115 1184
1039 1120 1884
961 1127 2514
896 1133 3059
838 1138 3543
954 1133 3843
1178 1121 4042
1181 1729 0
1202 1721 544
1126 1721 1202
1039 1722 1899
961 1726 2525
896 1731 3069
838 1735 3552
956 1735 3852
1180 1729 4053
1180 2308 0
1201 2299 547
1124 2297 1211
1037 2295 1909
961 2298 2537
896 2301 3079
838 2304 3559
956 2307 3860
1179 2307 4063
1179 2855 0
1200 2847 549
1124 2844 1216
1037 2840 1918
961 2842 2545
895 2844 3088
839 2846 3570
956 2852 3872
1181 2855 4075
1179 3348 0
1199 3341 550
1124 3336 1220
1037 3330 1923
961 3328 2550
896 3330 3093
836 3332 3576
956 3339 3879
1184 3348 4085
1178 3746 3
1198 3740 551
1124 3734 1222
1037 3726 1926
961 3722 2553
896 3723 3096
838 3724 3578
952 3734 3883
1183 3746 4091
1182 4095 20
1202 4089 558
1124 4083 1224
1037 4074 1928
961 4070 2556
896 4070 3099
841 4070 3580
956 4081 3886
1181 4095 4095
1760 0 0
1872 0 464
1802 0 1126
1719 0 1836
1642 0 2462
1577 0 3005
1522 0 3487
1588 0 3837
1759 3 4095
1761 466 0
1873 458 454
1803 461 1087
1720 468 1774
1643 472 2386
1579 477 2927
1522 482 3410
1588 479 3758
1759 468 4006
1761 1082 0
1873 1073 453
1803 1074 1091
1721 1079 1777
1642 1082 2393
1578 1088 2936
1521 1092 3419
1587 1090 3765
1759 1083 4015
1762 1698 0
1874 1688 457
1804 1688 1103
1721 1690 1790
1643 1692 2411
1578 1697 2952
1521 1701 3434
1588 1702 3781
1760 1698 4033
1760 2285 0
1871 2277 458
1802 2274 1111
1719 2274 1809
1642 2273 2427
1577 2277 2967
1521 2281 3448
1588 2284 3795
1760 2284 4049
1761 2839 0
1871 2832 460
1802 2829 1118
1719 2828 1822
1641 2824 2441
1578 2827 2983
1521 2828 3463
1589 2834 3811
1761 2839 4065
1760 3339 0
1871 3333 463
1801 3329 1123
1718 3327 1830
1641 3322 2452
1577 3323 2994
1521 3325 3475
1589 3331 3824
1762 3339 4080
1760 3742 0
1871 3738 464
1801 3732 1126
1718 3729 1834
1641 3723 2458
1577 3722 3000
1522 3723 3481
1588 3730 3831
1762 3742 4089
1765 4095 14
1873 4091 472
1802 4085 1131
1719 4082 1838
1642 4075 2462
1577 4073 3005
1523 4074 3486
1589 4083 3837
1761 4095 4095
2306 0 0
2503 0 382
2445 0 1036
2362 0 1746
2288 0 2373
2223 0 2917
2170 0 3398
2189 0 3787
2305 0 4094
2306 422 0
2504 406 376
2445 411 1007
2363 417 1684
2288 423 2294
2224 426 2825
2171 428 3294
2190 429 3673
2305 423 3972
2306 1045 0
2503 1031 374
2446 1033 1007
2364 1038 1686
2288 1042 2296
2224 1046 2828
2170 1050 3303
2189 1050 3689
2305 1046 3989
2306 1666 0
2503 1654 376
2445 1654 1012
2363 1657 1699
2288 1660 2309
2223 1664 2844
2170 1667 3324
2189 1668 3710
2305 1666 4011
2305 2262 0
2502 2253 378
2444 2252 1021
2362 2253 1714
2287 2254 2326
2222 2256 2865
2169 2259 3345
2188 2261 3732
2304 2262 4035
2305 2824 0
2501 2817 378
2444 2815 1026
2362 2815 1727
2288 2814 2347
2223 2815 2886
2169 2817 3364
2188 2820 3751
2305 2824 4055
2305 3327 0
2500 3321 378
2443 3319 1030
2361 3318 1736
2287 3317 2360
2222 3316 2899
2170 3317 3379
2189 3320 3767
2305 3327 4071
2305 3736 0
2501 3734 380
2443 3729 1033
2361 3727 1741
2287 3725 2368
2222 3723 2909
2169 3724 3389
2189 3727 3778
2306 3736 4084
2305 4094 0
2502 4091 382
2444 4087 1039
2362 4085 1748
2289 4082 2374
2223 4081 2917
2170 4080 3397
2189 4084 3787
2305 4094 4094
2815 0 0
3092 0 306
3039 0 952
2961 0 1662
2887 0 2290
2821 0 2834
2769 0 3315
2746 0 3746
2815 0 4094
2815 384 0
3092 362 302
3041 365 932
2962 374 1607
2887 379 2213
2821 384 2742
2770 384 3211
2748 383 3633
2815 384 3969
2815 1011 0
3092 993 299
3041 994 929
2962 1000 1612
2887 1004 2214
2821 1008 2744
2770 1011 3214
2747 1011 3636
2815 1011 3975
2815 1642 0
3092 1627 301
3041 1628 933
2962 1632 1622
2888 1635 2228
2822 1637 2761
2770 1640 3232
2746 1642 3656
2815 1642 3999
2814 2241 0
3091 2232 303
3038 2231 939
2960 2233 1631
2885 2233 2244
2820 2234 2776
2768 2238 3250
2744 2241 3680
2814 2241 4024
2815 2808 0
3091 2801 304
3039 2799 944
2961 2801 1643
2886 2801 2261
2820 2800 2795
2769 2803 3272
2745 2806 3702
2814 2808 4047
2815 3318 0
3090 3315 303
3040 3311 946
2961 3312 1652
2887 3311 2275
2821 3310 2814
2769 3311 3291
2746 3315 3721
2815 3318 4067
2815 3732 0
3088 3732 301
3039 3728 947
2960 3727 1656
2886 3725 2284
2821 3723 2826
2769 3724 3304
2747 3727 3735
2816 3732 4082
2817 4094 2
3092 4094 307
3039 4090 953
2960 4089 1662
2887 4087 2291
2821 4085 2835
2769 4085 3315
2747 4088 3745
2815 4094 4094
3268 0 0
3596 0 255
3543 0 905
3471 0 1610
3404 0 2232
3346 0 2773
3300 0 3248
3251 0 3699
3268 0 4095
3268 351 0
3595 325 252
3545 328 889
3472 336 1565
3404 340 2158
3346 345 2683
3300 348 3145
3251 350 3585
3268 351 3969
3268 980 0
3595 958 250
3545 960 885
3473 966 1566
3405 971 2160
3346 975 2684
3300 978 3147
3251 979 3587
3268 980 3973
3269 1617 0
3596 1600 251
3544 1602 888
3473 1606 1573
3406 1608 2175
3347 1612 2699
3301 1614 3164
3252 1616 3606
3268 1617 3993
3267 2225 0
3594 2212 252
3541 2213 892
3470 2216 1581
3403 2218 2189
3344 2220 2716
3299 2222 3184
3250 2223 3627
3267 2225 4017
3267 2797 0
3595 2789 253
3542 2788 897
3471 2791 1591
3403 2791 2203
3344 2793 2735
3299 2795 3203
3250 2795 3649
3267 2797 4042
3268 3313 0
3596 3307 254
3543 3306 901
3471 3308 1600
3404 3308 2216
3345 3309 2753
3299 3310 3223
3250 3309 3670
3268 3313 4064
3268 3730 0
3594 3726 253
3543 3725 902
3471 3727 1604
3404 3726 2225
3346 3727 2765
3300 3728 3238
3251 3726 3686
3268 3730 4081
3270 4094 2
3597 4095 256
3543 4093 905
3471 4094 1609
3405 4092 2231
3346 4092 2773
3300 4092 3249
3251 4090 3698
3268 4094 4094
3686 0 0
3827 0 439
3891 0 979
3840 0 1658
3796 0 2261
3758 2 2781
3725 0 3241
3696 0 3674
3686 0 4094
3686 320 0
3823 306 435
3892 301 961
3841 306 1615
3796 311 2186
3758 315 2691
3725 317 3138
3696 319 3560
3686 320 3969
3686 953 0
3823 941 431
3893 937 957
3842 941 1614
3797 945 2191
3759 948 2691
3725 950 3139
3697 952 3562
3686 954 3972
3686 1595 0
3825 1586 431
3892 1583 959
3843 1585 1621
3797 1587 2204
3759 1590 2705
3725 1591 3155
3697 1594 3580
3686 1595 3992
3684 2208 0
3825 2201 433
3890 2200 964
3840 2201 1629
3795 2202 2218
3757 2203 2725
3724 2203 3174
3696 2205 3602
3685 2208 4015
3685 2786 4
3826 2782 435
3890 2782 970
3840 2783 1638
3795 2783 2231
3758 2784 2743
3724 2783 3195
3696 2784 3624
3685 2786 4040
3685 3306 0
3827 3302 437
3890 3302 974
3840 3302 1647
3796 3302 2243
3758 3303 2758
3724 3302 3214
3696 3304 3644
3685 3306 4062
3686 3725 0
3827 3722 438
3890 3724 977
3841 3723 1653
3796 3723 2252
3758 3723 2770
3724 3722 3228
3696 3723 3660
3685 3725 4079
3686 4095 0
3823 4094 436
3890 4095 982
3840 4094 1659
3796 4094 2261
3759 4094 2781
3725 4092 3241
3696 4093 3675
3686 4095 4095
4095 0 0
4095 0 583
4095 0 1183
4095 0 1815
4094 0 2372
4094 0 2855
4094 0 3284
4095 0 3688
4095 2 4094
4095 291 0
4095 291 578
4095 292 1163
4095 292 1767
4094 292 2294
4094 291 2764
4095 290 3182
4095 291 3574
4095 291 3969
4095 926 4
4095 926 575
4095 927 1160
4095 927 1768
4094 927 2299
4095 927 2763
4095 927 3182
4095 926 3575
4095 927 3971
4095 1573 4
4095 1573 576
4095 1573 1163
4095 1573 1776
4095 1573 2313
4095 1573 2778
4095 1573 3197
4095 1573 3593
4095 1574 3990
4094 2193 0
4094 2192 574
4095 2193 1167
4095 2193 1786
4093 2192 2328
4093 2192 2798
4093 2192 3217
4094 2192 3614
4094 2193 4014
4094 2777 0
4094 2776 572
4095 2776 1170
4095 2777 1794
4093 2776 2342
4093 2776 2816
4094 2776 3239
4094 2776 3637
4094 2776 4039
4094 3300 0
4095 3300 571
4095 3300 1173
4095 3300 1801
4093 3299 2353
4094 3299 2832
4094 3299 3257
4094 3299 3658
4094 3300 4061
4095 3724 0
4095 3724 582
4095 3724 1180
4095 3724 1810
4094 3723 2363
4094 3723 2844
4094 3723 3272
4094 3723 3674
4095 3724 4079
4095 4094 169
4095 4094 648
4095 4095 1216
4095 4095 1833
4094 4094 2381
4094 4094 2859
4094 4094 3287
4095 4095 3690
4095 4095 4095
