Toning/Toning-Blue curves with skintone mask.3dl
#25pt 3DLUT created by 3D LUT Creator Pro (c) Oleg Sharonov
#Copyright Oleg Sharonov
#IMAGEPROFILE sRGB IEC61966-2.1 v.2.10
#INPUTGAMMA sRGB IEC61966-2.1 v.2.10
#OUTPUTGAMMA sRGB IEC61966-2.1 v.2.10
0 128 256 384 512 640 768 896 1023
13 27 27
35 78 413
67 158 914
99 271 1356
115 389 1749
126 524 2073
141 660 2360
161 797 2633
196 932 2923
88 537 406
68 562 777
100 574 1217
114 627 1574
123 711 1877
135 811 2154
150 922 2418
174 1040 2683
215 1157 2976
123 1110 812
119 1127 1046
112 1155 1398
125 1160 1739
138 1189 2019
153 1241 2276
176 1308 2531
212 1384 2810
272 1466 3094
159 1648 1127
153 1657 1317
142 1678 1553
133 1697 1835
153 1699 2118
182 1712 2396
227 1737 2686
291 1773 2968
365 1816 3249
265 2085 1332
252 2090 1505
220 2102 1702
183 2119 1932
168 2133 2200
218 2134 2513
297 2141 2819
385 2155 3125
490 2178 3448
483 2483 1487
467 2487 1656
425 2496 1841
357 2512 2053
285 2531 2311
259 2546 2613
357 2546 2931
486 2551 3283
617 2563 3643
775 2888 1656
761 2890 1825
723 2898 2011
656 2910 2219
557 2928 2455
453 2946 2723
422 2959 3060
568 2960 3430
726 2963 3806
1080 3281 1850
1069 3283 2016
1040 3289 2196
985 3299 2393
899 3313 2619
785 3331 2891
673 3350 3205
649 3362 3575
809 3362 3934
1363 3688 2064
1353 3690 2231
1329 3695 2413
1286 3705 2613
1222 3719 2837
1132 3739 3097
1021 3767 3393
911 3801 3717
896 3825 4080
441 31 39
267 124 644
267 214 1057
274 310 1445
282 425 1798
293 552 2101
308 683 2379
331 815 2649
370 947 2939
309 559 304
368 553 677
279 601 1253
283 656 1607
291 737 1901
303 834 2172
318 942 2432
345 1057 2698
393 1170 2990
292 1132 802
296 1130 1088
288 1162 1407
297 1173 1748
309 1203 2029
325 1255 2286
350 1321 2543
392 1395 2823
454 1475 3106
330 1661 1117
337 1658 1339
319 1680 1563
309 1700 1840
330 1705 2123
363 1718 2403
415 1743 2694
477 1778 2975
553 1822 3259
447 2092 1326
461 2090 1517
425 2103 1711
373 2121 1936
354 2135 2205
412 2137 2519
491 2144 2824
582 2159 3132
684 2182 3455
669 2489 1483
685 2487 1664
643 2497 1849
570 2513 2058
489 2533 2316
463 2547 2618
561 2548 2936
688 2554 3287
814 2566 3648
959 2892 1652
974 2891 1833
936 2898 2018
869 2911 2225
771 2929 2459
664 2948 2726
636 2960 3065
774 2961 3434
925 2965 3810
1259 3284 1847
1269 3283 2023
1241 3289 2202
1187 3299 2398
1104 3314 2623
993 3332 2895
880 3351 3209
859 3362 3579
1010 3364 3937
1539 3691 2060
1548 3690 2239
1523 3695 2420
1479 3705 2619
1415 3720 2843
1328 3739 3101
1218 3768 3397
1112 3802 3720
1099 3826 4084
863 71 103
716 142 640
462 285 1228
460 386 1584
464 497 1884
474 614 2159
493 736 2422
524 860 2687
579 982 2980
908 536 97
948 527 556
476 646 1318
473 712 1671
477 792 1954
489 884 2213
510 987 2468
548 1096 2736
606 1201 3027
568 1145 642
729 1106 791
700 1122 1256
501 1200 1765
511 1235 2049
532 1287 2307
566 1350 2570
614 1422 2851
676 1499 3132
563 1674 1153
557 1680 1342
565 1686 1578
538 1708 1845
562 1717 2133
603 1732 2419
653 1758 2713
715 1793 2995
794 1835 3285
670 2108 1316
685 2107 1507
720 2103 1734
647 2125 1948
620 2140 2209
672 2144 2528
752 2152 2834
839 2168 3148
935 2190 3473
901 2501 1476
916 2500 1655
955 2497 1869
876 2515 2072
779 2536 2327
750 2551 2623
840 2554 2949
956 2560 3297
1067 2573 3660
1180 2902 1643
1193 2901 1823
1228 2899 2039
1161 2912 2242
1064 2931 2470
957 2950 2736
933 2963 3072
1047 2965 3445
1183 2969 3817
1464 3293 1838
1475 3292 2015
1501 3289 2218
1451 3300 2414
1373 3315 2636
1269 3334 2904
1158 3353 3219
1142 3364 3588
1272 3367 3945
1739 3699 2051
1749 3698 2229
1773 3696 2438
1728 3706 2636
1660 3721 2859
1574 3741 3112
1471 3771 3406
1370 3807 3727
1363 3829 4093
1297 116 173
1216 160 660
934 321 1222
727 468 1693
712 585 1974
719 698 2232
744 811 2486
785 927 2757
843 1036 3046
1360 561 149
1427 543 573
1143 631 1191
767 775 1734
750 862 2014
754 955 2270
778 1054 2525
818 1153 2802
878 1249 3086
1337 1077 212
1437 1050 586
1442 1049 1079
934 1207 1758
827 1278 2081
835 1332 2345
860 1394 2619
906 1463 2899
968 1535 3176
1000 1683 912
1074 1665 1069
1301 1604 1213
1151 1653 1721
923 1736 2144
948 1754 2441
987 1781 2739
1040 1817 3022
1105 1858 3323
1080 2112 1372
1074 2115 1544
1054 2125 1725
1066 2131 1953
1020 2147 2215
1049 2154 2542
1108 2165 2850
1177 2182 3175
1252 2205 3505
1243 2514 1489
1235 2517 1659
1245 2519 1858
1293 2516 2102
1186 2541 2345
1156 2558 2629
1213 2563 2964
1299 2571 3314
1388 2585 3681
1449 2920 1631
1462 2918 1813
1492 2916 2025
1539 2913 2273
1447 2934 2489
1337 2955 2752
1319 2968 3078
1399 2971 3465
1505 2977 3830
1706 3306 1829
1715 3306 2005
1739 3304 2205
1779 3300 2445
1707 3317 2665
1611 3337 2922
1510 3357 3237
1502 3369 3594
1593 3372 3961
1973 3712 2039
1981 3712 2216
2003 3710 2423
2039 3706 2668
1978 3722 2889
1885 3744 3131
1780 3776 3421
1687 3814 3740
1687 3837 4095
1774 168 232
1729 200 696
1582 303 1206
1258 549 1701
1163 668 2048
1131 786 2305
1132 898 2567
1159 1004 2847
1209 1103 3129
1828 601 211
1864 587 634
1726 649 1173
1400 811 1702
1215 934 2072
1180 1032 2333
1178 1129 2603
1202 1221 2883
1250 1311 3161
1889 1078 191
1942 1060 604
1946 1060 1087
1739 1141 1650
1317 1325 2116
1287 1383 2393
1283 1448 2681
1304 1514 2963
1346 1579 3242
1814 1609 363
1881 1589 701
1960 1564 1095
1968 1564 1579
1605 1694 2130
1417 1780 2474
1422 1811 2778
1445 1847 3067
1486 1889 3382
1598 2129 1097
1629 2125 1264
1725 2110 1418
1890 2080 1649
1720 2119 2144
1530 2170 2548
1556 2183 2869
1590 2202 3206
1637 2227 3542
1702 2523 1526
1698 2525 1693
1690 2531 1878
1668 2543 2078
1681 2550 2341
1638 2568 2632
1659 2576 2974
1707 2586 3338
1764 2601 3711
1862 2925 1685
1857 2927 1856
1844 2932 2042
1848 2936 2262
1880 2938 2505
1785 2962 2763
1767 2975 3087
1805 2980 3483
1872 2988 3848
2021 3321 1836
2015 3322 2004
2021 3323 2196
2063 3321 2427
2115 3318 2713
2010 3340 2951
1909 3363 3262
1906 3375 3603
1961 3379 3983
2234 3733 2023
2242 3732 2203
2260 3730 2409
2291 3727 2648
2335 3723 2935
2257 3747 3168
2162 3783 3446
2059 3825 3759
2067 3849 4095
2284 221 285
2257 245 734
2177 319 1212
2000 489 1684
1706 796 2072
1702 868 2378
1661 982 2663
1653 1081 2943
1671 1175 3220
2324 646 267
2345 635 686
2271 683 1183
2101 798 1676
1803 1018 2087
1745 1106 2399
1704 1202 2689
1693 1291 2970
1708 1375 3251
2390 1101 234
2420 1088 652
2454 1073 1097
2324 1140 1631
2024 1305 2105
1834 1436 2449
1798 1502 2748
1786 1566 3031
1797 1627 3335
2411 1591 258
2450 1577 652
2471 1570 1104
2477 1569 1583
2357 1621 2089
1945 1809 2511
1919 1843 2823
1910 1882 3130
1920 1925 3453
2326 2101 510
2359 2093 837
2454 2072 1145
2487 2065 1589
2493 2065 2070
2234 2135 2565
2038 2203 2898
2039 2225 3247
2054 2252 3596
2190 2558 1232
2205 2559 1409
2248 2563 1575
2342 2565 1777
2432 2565 2119
2287 2576 2596
2130 2593 2981
2152 2604 3361
2180 2620 3742
2303 2939 1699
2300 2941 1867
2295 2944 2055
2283 2952 2259
2263 2963 2485
2304 2980 2737
2235 2986 3086
2250 2994 3486
2292 3002 3870
2459 3324 1903
2456 3325 2071
2449 3329 2255
2433 3336 2454
2417 3346 2669
2455 3348 2953
2369 3371 3261
2362 3383 3614
2386 3390 3993
2613 3741 2077
2609 3743 2247
2597 3748 2430
2588 3756 2636
2633 3751 2915
2672 3750 3209
2577 3791 3478
2477 3841 3770
2506 3860 4095
2798 272 328
2781 291 766
2731 348 1224
2628 470 1682
2439 696 2092
2184 1032 2406
2228 1054 2750
2189 1155 3035
2176 1241 3340
2826 691 312
2840 683 728
2793 721 1200
2693 807 1672
2509 971 2098
2243 1228 2429
2258 1268 2769
2219 1357 3056
2205 1434 3367
2880 1132 279
2898 1122 699
2935 1103 1126
2843 1161 1636
2670 1277 2104
2401 1469 2479
2332 1552 2811
2292 1615 3112
2276 1676 3433
2929 1597 257
2952 1588 673
2978 1578 1113
2983 1577 1588
2915 1612 2084
2648 1750 2536
2441 1877 2868
2406 1918 3202
2389 1962 3537
2923 2088 338
2947 2081 726
2995 2069 1118
2998 2069 1594
3004 2068 2073
2936 2091 2565
2597 2209 2947
2527 2251 3300
2518 2281 3661
2845 2575 640
2863 2574 958
2913 2571 1267
3007 2564 1600
3010 2565 2082
3016 2564 2569
2816 2588 3031
2636 2622 3398
2636 2641 3782
2773 2985 1353
2780 2989 1538
2801 2998 1719
2847 3015 1926
2925 3038 2196
2957 3048 2607
2847 3030 3071
2721 3008 3490
2740 3017 3885
2879 3343 1881
2877 3344 2047
2874 3347 2229
2869 3352 2436
2855 3362 2658
2841 3373 2929
2850 3381 3246
2819 3396 3605
2827 3405 3995
3032 3747 2170
3030 3748 2339
3026 3753 2525
3015 3763 2719
2993 3782 2918
2970 3808 3151
3014 3808 3469
2931 3861 3768
2978 3870 4095
3308 318 360
3296 333 792
3262 378 1239
3194 470 1687
3074 637 2109
2884 905 2477
2706 1199 2780
2747 1217 3134
2709 1300 3458
3330 734 348
3340 727 762
3308 758 1219
3242 825 1678
3124 948 2111
2937 1150 2492
2733 1397 2795
2771 1414 3154
2733 1489 3481
3375 1163 319
3386 1156 738
3412 1141 1162
3351 1186 1648
3242 1272 2110
3060 1418 2522
2824 1626 2838
2831 1661 3202
2792 1723 3538
3426 1614 285
3440 1607 708
3474 1591 1130
3486 1587 1595
3421 1624 2092
3255 1723 2556
3014 1873 2913
2924 1954 3270
2887 1999 3626
3453 2089 293
3469 2084 708
3500 2075 1127
3502 2075 1600
3508 2074 2079
3486 2083 2567
3251 2177 2998
3028 2279 3353
3000 2312 3730
3428 2578 428
3444 2576 809
3485 2571 1176
3516 2568 1606
3520 2567 2086
3527 2567 2571
3455 2579 3057
3160 2636 3450
3108 2664 3834
3365 3037 756
3376 3039 1067
3406 3044 1373
3464 3053 1697
3527 3063 2095
3529 3063 2580
3535 3063 3072
3316 3036 3533
3207 3032 3913
3324 3404 1502
3329 3409 1694
3341 3421 1881
3366 3443 2080
3413 3477 2327
3451 3507 2674
3489 3532 3104
3387 3480 3586
3276 3421 3998
3430 3789 2088
3428 3791 2255
3424 3797 2441
3420 3805 2652
3412 3819 2887
3398 3840 3143
3382 3866 3434
3391 3884 3751
3362 3919 4095
3813 357 388
3804 370 815
3779 406 1255
3731 478 1698
3648 603 2127
3514 805 2528
3331 1096 2864
3208 1336 3172
3249 1352 3578
3831 771 377
3823 779 807
3800 805 1249
3753 858 1695
3673 952 2129
3542 1106 2536
3359 1330 2877
3230 1524 3189
3268 1539 3597
3868 1194 353
3862 1199 788
3845 1214 1235
3804 1250 1689
3730 1316 2134
3608 1426 2554
3426 1595 2906
3284 1754 3229
3317 1768 3642
3916 1635 319
3913 1637 761
3904 1643 1212
3879 1661 1673
3816 1701 2137
3710 1773 2576
3538 1891 2951
3365 2023 3290
3390 2036 3712
3955 2098 299
3955 2098 742
3954 2099 1193
3946 2104 1654
3917 2117 2128
3829 2155 2594
3678 2225 3008
3463 2331 3370
3479 2344 3796
3961 2581 344
3964 2581 774
3972 2580 1208
3982 2579 1653
3985 2579 2117
3961 2584 2593
3844 2611 3056
3623 2667 3464
3583 2689 3874
3935 3057 522
3938 3057 913
3946 3058 1310
3965 3059 1718
3992 3060 2144
4022 3062 2595
4028 3057 3077
3836 3046 3544
3715 3051 3946
3921 3491 869
3922 3491 1190
3927 3494 1527
3937 3498 1884
3953 3506 2260
3989 3517 2659
4030 3537 3102
4054 3538 3587
3888 3435 4020
4028 3892 1677
4028 3894 1883
4028 3897 2139
4028 3909 2349
4028 3920 2633
4028 3932 2956
4028 3949 3304
4027 3966 3683
4047 4013 4095
