Toning/Toning-Blue curves with skintone mask.3dl
#25pt 3DLUT created by 3D LUT Creator Pro (c) Oleg Sharonov
#Copyright Oleg Sharonov
#IMAGEPROFILE sRGB IEC61966-2.1 v.2.10
#INPUTGAMMA sRGB IEC61966-2.1 v.2.10
#OUTPUTGAMMA sRGB IEC61966-2.1 v.2.10
0 256 512 768 1023
13 27 27
67 158 914
115 389 1749
141 660 2360
196 932 2923
123 1110 812
112 1155 1398
138 1189 2019
176 1308 2531
272 1466 3094
265 2085 1332
220 2102 1702
168 2133 2200
297 2141 2819
490 2178 3448
775 2888 1656
723 2898 2011
557 2928 2455
422 2959 3060
726 2963 3806
1363 3688 2064
1329 3695 2413
1222 3719 2837
1021 3767 3393
896 3825 4080
863 71 103
462 285 1228
464 497 1884
493 736 2422
579 982 2980
568 1145 642
700 1122 1256
511 1235 2049
566 1350 2570
676 1499 3132
670 2108 1316
720 2103 1734
620 2140 2209
752 2152 2834
935 2190 3473
1180 2902 1643
1228 2899 2039
1064 2931 2470
933 2963 3072
1183 2969 3817
1739 3699 2051
1773 3696 2438
1660 3721 2859
1471 3771 3406
1363 3829 4093
1774 168 232
1582 303 1206
1163 668 2048
1132 898 2567
1209 1103 3129
1889 1078 191
1946 1060 1087
1317 1325 2116
1283 1448 2681
1346 1579 3242
1598 2129 1097
1725 2110 1418
1720 2119 2144
1556 2183 2869
1637 2227 3542
1862 2925 1685
1844 2932 2042
1880 2938 2505
1767 2975 3087
1872 2988 3848
2234 3733 2023
2260 3730 2409
2335 3723 2935
2162 3783 3446
2067 3849 4095
2798 272 328
2731 348 1224
2439 696 2092
2228 1054 2750
2176 1241 3340
2880 1132 279
2935 1103 1126
2670 1277 2104
2332 1552 2811
2276 1676 3433
2923 2088 338
2995 2069 1118
3004 2068 2073
2597 2209 2947
2518 2281 3661
2773 2985 1353
2801 2998 1719
2925 3038 2196
2847 3030 3071
2740 3017 3885
3032 3747 2170
3026 3753 2525
2993 3782 2918
3014 3808 3469
2978 3870 4095
3813 357 388
3779 406 1255
3648 603 2127
3331 1096 2864
3249 1352 3578
3868 1194 353
3845 1214 1235
3730 1316 2134
3426 1595 2906
3317 1768 3642
3955 2098 299
3954 2099 1193
3917 2117 2128
3678 2225 3008
3479 2344 3796
3935 3057 522
3946 3058 1310
3992 3060 2144
4028 3057 3077
3715 3051 3946
4028 3892 1677
4028 3897 2139
4028 3920 2633
4028 3949 3304
4047 4013 4095
