Toning/Toning-TealOrange-VideoAB.3dl
#25pt 3DLUT created by 3D LUT Creator Pro (c) Oleg Sharonov
#Copyright Oleg Sharonov
#IMAGEPROFILE 
#INPUTGAMMA 
#OUTPUTGAMMA 
0 128 256 384 512 640 768 896 1023
0 0 0
6 58 135
15 199 383
37 375 640
70 552 905
116 733 1181
177 916 1472
246 1099 1779
318 1280 2108
0 494 43
0 496 499
0 548 701
0 640 909
12 759 1139
76 899 1380
147 1051 1644
229 1211 1933
313 1374 2249
0 1020 147
0 1021 553
0 1022 1028
0 1061 1306
0 1140 1468
0 1232 1719
0 1341 1989
116 1461 2265
257 1588 2564
0 1571 270
0 1571 607
0 1573 1066
0 1575 1581
0 1600 1944
0 1663 2148
0 1740 2380
0 1819 2687
0 1905 3017
0 2125 331
0 2125 640
0 2125 1106
0 2127 1605
0 2129 2134
0 2142 2568
0 2182 2856
0 2235 3133
0 2288 3458
0 2660 311
0 2660 629
0 2660 1095
0 2660 1614
0 2661 2146
0 2662 2665
0 2667 3132
0 2685 3507
0 2709 3868
0 3164 210
0 3164 580
0 3164 1067
0 3164 1603
0 3164 2142
0 3165 2669
0 3165 3166
0 3166 3634
0 3171 4058
0 3640 76
0 3640 528
0 3640 1039
0 3640 1585
0 3640 2135
0 3640 2665
0 3640 3166
0 3640 3641
0 3640 4095
0 4095 9
0 4095 500
0 4095 1026
0 4095 1576
0 4095 2130
0 4095 2663
0 4095 3165
0 4095 3640
6 4095 4095
330 98 0
367 110 358
222 227 810
163 425 863
171 595 1059
207 767 1300
253 943 1570
307 1122 1864
372 1298 2185
483 499 15
210 548 590
204 595 780
194 680 985
210 794 1200
241 928 1434
287 1077 1694
342 1233 1978
367 1390 2323
413 1035 0
356 1028 714
243 1047 1078
0 1100 1347
0 1170 1547
83 1256 1785
204 1359 2032
303 1476 2302
322 1599 2635
339 1588 0
390 1575 735
309 1583 1125
237 1591 1611
0 1625 1977
0 1685 2184
0 1756 2440
70 1831 2741
95 1912 3082
289 2140 0
413 2128 721
368 2131 1137
322 2135 1626
281 2138 2150
0 2158 2596
0 2196 2891
0 2247 3171
0 2293 3521
316 2670 0
441 2662 667
425 2663 1111
394 2664 1624
375 2666 2152
365 2667 2672
246 2674 3147
104 2692 3534
0 2715 3910
398 3168 0
470 3165 591
464 3165 1071
453 3165 1604
447 3166 2144
439 3166 2670
441 3167 3168
410 3168 3638
0 3177 4086
464 3641 0
488 3640 528
487 3640 1039
486 3640 1584
482 3641 2135
483 3641 2665
480 3641 3167
483 3641 3641
486 3641 4095
496 4095 9
496 4095 500
495 4095 1025
495 4095 1576
495 4095 2130
495 4095 2663
496 4095 3165
498 4095 3640
499 4095 4095
726 309 0
748 333 76
790 330 777
655 461 1231
505 610 1600
440 819 1653
437 995 1844
460 1166 2096
500 1335 2390
1024 495 0
815 598 476
698 641 1023
596 703 1426
513 834 1570
472 977 1725
472 1123 1937
498 1273 2193
504 1420 2526
1001 1028 52
820 1070 612
548 1112 1186
556 1152 1381
545 1215 1625
546 1299 1866
564 1399 2117
600 1512 2387
478 1618 2832
963 1586 12
794 1614 491
785 1592 1333
698 1616 1670
540 1663 1987
453 1723 2236
531 1781 2514
605 1851 2801
322 1922 3266
919 2142 0
800 2156 459
907 2130 1293
837 2142 1703
803 2150 2178
694 2174 2597
598 2216 2911
579 2263 3211
0 2301 3696
941 2670 0
873 2676 463
966 2661 1202
937 2665 1674
914 2668 2176
905 2671 2682
856 2679 3146
808 2698 3536
0 2727 4023
978 3168 0
949 3170 478
1000 3165 1108
993 3165 1623
984 3166 2155
977 3167 2675
979 3167 3171
965 3169 3638
803 3179 4095
1009 3641 0
1000 3642 490
1017 3640 1048
1016 3640 1589
1014 3641 2138
1013 3641 2666
1013 3641 3167
1014 3641 3641
1017 3641 4095
1023 4095 6
1023 4095 499
1022 4095 1024
1022 4095 1575
1022 4095 2130
1022 4095 2663
1023 4095 3165
1023 4095 3640
1024 4095 4095
1144 528 0
1157 548 34
1396 428 394
1242 555 1223
1098 698 1683
983 801 2197
819 972 2514
751 1187 2599
740 1360 2813
1378 645 0
1252 722 416
1292 739 647
1237 769 1353
1103 849 1893
948 929 2420
834 1121 2510
784 1294 2653
750 1434 2949
1567 1026 34
1575 1024 492
1164 1174 1058
1007 1217 1590
1010 1233 2051
959 1308 2336
898 1420 2533
877 1535 2764
747 1610 3257
1550 1581 95
1487 1596 614
1139 1670 1200
1016 1684 1775
1051 1716 1987
1060 1758 2287
1065 1815 2586
1082 1883 2889
635 1897 3678
1532 2137 37
1481 2147 524
1290 2180 1034
1341 2148 1895
1293 2170 2227
1217 2201 2590
1161 2242 2913
1196 2274 3259
234 2286 4066
1528 2669 0
1496 2674 491
1403 2686 1011
1498 2662 1782
1453 2672 2227
1443 2677 2698
1408 2688 3145
1377 2706 3538
1007 2728 4095
1545 3168 0
1533 3170 487
1503 3173 1014
1550 3164 1664
1537 3166 2178
1529 3168 2685
1529 3169 3174
1521 3171 3638
1457 3177 4095
1566 3641 0
1562 3641 492
1556 3642 1020
1569 3640 1598
1567 3640 2142
1566 3641 2669
1565 3641 3168
1566 3641 3642
1570 3641 4095
1575 4095 6
1575 4095 499
1575 4095 1024
1575 4095 1575
1575 4095 2130
1575 4095 2662
1575 4095 3165
1575 4095 3640
1575 4095 4095
1588 746 0
1607 754 15
1614 795 237
1860 649 987
1727 768 1704
1583 917 2166
1516 1009 2653
1426 1093 3154
1232 1184 3672
1764 832 0
1683 887 396
1679 927 535
1851 850 1097
1747 921 1802
1615 1030 2300
1539 1103 2793
1437 1176 3285
1242 1219 3859
2112 1036 0
2057 1075 407
1808 1210 963
1817 1230 1335
1705 1270 2018
1636 1297 2587
1553 1337 3081
1421 1387 3557
1358 1422 3996
2112 1581 104
2101 1585 562
2091 1589 1060
1529 1755 1778
1507 1772 2184
1581 1747 2738
1569 1769 3144
1517 1836 3437
1574 1787 4032
2110 2134 107
2087 2140 588
2010 2157 1149
1698 2224 1757
1650 2228 2313
1720 2246 2559
1753 2264 2930
1771 2291 3305
1762 2231 4070
2107 2667 43
2093 2669 524
2051 2678 1051
1945 2698 1597
1999 2671 2362
1972 2687 2726
1949 2702 3136
1934 2718 3535
1898 2707 4095
2115 3167 6
2109 3168 499
2092 3171 1026
2057 3176 1574
2101 3164 2221
2084 3169 2704
2084 3171 3179
2078 3173 3637
2063 3175 4095
2124 3641 0
2122 3641 495
2119 3642 1022
2112 3642 1573
2124 3640 2149
2122 3641 2673
2121 3641 3170
2121 3641 3642
2125 3641 4095
2129 4095 0
2129 4095 496
2130 4095 1026
2130 4095 1576
2130 4095 2130
2130 4095 2663
2129 4095 3165
2129 4095 3640
2129 4095 4095
2059 949 0
2082 950 12
2117 963 191
2324 858 568
2328 853 1578
2245 945 2222
2121 1093 2679
2093 1166 3142
2066 1225 3619
2195 1015 0
2141 1057 393
2174 1068 503
2305 1027 776
2338 1002 1655
2275 1061 2298
2161 1181 2769
2131 1241 3235
2143 1243 3761
2474 1181 0
2438 1211 393
2284 1313 924
2309 1336 1140
2356 1312 1827
2304 1345 2444
2235 1398 2957
2208 1431 3429
2289 1361 3983
2663 1575 0
2673 1570 453
2665 1578 953
2373 1726 1586
2371 1737 2065
2291 1768 2636
2300 1757 3175
2290 1762 3644
2419 1734 4023
2647 2134 138
2639 2137 574
2626 2141 1079
2581 2157 1639
2203 2264 2365
2199 2270 2795
2334 2219 3324
2362 2220 3721
2518 2196 4061
2653 2665 76
2646 2666 549
2628 2671 1082
2585 2681 1658
2437 2715 2250
2358 2730 2789
2451 2729 3095
2496 2710 3636
2591 2685 4087
2655 3167 24
2653 3167 511
2645 3169 1036
2630 3172 1588
2599 3178 2142
2625 3165 2761
2613 3173 3188
2608 3176 3647
2628 3173 4095
2660 3641 3
2660 3641 498
2658 3641 1024
2655 3642 1576
2649 3643 2130
2657 3641 2672
2654 3641 3169
2656 3641 3642
2660 3641 4095
2662 4095 6
2662 4095 499
2662 4095 1024
2662 4095 1575
2662 4095 2129
2662 4095 2662
2662 4095 3165
2663 4095 3640
2663 4095 4095
2559 1124 0
2584 1117 27
2640 1102 186
2730 1077 486
2965 849 1286
2829 996 2194
2789 1061 2769
2699 1196 3217
2699 1244 3667
2664 1175 0
2627 1209 405
2683 1193 500
2777 1163 709
2961 1009 1393
2848 1114 2251
2820 1156 2826
2736 1271 3279
2781 1250 3780
2886 1313 0
2862 1337 399
2761 1418 922
2861 1381 1095
2958 1329 1612
2887 1376 2375
2869 1397 2934
2815 1459 3408
2936 1330 3983
3133 1601 0
3123 1611 401
3061 1659 954
2917 1757 1514
2974 1746 1880
2944 1757 2537
2921 1774 3063
2909 1783 3557
3016 1716 4021
3162 2131 30
3162 2130 508
3167 2128 1016
3174 2125 1550
2994 2214 2167
2997 2215 2677
2953 2238 3158
2987 2217 3659
3090 2181 4058
3157 2665 101
3154 2666 549
3148 2668 1061
3141 2670 1605
3114 2680 2165
3020 2709 2749
2965 2730 3210
3071 2698 3647
3139 2675 4083
3162 3166 30
3161 3166 514
3158 3167 1040
3152 3168 1596
3140 3171 2158
3109 3178 2707
3028 3197 3226
3139 3173 3638
3157 3168 4094
3164 3641 6
3164 3641 499
3163 3641 1026
3162 3641 1577
3160 3641 2132
3160 3641 2667
3163 3641 3170
3162 3641 3642
3164 3641 4095
3165 4095 3
3165 4095 498
3165 4095 1024
3165 4095 1575
3165 4095 2129
3165 4095 2662
3165 4095 3165
3165 4095 3640
3165 4095 4095
3081 1249 18
3110 1232 61
3186 1181 207
3326 1065 456
3532 800 1040
3421 970 2095
3356 1050 2813
3343 1089 3328
3288 1200 3770
3165 1290 0
3137 1319 434
3213 1271 517
3356 1156 691
3525 973 1188
3429 1097 2155
3375 1155 2851
3368 1179 3368
3366 1192 3860
3338 1412 0
3321 1431 422
3257 1495 938
3402 1392 1082
3519 1301 1487
3450 1372 2285
3417 1397 2936
3417 1404 3446
3493 1290 3998
3538 1676 0
3533 1683 413
3491 1722 961
3406 1796 1510
3549 1702 1835
3486 1759 2450
3477 1760 3045
3476 1763 3538
3545 1695 4031
3641 2129 0
3647 2125 454
3646 2127 984
3607 2155 1541
3514 2216 2124
3531 2213 2592
3536 2206 3137
3528 2214 3607
3593 2172 4063
3638 2663 34
3638 2663 513
3637 2664 1032
3639 2663 1575
3632 2666 2137
3613 2676 2662
3610 2677 3173
3581 2694 3629
3624 2673 4084
3638 3166 37
3637 3166 514
3636 3166 1036
3635 3167 1585
3632 3168 2138
3634 3168 2664
3632 3168 3169
3622 3172 3639
3637 3166 4093
3640 3640 3
3640 3640 499
3640 3640 1025
3639 3641 1577
3639 3641 2132
3638 3641 2667
3638 3641 3168
3627 3643 3646
3640 3640 4095
3640 4095 0
3640 4095 494
3640 4095 1026
3640 4095 1576
3640 4095 2130
3640 4095 2663
3641 4095 3165
3640 4095 3640
3640 4095 4095
3622 1304 64
3657 1269 107
3750 1166 227
3933 899 431
4040 698 1147
3966 876 2087
3908 980 2807
3888 1001 3405
3890 1015 3881
3686 1341 34
3723 1304 73
3823 1191 191
4018 890 402
4059 835 1267
4036 884 2131
3986 967 2861
3961 988 3466
3958 998 3949
3820 1458 0
3861 1417 0
3970 1291 89
4085 1134 756
4070 1177 1526
4049 1217 2243
4036 1220 2932
4031 1197 3532
4030 1190 4023
3974 1721 0
4014 1685 0
4095 1604 351
4092 1612 1185
4084 1631 1808
4067 1660 2388
4057 1663 3009
4054 1652 3566
4053 1648 4048
4079 2143 0
4095 2133 299
4095 2135 890
4095 2138 1449
4093 2142 2014
4086 2153 2545
4077 2160 3083
4074 2157 3601
4074 2154 4072
4095 2662 0
4095 2662 496
4095 2662 1024
4095 2662 1575
4095 2664 2111
4094 2665 2636
4090 2670 3134
4088 2669 3625
4088 2668 4087
4094 3165 12
4095 3165 496
4095 3165 1023
4095 3165 1575
4095 3165 2129
4095 3165 2662
4095 3165 3162
4094 3166 3637
4094 3166 4094
4095 3640 3
4095 3640 496
4095 3640 1022
4095 3640 1575
4095 3640 2129
4095 3640 2662
4095 3640 3165
4095 3640 3640
4095 3640 4095
4095 4095 0
4095 4095 495
4095 4095 1021
4095 4095 1573
4095 4095 2128
4095 4095 2661
4095 4095 3165
4095 4095 3640
4095 4095 4095
