Toning/Toning-SplitWarmsAndColds_MXYe.3dl
#25pt 3DLUT created by 3D LUT Creator Pro (c) Oleg Sharonov
#Copyright Oleg Sharonov
#IMAGEPROFILE 
#INPUTGAMMA 
#OUTPUTGAMMA 
0 256 512 768 1023
0 0 0
114 73 977
376 353 1831
819 710 2542
1330 1091 3139
117 1017 30
92 1053 943
425 1247 1615
846 1506 2234
1318 1781 2846
171 2043 11
24 2032 1076
375 2166 1698
843 2356 2267
1334 2578 2814
173 3067 3
111 3029 1217
376 3112 1863
865 3254 2401
1380 3420 2942
228 4088 11
38 4086 1073
330 4094 1998
1173 4086 2755
2028 4065 3376
1025 0 0
916 16 1149
976 5 2077
1403 109 2823
1952 467 3437
1086 980 16
1045 1008 1034
1016 976 2109
1336 1242 2663
1749 1556 3186
1333 1929 65
1122 2014 1033
1129 2045 1983
1486 2211 2505
1894 2422 3019
1444 2959 117
1136 3054 985
1056 3063 2062
1538 3142 2606
1983 3288 3117
1518 3995 161
1123 4092 914
999 4091 2086
1564 4074 2844
2294 4067 3429
2048 16 0
2066 0 967
1916 43 2215
2088 0 3036
2600 19 3604
2109 941 14
2320 749 672
2025 905 2210
2112 974 3055
2536 1191 3554
2121 2003 22
2168 2047 612
2053 2044 2049
2131 2090 2922
2453 2307 3383
2387 2914 141
2240 3039 664
2087 3066 2010
2250 3089 2847
2625 3213 3341
2521 3926 224
2251 4071 635
2096 4094 1966
2203 4074 3006
2762 4070 3582
3067 68 0
3133 0 698
3107 0 1976
2986 52 3180
3370 0 3751
3091 979 5
3305 652 421
3211 830 1945
3037 976 3156
3332 1039 3778
3108 2014 14
3325 1888 449
3309 1940 1755
3065 2030 3109
3313 2091 3771
3111 3046 22
3169 3077 323
3171 3119 1653
3066 3076 3067
3261 3183 3675
3269 3997 133
3243 4061 434
3229 4086 1738
3092 4094 3035
3389 4076 3813
4085 136 0
4090 178 891
4089 202 2004
4095 81 3034
4039 867 3885
4080 1057 0
4087 1078 860
4064 1208 1889
4088 1087 3005
4050 1335 3923
4094 2050 0
4092 2061 891
4072 2125 1891
4082 2096 3014
4065 2167 3967
4085 3077 0
4093 3081 821
4081 3108 1942
4073 3134 2949
4073 3136 4004
4095 4092 68
4095 4095 936
4095 4095 2024
4095 4095 3067
4093 4095 4094
