Toning/Toning-Warm&Soft.3dl
#25pt 3DLUT created by 3D LUT Creator Pro (c) Oleg Sharonov
#Copyright Oleg Sharonov
#IMAGEPROFILE sRGB IEC61966-2.1 v.2.10
#INPUTGAMMA sRGB IEC61966-2.1 v.2.10
#OUTPUTGAMMA sRGB IEC61966-2.1 v.2.10
0 256 512 768 1023
0 0 324
1 1 935
3 3 1547
6 6 2160
9 9 2772
0 1021 321
1 1024 933
3 1027 1545
6 1030 2157
9 1033 2769
0 2045 318
1 2048 930
3 2051 1542
6 2054 2154
9 2057 2766
0 3069 315
1 3072 927
4 3075 1539
6 3078 2151
9 3080 2763
1 4093 314
1 4095 924
4 4095 1536
6 4095 2148
12 4095 2761
1313 0 241
1314 0 953
1316 3 1668
1317 5 2383
1318 7 3098
1312 1047 238
1314 1050 951
1315 1053 1666
1316 1054 2381
1318 1057 3096
1311 2091 236
1312 2094 949
1315 2096 1664
1315 2098 2379
1317 2100 3094
1311 3106 234
1312 3108 947
1314 3110 1662
1315 3112 2377
1317 3114 3092
1311 4093 232
1311 4094 945
1313 4094 1660
1314 4094 2375
1316 4094 3090
2438 0 159
2438 0 974
2438 2 1792
2438 3 2610
2438 5 3428
2436 1076 157
2436 1077 973
2436 1079 1790
2436 1081 2608
2436 1083 3426
2434 2139 156
2435 2141 971
2435 2142 1789
2435 2144 2607
2435 2146 3424
2433 3144 155
2433 3145 970
2433 3146 1787
2434 3147 2605
2433 3148 3423
2432 4094 153
2433 4095 969
2433 4094 1787
2432 4094 2604
2432 4093 3422
3372 0 79
3371 0 997
3369 1 1918
3368 3 2839
3367 4 3760
3369 1104 78
3368 1106 996
3367 1107 1917
3366 1108 2838
3364 1110 3759
3367 2188 77
3366 2189 995
3364 2190 1916
3363 2191 2837
3362 2192 3758
3365 3183 77
3364 3183 995
3363 3183 1915
3362 3183 2836
3360 3183 3757
3364 4094 77
3363 4095 994
3362 4095 1915
3360 4094 2836
3359 4094 3757
4095 3 0
4095 3 1023
4095 4 2047
4095 5 3071
4095 5 4095
4095 1136 0
4095 1137 1023
4095 1138 2047
4095 1139 3070
4095 1139 4094
4095 2239 0
4095 2239 1023
4095 2240 2046
4095 2240 3070
4095 2240 4093
4095 3222 0
4095 3222 1022
4095 3221 2046
4095 3220 3070
4095 3219 4094
4095 4095 0
4095 4095 1021
4095 4095 2046
4095 4095 3071
4095 4095 4095
