Toning/Toning-SplitToning-GreenShadows.3dl
#25pt 3DLUT created by 3D LUT Creator Pro (c) Oleg Sharonov
#Copyright Oleg Sharonov
#IMAGEPROFILE sRGB IEC61966-2.1 v.2.10
#INPUTGAMMA sRGB IEC61966-2.1 v.2.10
#OUTPUTGAMMA sRGB IEC61966-2.1 v.2.10
0 256 512 768 1023
0 0 0
113 29 894
339 48 1902
536 113 2889
734 203 3874
217 1009 110
291 1012 950
428 1019 1923
595 1033 2899
769 1055 3875
538 2024 278
546 2026 1027
623 2027 1990
757 2029 2958
917 2034 3927
857 3039 523
857 3040 1136
894 3039 2078
988 3037 3046
1117 3037 4007
1183 4053 772
1198 4052 1282
1215 4051 2184
1265 4048 3140
1357 4046 4095
977 48 214
1065 0 913
1132 0 1912
1254 0 2873
1391 13 3849
987 1031 165
1095 1011 926
1150 1012 1919
1256 1020 2873
1388 1029 3847
1144 2028 282
1251 2016 989
1296 2013 1978
1390 2015 2921
1501 2019 3884
1366 3036 481
1465 3027 1086
1497 3024 2060
1591 3019 3010
1701 3016 3971
1616 4048 700
1711 4040 1210
1741 4036 2160
1819 4030 3106
1914 4026 4063
1991 158 322
2063 0 944
2094 0 1944
2175 0 2883
2282 0 3846
1968 1069 320
2112 984 962
2130 981 1975
2205 967 2917
2304 958 3865
1964 2068 334
2145 2019 982
2162 2017 1997
2238 2008 2941
2333 2005 3886
2140 3051 475
2300 3022 1052
2310 3020 2059
2372 3015 2999
2458 3010 3943
2342 4052 664
2500 4029 1156
2507 4027 2142
2570 4019 3089
2655 4012 4036
2956 439 520
3072 0 1030
3081 0 2027
3098 0 3022
3159 0 3966
2908 1177 508
3075 1019 1031
3085 1011 2030
3102 1005 3026
3165 982 3971
2845 2146 496
3078 2044 1034
3091 2039 2035
3109 2035 3032
3175 2023 3979
2863 3126 521
3098 3063 1043
3112 3059 2043
3131 3056 3042
3195 3049 3990
3029 4095 653
3256 4054 1113
3266 4051 2101
3279 4048 3099
3340 4041 4052
3937 671 706
3951 554 1546
3978 417 2391
4025 238 3238
4095 0 4095
3893 1288 696
3925 1216 1529
3963 1147 2379
4020 1082 3233
4094 1025 4095
3816 2222 679
3875 2171 1499
3936 2124 2359
4009 2082 3225
4095 2047 4095
3755 3201 669
3834 3163 1475
3914 3128 2342
4001 3096 3218
4095 3071 4095
3911 4095 1797
3920 4095 1946
3943 4095 2402
4012 4095 3217
4095 4095 4095
