Toning/Toning-HeavyBlueOrange.3dl
#25pt 3DLUT created by 3D LUT Creator Pro (c) Oleg Sharonov
#Copyright Oleg Sharonov
#IMAGEPROFILE sRGB IEC61966-2.1 v.2.10
#INPUTGAMMA sRGB IEC61966-2.1 v.2.10
#OUTPUTGAMMA sRGB IEC61966-2.1 v.2.10
0 43 86 128 171 214 256 299 341 384 427 469 512 555 597 640 682 725 768 810 853 896 938 981 1023 
0 0 0
0 6 168
0 16 343
0 39 516
0 74 678
0 126 851
0 198 1022
0 271 1194
0 351 1364
0 430 1535
0 513 1705
0 597 1876
0 685 2047
0 773 2219
0 864 2388
0 955 2559
0 1050 2731
0 1144 2900
0 1242 3071
0 1340 3242
0 1439 3412
0 1540 3583
0 1642 3754
0 1746 3924
0 1850 4095
0 0 0
0 6 168
0 16 343
0 39 516
0 74 678
0 126 851
0 198 1022
0 271 1194
0 351 1364
0 430 1535
0 513 1705
0 597 1876
0 685 2047
0 773 2219
0 864 2388
0 955 2559
0 1050 2731
0 1144 2900
0 1242 3071
0 1340 3242
0 1439 3412
0 1540 3583
0 1642 3754
0 1746 3924
0 1850 4095
0 0 0
0 6 168
0 16 343
0 39 516
0 74 678
0 126 851
0 198 1022
0 271 1194
0 351 1364
0 430 1535
0 513 1705
0 597 1876
0 685 2047
0 773 2219
0 864 2388
0 955 2559
0 1050 2731
0 1144 2900
0 1242 3071
0 1340 3242
0 1439 3412
0 1540 3583
0 1642 3754
0 1746 3924
0 1850 4095
0 23 0
0 36 177
0 48 339
0 78 512
0 116 684
0 174 855
0 240 1026
0 308 1193
0 383 1364
0 460 1535
0 540 1706
0 623 1877
0 707 2048
0 793 2218
0 883 2388
0 973 2559
0 1067 2731
0 1161 2900
0 1256 3071
0 1354 3242
0 1452 3412
0 1553 3583
0 1654 3754
0 1757 3924
0 1861 4095
0 136 0
0 149 171
0 171 343
0 201 513
0 238 680
0 287 852
0 339 1023
0 401 1196
0 467 1366
0 536 1536
0 610 1707
0 687 1877
0 766 2048
0 849 2219
0 934 2389
0 1022 2559
0 1111 2730
0 1203 2901
0 1296 3071
0 1392 3242
0 1488 3412
0 1587 3583
0 1687 3754
0 1788 3924
0 1891 4095
0 287 0
0 299 171
0 312 339
0 337 512
0 369 682
0 408 853
0 454 1023
0 505 1193
0 563 1365
0 626 1536
0 693 1706
0 765 1877
0 839 2047
0 917 2218
0 999 2389
0 1082 2559
0 1168 2730
0 1257 2901
0 1348 3072
0 1440 3242
0 1535 3413
0 1631 3583
0 1729 3754
0 1829 3925
0 1930 4095
0 434 0
0 443 171
0 458 341
0 475 512
0 503 683
0 535 852
0 575 1024
0 619 1194
0 671 1364
0 728 1536
0 789 1707
0 854 1876
0 924 2048
0 997 2219
0 1074 2389
0 1154 2560
0 1237 2730
0 1322 2900
0 1409 3071
0 1499 3242
0 1591 3412
0 1685 3583
0 1780 3754
0 1878 3924
0 1977 4095
0 582 0
0 590 171
0 601 341
0 617 512
0 640 683
0 668 853
0 702 1023
0 743 1194
0 788 1365
0 840 1536
0 896 1707
0 956 1877
0 1021 2048
0 1089 2218
0 1161 2388
0 1237 2559
0 1315 2730
0 1397 2901
0 1481 3071
0 1568 3242
0 1657 3412
0 1748 3583
0 1841 3754
0 1936 3924
0 2033 4095
0 731 0
0 737 171
0 747 341
0 762 512
0 781 683
0 807 853
0 837 1024
0 872 1195
0 914 1365
0 960 1536
0 1011 1706
0 1067 1877
0 1127 2047
0 1191 2218
0 1259 2389
0 1330 2560
0 1405 2730
0 1482 2900
0 1564 3072
0 1647 3242
0 1732 3413
0 1820 3583
0 1911 3754
0 2003 3924
0 2098 4095
0 882 0
0 888 171
0 896 341
0 909 512
0 927 683
0 948 853
0 976 1024
0 1008 1194
0 1046 1365
0 1087 1536
0 1134 1706
0 1186 1877
0 1242 2047
0 1302 2218
0 1365 2389
0 1433 2559
0 1503 2730
0 1578 2901
0 1655 3071
0 1734 3242
0 1817 3412
0 1902 3583
0 1990 3754
0 2079 3924
0 2171 4095
0 1035 0
0 1040 171
0 1047 341
0 1060 512
0 1076 683
0 1095 853
0 1119 1023
0 1149 1195
0 1183 1365
0 1222 1536
0 1265 1706
0 1312 1877
0 1364 2048
0 1420 2218
0 1480 2389
0 1544 2559
0 1611 2730
0 1681 2900
0 1755 3071
0 1831 3242
0 1911 3412
0 1993 3583
0 2077 3754
0 2164 3925
0 2253 4095
0 1191 0
0 1196 171
0 1202 341
0 1213 512
0 1227 682
0 1246 853
0 1268 1023
0 1295 1195
0 1326 1365
0 1361 1535
0 1402 1707
0 1446 1877
0 1494 2048
0 1546 2218
0 1603 2389
0 1663 2559
0 1726 2730
0 1793 2900
0 1863 3071
0 1937 3242
0 2012 3412
0 2091 3583
0 2173 3754
0 2256 3924
0 2343 4095
0 1350 0
0 1354 171
0 1360 341
0 1370 512
0 1383 683
0 1399 853
0 1420 1024
0 1445 1195
0 1474 1365
0 1506 1536
0 1544 1707
0 1585 1877
0 1630 2047
0 1679 2218
0 1732 2388
0 1788 2559
0 1849 2730
0 1912 2901
0 1979 3071
0 2049 3242
0 2122 3412
0 2197 3583
0 2276 3754
0 2357 3924
0 2440 4095
0 1511 0
0 1515 171
0 1521 341
0 1530 512
0 1541 683
0 1557 853
0 1576 1023
0 1599 1195
0 1625 1365
0 1656 1536
0 1690 1707
0 1729 1877
0 1771 2048
0 1818 2218
0 1868 2389
0 1921 2560
0 1978 2730
0 2038 2901
0 2102 3071
0 2169 3242
0 2238 3412
0 2311 3583
0 2386 3754
0 2464 3924
0 2545 4095
0 1675 0
0 1678 171
0 1684 341
0 1692 512
0 1703 683
0 1717 853
0 1735 1023
0 1756 1195
0 1781 1365
0 1810 1536
0 1842 1706
0 1878 1877
0 1918 2047
0 1961 2218
0 2008 2389
0 2059 2559
0 2113 2730
0 2170 2900
0 2231 3071
0 2295 3242
0 2361 3412
0 2431 3583
0 2504 3754
0 2579 3924
0 2657 4095
0 1841 0
0 1845 171
0 1850 341
0 1857 512
0 1868 683
0 1881 853
0 1898 1024
0 1917 1195
0 1940 1365
0 1967 1536
0 1997 1706
0 2032 1877
0 2069 2048
0 2110 2218
0 2154 2389
0 2202 2559
0 2254 2730
0 2308 2901
0 2366 3071
0 2427 3242
0 2491 3412
0 2558 3583
0 2627 3754
0 2700 3924
0 2775 4095
0 2010 0
0 2014 171
0 2018 341
0 2026 512
0 2035 683
0 2047 853
0 2063 1024
0 2081 1195
0 2103 1365
0 2128 1536
0 2157 1706
0 2189 1877
0 2224 2048
0 2263 2218
0 2305 2389
0 2351 2560
0 2399 2730
0 2451 2900
0 2506 3071
0 2565 3242
0 2626 3413
0 2690 3583
0 2757 3754
0 2827 3924
0 2899 4095
0 2182 0
0 2185 171
0 2190 341
0 2196 512
0 2205 683
0 2217 853
0 2231 1024
0 2249 1195
0 2269 1365
0 2293 1536
0 2320 1707
0 2350 1877
0 2383 2048
0 2420 2218
0 2460 2389
0 2504 2559
0 2550 2730
0 2599 2900
0 2652 3071
0 2708 3242
0 2767 3412
0 2828 3583
0 2893 3754
0 2960 3924
0 3029 4095
0 2356 0
0 2359 171
0 2363 341
0 2369 512
0 2378 683
0 2389 853
0 2402 1023
0 2419 1195
0 2438 1365
0 2461 1536
0 2486 1706
0 2515 1877
0 2546 2048
0 2581 2218
0 2619 2389
0 2660 2560
0 2705 2730
0 2752 2900
0 2802 3071
0 2856 3242
0 2912 3412
0 2971 3583
0 3033 3754
0 3098 3924
0 3165 4095
0 2532 0
0 2535 171
0 2539 341
0 2545 512
0 2553 683
0 2563 853
0 2576 1024
0 2592 1195
0 2610 1365
0 2631 1536
0 2655 1706
0 2683 1877
0 2713 2048
0 2746 2218
0 2782 2389
0 2821 2559
0 2864 2730
0 2908 2900
0 2957 3071
0 3008 3242
0 3062 3412
0 3119 3583
0 3179 3754
0 3241 3924
0 3306 4095
0 2711 0
0 2714 171
0 2717 341
0 2723 512
0 2730 683
0 2740 853
0 2752 1023
0 2767 1195
0 2784 1365
0 2805 1536
0 2828 1707
0 2854 1877
0 2882 2048
0 2914 2218
0 2948 2389
0 2986 2559
0 3026 2730
0 3069 2900
0 3115 3071
0 3164 3242
0 3216 3412
0 3271 3583
0 3329 3754
0 3388 3924
0 3451 4095
0 2892 0
0 2894 171
0 2898 341
0 2903 512
0 2910 683
0 2919 853
0 2931 1023
0 2945 1195
0 2962 1365
0 2981 1536
0 3003 1706
0 3028 1877
0 3055 2048
0 3085 2218
0 3118 2389
0 3154 2559
0 3192 2730
0 3234 2900
0 3278 3071
0 3325 3242
0 3375 3412
0 3427 3583
0 3483 3754
0 3541 3924
0 3601 4095
0 3075 0
0 3077 171
0 3080 341
0 3085 512
0 3092 683
0 3101 853
0 3112 1024
0 3126 1195
0 3141 1365
0 3160 1536
0 3181 1707
0 3204 1877
0 3230 2048
0 3259 2218
0 3291 2389
0 3325 2559
0 3362 2730
0 3402 2900
0 3444 3071
0 3489 3242
0 3537 3412
0 3588 3583
0 3641 3754
0 3697 3924
3 3756 4095
0 3260 0
0 3262 171
0 3265 341
0 3270 512
0 3277 683
0 3285 853
0 3296 1024
0 3309 1195
0 3323 1365
0 3341 1536
0 3361 1707
0 3384 1877
0 3408 2048
0 3436 2218
0 3466 2389
0 3499 2559
0 3535 2730
0 3573 2900
0 3614 3071
0 3657 3242
0 3703 3412
0 3752 3583
0 3804 3754
0 3857 3924
3 3914 4095
0 3447 0
0 3449 171
0 3452 341
0 3457 512
0 3463 683
0 3471 853
0 3481 1024
0 3493 1195
0 3508 1365
0 3525 1536
0 3544 1706
0 3565 1877
0 3589 2048
0 3616 2218
0 3645 2389
0 3676 2559
0 3710 2730
0 3747 2900
0 3786 3071
0 3828 3242
0 3873 3412
0 3920 3583
0 3969 3754
0 4022 3924
0 4076 4095
328 0 0
267 6 168
171 16 337
0 39 516
0 74 678
0 126 851
0 198 1022
0 271 1194
0 351 1364
0 430 1535
0 513 1705
0 597 1876
0 685 2047
0 773 2219
0 864 2388
0 955 2559
0 1050 2731
0 1144 2900
0 1242 3071
0 1340 3242
0 1439 3412
0 1540 3583
0 1642 3754
0 1746 3924
0 1850 4095
328 0 0
267 6 168
171 16 337
0 39 516
0 74 678
0 126 851
0 198 1022
0 271 1194
0 351 1364
0 430 1535
0 513 1705
0 597 1876
0 685 2047
0 773 2219
0 864 2388
0 955 2559
0 1050 2731
0 1144 2900
0 1242 3071
0 1340 3242
0 1439 3412
0 1540 3583
0 1642 3754
0 1746 3924
0 1850 4095
328 0 0
267 6 168
171 16 337
0 39 516
0 74 678
0 126 851
0 198 1022
0 271 1194
0 351 1364
0 430 1535
0 513 1705
0 597 1876
0 685 2047
0 773 2219
0 864 2388
0 955 2559
0 1050 2731
0 1144 2900
0 1242 3071
0 1340 3242
0 1439 3412
0 1540 3583
0 1642 3754
0 1746 3924
0 1850 4095
324 23 0
271 36 171
174 52 343
0 78 512
0 116 684
0 174 855
0 240 1026
0 308 1193
0 383 1364
0 460 1535
0 540 1706
0 623 1877
0 707 2048
0 793 2218
0 883 2388
0 973 2559
0 1067 2731
0 1161 2900
0 1256 3071
0 1354 3242
0 1452 3412
0 1553 3583
0 1654 3754
0 1757 3924
0 1861 4095
330 136 0
271 149 171
174 168 341
0 201 513
0 238 680
0 287 852
0 339 1023
0 401 1196
0 467 1366
0 536 1536
0 610 1707
0 687 1877
0 766 2048
0 849 2219
0 934 2389
0 1022 2559
0 1111 2730
0 1203 2901
0 1296 3071
0 1392 3242
0 1488 3412
0 1587 3583
0 1687 3754
0 1788 3924
0 1891 4095
328 287 0
271 297 171
174 314 341
0 337 512
0 369 682
0 408 853
0 454 1023
0 505 1193
0 563 1365
0 626 1536
0 693 1706
0 765 1877
0 839 2047
0 917 2218
0 999 2389
0 1082 2559
0 1168 2730
0 1257 2901
0 1348 3072
0 1440 3242
0 1535 3413
0 1631 3583
0 1729 3754
0 1829 3925
0 1930 4095
328 434 0
269 443 171
174 457 341
0 475 512
0 503 683
0 535 852
0 575 1024
0 619 1194
0 671 1364
0 728 1536
0 789 1707
0 854 1876
0 924 2048
0 997 2219
0 1074 2389
0 1154 2560
0 1237 2730
0 1322 2900
0 1409 3071
0 1499 3242
0 1591 3412
0 1685 3583
0 1780 3754
0 1878 3924
0 1977 4095
328 582 0
271 590 171
174 602 341
0 617 512
0 640 683
0 668 853
0 702 1023
0 743 1194
0 788 1365
0 840 1536
0 896 1707
0 956 1877
0 1021 2048
0 1089 2218
0 1161 2388
0 1237 2559
0 1315 2730
0 1397 2901
0 1481 3071
0 1568 3242
0 1657 3412
0 1748 3583
0 1841 3754
0 1936 3924
0 2033 4095
328 731 0
271 738 171
174 747 341
0 762 512
0 781 683
0 807 853
0 837 1024
0 872 1195
0 914 1365
0 960 1536
0 1011 1706
0 1067 1877
0 1127 2047
0 1191 2218
0 1259 2389
0 1330 2560
0 1405 2730
0 1482 2900
0 1564 3072
0 1647 3242
0 1732 3413
0 1820 3583
0 1911 3754
0 2003 3924
0 2098 4095
328 882 0
271 888 171
174 896 341
0 909 512
0 927 683
0 948 853
0 976 1024
0 1008 1194
0 1046 1365
0 1087 1536
0 1134 1706
0 1186 1877
0 1242 2047
0 1302 2218
0 1365 2389
0 1433 2559
0 1503 2730
0 1578 2901
0 1655 3071
0 1734 3242
0 1817 3412
0 1902 3583
0 1990 3754
0 2079 3924
0 2171 4095
328 1035 0
271 1041 171
174 1048 341
0 1060 512
0 1076 683
0 1095 853
0 1119 1023
0 1149 1195
0 1183 1365
0 1222 1536
0 1265 1706
0 1312 1877
0 1364 2048
0 1420 2218
0 1480 2389
0 1544 2559
0 1611 2730
0 1681 2900
0 1755 3071
0 1831 3242
0 1911 3412
0 1993 3583
0 2077 3754
0 2164 3925
0 2253 4095
