Toning/Toning-WarmthSplitToning.3dl
#25pt 3DLUT created by 3D LUT Creator Pro (c) Oleg Sharonov
#Copyright Oleg Sharonov
#IMAGEPROFILE sRGB IEC61966-2.1 v.2.10
#INPUTGAMMA sRGB IEC61966-2.1 v.2.10
#OUTPUTGAMMA sRGB IEC61966-2.1 v.2.10
0 43 86 128 171 214 256 299 341 384 427 469 512 555 597 640 682 725 768 810 853 896 938 981 1023 
0 0 0
0 0 174
0 0 343
0 0 513
0 0 683
0 0 854
0 0 1024
0 0 1195
0 0 1365
0 0 1536
0 0 1707
0 0 1877
0 0 2048
0 0 2218
0 0 2389
0 0 2560
0 0 2730
0 0 2901
0 0 3072
0 0 3242
0 0 3413
0 0 3583
0 0 3754
0 0 3924
0 0 4095
10 149 10
6 139 195
3 132 362
3 126 528
0 126 696
0 123 864
0 123 1033
0 123 1202
0 123 1372
0 123 1541
0 123 1712
0 119 1881
0 119 2052
0 119 2222
0 119 2392
0 119 2563
0 119 2733
0 119 2903
0 119 3074
0 119 3244
0 119 3415
0 123 3585
0 123 3756
3 126 3926
6 129 4095
23 314 23
16 295 222
13 282 386
6 271 551
6 264 716
3 260 882
3 255 1048
3 252 1216
0 252 1383
0 250 1552
0 250 1721
0 250 1890
0 250 2059
0 250 2229
0 250 2398
0 250 2568
0 250 2738
3 250 2908
3 250 3078
3 250 3248
3 252 3418
6 252 3588
10 255 3759
13 257 3928
19 262 4095
32 485 32
26 464 245
19 445 414
16 428 578
10 416 743
6 406 906
6 398 1070
3 393 1235
3 389 1401
3 388 1567
3 386 1735
3 384 1902
3 383 2071
3 383 2239
3 383 2408
3 383 2577
6 383 2746
6 383 2915
6 384 3085
10 384 3254
13 386 3424
16 388 3593
23 391 3763
29 394 3933
39 398 4095
39 658 39
32 637 264
29 616 436
23 595 604
16 578 769
13 563 931
10 552 1094
6 543 1258
6 537 1422
6 532 1587
6 528 1752
6 526 1919
6 525 2085
6 523 2253
6 522 2420
10 521 2588
10 522 2756
13 522 2925
16 522 3093
19 523 3262
26 525 3431
32 527 3600
42 531 3769
52 535 3938
65 540 4095
42 832 42
39 813 273
32 793 451
26 770 624
23 748 791
16 729 956
13 713 1119
13 702 1282
10 693 1444
10 685 1608
10 679 1772
10 675 1937
10 672 2102
10 669 2268
13 667 2435
13 666 2602
16 666 2769
23 666 2936
26 666 3104
32 668 3272
42 669 3440
52 672 3608
65 675 3777
81 679 3945
100 685 4095
45 1006 45
42 989 280
36 970 460
32 947 637
26 924 809
23 903 977
19 884 1141
16 868 1304
13 856 1467
13 845 1630
13 838 1793
13 831 1956
13 827 2121
16 823 2286
19 819 2451
23 818 2617
26 816 2783
32 815 2949
39 816 3116
48 817 3283
61 819 3450
78 821 3618
97 824 3785
116 829 3952
145 835 4095
45 1180 45
42 1165 280
39 1148 464
36 1127 645
29 1103 821
26 1081 992
23 1060 1160
19 1042 1324
19 1027 1487
16 1013 1650
16 1003 1813
16 995 1976
19 988 2139
23 982 2304
26 978 2468
32 975 2633
39 973 2798
45 971 2963
58 971 3129
71 971 3295
87 973 3461
107 975 3628
132 979 3794
161 983 3961
198 989 4095
45 1353 45
42 1340 280
39 1325 464
36 1305 649
32 1284 828
29 1261 1003
26 1239 1173
26 1220 1340
23 1202 1504
23 1187 1668
23 1175 1831
23 1164 1994
26 1155 2157
29 1148 2320
36 1142 2484
42 1138 2648
52 1135 2813
65 1132 2977
78 1131 3142
97 1131 3307
116 1132 3472
142 1134 3638
177 1137 3804
212 1141 3969
248 1147 4095
45 1525 45
42 1515 278
39 1502 462
39 1484 649
36 1464 831
32 1442 1008
29 1421 1181
29 1401 1351
29 1382 1517
29 1365 1683
29 1351 1846
32 1339 2010
36 1328 2173
42 1319 2336
48 1312 2499
58 1306 2663
71 1302 2827
84 1299 2990
103 1297 3155
126 1296 3319
152 1296 3483
186 1297 3648
222 1300 3813
260 1304 3977
299 1310 4095
45 1697 45
42 1688 276
42 1677 460
39 1662 646
39 1644 830
36 1624 1010
36 1603 1185
36 1583 1357
36 1564 1526
36 1547 1693
39 1531 1858
42 1517 2022
45 1506 2186
55 1496 2349
65 1487 2512
74 1480 2676
90 1474 2839
110 1470 3003
132 1467 3166
161 1465 3330
195 1465 3494
230 1465 3658
267 1468 3821
308 1472 3985
351 1477 4095
45 1868 45
45 1861 271
42 1852 455
42 1838 642
42 1823 826
42 1804 1007
42 1785 1185
42 1766 1359
42 1748 1530
45 1730 1699
48 1714 1865
55 1699 2031
61 1687 2195
71 1675 2359
84 1666 2523
97 1658 2686
116 1651 2850
142 1645 3013
168 1642 3176
201 1639 3339
235 1638 3502
273 1638 3666
312 1639 3829
354 1643 3992
401 1648 4095
48 2039 48
48 2033 271
48 2025 452
48 2014 636
48 2000 821
48 1984 1003
48 1967 1182
48 1949 1357
52 1931 1530
55 1914 1700
61 1898 1869
68 1884 2036
78 1870 2201
90 1858 2366
107 1848 2530
126 1839 2694
149 1831 2857
177 1825 3020
206 1820 3184
240 1817 3347
278 1815 3509
316 1814 3672
358 1815 3835
403 1818 3997
452 1822 4095
55 2210 55
55 2205 271
55 2198 449
55 2189 632
55 2177 815
58 2163 997
58 2148 1176
61 2131 1353
65 2115 1527
71 2099 1699
78 2083 1869
87 2068 2037
100 2055 2204
116 2043 2369
136 2032 2534
158 2023 2699
186 2015 2862
214 2008 3026
248 2002 3189
282 1998 3352
318 1995 3514
360 1994 3677
404 1994 3839
451 1996 4000
501 1999 4095
65 2380 65
65 2376 273
65 2370 446
65 2362 627
68 2352 809
68 2340 990
71 2327 1169
78 2312 1346
84 2297 1521
90 2282 1694
100 2268 1865
113 2254 2035
126 2241 2202
145 2229 2369
168 2218 2535
192 2208 2700
222 2199 2864
252 2192 3028
287 2186 3191
322 2182 3354
362 2178 3517
403 2176 3679
449 2176 3841
497 2177 4002
551 2179 4095
78 2550 78
78 2546 278
78 2541 446
81 2535 624
84 2526 803
87 2516 982
90 2505 1161
97 2492 1338
103 2479 1514
113 2465 1687
126 2452 1859
139 2439 2029
158 2427 2198
180 2415 2365
203 2404 2532
230 2395 2698
260 2386 2862
291 2378 3027
326 2372 3190
363 2367 3354
403 2363 3516
446 2361 3679
493 2359 3841
542 2360 4002
597 2362 4095
97 2719 97
97 2716 287
97 2712 448
100 2707 622
103 2700 798
107 2691 976
113 2681 1153
123 2671 1329
129 2659 1504
142 2647 1678
155 2636 1850
174 2624 2021
192 2612 2191
214 2601 2359
240 2591 2526
267 2582 2692
295 2574 2858
328 2566 3023
363 2560 3187
401 2554 3351
442 2550 3514
486 2547 3676
533 2545 3838
585 2545 3999
642 2547 4095
119 2888 119
119 2885 297
123 2882 452
126 2878 620
129 2872 793
136 2865 969
142 2857 1144
149 2848 1320
161 2838 1494
174 2828 1668
189 2818 1840
206 2807 2011
228 2797 2181
250 2787 2349
273 2778 2517
302 2769 2684
332 2761 2850
363 2754 3016
399 2748 3181
437 2742 3345
478 2738 3508
523 2735 3671
572 2733 3833
624 2732 3994
681 2733 4095
145 3057 145
149 3055 312
149 3052 458
152 3049 622
158 3044 790
165 3038 963
171 3032 1136
180 3024 1310
192 3016 1483
206 3007 1656
222 2999 1828
238 2990 1999
260 2981 2169
280 2972 2338
306 2964 2506
332 2956 2674
363 2949 2841
394 2942 3007
430 2936 3172
470 2931 3336
510 2927 3500
556 2923 3664
604 2921 3826
656 2920 3988
714 2920 4095
174 3226 174
174 3224 324
177 3222 465
180 3219 623
186 3216 788
192 3211 957
201 3206 1128
209 3200 1300
220 3193 1472
233 3187 1644
250 3179 1815
267 3172 1986
287 3164 2155
308 3157 2325
332 3150 2493
358 3143 2661
388 3137 2828
419 3131 2995
455 3125 3161
493 3121 3326
533 3116 3490
578 3113 3654
627 3111 3817
679 3109 3979
737 3109 4095
195 3395 195
198 3394 336
201 3393 470
203 3390 623
206 3387 783
214 3384 950
220 3380 1119
230 3375 1289
240 3370 1459
252 3365 1630
269 3359 1801
284 3353 1971
304 3347 2140
324 3341 2310
349 3335 2478
374 3330 2647
403 3324 2814
433 3319 2981
467 3315 3148
504 3311 3313
543 3307 3479
588 3304 3643
635 3302 3807
688 3300 3970
744 3299 4095
206 3566 206
209 3565 339
212 3564 470
214 3562 618
217 3560 777
222 3558 941
230 3555 1108
238 3551 1276
248 3548 1445
260 3544 1615
273 3539 1785
289 3535 1954
308 3531 2124
328 3526 2293
349 3521 2462
372 3517 2630
399 3513 2798
428 3509 2966
461 3505 3133
497 3502 3299
535 3499 3465
577 3496 3631
623 3494 3795
673 3492 3959
728 3491 4095
195 3739 195
198 3738 330
198 3737 458
201 3736 606
203 3735 764
209 3733 927
214 3731 1093
222 3729 1260
230 3727 1428
243 3724 1597
255 3721 1766
267 3718 1935
282 3715 2105
302 3712 2274
320 3709 2443
341 3706 2612
367 3703 2780
393 3700 2948
422 3698 3116
454 3695 3283
488 3693 3450
527 3691 3617
570 3689 3783
616 3688 3948
669 3687 4095
139 3914 139
139 3914 289
139 3913 425
142 3913 578
142 3912 738
145 3911 903
152 3910 1069
155 3909 1237
161 3908 1405
171 3906 1574
180 3905 1743
189 3903 1912
201 3902 2082
214 3900 2251
230 3899 2420
248 3897 2590
267 3896 2759
287 3894 2928
312 3893 3096
337 3892 3265
367 3891 3433
399 3889 3602
436 3888 3769
475 3887 3937
521 3887 4095
0 4095 0
0 4095 174
0 4095 347
0 4095 518
0 4094 689
0 4094 860
0 4094 1031
0 4094 1201
0 4094 1372
0 4094 1542
0 4094 1712
0 4093 1882
0 4094 2052
0 4094 2223
0 4094 2393
0 4094 2563
0 4094 2733
0 4094 2904
0 4094 3074
0 4094 3244
0 4094 3414
0 4095 3585
0 4095 3755
0 4095 3925
0 4095 4095
174 0 0
61 29 240
26 19 409
19 13 565
16 6 726
13 6 888
10 3 1053
10 3 1220
10 3 1387
10 0 1555
10 0 1723
10 0 1892
10 0 2061
10 0 2230
10 0 2400
10 0 2570
10 3 2739
10 3 2909
10 3 3079
13 3 3249
13 6 3419
16 6 3589
19 10 3759
23 16 3929
29 23 4095
132 189 19
61 195 243
29 174 416
23 155 575
16 145 735
13 139 897
13 132 1061
10 129 1227
10 129 1393
10 126 1560
10 126 1728
10 126 1896
10 126 2065
10 126 2234
10 126 2403
10 126 2572
10 126 2742
10 126 2912
13 126 3081
13 129 3251
16 129 3421
19 132 3591
23 139 3761
26 142 3930
36 149 4095
58 376 48
45 345 267
36 322 430
26 302 591
19 287 751
16 276 912
13 269 1074
13 264 1239
13 260 1403
10 257 1570
10 255 1737
10 255 1904
10 252 2072
10 252 2240
10 252 2409
13 252 2578
13 252 2747
13 255 2916
16 255 3085
19 257 3255
19 260 3424
26 262 3594
32 267 3764
39 271 3933
48 278 4095
61 535 52
52 505 280
42 481 448
32 457 611
26 437 772
23 422 933
16 411 1094
16 404 1256
13 398 1420
13 394 1585
13 391 1750
13 389 1916
13 388 2083
13 386 2250
13 386 2418
13 386 2586
16 386 2755
19 388 2923
23 388 3092
26 389 3261
29 391 3430
36 394 3599
45 399 3768
55 404 3937
68 409 4095
65 698 52
55 673 287
48 648 461
39 622 630
32 599 793
26 579 955
23 565 1116
19 554 1277
16 546 1439
16 540 1603
16 535 1767
16 531 1932
16 528 2097
16 527 2264
16 526 2430
19 525 2597
23 525 2765
26 526 2933
29 526 3101
36 528 3269
42 530 3437
52 533 3606
65 537 3774
78 542 3943
94 548 4095
65 865 52
58 843 291
52 820 470
42 793 644
36 768 812
32 746 976
26 727 1138
23 713 1299
19 702 1461
19 693 1623
19 686 1786
19 681 1950
19 677 2114
19 674 2279
23 672 2445
26 670 2611
29 670 2777
32 669 2944
42 670 3111
48 672 3279
58 674 3446
71 677 3614
87 681 3781
107 686 3949
132 693 4095
65 1035 52
58 1016 293
52 994 475
45 969 654
42 943 826
36 919 994
29 898 1158
26 880 1320
26 866 1482
23 854 1644
23 845 1806
23 838 1968
23 832 2132
26 827 2296
29 824 2460
32 822 2626
39 820 2791
45 819 2957
55 819 3123
65 821 3290
81 823 3456
97 825 3623
119 830 3790
145 835 3957
177 842 4095
61 1204 52
58 1188 291
55 1169 475
48 1146 658
42 1121 835
39 1096 1006
36 1073 1174
32 1053 1338
29 1036 1501
29 1022 1663
26 1011 1825
29 1001 1987
29 994 2150
32 988 2313
36 982 2477
42 979 2641
52 977 2805
61 975 2970
71 975 3136
87 975 3301
107 977 3467
129 979 3633
155 983 3799
189 988 3965
225 995 4095
58 1374 48
58 1360 289
55 1344 474
48 1324 659
45 1300 839
42 1275 1015
39 1252 1185
36 1231 1352
32 1212 1516
32 1196 1679
32 1182 1842
36 1171 2004
39 1161 2167
42 1154 2330
48 1147 2493
55 1142 2656
65 1139 2820
78 1136 2984
94 1135 3148
113 1135 3313
136 1136 3478
165 1138 3643
198 1141 3808
233 1146 3973
273 1153 4095
58 1543 48
55 1532 284
55 1519 471
52 1500 657
48 1479 840
45 1456 1018
42 1433 1192
39 1412 1361
39 1392 1528
39 1374 1693
39 1359 1856
42 1346 2019
45 1334 2182
52 1325 2345
61 1317 2507
71 1311 2670
84 1306 2834
100 1303 2997
119 1301 3161
145 1300 3325
174 1300 3489
206 1301 3653
243 1304 3817
280 1309 3981
322 1315 4095
58 1713 45
55 1704 280
55 1693 467
52 1677 653
52 1658 838
48 1637 1018
45 1615 1194
45 1594 1366
45 1574 1535
45 1555 1702
48 1539 1867
52 1524 2031
58 1512 2194
68 1501 2357
78 1492 2520
90 1484 2683
107 1479 2846
126 1474 3009
152 1471 3172
180 1469 3335
212 1468 3499
248 1470 3662
287 1472 3826
326 1476 3989
370 1481 4095
