Toning/Toning-CyanHighlights.3dl
#25pt 3DLUT created by 3D LUT Creator Pro (c) Oleg Sharonov
#Copyright Oleg Sharonov
#IMAGEPROFILE sRGB IEC61966-2.1 v.2.10
#INPUTGAMMA sRGB IEC61966-2.1 v.2.10
#OUTPUTGAMMA sRGB IEC61966-2.1 v.2.10
0 43 86 128 171 214 256 299 341 384 427 469 512 555 597 640 682 725 768 810 853 896 938 981 1023 
0 0 0
0 0 178
0 0 342
0 0 513
0 0 684
0 0 852
0 0 1024
0 0 1198
0 0 1365
0 0 1538
0 0 1708
0 0 1881
0 0 2047
0 0 2214
0 0 2385
0 0 2555
0 0 2729
0 0 2898
0 0 3069
0 0 3241
0 0 3411
0 0 3582
0 0 3753
0 0 3924
0 0 4095
0 171 0
0 191 189
0 191 360
0 191 534
0 196 710
0 207 888
0 208 1060
0 209 1234
0 217 1410
0 223 1587
0 228 1763
0 229 1937
0 237 2111
0 239 2279
0 247 2459
0 244 2627
0 234 2789
0 224 2951
0 207 3105
0 205 3273
0 203 3440
0 181 3591
0 171 3753
0 171 3924
0 171 4095
0 340 0
0 362 189
0 380 376
0 382 550
0 387 727
0 403 913
0 414 1096
0 416 1266
0 426 1448
0 439 1633
0 449 1814
0 456 1989
0 465 2168
0 475 2344
0 485 2525
0 490 2701
0 477 2861
0 457 3012
0 430 3156
0 411 3308
0 406 3471
0 383 3619
0 352 3762
0 342 3924
0 342 4095
0 513 0
0 533 189
0 553 378
0 573 569
0 578 746
0 593 932
0 610 1118
0 623 1303
0 633 1485
0 648 1669
0 665 1859
0 675 2039
0 690 2220
0 701 2398
0 721 2589
0 728 2767
0 725 2934
0 702 3083
0 665 3219
0 635 3360
0 613 3507
0 587 3652
0 554 3791
0 522 3933
0 513 4095
0 683 0
0 709 194
0 728 383
0 748 574
0 773 768
0 790 957
0 805 1143
0 824 1332
0 846 1525
0 860 1710
0 880 1901
0 896 2089
0 915 2274
0 931 2456
0 952 2649
0 965 2832
0 963 3000
0 939 3146
0 899 3279
0 861 3412
0 827 3550
0 784 3678
0 749 3814
0 715 3953
0 684 4095
0 855 0
0 891 205
0 915 398
0 936 589
0 961 785
0 995 988
0 1013 1176
0 1030 1366
0 1055 1562
0 1083 1759
0 1102 1951
0 1124 2143
0 1151 2335
0 1172 2522
0 1196 2717
0 1210 2902
0 1197 3063
0 1172 3207
0 1113 3320
0 1071 3451
0 1029 3581
0 976 3700
0 924 3821
0 888 3956
0 855 4095
0 1025 0
0 1063 207
0 1098 411
0 1123 606
0 1148 802
0 1183 1006
0 1220 1211
0 1238 1401
0 1264 1598
0 1295 1799
0 1328 2002
0 1349 2194
0 1378 2389
0 1407 2583
0 1436 2783
0 1454 2972
0 1443 3134
0 1403 3268
0 1341 3377
0 1281 3488
0 1237 3616
0 1174 3728
0 1112 3839
0 1062 3960
0 1026 4095
0 1197 0
0 1235 209
0 1272 415
0 1307 619
0 1337 820
0 1373 1026
0 1409 1232
0 1447 1439
0 1472 1635
0 1504 1838
0 1542 2043
0 1577 2246
0 1606 2443
0 1636 2639
0 1674 2848
0 1697 3042
0 1689 3205
0 1652 3341
0 1570 3435
0 1506 3541
0 1443 3650
0 1379 3760
0 1308 3864
0 1248 3975
0 1197 4095
0 1368 0
0 1414 216
0 1451 424
0 1488 631
0 1529 840
0 1570 1052
0 1606 1259
0 1644 1465
0 1691 1680
0 1723 1883
0 1759 2090
0 1799 2296
0 1840 2502
0 1871 2701
0 1911 2911
0 1937 3108
0 1926 3271
0 1887 3402
0 1802 3492
0 1719 3583
0 1653 3688
0 1571 3779
0 1498 3881
0 1428 3984
0 1368 4095
0 1538 0
0 1590 220
0 1636 435
0 1673 644
0 1715 856
0 1767 1079
0 1808 1290
0 1845 1496
0 1893 1711
0 1947 1931
0 1983 2139
0 2021 2347
0 2066 2558
0 2108 2765
0 2150 2976
0 2178 3175
0 2163 3334
0 2120 3465
0 2027 3545
0 1941 3632
0 1856 3721
0 1772 3809
0 1682 3892
0 1609 3992
0 1539 4095
0 1710 0
0 1766 225
0 1817 445
0 1863 660
0 1906 874
0 1959 1098
0 2012 1321
0 2055 1532
0 2101 1748
0 2154 1968
0 2211 2193
0 2248 2401
0 2294 2612
0 2340 2823
0 2393 3045
0 2423 3245
0 2410 3406
0 2354 3526
0 2250 3596
0 2154 3674
0 2066 3759
0 1965 3831
0 1873 3912
0 1783 3995
0 1710 4095
0 1881 0
0 1938 227
0 1995 452
0 2046 671
0 2097 893
0 2151 1116
0 2205 1341
0 2260 1565
0 2312 1785
0 2363 2005
0 2420 2231
0 2477 2457
0 2522 2667
0 2568 2879
0 2626 3105
0 2667 3316
0 2656 3478
0 2603 3599
0 2481 3655
0 2373 3723
0 2276 3798
0 2172 3867
0 2063 3931
0 1970 4012
0 1880 4095
0 2048 0
0 2114 235
0 2171 461
0 2227 686
0 2284 912
0 2345 1144
0 2400 1369
0 2457 1595
0 2520 1825
0 2575 2050
0 2631 2273
0 2690 2500
0 2754 2729
0 2800 2940
0 2858 3167
0 2899 3378
0 2885 3538
0 2831 3657
0 2706 3709
0 2582 3762
0 2473 3828
0 2360 3888
0 2249 3950
0 2140 4014
0 2048 4095
0 2214 0
0 2282 236
0 2347 471
0 2405 697
0 2467 928
0 2534 1165
0 2597 1397
0 2655 1625
0 2718 1856
0 2785 2092
0 2846 2320
0 2903 2543
0 2967 2773
0 3033 3004
0 3091 3230
0 3133 3442
0 3117 3600
0 3058 3715
0 2932 3763
0 2805 3813
0 2679 3864
0 2555 3915
0 2435 3968
0 2324 4030
0 2215 4095
0 2385 0
0 2463 245
0 2530 481
0 2596 717
0 2659 949
0 2731 1189
0 2799 1427
0 2863 1660
0 2929 1894
0 2998 2132
0 3068 2371
0 3129 2599
0 3194 2829
0 3259 3060
0 3337 3304
0 3379 3515
0 3364 3673
0 3294 3778
0 3145 3806
0 3016 3852
0 2887 3900
0 2748 3936
0 2619 3979
0 2498 4033
0 2386 4095
0 2556 0
0 2631 242
0 2708 486
0 2776 724
0 2843 962
0 2916 1203
0 2989 1445
0 3058 1682
0 3126 1919
0 3197 2159
0 3269 2399
0 3340 2639
0 3404 2869
0 3470 3100
0 3548 3344
0 3622 3586
0 3607 3743
0 3537 3849
0 3377 3866
0 3226 3892
0 3095 3936
0 2954 3969
0 2809 3998
0 2679 4041
0 2557 4095
0 2727 0
0 2792 234
0 2866 475
0 2942 719
0 3009 956
0 3074 1190
0 3148 1433
0 3222 1675
0 3287 1910
0 3353 2146
0 3428 2389
0 3503 2631
0 3562 2857
0 3626 3087
0 3704 3331
0 3778 3572
0 3837 3803
0 3768 3909
0 3608 3926
0 3446 3942
0 3292 3965
0 3149 3996
0 3003 4022
0 2858 4051
2 2728 4095
0 2898 0
0 2952 224
0 3016 456
0 3089 698
0 3154 932
0 3217 1163
0 3280 1394
0 3356 1639
0 3418 1871
0 3480 2104
0 3543 2337
0 3621 2581
0 3680 2806
0 3738 3031
0 3804 3266
0 3878 3507
0 3938 3738
0 3985 3957
0 3826 3975
0 3664 3990
0 3500 4003
0 3338 4015
0 3189 4040
0 3043 4066
0 2899 4095
0 3069 0
0 3105 207
0 3158 430
0 3223 663
0 3285 895
0 3328 1105
0 3388 1334
0 3447 1562
0 3506 1790
0 3558 2013
0 3610 2236
0 3670 2466
0 3726 2687
0 3782 2909
0 3824 3122
0 3887 3354
0 3947 3585
0 3994 3804
0 4021 4004
0 3860 4019
0 3698 4032
0 3529 4036
0 3365 4044
0 3216 4068
0 3070 4095
0 3240 0
0 3272 203
0 3308 409
0 3361 632
0 3415 856
0 3455 1064
0 3495 1273
0 3552 1498
0 3593 1710
0 3642 1930
0 3685 2143
0 3734 2362
0 3774 2569
0 3827 2788
0 3866 2998
0 3905 3208
0 3956 3429
0 4003 3648
0 4030 3848
0 4054 4045
0 3892 4059
0 3724 4063
0 3553 4063
0 3389 4070
0 3241 4095
0 3411 0
0 3440 200
0 3472 403
0 3507 609
0 3551 823
0 3582 1022
0 3620 1228
0 3657 1435
0 3696 1644
0 3726 1848
0 3767 2058
0 3807 2267
0 3837 2464
0 3874 2668
0 3909 2875
0 3945 3082
0 3974 3281
0 4012 3491
0 4039 3691
0 4063 3888
0 4085 4083
0 3917 4087
0 3746 4087
0 3575 4087
0 3411 4095
0 3582 0
0 3591 180
0 3620 380
0 3652 583
0 3679 781
0 3700 972
0 3728 1169
0 3763 1372
0 3786 1564
0 3814 1765
0 3836 1958
0 3873 2165
0 3895 2353
0 3922 2548
0 3942 2740
0 3975 2943
0 4002 3141
0 4022 3332
0 4042 3524
0 4066 3721
0 4088 3916
0 4095 4095
0 3924 4095
0 3753 4095
2 3583 4095
0 3753 0
0 3753 171
0 3762 351
0 3791 551
0 3814 745
0 3821 922
0 3840 1111
0 3864 1304
0 3883 1493
0 3897 1678
0 3916 1868
0 3935 2058
0 3954 2244
0 3973 2431
0 3984 2612
0 4002 2801
0 4026 2997
0 4044 3185
0 4048 3360
0 4066 3550
0 4088 3745
0 4095 3924
0 4095 4095
0 3924 4095
0 3753 4095
0 3924 0
0 3924 171
0 3924 342
0 3933 522
0 3953 713
0 3956 887
0 3960 1062
0 3975 1246
0 3984 1425
0 3994 1607
0 3997 1781
0 4014 1968
0 4016 2138
0 4032 2322
0 4035 2495
0 4044 2675
0 4053 2855
0 4068 3041
0 4071 3214
0 4073 3387
0 4088 3575
0 4095 3753
0 4095 3924
0 4095 4095
0 3924 4095
2 4095 3
2 4095 174
2 4095 342
2 4095 514
2 4095 684
0 4095 855
0 4095 1026
2 4095 1198
0 4095 1368
0 4095 1539
0 4095 1710
2 4095 1881
0 4095 2048
0 4095 2215
0 4095 2386
0 4095 2557
0 4095 2728
0 4095 2899
0 4095 3070
3 4095 3241
2 4095 3411
2 4095 3582
2 4095 3753
3 4095 3924
2 4095 4095
165 0 0
168 0 188
165 0 360
165 0 520
168 0 681
171 0 859
171 0 1023
171 0 1196
171 0 1369
171 0 1536
171 0 1712
171 0 1880
173 0 2046
173 0 2216
173 0 2384
173 0 2558
173 0 2728
174 0 2897
176 0 3068
176 0 3240
176 0 3411
176 0 3582
176 0 3753
176 0 3924
176 0 4095
154 157 0
168 168 201
161 181 377
158 186 550
158 195 725
159 205 899
158 207 1070
158 209 1240
157 218 1417
157 222 1587
157 228 1762
157 229 1936
159 237 2111
160 239 2278
160 247 2458
160 244 2627
160 234 2791
161 224 2950
162 207 3104
162 205 3273
162 203 3440
162 181 3591
162 171 3753
162 171 3924
162 171 4095
154 314 0
163 333 196
166 359 389
163 366 568
162 379 748
163 398 931
162 410 1111
161 413 1281
160 425 1461
159 438 1644
159 448 1822
158 455 1999
160 465 2172
160 475 2346
160 485 2524
160 490 2701
160 477 2860
161 457 3013
162 430 3157
162 411 3307
162 406 3473
162 383 3620
162 352 3763
162 342 3923
162 342 4095
154 492 0
159 504 193
164 526 388
164 551 579
164 563 760
166 583 951
166 604 1139
164 616 1319
163 629 1502
162 645 1687
162 663 1874
161 673 2052
163 689 2234
162 701 2411
162 721 2600
161 727 2775
161 724 2939
161 701 3085
163 664 3221
162 635 3360
162 613 3507
162 587 3651
162 554 3790
162 522 3933
162 513 4095
151 672 0
155 678 193
159 697 386
161 723 580
162 752 775
164 774 966
164 794 1156
164 813 1346
163 837 1539
161 855 1725
160 875 1915
159 892 2101
161 914 2288
160 931 2471
160 952 2662
159 963 2843
158 961 3008
158 937 3153
159 898 3286
158 859 3417
158 825 3553
158 782 3681
158 747 3815
157 715 3953
154 683 4095
142 855 0
145 866 205
148 883 398
151 904 591
153 937 788
156 976 992
156 995 1181
156 1017 1371
157 1045 1571
157 1070 1767
156 1095 1961
155 1116 2151
157 1145 2343
156 1166 2530
155 1193 2725
154 1204 2908
153 1193 3069
153 1167 3211
153 1110 3324
152 1067 3455
151 1027 3585
151 973 3702
150 922 3822
150 887 3957
150 854 4095
140 1025 0
142 1041 207
146 1070 411
149 1090 606
152 1120 803
155 1163 1009
156 1201 1214
155 1221 1404
156 1250 1602
156 1283 1806
157 1316 2007
157 1339 2201
158 1371 2397
157 1402 2592
157 1431 2792
155 1448 2979
154 1437 3139
153 1395 3270
153 1336 3381
151 1276 3492
150 1232 3619
149 1171 3730
149 1110 3840
148 1060 3960
148 1024 4095
139 1197 0
140 1219 209
143 1245 415
146 1278 620
150 1306 820
153 1348 1028
154 1388 1234
154 1428 1440
155 1456 1637
155 1489 1841
156 1529 2048
156 1564 2250
159 1595 2448
159 1626 2645
158 1666 2854
157 1687 3046
155 1683 3211
154 1643 3343
153 1562 3436
151 1500 3544
150 1439 3652
149 1375 3761
148 1305 3865
147 1245 3975
146 1195 4095
132 1368 0
133 1402 215
136 1426 423
140 1458 629
144 1498 840
147 1540 1049
148 1581 1257
148 1622 1464
149 1670 1678
149 1704 1881
150 1743 2088
150 1785 2296
153 1826 2501
153 1858 2700
153 1899 2910
153 1925 3108
151 1917 3271
150 1877 3402
149 1794 3492
146 1712 3583
144 1648 3688
143 1567 3780
141 1494 3882
140 1425 3984
140 1366 4095
131 1539 0
131 1584 220
133 1613 434
135 1645 643
139 1685 855
144 1737 1077
145 1781 1287
146 1822 1494
146 1873 1709
147 1926 1928
148 1965 2136
148 2005 2344
151 2052 2555
151 2094 2762
152 2137 2973
152 2166 3172
151 2151 3332
150 2109 3462
148 2017 3543
145 1933 3631
143 1850 3720
141 1766 3808
140 1678 3892
138 1605 3993
138 1536 4095
126 1710 0
126 1766 225
128 1799 444
130 1836 658
134 1876 872
139 1927 1094
141 1983 1317
141 2028 1528
142 2077 1742
143 2133 1963
143 2190 2186
144 2230 2396
146 2277 2606
147 2324 2818
147 2378 3039
147 2409 3240
146 2397 3401
145 2343 3522
144 2241 3594
142 2145 3671
139 2059 3758
137 1959 3830
135 1868 3911
134 1779 3995
133 1706 4094
