Toning/Toning-Saturation & Contrast.3dl
#25pt 3DLUT created by 3D LUT Creator Pro (c) Oleg Sharonov
#Copyright Oleg Sharonov
#INPUTGAMMA sRGB IEC61966-2.1 v.2.10
#IMAGEPROFILE sRGB IEC61966-2.1 v.2.10
#OUTPUTGAMMA sRGB IEC61966-2.1 v.2.10
0 256 512 768 1023
0 0 0
0 0 578
0 0 1670
0 0 2836
0 0 4042
0 679 0
0 788 660
0 933 1739
0 987 2908
0 1018 4043
0 1788 0
0 1844 732
0 1956 1740
0 2022 2869
0 2045 4045
0 2919 0
0 2956 756
0 3023 1768
0 3062 2872
0 3073 4047
719 4095 0
506 4095 851
346 4095 1851
233 4095 2906
66 4095 4049
601 0 0
733 0 669
896 0 1720
961 0 2866
1016 0 4043
716 783 0
777 835 699
325 791 2062
636 936 3143
947 982 4051
789 1842 0
14 1954 392
325 2000 1782
636 2034 2965
947 2039 4052
737 2958 0
14 3023 455
325 3067 1725
636 3078 2886
947 3073 4051
1329 4095 0
1255 4095 873
1181 4095 1859
1129 4095 2908
1055 4095 4049
1852 0 0
1912 0 743
2016 0 1752
2055 0 2878
2051 0 4045
1916 879 0
2319 441 490
2222 325 1941
2082 636 3086
2043 969 4052
1980 1912 0
2005 1972 14
2040 1991 1770
2009 2002 2968
2042 2038 4052
2020 3000 0
1915 3097 14
1971 3097 1722
2004 3085 2891
2040 3073 4053
2314 4095 0
2300 4095 937
2218 4095 1882
2148 4095 2915
2072 4095 4050
2959 0 0
2997 0 783
3043 0 1776
3079 0 2881
3074 0 4047
3008 909 0
3345 14 556
3286 325 1834
3186 636 2999
3077 947 4051
3028 1971 0
3189 1910 14
3187 1932 1728
3129 1971 2932
3076 2036 4053
3066 3046 0
3101 3096 14
3099 3090 1734
3088 3081 2888
3074 3073 4053
3255 4095 458
3246 4095 1054
3185 4095 1926
3135 4095 2929
3086 4095 4051
3937 0 0
3959 0 795
4019 0 1800
4065 0 2888
4091 0 4050
3958 951 0
4069 180 329
4081 495 1751
4088 636 2893
4094 947 4052
3983 2015 0
4070 1898 14
4085 1955 1743
4092 1991 2890
4095 2035 4053
4012 3090 0
4075 3095 398
4080 3091 1766
4085 3084 2890
4092 3074 4051
4089 4095 800
4090 4095 1233
4093 4095 1999
4093 4095 2954
4095 4095 4053
