Toning/Toning-Ice cold.3dl
#25pt 3DLUT created by 3D LUT Creator Pro (c) Oleg Sharonov
#Copyright Oleg Sharonov
#IMAGEPROFILE sRGB IEC61966-2.1 v.2.10
#INPUTGAMMA sRGB IEC61966-2.1 v.2.10
#OUTPUTGAMMA sRGB IEC61966-2.1 v.2.10
0 43 86 128 171 214 256 299 341 384 427 469 512 555 597 640 682 725 768 810 853 896 938 981 1023 
294 294 294
294 294 321
293 293 375
293 296 460
292 302 563
291 313 682
290 331 818
289 353 968
287 380 1119
286 409 1282
285 440 1446
283 475 1613
282 512 1776
281 553 1919
281 598 2041
297 647 2155
323 699 2262
355 754 2359
392 811 2448
431 871 2530
475 933 2604
521 998 2671
572 1064 2732
627 1133 2786
686 1202 2835
293 332 334
293 342 368
292 342 488
291 343 632
290 353 738
289 366 852
288 384 979
287 404 1117
286 427 1258
285 453 1408
284 483 1560
282 516 1715
281 551 1867
280 590 2003
283 634 2114
302 682 2217
330 732 2314
365 787 2404
403 843 2487
444 902 2563
487 963 2632
535 1026 2695
587 1091 2752
643 1159 2803
702 1228 2849
296 417 416
292 429 452
291 436 487
290 437 643
289 436 829
288 440 1003
287 453 1132
286 469 1264
285 491 1403
284 514 1545
282 540 1687
281 571 1828
280 604 1973
279 641 2103
284 683 2201
308 729 2292
341 778 2379
378 829 2459
417 884 2534
459 942 2603
505 1001 2667
554 1063 2725
607 1128 2777
663 1194 2825
723 1262 2867
316 528 528
299 537 557
290 551 600
290 560 644
288 560 830
287 559 1037
285 559 1258
284 566 1430
283 584 1566
282 603 1700
281 626 1837
280 652 1971
279 682 2104
278 715 2228
287 755 2311
319 799 2389
358 846 2464
398 895 2533
440 948 2598
485 1003 2659
533 1060 2714
584 1121 2766
638 1182 2812
696 1247 2855
757 1313 2893
354 661 666
334 669 691
307 681 726
288 698 779
287 708 830
286 709 1039
284 707 1259
283 708 1487
281 707 1716
280 720 1863
279 740 1996
278 762 2124
277 787 2249
276 817 2366
295 853 2434
337 893 2498
382 937 2560
427 983 2618
472 1032 2672
521 1085 2724
572 1139 2771
626 1197 2814
682 1256 2854
742 1317 2890
804 1380 2924
403 814 823
386 821 846
364 830 872
316 847 922
285 867 982
285 878 1037
283 879 1259
281 878 1488
280 877 1715
278 878 1939
277 878 2151
276 897 2276
275 918 2395
274 943 2500
310 975 2556
364 1011 2609
416 1050 2659
466 1093 2706
518 1138 2750
570 1187 2792
625 1238 2830
681 1292 2866
740 1348 2899
802 1406 2930
866 1466 2958
463 981 997
447 988 1016
428 997 1040
395 1010 1077
334 1030 1136
282 1051 1199
282 1066 1260
280 1066 1489
279 1066 1717
277 1065 1940
276 1066 2158
274 1065 2363
273 1070 2534
276 1091 2621
340 1118 2668
403 1149 2711
463 1184 2752
519 1222 2790
576 1263 2825
634 1308 2858
692 1355 2889
752 1404 2918
813 1457 2945
877 1511 2970
942 1567 2993
536 1162 1183
523 1168 1199
505 1175 1220
479 1186 1251
432 1203 1300
366 1225 1360
294 1247 1424
279 1267 1489
277 1267 1716
276 1267 1940
274 1267 2154
276 1266 2349
294 1266 2525
329 1268 2677
388 1280 2765
459 1306 2801
525 1335 2834
589 1369 2865
652 1405 2893
713 1445 2919
776 1488 2944
839 1534 2967
904 1581 2988
969 1632 3008
1037 1683 3027
625 1349 1375
613 1354 1389
597 1361 1407
574 1371 1434
543 1384 1469
483 1404 1524
416 1427 1585
347 1450 1647
293 1472 1711
311 1471 1925
335 1469 2126
365 1468 2312
401 1469 2480
442 1470 2627
489 1474 2753
541 1480 2858
609 1500 2904
677 1528 2928
745 1560 2951
812 1596 2973
878 1633 2992
944 1674 3010
1011 1718 3027
1079 1763 3043
1149 1810 3057
730 1541 1571
721 1545 1583
707 1551 1598
687 1560 1621
661 1572 1649
617 1588 1693
556 1609 1746
490 1631 1804
428 1655 1864
384 1677 1925
418 1674 2119
458 1672 2298
502 1671 2459
551 1672 2600
605 1674 2722
662 1679 2825
723 1687 2910
789 1698 2979
860 1725 3001
930 1755 3018
999 1789 3034
1069 1825 3048
1138 1863 3061
1209 1904 3074
1279 1947 3085
857 1735 1767
847 1738 1776
836 1743 1789
818 1750 1808
796 1761 1833
769 1774 1863
715 1792 1911
654 1813 1962
594 1835 2017
540 1858 2073
504 1879 2129
553 1875 2301
607 1873 2456
665 1872 2592
725 1873 2709
789 1876 2809
857 1882 2892
927 1891 2960
998 1903 3015
1071 1920 3055
1143 1950 3068
1216 1981 3080
1286 2015 3090
1357 2052 3101
1427 2090 3110
1004 1925 1960
996 1928 1967
986 1933 1978
971 1939 1994
952 1947 2015
928 1958 2040
893 1973 2075
839 1991 2120
784 2011 2168
730 2033 2218
685 2054 2269
657 2074 2319
721 2070 2468
788 2067 2599
857 2067 2711
928 2068 2807
1002 2071 2887
1077 2078 2953
1153 2088 3006
1230 2101 3049
1307 2117 3084
1382 2140 3107
1453 2170 3116
1523 2201 3124
1592 2235 3132
1175 2110 2148
1169 2113 2155
1161 2116 2163
1148 2122 2176
1133 2129 2193
1112 2138 2214
1090 2150 2239
1048 2165 2277
998 2183 2318
950 2202 2361
904 2222 2405
868 2242 2450
848 2260 2494
925 2256 2619
1004 2253 2726
1083 2252 2817
1163 2254 2892
1244 2259 2955
1324 2266 3006
1403 2276 3047
1481 2290 3080
1559 2306 3108
1635 2325 3132
1706 2351 3145
1773 2380 3151
1371 2287 2329
1366 2289 2335
1360 2292 2341
1350 2296 2352
1337 2303 2366
1322 2311 2383
1303 2320 2403
1279 2332 2429
1238 2347 2464
1195 2363 2500
1155 2381 2538
1120 2399 2575
1093 2416 2613
1082 2434 2651
1170 2429 2752
1258 2427 2837
1345 2427 2907
1429 2429 2965
1512 2434 3012
1593 2442 3051
1671 2453 3081
1748 2466 3108
1822 2483 3130
1895 2501 3148
1966 2522 3164
1589 2452 2501
1585 2454 2505
1581 2457 2510
1573 2460 2518
1564 2465 2529
1553 2472 2543
1539 2479 2559
1525 2488 2577
1498 2500 2604
1465 2514 2633
1433 2529 2664
1403 2544 2695
1380 2560 2726
1365 2576 2757
1363 2591 2788
1457 2587 2866
1548 2585 2930
1635 2587 2983
1719 2590 3025
1800 2596 3059
1877 2604 3087
1953 2615 3111
2024 2628 3131
2094 2644 3147
2161 2661 3161
1827 2604 2659
1825 2606 2663
1822 2608 2667
1817 2610 2673
1811 2614 2681
1803 2619 2692
1795 2626 2704
1785 2633 2719
1774 2642 2735
1751 2653 2758
1728 2665 2782
1708 2678 2807
1691 2691 2832
1680 2704 2856
1678 2718 2880
1686 2731 2904
1779 2728 2960
1867 2727 3006
1950 2729 3043
2029 2734 3072
2103 2740 3096
2174 2749 3117
2242 2760 3134
2306 2773 3147
2368 2788 3158
2083 2740 2804
2081 2741 2806
2080 2742 2809
2078 2745 2813
2074 2748 2819
2071 2752 2827
2067 2757 2836
2062 2762 2846
2058 2769 2858
2049 2777 2873
2037 2786 2891
2027 2796 2909
2019 2807 2927
2016 2817 2945
2018 2828 2963
2028 2839 2981
2046 2850 2998
2132 2848 3035
2210 2849 3064
2283 2852 3088
2352 2858 3107
2417 2865 3123
2477 2874 3135
2535 2885 3144
2590 2897 3150
2354 2857 2930
2353 2857 2932
2353 2858 2934
2353 2860 2937
2352 2862 2940
2353 2865 2946
2352 2869 2952
2353 2873 2959
2355 2878 2967
2358 2883 2975
2356 2890 2987
2356 2897 2999
2359 2904 3011
2366 2912 3023
2377 2920 3035
2395 2928 3046
2418 2936 3057
2448 2944 3067
2517 2944 3087
2581 2947 3102
2641 2951 3113
2698 2957 3119
2754 2964 3119
2818 2971 3106
2865 2982 3095
2647 2950 3038
2647 2951 3038
2649 2951 3040
2651 2952 3041
2653 2954 3043
2657 2955 3046
2662 2957 3050
2669 2960 3054
2677 2963 3058
2688 2965 3063
2701 2969 3068
2717 2972 3075
2739 2975 3080
2768 2977 3086
2818 2976 3089
2859 2977 3092
2869 2985 3098
2881 2994 3105
2893 3003 3112
2905 3012 3119
2918 3022 3127
2931 3032 3136
2945 3043 3144
2960 3054 3153
2974 3065 3163
2919 3023 3128
2919 3023 3128
2920 3024 3129
2921 3025 3129
2923 3026 3130
2925 3028 3132
2928 3030 3133
2931 3032 3135
2935 3035 3138
2939 3038 3140
2944 3042 3143
2949 3046 3147
2955 3050 3151
2962 3055 3155
2969 3061 3159
2977 3066 3164
2985 3073 3170
2993 3080 3175
3003 3087 3181
3012 3094 3188
3022 3102 3194
3032 3111 3202
3043 3120 3209
3054 3129 3217
3065 3138 3225
3029 3108 3199
3029 3108 3200
3030 3109 3200
3031 3110 3201
3032 3111 3201
3034 3112 3203
3036 3114 3204
3038 3115 3206
3041 3118 3208
3044 3121 3210
3047 3124 3212
3051 3127 3215
3056 3131 3218
3061 3135 3222
3066 3140 3226
3072 3145 3230
3078 3150 3234
3085 3156 3239
3092 3162 3244
3100 3168 3249
3108 3175 3255
3117 3182 3261
3125 3190 3267
3135 3198 3274
3144 3206 3280
3119 3185 3263
3119 3185 3263
3120 3185 3263
3121 3186 3264
3122 3187 3265
3123 3188 3266
3125 3189 3267
3127 3191 3268
3129 3193 3270
3132 3195 3271
3135 3198 3274
3138 3201 3276
3142 3204 3279
3146 3207 3281
3151 3211 3285
3156 3215 3288
3161 3220 3292
3167 3225 3296
3173 3230 3300
3179 3235 3304
3186 3241 3309
3193 3247 3313
3201 3253 3318
3208 3260 3324
3217 3266 3329
3200 3252 3318
3200 3253 3318
3200 3253 3318
3201 3254 3319
3202 3254 3319
3203 3255 3320
3204 3256 3321
3206 3258 3322
3208 3259 3323
3210 3261 3325
3213 3263 3327
3216 3266 3328
3219 3268 3331
3222 3271 3333
3226 3274 3335
3230 3278 3338
3235 3282 3341
3239 3285 3344
3244 3290 3347
3250 3294 3351
3255 3299 3355
3261 3304 3358
3267 3309 3362
3274 3314 3366
3280 3320 3371
3270 3311 3364
3271 3312 3364
3271 3312 3365
3271 3312 3365
3272 3313 3365
3273 3314 3366
3274 3314 3367
3276 3316 3367
3277 3317 3368
3279 3318 3370
3281 3320 3371
3283 3322 3372
3286 3324 3374
3289 3326 3376
3292 3329 3378
3295 3332 3380
3299 3335 3382
3302 3338 3384
3307 3341 3387
3311 3345 3390
3315 3348 3392
3320 3352 3395
3325 3356 3398
3330 3361 3401
3336 3365 3404
3331 3361 3402
3331 3361 3402
3331 3361 3402
3331 3362 3402
3332 3362 3402
3333 3363 3403
3333 3363 3403
3335 3364 3404
3336 3365 3405
3337 3366 3405
3339 3368 3406
3341 3369 3407
3343 3371 3409
3345 3372 3410
3347 3374 3411
3350 3377 3413
3353 3379 3414
3356 3381 3416
3359 3384 3418
3362 3386 3420
3366 3389 3422
3369 3392 3424
3373 3395 3426
3377 3398 3428
3381 3402 3430
298 294 294
302 294 333
297 297 388
293 297 557
291 300 745
290 311 867
289 327 991
288 351 1123
287 380 1260
285 409 1400
284 442 1554
283 476 1698
282 515 1828
281 559 1954
292 603 2069
312 654 2180
339 705 2282
370 759 2375
405 817 2462
444 877 2542
487 939 2614
533 1003 2680
583 1070 2739
638 1138 2793
696 1208 2840
320 338 313
317 343 368
311 345 475
305 352 597
298 361 731
293 373 868
290 390 1014
287 411 1161
286 434 1309
285 459 1449
284 489 1589
285 523 1724
290 561 1852
300 601 1974
316 645 2089
338 692 2197
365 742 2298
395 795 2390
429 851 2475
467 910 2554
509 970 2624
555 1033 2689
605 1098 2747
659 1166 2799
712 1233 2854
325 428 381
330 427 447
309 440 492
300 439 688
289 439 921
288 445 1072
286 458 1214
285 472 1349
284 493 1482
283 517 1610
282 545 1732
282 577 1851
289 613 1964
302 651 2072
322 694 2175
347 739 2271
376 787 2361
408 839 2446
444 893 2523
483 950 2594
528 1010 2660
574 1071 2719
626 1135 2773
680 1200 2820
734 1267 2872
346 537 511
354 537 557
326 549 597
298 566 652
288 566 873
286 564 1145
284 560 1372
283 571 1508
282 587 1642
281 606 1774
280 629 1905
280 656 2006
286 690 2105
305 726 2198
330 765 2286
360 808 2369
393 854 2446
428 903 2519
467 956 2587
509 1010 2649
555 1068 2707
604 1128 2759
657 1189 2807
713 1253 2850
767 1317 2897
381 669 653
389 669 689
366 680 723
320 698 778
289 716 840
286 717 1078
284 715 1330
282 710 1574
281 710 1786
280 725 1920
279 743 2050
278 765 2173
282 793 2257
310 826 2335
344 862 2408
380 901 2478
418 944 2543
458 991 2605
500 1040 2661
545 1092 2714
594 1146 2763
646 1203 2808
700 1262 2849
759 1324 2886
814 1385 2927
427 821 814
434 821 844
413 831 874
375 846 920
318 867 982
285 887 1048
283 887 1291
281 885 1537
279 882 1776
278 878 2006
277 883 2193
276 901 2316
279 922 2404
318 950 2470
363 982 2531
407 1018 2589
452 1058 2643
497 1099 2692
545 1145 2739
594 1193 2783
647 1245 2823
701 1298 2860
758 1354 2895
818 1412 2926
875 1471 2961
484 988 990
491 988 1015
472 997 1041
444 1010 1076
389 1029 1135
326 1052 1200
283 1073 1268
280 1072 1508
278 1072 1749
277 1071 1984
275 1069 2206
274 1066 2412
281 1076 2537
337 1099 2595
394 1125 2646
446 1156 2693
498 1190 2737
550 1228 2777
603 1270 2815
657 1314 2850
713 1361 2883
771 1410 2913
831 1463 2940
893 1517 2966
952 1572 2995
556 1167 1177
562 1167 1198
544 1175 1221
519 1187 1252
478 1203 1298
416 1224 1359
350 1248 1424
299 1270 1492
299 1269 1720
304 1268 1942
314 1267 2153
329 1267 2348
352 1267 2523
382 1269 2675
438 1285 2745
500 1311 2785
560 1341 2821
619 1374 2854
678 1410 2884
737 1451 2912
797 1493 2938
858 1539 2962
920 1586 2984
985 1636 3005
1046 1687 3029
643 1355 1372
648 1354 1389
633 1362 1408
610 1372 1435
581 1385 1470
525 1404 1524
461 1427 1584
396 1451 1647
348 1472 1712
365 1471 1925
387 1469 2126
413 1469 2312
446 1469 2479
483 1471 2625
528 1475 2751
576 1481 2856
641 1504 2892
706 1533 2920
770 1565 2944
833 1600 2966
897 1638 2987
962 1679 3006
1028 1722 3024
1094 1768 3040
1158 1815 3059
747 1547 1569
752 1547 1583
739 1552 1599
718 1561 1622
692 1573 1651
654 1588 1692
594 1609 1747
530 1633 1805
471 1655 1865
429 1677 1926
461 1675 2120
498 1673 2298
539 1672 2458
585 1673 2600
636 1675 2721
692 1681 2824
751 1689 2909
815 1701 2974
884 1729 2995
951 1759 3013
1019 1793 3029
1086 1829 3045
1155 1868 3059
1223 1909 3071
1288 1951 3087
871 1739 1765
877 1739 1777
864 1744 1790
847 1752 1809
824 1762 1834
797 1775 1865
747 1793 1911
688 1814 1963
628 1836 2017
576 1858 2073
541 1880 2129
588 1876 2302
640 1874 2456
695 1873 2592
754 1874 2709
816 1877 2809
881 1883 2892
949 1893 2960
1019 1905 3015
1091 1924 3051
1161 1954 3065
1231 1985 3077
1301 2019 3088
1370 2056 3099
1436 2094 3111
