Toning/Toning-ShapedSkin&Cyan.3dl
#25pt 3DLUT created by 3D LUT Creator Pro (c) Oleg Sharonov
#Copyright Oleg Sharonov
#IMAGEPROFILE 
#INPUTGAMMA 
#OUTPUTGAMMA 
0 256 512 768 1023
0 0 0
0 153 487
0 507 1078
0 815 1575
0 1046 1940
136 1114 0
0 1028 1200
0 1041 1586
0 1172 1950
0 1326 2250
379 2094 202
0 2134 649
0 1962 2255
0 1953 2620
0 2031 2891
647 3025 593
337 3059 789
0 3088 1871
0 2992 3268
0 2991 3790
1660 4044 1614
1354 4092 1609
0 4095 1735
0 4095 3064
1165 4095 4095
723 105 74
428 287 804
12 532 1385
0 844 1754
0 1072 2075
1047 1120 156
898 1095 1125
397 1075 1643
251 1205 2010
0 1344 2375
885 2099 244
723 2125 770
567 1971 2249
246 1979 2644
0 2049 2988
834 3045 470
860 3047 929
516 3089 1870
444 2996 3273
0 3018 3846
1979 4026 1760
1733 4071 1761
511 4095 1752
483 4095 3064
1410 4095 4095
1525 441 384
1610 445 751
1025 782 1584
282 856 2311
150 1123 2530
1725 1109 539
1997 831 909
1195 1113 1901
570 1200 2447
119 1374 2818
2000 2104 593
1990 2119 971
1777 2062 2136
1248 2033 2643
0 2091 3387
1920 3022 846
1857 3039 1091
1614 3088 1871
1575 2996 3250
0 3107 4047
2742 3973 2205
2603 4013 2192
1975 4094 2190
1516 4095 3063
2071 4095 4095
2284 816 764
2413 690 986
2236 1122 1493
1987 1384 2049
1171 1335 2952
2465 1144 808
2559 1061 1087
2473 1302 1630
2096 1576 2261
1207 1507 3308
2677 2067 1095
2726 2040 1300
2955 1864 1965
2333 2111 2817
1498 2110 3945
2946 3052 1169
2961 3058 1382
2966 3087 1893
2830 3063 3134
1904 3147 4095
3451 3960 2792
3444 3974 2838
3399 4026 2971
2847 4095 3063
3052 4095 4095
3091 1282 1269
3165 1224 1415
3361 1079 1818
3022 1671 2195
2912 1917 2668
3242 1459 1294
3313 1403 1460
3579 1163 1947
3203 1763 2329
3049 2032 2822
3361 2204 1532
3513 2095 1578
3769 1911 2138
3666 2099 2698
3414 2392 3266
3625 3126 1983
3644 3127 2095
3710 3124 2446
3938 3023 3161
3698 3240 3598
3971 4091 3639
3980 4093 3671
4006 4094 3770
4048 4095 3926
4095 4095 4095
