Toning/Toning-SplitToning-BlueShadows.3dl
#25pt 3DLUT created by 3D LUT Creator Pro (c) Oleg Sharonov
#Copyright Oleg Sharonov
#IMAGEPROFILE sRGB IEC61966-2.1 v.2.10
#INPUTGAMMA sRGB IEC61966-2.1 v.2.10
#OUTPUTGAMMA sRGB IEC61966-2.1 v.2.10
0 128 256 384 512 640 768 896 1023
0 0 183
13 0 634
6 0 1055
32 13 1470
142 36 1885
269 78 2298
391 132 2711
510 201 3124
629 269 3537
0 497 308
0 494 685
3 500 1071
29 513 1468
100 532 1873
214 554 2282
337 582 2694
461 611 3107
586 647 3516
13 1006 316
10 1005 696
16 1007 1080
32 1015 1470
78 1028 1866
158 1044 2267
269 1064 2673
422 1091 3064
613 1136 3415
39 1514 328
36 1512 704
42 1514 1087
65 1519 1472
126 1528 1861
248 1539 2247
393 1556 2625
558 1579 2990
737 1611 3334
260 2013 479
260 2013 761
264 2014 1111
282 2018 1481
314 2026 1860
448 2033 2235
612 2043 2598
802 2059 2938
1019 2083 3243
686 2497 811
690 2498 957
700 2499 1218
721 2502 1538
755 2508 1881
801 2517 2236
1014 2518 2572
1241 2524 2876
1472 2539 3138
1323 2948 1291
1327 2949 1357
1337 2951 1506
1355 2955 1725
1382 2961 1991
1419 2970 2283
1467 2982 2591
1706 2978 2868
1936 2983 3105
2013 3369 1806
2016 3370 1839
2025 3372 1921
2041 3377 2053
2065 3384 2230
2099 3393 2441
2141 3406 2676
2195 3422 2927
2639 3382 3073
3184 3641 2679
3189 3642 2689
3201 3645 2714
3223 3649 2757
3255 3656 2818
3300 3666 2893
3355 3679 2977
3423 3697 3066
3502 3720 3153
492 0 293
501 0 672
505 0 1063
532 10 1467
575 39 1878
629 81 2290
696 136 2703
771 203 3117
854 271 3530
510 497 306
508 494 685
512 499 1079
522 504 1492
542 509 1921
579 514 2349
636 530 2763
720 573 3149
823 645 3513
521 1006 316
513 1006 690
516 1008 1079
520 1015 1474
532 1027 1876
568 1041 2281
627 1061 2677
718 1091 3055
780 1113 3479
535 1512 330
533 1512 704
536 1514 1086
546 1519 1471
571 1527 1858
618 1539 2244
692 1556 2622
794 1579 2986
783 1599 3432
615 2013 482
615 2012 762
619 2014 1111
627 2018 1481
645 2025 1859
721 2032 2234
829 2043 2596
973 2059 2935
1057 2084 3294
880 2497 819
883 2498 963
892 2499 1222
908 2503 1540
935 2509 1882
972 2517 2236
1147 2519 2571
1343 2526 2874
1501 2544 3164
1417 2949 1299
1420 2949 1364
1429 2952 1512
1446 2956 1729
1471 2962 1993
1505 2971 2285
1550 2983 2592
1771 2980 2869
1956 2989 3118
2063 3371 1813
2066 3372 1846
2075 3374 1927
2090 3379 2059
2114 3385 2235
2146 3395 2445
2188 3408 2679
2240 3424 2928
2667 3386 3075
3206 3644 2689
3207 3646 2696
3219 3648 2721
3240 3653 2764
3272 3660 2824
3316 3670 2898
3371 3683 2982
3438 3701 3070
3516 3724 3156
1014 0 299
1011 0 678
1018 0 1064
1035 13 1461
1061 42 1867
1095 84 2276
1136 139 2688
1185 209 3102
1240 291 3509
1022 497 306
1027 492 682
1031 494 1074
1046 497 1480
1067 504 1897
1093 514 2317
1125 537 2725
1167 591 3109
1220 647 3499
1031 1004 314
1031 1004 689
1033 1006 1077
1040 1013 1469
1052 1023 1868
1073 1038 2267
1106 1061 2659
1154 1094 3035
1194 1110 3470
1041 1511 337
1041 1510 705
1042 1512 1084
1048 1517 1469
1063 1525 1855
1087 1538 2239
1127 1556 2615
1184 1581 2978
1183 1596 3434
1078 2012 494
1078 2012 766
1080 2013 1112
1087 2018 1481
1098 2025 1858
1140 2032 2232
1205 2044 2591
1298 2062 2927
1247 2084 3375
1233 2497 841
1235 2498 978
1241 2499 1231
1252 2503 1545
1271 2509 1884
1297 2518 2236
1420 2521 2570
1568 2529 2870
1576 2557 3232
1625 2951 1318
1628 2952 1381
1636 2954 1526
1650 2958 1739
1670 2965 2000
1700 2974 2289
1737 2986 2594
1924 2984 2870
2017 3003 3150
2184 3375 1830
2187 3376 1863
2195 3378 1942
2209 3383 2072
2231 3390 2245
2261 3400 2453
2299 3412 2684
2347 3429 2932
2736 3395 3080
3262 3650 2715
3262 3652 2722
3262 3658 2737
3283 3663 2779
3314 3670 2838
3356 3680 2911
3410 3694 2994
3475 3712 3081
3551 3736 3165
1529 0 302
1526 0 681
1532 0 1065
1545 13 1457
1564 42 1857
1589 87 2262
1619 145 2671
1655 214 3083
1683 398 3444
1535 497 306
1548 481 674
1550 485 1070
1556 494 1466
1575 503 1872
1596 522 2280
1617 558 2679
1641 623 3059
1682 651 3477
1543 1003 312
1545 1001 685
1546 1004 1074
1552 1010 1463
1563 1021 1856
1579 1038 2250
1598 1064 2636
1624 1103 3007
1664 1110 3453
1551 1510 349
1550 1509 709
1551 1511 1084
1556 1515 1467
1565 1524 1851
1580 1538 2232
1602 1558 2606
1634 1586 2966
1653 1595 3423
1570 2011 520
1570 2011 777
1571 2013 1117
1576 2017 1482
1584 2024 1857
1609 2033 2228
1647 2046 2584
1703 2067 2914
1686 2086 3364
1661 2498 880
1662 2499 1007
1667 2501 1250
1674 2504 1555
1687 2511 1889
1706 2520 2237
1786 2525 2567
1885 2537 2865
1851 2566 3263
1928 2956 1351
1931 2957 1412
1937 2959 1550
1948 2963 1758
1964 2970 2013
1987 2979 2297
2018 2992 2598
2161 2994 2872
2231 3014 3152
2379 3383 1862
2381 3384 1893
2388 3387 1970
2401 3391 2096
2420 3399 2265
2446 3408 2468
2481 3422 2695
2532 3437 2938
2850 3411 3090
3353 3662 2761
3354 3665 2767
3355 3670 2781
3356 3681 2807
3385 3688 2864
3425 3699 2935
3476 3713 3016
3537 3732 3099
3610 3756 3180
2043 0 302
2042 0 682
2045 0 1066
2055 13 1454
2070 42 1850
2090 87 2250
2113 161 2653
2125 330 3029
2135 512 3380
2047 497 304
2060 477 669
2060 482 1066
2065 493 1458
2075 514 1853
2088 545 2248
2101 594 2637
2113 671 3010
2162 664 3452
2054 1003 310
2053 1002 690
2054 1004 1073
2059 1011 1458
2067 1023 1847
2077 1044 2234
2087 1076 2614
2100 1122 2979
2149 1114 3433
2055 1510 414
2054 1510 730
2056 1511 1091
2060 1516 1466
2068 1525 1847
2075 1540 2226
2086 1564 2596
2101 1597 2948
2139 1598 3403
2067 2012 565
2067 2012 798
2068 2014 1126
2072 2018 1485
2079 2025 1856
2090 2036 2224
2108 2053 2575
2137 2080 2897
2150 2091 3350
2116 2501 937
2117 2502 1053
2120 2504 1279
2126 2508 1573
2135 2515 1898
2149 2525 2239
2193 2534 2566
2253 2551 2859
2243 2576 3258
2289 2964 1400
2290 2965 1457
2295 2968 1588
2304 2972 1787
2317 2979 2033
2335 2989 2310
2359 3003 2605
2457 3008 2876
2505 3031 3159
2633 3396 1909
2635 3397 1939
2641 3400 2011
2652 3405 2132
2738 3394 2347
2775 3401 2528
2824 3412 2726
2885 3427 2929
3007 3438 3105
3475 3683 2828
3476 3685 2833
3479 3691 2846
3482 3701 2869
3485 3717 2903
3522 3728 2971
3569 3743 3048
3626 3763 3128
3693 3788 3204
2555 0 302
2554 0 682
2557 0 1065
2564 16 1452
2571 78 1841
2581 165 2231
2587 306 2613
2589 461 2981
2588 631 3328
2556 501 312
2554 503 688
2555 509 1068
2558 523 1452
2566 547 1838
2576 580 2227
2581 646 2606
2582 737 2971
2644 696 3419
2548 1014 404
2547 1015 721
2548 1018 1082
2551 1026 1457
2559 1039 1837
2570 1057 2221
2572 1097 2595
2574 1153 2955
2637 1127 3408
2547 1517 536
2547 1517 778
2548 1520 1110
2552 1525 1471
2559 1535 1843
2568 1548 2220
2567 1578 2582
2564 1623 2922
2622 1611 3375
2551 2017 732
2551 2018 896
2553 2020 1177
2556 2025 1509
2561 2033 1861
2570 2045 2222
2570 2069 2565
2573 2105 2877
2617 2106 3318
2578 2509 1013
2578 2510 1114
2580 2512 1321
2585 2517 1599
2592 2524 1913
2602 2534 2246
2618 2550 2568
2635 2567 2924
2660 2591 3257
2679 2979 1465
2680 2980 1518
2684 2982 1639
2690 2987 1827
2701 2995 2062
2715 3005 2330
2734 3019 2617
2780 3033 2896
2820 3056 3173
2928 3416 1974
2931 3417 2002
2935 3420 2070
2953 3422 2198
3028 3409 2423
3054 3420 2582
3091 3434 2762
3139 3451 2948
3198 3474 3130
3617 3717 2917
3619 3719 2921
3622 3724 2933
3628 3734 2952
3636 3748 2981
3642 3770 3020
3684 3785 3093
3736 3806 3167
3797 3832 3238
3032 180 445
3031 186 731
3031 206 1081
3034 243 1451
3040 295 1827
3049 360 2207
3061 434 2588
3053 588 2948
3035 769 3282
3027 582 486
3027 583 749
3027 591 1090
3030 607 1454
3036 633 1827
3046 667 2205
3058 711 2586
3048 819 2942
3085 840 3341
3021 1053 572
3021 1054 792
3022 1058 1111
3026 1067 1465
3032 1082 1832
3040 1103 2205
3050 1134 2579
3032 1212 2924
3112 1164 3373
3014 1543 710
3014 1545 877
3015 1548 1161
3017 1556 1493
3020 1568 1845
3025 1587 2204
3033 1611 2566
3009 1673 2891
3088 1645 3335
3000 2041 950
3000 2042 1059
3001 2045 1277
3003 2052 1564
3006 2063 1882
3012 2078 2216
3020 2098 2557
2998 2147 2857
3067 2138 3279
3011 2527 1244
3012 2529 1313
3014 2532 1469
3018 2537 1695
3024 2546 1966
3033 2559 2263
3045 2576 2575
3067 2593 2908
3083 2621 3226
3082 3001 1548
3083 3002 1595
3086 3005 1707
3091 3010 1880
3099 3018 2102
3110 3029 2358
3125 3043 2635
3144 3062 2920
3169 3087 3201
3249 3445 2058
3251 3446 2084
3258 3447 2162
3284 3442 2339
3319 3440 2526
3338 3453 2659
3338 3479 2794
3373 3498 2983
3418 3523 3168
3766 3766 3026
3767 3769 3029
3772 3774 3038
3780 3783 3054
3791 3796 3078
3805 3816 3109
3817 3842 3150
3862 3863 3219
3916 3891 3283
3477 465 659
3477 470 839
3478 482 1132
3480 506 1470
3484 547 1825
3488 604 2187
3492 681 2550
3494 774 2910
3444 986 3215
3474 726 689
3474 730 860
3474 739 1144
3476 758 1476
3478 788 1828
3480 832 2186
3483 891 2546
3484 966 2903
3484 1058 3252
3459 1144 780
3459 1147 924
3458 1154 1183
3458 1168 1499
3459 1190 1838
3459 1222 2187
3460 1266 2537
3461 1320 2886
3560 1251 3323
3426 1619 958
3425 1622 1064
3425 1627 1276
3425 1638 1555
3425 1656 1868
3425 1680 2195
3427 1713 2528
3428 1755 2861
3524 1717 3282
3389 2104 1212
3389 2106 1283
3390 2111 1439
3391 2119 1666
3393 2133 1935
3396 2152 2229
3402 2177 2535
3410 2209 2847
3487 2199 3233
3392 2576 1494
3392 2577 1542
3394 2582 1654
3397 2589 1829
3402 2600 2052
3465 2594 2289
3468 2614 2590
3472 2641 2893
3477 2675 3191
3451 3036 1801
3452 3038 1834
3455 3041 1915
3460 3048 2047
3463 3058 2231
3467 3073 2445
3504 3084 2665
3514 3107 2925
3528 3137 3180
3574 3480 2250
3574 3481 2291
3575 3482 2383
3579 3485 2514
3586 3492 2660
3601 3507 2763
3623 3529 2866
3647 3553 3024
3674 3578 3229
3908 3837 3149
3910 3839 3152
3915 3844 3160
3924 3853 3172
3937 3866 3191
3955 3884 3216
3976 3907 3247
3998 3938 3285
4045 3967 3340
3855 822 928
3855 827 1036
3852 844 1252
3849 874 1533
3845 918 1845
3839 979 2171
3831 1055 2500
3822 1146 2827
3811 1252 3147
3842 1004 971
3911 902 990
3908 918 1226
3902 947 1524
3894 990 1849
3884 1049 2184
3872 1124 2519
3858 1213 2849
3843 1316 3170
3807 1348 1079
3864 1293 1096
3992 1153 1181
3991 1167 1506
3988 1192 1853
3983 1228 2207
3962 1298 2557
3937 1381 2896
3915 1474 3223
3754 1775 1260
3794 1750 1276
3909 1672 1318
3948 1651 1563
3944 1670 1885
3939 1697 2220
3933 1734 2558
3924 1781 2894
3913 1841 3222
3711 2221 1493
3738 2211 1505
3813 2179 1539
3869 2159 1696
3888 2162 1956
3883 2184 2257
3878 2213 2568
3870 2252 2879
3861 2301 3183
3711 2666 1756
3728 2662 1765
3761 2656 1805
3776 2659 1937
3801 2663 2117
3839 2665 2342
3835 2691 2612
3830 2724 2887
3825 2766 3156
3688 3124 2198
3691 3125 2213
3699 3129 2250
3714 3135 2315
3738 3142 2412
3776 3150 2543
3835 3155 2718
3835 3184 2943
3836 3221 3164
3758 3550 2762
3761 3552 2767
3767 3557 2782
3778 3565 2807
3795 3577 2845
3820 3592 2898
3858 3610 2969
3923 3624 3078
3934 3658 3237
4037 3932 3280
4039 3934 3282
4044 3939 3288
4053 3947 3298
4066 3960 3313
4084 3978 3332
4095 4000 3356
4095 4028 3384
4095 4056 3607
