Toning/Toning-WarmthSplitToning.3dl
#25pt 3DLUT created by 3D LUT Creator Pro (c) Oleg Sharonov
#Copyright Oleg Sharonov
#IMAGEPROFILE sRGB IEC61966-2.1 v.2.10
#INPUTGAMMA sRGB IEC61966-2.1 v.2.10
#OUTPUTGAMMA sRGB IEC61966-2.1 v.2.10
0 256 512 768 1023
0 0 0
0 0 1024
0 0 2048
0 0 3072
0 0 4095
45 1006 45
19 884 1141
13 827 2121
39 816 3116
145 835 4095
48 2039 48
48 1967 1182
78 1870 2201
206 1820 3184
452 1822 4095
145 3057 145
171 3032 1136
260 2981 2169
430 2936 3172
714 2920 4095
0 4095 0
0 4094 1031
0 4094 2052
0 4094 3074
0 4095 4095
1025 0 0
504 65 1333
314 32 2229
332 94 3179
449 297 4095
877 1140 58
494 1071 1310
336 902 2273
372 872 3214
528 929 4095
417 2211 90
396 2105 1274
396 1956 2299
493 1877 3258
731 1881 4095
443 3161 245
460 3125 1193
525 3052 2229
682 2986 3222
981 2963 4095
449 4095 297
462 4095 1110
512 4095 2107
628 4095 3113
871 4095 4095
2048 0 0
2137 16 776
1421 192 2482
1221 401 3396
1306 752 4095
2070 969 0
2142 1010 780
1426 1060 2480
1246 1025 3411
1351 1182 4095
1866 2198 171
1857 2186 1102
1419 2131 2427
1313 2012 3410
1481 2044 4095
1381 3339 492
1378 3297 1302
1389 3199 2332
1430 3097 3331
1693 3072 4095
1306 4095 752
1321 4095 1327
1380 4095 2251
1527 4095 3213
1861 4095 4095
3072 0 0
3125 45 765
3041 396 2056
2661 746 3356
2576 1178 4095
3085 968 6
3133 996 773
3043 1091 2063
2674 1209 3364
2601 1494 4095
3103 1988 52
3139 2017 796
3028 2093 2074
2696 2106 3363
2670 2237 4095
2927 3148 676
2933 3152 1206
2937 3150 2130
2713 3140 3320
2788 3179 4095
2654 4095 1109
2662 4095 1516
2691 4095 2329
2738 4095 3268
2967 4095 4095
4095 0 0
4095 174 793
4095 503 1770
4095 492 2996
4095 0 4095
4095 975 42
4095 1019 809
4095 1139 1781
4095 1066 3010
4095 965 4095
4095 1990 174
4095 2019 859
4095 2091 1814
4095 1990 3043
4095 1984 4095
4095 3022 379
4095 3042 971
4095 3087 1901
4095 3022 3076
4095 3037 4095
4095 4095 0
4095 4095 984
4095 4095 2006
4095 4095 3053
4095 4095 4095
