Toning/Toning-Purple Shadows.3dl
#25pt 3DLUT created by 3D LUT Creator Pro (c) Oleg Sharonov
#Copyright Oleg Sharonov
#IMAGEPROFILE ProPhoto RGB v.2.10
#INPUTGAMMA ProPhoto RGB v.2.10
#OUTPUTGAMMA ProPhoto RGB v.2.10
0 43 86 128 171 214 256 299 341 384 427 469 512 555 597 640 682 725 768 810 853 896 938 981 1023 
298 0 549
298 0 549
298 0 549
298 0 553
277 0 572
209 0 668
190 0 801
180 0 950
172 0 1107
168 4 1269
164 21 1433
161 34 1598
159 45 1765
157 54 1933
156 62 2102
155 69 2271
154 75 2440
153 80 2610
152 85 2780
152 89 2950
152 93 3121
151 96 3292
151 100 3462
151 103 3633
151 106 3804
298 0 549
298 0 559
298 0 574
323 0 591
317 20 620
264 57 708
231 79 833
210 95 975
197 118 1126
187 140 1283
179 158 1443
174 173 1606
170 186 1772
166 196 1938
163 205 2105
161 213 2274
159 220 2442
158 227 2612
157 233 2781
156 238 2951
155 243 3122
155 248 3292
155 252 3463
154 256 3634
154 259 3805
282 53 471
335 0 574
341 0 602
358 35 625
332 100 674
298 158 762
267 201 877
244 236 1010
225 264 1153
211 286 1305
200 304 1462
191 319 1621
184 332 1784
179 344 1948
175 354 2114
171 363 2281
168 370 2449
166 378 2617
164 384 2786
162 390 2955
161 396 3125
160 401 3295
160 406 3465
159 410 3636
159 414 3807
306 259 408
345 228 511
360 221 580
347 244 643
341 285 715
322 327 808
297 363 920
274 394 1048
254 420 1186
237 440 1333
224 458 1485
213 473 1642
203 486 1802
196 497 1964
189 507 2128
184 516 2293
180 524 2459
177 532 2626
174 539 2794
171 545 2962
169 551 3131
168 556 3301
166 561 3470
165 566 3640
164 571 3811
323 465 373
355 445 483
367 437 570
359 448 652
340 473 744
331 502 844
315 532 958
297 558 1084
279 581 1220
262 600 1364
247 617 1513
235 631 1666
224 643 1823
214 655 1983
207 665 2145
200 673 2308
194 682 2473
190 689 2638
185 696 2805
182 702 2972
179 708 3140
177 714 3309
174 719 3478
173 724 3647
171 729 3817
333 662 353
361 649 470
372 641 568
367 645 662
352 660 761
332 682 872
323 704 990
311 726 1117
297 746 1252
282 763 1394
268 779 1541
255 792 1692
244 804 1847
233 815 2004
224 825 2164
217 833 2325
210 841 2488
204 848 2653
198 855 2818
194 862 2984
190 867 3151
187 873 3319
184 878 3487
182 883 3655
180 888 3824
340 855 342
365 844 462
376 837 570
374 837 672
362 846 778
345 862 892
326 880 1016
319 897 1146
309 913 1281
297 929 1422
285 943 1568
273 956 1718
261 967 1871
251 977 2027
241 987 2185
233 995 2345
225 1003 2506
218 1010 2669
212 1016 2833
207 1023 2998
202 1028 3164
198 1034 3330
194 1039 3498
191 1044 3665
189 1049 3834
345 1042 334
368 1034 459
379 1028 573
379 1026 683
370 1031 794
356 1041 911
339 1055 1036
322 1070 1170
316 1084 1307
307 1097 1449
297 1110 1594
287 1121 1743
277 1132 1895
267 1141 2049
257 1150 2206
248 1158 2365
240 1166 2525
233 1173 2687
226 1179 2849
220 1185 3013
215 1191 3178
210 1196 3343
205 1201 3510
202 1206 3677
198 1211 3844
349 1226 328
370 1220 457
381 1214 578
382 1212 694
376 1214 810
365 1221 930
351 1232 1056
335 1244 1189
320 1256 1329
314 1267 1472
307 1278 1618
298 1288 1767
289 1298 1918
280 1307 2072
271 1315 2228
263 1323 2385
254 1330 2544
247 1336 2705
239 1343 2867
233 1348 3029
227 1354 3193
222 1359 3358
217 1364 3523
212 1369 3689
208 1373 3856
352 1408 324
371 1403 457
382 1398 582
385 1395 703
381 1396 824
372 1400 947
360 1408 1075
346 1417 1209
332 1428 1348
318 1439 1493
313 1448 1640
307 1457 1789
299 1465 1940
291 1474 2094
283 1481 2249
275 1489 2406
267 1495 2564
260 1501 2724
252 1507 2884
246 1513 3046
239 1518 3209
233 1523 3373
228 1528 3537
223 1532 3702
219 1537 3868
354 1588 322
372 1584 458
383 1580 587
387 1577 713
385 1577 838
378 1579 964
368 1585 1093
356 1592 1228
343 1601 1367
330 1610 1511
317 1619 1660
313 1627 1809
307 1634 1961
300 1642 2115
293 1649 2269
286 1655 2426
279 1662 2583
271 1667 2742
264 1673 2902
257 1678 3063
251 1683 3225
245 1688 3388
239 1692 3552
234 1697 3716
229 1701 3881
356 1767 321
373 1764 460
384 1760 592
389 1757 722
388 1756 850
383 1758 979
375 1761 1111
365 1767 1246
353 1774 1385
341 1782 1529
328 1790 1676
317 1798 1828
313 1805 1980
308 1811 2134
302 1817 2289
295 1823 2445
289 1829 2602
282 1834 2761
275 1839 2920
268 1844 3081
262 1849 3242
256 1853 3404
250 1857 3567
244 1862 3731
239 1866 3895
357 1944 321
373 1942 462
384 1939 598
390 1936 730
391 1935 862
387 1936 994
381 1938 1127
372 1942 1263
361 1948 1403
350 1955 1546
339 1962 1693
328 1969 1844
317 1976 1998
313 1981 2152
308 1987 2307
303 1992 2464
297 1997 2621
291 2002 2779
285 2007 2938
278 2011 3098
272 2016 3259
266 2020 3420
260 2024 3583
254 2027 3746
249 2031 3909
358 2121 321
373 2119 464
384 2117 603
390 2114 738
392 2113 873
390 2113 1007
385 2114 1142
378 2117 1280
369 2122 1420
359 2127 1564
348 2134 1710
338 2140 1860
327 2147 2013
317 2153 2169
314 2157 2325
310 2162 2481
305 2167 2638
299 2171 2797
294 2175 2956
288 2179 3115
282 2183 3276
276 2187 3437
270 2190 3598
264 2194 3761
258 2197 3924
359 2297 321
373 2296 466
384 2293 608
391 2291 746
394 2290 883
393 2289 1019
389 2290 1157
383 2293 1296
375 2296 1437
366 2301 1580
357 2306 1727
347 2312 1877
337 2318 2029
327 2323 2183
318 2329 2340
315 2333 2498
311 2337 2655
306 2341 2813
301 2345 2972
296 2348 3132
290 2352 3292
284 2355 3453
279 2358 3614
273 2361 3776
267 2364 3939
360 2472 323
373 2471 469
384 2469 613
391 2468 753
394 2466 892
395 2466 1031
392 2466 1170
388 2468 1310
381 2471 1452
373 2474 1597
365 2479 1743
356 2484 1893
346 2489 2044
337 2494 2198
328 2499 2355
318 2504 2513
316 2508 2671
312 2511 2829
308 2515 2988
303 2518 3148
298 2521 3308
293 2524 3469
287 2527 3630
282 2529 3791
276 2532 3954
360 2647 324
373 2646 472
384 2645 617
391 2643 760
395 2642 901
396 2642 1042
395 2642 1183
391 2643 1325
386 2645 1468
379 2648 1612
372 2652 1759
363 2656 1908
355 2661 2060
346 2666 2213
337 2670 2369
328 2675 2526
319 2679 2686
317 2682 2845
314 2685 3004
310 2688 3164
305 2691 3324
300 2693 3484
295 2696 3645
290 2698 3806
284 2700 3968
361 2822 325
373 2821 475
383 2820 622
391 2819 767
395 2818 910
397 2817 1052
397 2817 1195
395 2818 1338
390 2820 1482
385 2822 1627
378 2826 1775
370 2829 1924
362 2833 2075
354 2838 2228
346 2842 2383
337 2846 2540
329 2850 2699
321 2854 2859
318 2857 3018
315 2859 3178
312 2862 3339
307 2864 3499
303 2866 3660
298 2868 3821
292 2869 3983
361 2996 327
373 2996 478
383 2995 627
391 2994 773
396 2993 918
398 2992 1062
399 2992 1206
397 2993 1350
394 2994 1496
389 2996 1642
384 2999 1790
377 3002 1939
370 3006 2090
362 3010 2243
354 3014 2398
346 3018 2554
338 3021 2712
330 3025 2871
322 3029 3032
320 3031 3192
317 3033 3353
313 3035 3514
309 3037 3675
305 3038 3836
300 3040 3997
361 3170 329
373 3170 481
383 3169 631
390 3168 779
396 3167 926
399 3167 1071
400 3167 1217
400 3167 1362
397 3169 1509
393 3171 1656
389 3173 1804
383 3176 1954
376 3179 2105
369 3182 2258
362 3186 2412
355 3190 2568
347 3193 2725
339 3197 2884
331 3200 3044
324 3203 3206
322 3205 3367
319 3207 3528
316 3208 3689
312 3209 3850
307 3211 4012
361 3344 331
373 3344 484
382 3343 635
390 3342 785
396 3342 933
399 3341 1080
401 3341 1227
401 3342 1374
400 3343 1521
397 3345 1669
393 3347 1818
388 3349 1968
382 3352 2119
376 3355 2272
370 3359 2426
363 3362 2582
355 3365 2739
348 3369 2897
341 3372 3057
333 3375 3218
325 3378 3379
324 3379 3541
321 3380 3702
318 3381 3864
314 3382 4025
362 3517 333
373 3517 487
382 3517 640
390 3516 790
396 3516 940
400 3516 1088
402 3516 1237
403 3516 1385
402 3517 1533
400 3519 1682
397 3521 1831
393 3523 1982
388 3526 2133
383 3529 2286
377 3532 2441
370 3535 2596
364 3538 2753
357 3541 2911
350 3544 3070
342 3547 3230
335 3550 3391
328 3552 3554
326 3553 3715
323 3554 3877
320 3555 4039
362 3691 335
373 3691 490
382 3691 644
390 3690 796
396 3690 946
400 3690 1096
403 3690 1246
405 3691 1395
405 3692 1544
403 3693 1694
401 3695 1844
398 3697 1995
394 3700 2147
389 3702 2300
383 3705 2455
378 3708 2610
371 3711 2767
365 3714 2924
359 3717 3083
352 3720 3243
345 3722 3403
337 3724 3565
330 3727 3728
329 3727 3890
326 3728 4052
362 3864 338
373 3864 494
382 3864 648
389 3864 801
396 3864 953
401 3864 1104
404 3864 1254
406 3865 1405
407 3866 1555
406 3867 1706
405 3869 1857
402 3871 2008
399 3874 2161
394 3876 2314
390 3879 2469
385 3882 2624
379 3885 2780
373 3888 2938
367 3890 3096
361 3893 3256
354 3895 3416
347 3898 3577
340 3900 3739
333 3901 3902
332 3902 4065
363 4038 340
373 4038 497
382 4038 652
389 4038 806
396 4038 959
401 4038 1111
405 4039 1263
407 4039 1414
409 4040 1565
409 4042 1717
408 4044 1869
406 4046 2021
403 4048 2174
400 4051 2328
396 4053 2482
392 4056 2638
387 4059 2794
381 4062 2952
376 4064 3110
370 4067 3269
364 4069 3429
357 4071 3590
351 4073 3751
344 4075 3914
336 4077 4077
298 0 549
298 0 551
298 0 554
298 0 563
316 0 577
301 0 671
296 0 801
294 0 950
293 0 1107
293 10 1267
294 27 1431
294 39 1597
294 49 1763
296 58 1931
296 65 2100
297 72 2269
298 77 2438
298 82 2608
299 87 2778
300 91 2949
301 95 3119
302 99 3290
302 102 3461
303 105 3632
304 108 3803
350 0 550
356 0 562
365 0 582
381 0 601
393 5 624
355 49 707
332 75 830
321 92 972
314 121 1122
309 142 1279
306 161 1440
304 175 1603
303 187 1768
302 198 1935
302 207 2103
302 215 2271
302 222 2440
303 229 2609
303 235 2779
303 240 2949
304 245 3120
305 249 3290
305 253 3461
306 257 3632
307 261 3803
391 35 502
419 6 578
424 11 608
454 19 645
430 85 683
397 148 761
372 197 872
354 234 1004
342 262 1148
332 285 1299
326 304 1457
321 319 1617
318 333 1780
315 344 1945
313 354 2111
312 363 2278
311 371 2446
310 379 2614
310 385 2784
310 391 2953
310 397 3123
310 402 3293
310 407 3464
310 411 3634
311 416 3805
418 247 441
462 214 553
476 201 614
464 227 666
454 271 726
433 317 810
410 357 918
389 389 1043
374 416 1181
360 438 1327
351 456 1480
342 472 1637
336 485 1797
332 497 1959
328 507 2123
325 516 2289
322 524 2456
320 532 2623
319 539 2791
318 546 2960
317 551 3129
317 557 3298
316 562 3468
316 567 3639
317 572 3809
438 454 403
475 433 518
489 424 600
480 435 672
459 463 755
451 494 849
435 526 958
419 553 1082
403 577 1216
388 597 1359
376 614 1507
366 629 1661
358 642 1818
351 653 1978
345 664 2140
340 673 2304
336 681 2469
333 689 2635
331 696 2802
329 702 2969
327 708 3137
326 714 3306
325 720 3475
324 725 3645
323 730 3815
454 653 380
486 640 500
500 632 596
494 636 681
479 653 773
457 676 878
450 699 993
439 722 1117
425 742 1250
412 760 1390
400 776 1536
389 790 1687
379 803 1842
371 813 2000
364 823 2159
357 832 2321
352 840 2484
348 848 2649
344 855 2815
341 861 2981
338 867 3148
336 873 3316
334 879 3484
333 884 3653
332 889 3822
466 847 366
494 837 490
508 831 595
507 832 692
494 841 790
476 857 899
456 876 1019
450 893 1147
441 910 1280
430 926 1420
420 941 1565
409 954 1714
399 966 1867
390 976 2022
382 985 2181
375 994 2341
368 1002 2502
363 1009 2665
358 1016 2830
354 1022 2995
350 1028 3161
347 1034 3328
345 1039 3495
342 1045 3663
341 1049 3831
476 1035 356
501 1029 484
515 1024 597
516 1022 702
507 1028 807
492 1038 919
474 1053 1041
456 1068 1172
451 1082 1308
444 1095 1448
435 1108 1592
426 1119 1740
416 1130 1892
407 1140 2046
399 1149 2203
391 1157 2361
384 1165 2521
378 1172 2683
372 1178 2846
367 1184 3010
363 1190 3175
359 1196 3341
356 1201 3507
353 1206 3674
350 1211 3842
483 1221 349
506 1216 480
520 1212 599
523 1210 712
517 1212 823
505 1219 939
489 1230 1062
473 1242 1192
457 1255 1331
453 1266 1472
447 1277 1617
439 1287 1765
431 1297 1916
422 1306 2069
414 1314 2225
407 1322 2382
399 1329 2541
393 1336 2702
387 1342 2863
381 1348 3026
376 1353 3190
371 1359 3355
367 1364 3520
364 1369 3686
361 1374 3853
489 1403 344
511 1400 478
524 1396 603
529 1394 721
525 1395 838
515 1399 957
502 1407 1082
488 1417 1213
473 1427 1350
459 1438 1494
454 1447 1640
449 1456 1788
442 1465 1939
435 1473 2092
428 1480 2247
421 1488 2403
413 1494 2561
407 1501 2721
400 1507 2881
394 1512 3043
389 1517 3206
383 1523 3370
379 1527 3534
375 1532 3700
371 1537 3866
494 1584 340
514 1582 477
527 1579 606
533 1577 730
531 1576 851
524 1579 974
513 1584 1101
500 1592 1232
487 1601 1370
473 1610 1513
460 1619 1660
456 1626 1810
452 1634 1961
446 1641 2113
439 1648 2268
433 1655 2424
426 1661 2581
419 1667 2740
413 1672 2900
407 1678 3061
401 1682 3223
395 1687 3386
390 1692 3549
386 1696 3714
382 1701 3879
