Toning/Toning-Sunny film look.3dl
#25pt 3DLUT created by 3D LUT Creator Pro (c) Oleg Sharonov
#Copyright Oleg Sharonov
#IMAGEPROFILE sRGB IEC61966-2.1 v.2.10
#INPUTGAMMA sRGB IEC61966-2.1 v.2.10
#OUTPUTGAMMA sRGB IEC61966-2.1 v.2.10
0 128 256 384 512 640 768 896 1023
0 0 0
122 173 607
80 13 1126
58 101 2068
23 241 3101
4 665 3823
3 999 3941
256 829 3743
2038 2479 4093
0 677 1
32 306 692
9 204 1374
4 433 2452
2 660 3326
2 1056 3816
0 1267 3924
272 978 3771
2041 2497 4089
0 1209 3
0 1210 1233
2 1060 1973
0 1150 2644
0 1385 3234
0 1699 3657
0 1873 3834
327 1413 3808
2053 2579 4075
0 1680 3
0 1687 1026
0 1681 1992
0 1713 2573
0 1896 3076
0 2213 3502
1 2438 3758
431 1970 3824
2081 2731 4052
0 2123 3
0 2117 794
0 2170 1707
0 2329 2380
0 2477 2884
0 2738 3359
35 2875 3685
524 2477 3780
2118 2937 4017
0 2557 1
0 2542 573
0 2588 1417
0 2662 2109
0 2978 2672
0 3322 3244
126 3413 3635
679 2937 3760
2207 3205 3987
0 2975 0
0 2949 365
0 2994 1136
0 3062 1791
0 3147 2390
0 3627 3091
204 3710 3543
1001 3505 3758
2408 3542 3962
0 3366 2
0 3334 217
0 3371 908
0 3442 1528
0 3532 2136
0 3797 2935
242 3931 3481
1135 3850 3728
2520 3826 3921
0 3730 15
0 3717 396
0 3747 967
0 3818 1540
0 3909 2096
0 4022 2654
369 4095 3403
1540 4095 3687
2665 4094 3901
494 0 0
486 97 317
253 42 718
172 35 1421
88 141 2396
24 395 3426
36 929 3858
329 849 3744
2066 2483 4095
339 354 1
353 365 360
94 132 690
32 242 1648
9 524 2803
2 839 3605
40 1209 3854
344 997 3770
2073 2503 4093
124 806 2
97 856 586
11 864 1275
0 1121 2284
0 1340 2936
0 1562 3432
57 1818 3771
405 1436 3815
2084 2584 4079
5 1268 3
1 1325 640
0 1627 1525
0 1813 2280
0 1903 2878
0 2126 3315
79 2377 3700
513 1995 3838
2110 2736 4055
0 1762 3
0 1805 512
0 2104 1386
0 2406 2095
0 2649 2725
2 2727 3207
121 2805 3628
598 2480 3788
2145 2941 4020
0 2261 2
0 2288 326
0 2557 1202
0 2843 1874
0 3074 2509
9 3281 3089
243 3365 3591
742 2941 3764
2231 3209 3990
0 2753 1
0 2805 103
0 2999 996
0 3223 1674
0 3427 2327
0 3596 2941
320 3681 3506
1059 3503 3756
2426 3544 3964
0 3232 2
0 3394 2
0 3390 800
0 3460 1492
0 3547 2118
0 3866 2944
347 3916 3448
1183 3849 3726
2536 3827 3923
0 3661 11
0 3754 15
0 3764 889
0 3832 1508
0 3922 2081
0 4033 2648
443 4095 3388
1565 4095 3683
2678 4094 3902
915 1 0
1021 2 89
1163 162 487
685 39 758
527 39 1409
311 195 2574
237 711 3604
642 996 3823
2175 2501 4095
875 322 1
1033 307 119
1139 458 566
241 52 699
248 252 1705
208 542 2777
257 1073 3685
652 1112 3826
2182 2522 4095
675 664 2
807 639 227
817 928 886
365 909 1540
256 1129 2470
237 1390 3147
321 1707 3686
728 1521 3862
2209 2607 4094
461 1073 3
564 1004 271
702 1470 1140
618 1715 1870
396 1815 2561
286 1960 3102
351 2233 3605
831 2061 3887
2230 2757 4069
407 1529 4
498 1474 250
656 1960 1096
619 2225 1760
599 2501 2440
456 2585 3019
403 2652 3536
882 2525 3828
2257 2961 4034
385 2003 3
467 1951 163
599 2404 939
558 2666 1603
543 2936 2253
572 3135 2913
625 3219 3500
981 2951 3775
2330 3223 4003
360 2498 2
398 2448 64
519 2833 754
477 3085 1424
476 3305 2073
527 3478 2758
728 3608 3432
1290 3504 3761
2503 3550 3972
333 2994 0
272 3059 0
372 3237 489
326 3477 1288
333 3661 2032
423 3790 2730
711 3875 3364
1370 3843 3718
2600 3831 3929
305 3470 6
245 3530 10
0 3699 304
0 3890 1413
0 4008 2150
103 4068 2785
707 4095 3332
1665 4095 3672
2729 4094 3905
1400 3 0
1489 3 78
1538 6 428
1166 33 785
955 40 1405
752 173 2363
750 767 3596
1204 1255 3969
2381 2538 4095
1489 352 0
1600 334 68
1694 421 435
847 179 690
576 166 1348
695 526 2526
744 1022 3605
1216 1354 3968
2387 2559 4095
1354 728 1
1519 667 106
1512 867 610
996 856 1203
788 1050 2100
744 1267 2905
829 1619 3649
1303 1709 3986
2410 2642 4095
1154 1136 3
1256 1038 171
1311 1299 782
1466 1627 1586
1078 1724 2313
807 1858 3011
822 2141 3579
1377 2168 3974
2456 2797 4095
1110 1630 3
1179 1480 162
1237 1772 786
1376 2125 1605
1353 2363 2279
1059 2468 2904
814 2524 3462
1352 2575 3884
2474 3001 4062
1075 2107 3
1126 1955 119
1176 2228 717
1263 2559 1456
1245 2797 2114
1232 3036 2795
1129 3124 3427
1373 2960 3796
2516 3253 4025
1001 2541 1
1021 2461 38
1078 2633 530
1159 2983 1295
1132 3199 1950
1141 3388 2622
1249 3552 3340
1653 3490 3763
2647 3565 3987
923 2977 0
888 3006 0
941 2996 239
1034 3387 1094
1009 3581 1858
1032 3722 2579
1183 3843 3273
1677 3826 3703
2724 3839 3941
846 3408 2
808 3437 2
604 3567 10
814 3830 1130
775 3963 1923
825 4047 2610
1082 4095 3257
1845 4095 3660
2829 4094 3910
1888 6 1
1944 6 117
1959 8 495
1923 0 1021
1426 43 1490
1297 203 2439
1445 843 3624
1878 1425 4011
2677 2602 4095
2057 443 1
2124 392 99
2201 468 545
1086 90 691
1025 167 1462
1286 528 2587
1428 1045 3624
1877 1510 4008
2680 2622 4095
1972 857 2
2071 757 119
2094 906 636
1597 865 1172
1374 980 2010
1350 1199 2826
1443 1530 3611
1910 1798 4003
2694 2703 4095
1855 1304 2
1921 1152 138
1929 1331 696
2072 1578 1492
1743 1642 2199
1466 1768 2931
1487 2059 3593
1964 2211 3996
2727 2853 4095
1834 1786 3
1851 1591 126
1854 1787 682
2010 2062 1479
2084 2258 2205
1667 2317 2857
1344 2421 3440
1931 2606 3928
2773 3063 4095
1743 2221 2
1791 2079 72
1767 2207 590
1851 2477 1354
1893 2675 2034
1902 2908 2732
1694 3043 3366
1861 2967 3821
2784 3303 4059
1627 2640 1
1621 2665 1
1616 2582 395
1700 2890 1181
1728 3080 1850
1757 3293 2536
1810 3499 3263
2091 3473 3760
2857 3589 4014
1504 3044 0
1489 3067 0
1482 2924 80
1544 3285 951
1572 3484 1693
1614 3657 2452
1691 3808 3182
2058 3806 3677
2899 3848 3955
1391 3432 2
1373 3453 2
1285 3545 10
1340 3648 705
1392 3915 1735
1431 4025 2467
1537 4090 3166
2102 4095 3635
2975 4095 3919
2350 8 2
2385 8 148
2378 11 560
2341 0 1062
2196 22 1620
1920 223 2399
2191 888 3474
2561 1556 3962
3036 2685 4095
2601 539 2
2611 419 120
2669 479 621
1431 47 720
1519 168 1497
1955 528 2529
2182 1055 3494
2556 1621 3961
3037 2704 4095
2543 976 2
2618 837 125
2644 938 670
2167 864 1163
1992 940 1969
2048 1139 2739
2108 1461 3499
2545 1869 3955
3043 2780 4095
2450 1414 3
2512 1236 122
2500 1348 647
2633 1541 1404
2377 1577 2111
2120 1674 2826
2031 1920 3488
2528 2229 3944
3054 2922 4095
2398 1862 3
2415 1689 79
2370 1757 577
2508 1977 1329
2642 2142 2066
2286 2186 2764
1977 2330 3392
2501 2607 3925
3077 3120 4095
2348 2296 2
2365 2313 2
2292 2169 461
2395 2390 1235
2505 2553 1950
2560 2770 2673
2261 2933 3314
2421 2952 3837
3110 3359 4095
2197 2687 1
2203 2707 1
2160 2529 224
2222 2782 1064
2300 2959 1767
2367 3168 2473
2374 3442 3190
2568 3435 3755
3116 3613 4042
2046 3077 0
2045 3097 0
2069 3018 0
2019 3161 750
2099 3370 1531
2187 3554 2297
2201 3774 3081
2486 3775 3649
3119 3860 3974
1903 3447 2
1898 3468 5
1870 3556 11
1804 3458 101
1923 3817 1449
2000 3988 2279
2038 4076 3043
2412 4095 3596
3159 4095 3929
2789 12 3
2807 11 175
2794 14 623
2764 0 1120
2779 4 1696
2556 155 2364
3010 914 3352
3249 1628 3892
3396 2769 4095
3113 625 3
3026 359 100
3061 385 631
2063 30 807
2002 81 1479
2646 490 2477
2982 1052 3355
3236 1685 3889
3395 2785 4095
3070 1075 3
3139 939 87
3177 954 664
2748 870 1183
2656 923 1937
2767 1103 2643
2885 1430 3354
3193 1891 3883
3391 2854 4095
2985 1501 3
3027 1492 3
3022 1354 580
3161 1540 1354
3007 1563 2074
2804 1619 2742
2768 1864 3346
3120 2212 3869
3389 2982 4095
2903 1919 2
2934 1925 2
2868 1732 460
3004 1954 1242
3142 2094 1970
2905 2137 2678
2612 2254 3308
3027 2558 3840
3384 3165 4095
2818 2319 2
2839 2331 2
2760 2108 264
2850 2346 1080
2975 2498 1818
3083 2702 2568
2859 2851 3248
2957 2911 3817
3389 3388 4095
2720 2698 1
2734 2713 1
2781 2486 51
2706 2706 841
2814 2895 1630
2926 3085 2385
2945 3374 3131
3068 3387 3753
3407 3634 4070
2552 3073 0
2559 3091 0
2587 3165 2
2521 3045 354
2597 3297 1337
2702 3476 2140
2738 3704 2960
2949 3750 3620
3365 3868 3992
2386 3431 2
2388 3449 2
2394 3525 11
2387 3680 12
2401 3713 980
2500 3915 2020
2547 4055 2872
2769 4095 3529
3369 4095 3940
3187 16 4
3196 12 188
3176 3 652
3173 0 1159
3219 4 1715
3289 12 2342
3470 808 3217
3592 1588 3799
3627 2804 4095
3575 698 4
3220 16 4
3214 16 599
3198 0 1134
3239 4 1706
3305 12 2341
3478 993 3231
3586 1638 3797
3627 2819 4095
3549 1159 4
3595 1106 4
3664 878 552
3144 714 1083
3170 768 1832
3312 974 2544
3420 1429 3232
3557 1820 3785
3625 2883 4095
3458 1569 4
3493 1554 4
3529 1300 411
3645 1488 1282
3597 1509 2034
3376 1522 2617
3323 1850 3213
3500 2103 3763
3622 3003 4095
3362 1959 3
3389 1960 3
3424 1648 217
3469 1883 1095
3624 2034 1893
3459 2058 2585
3147 2201 3162
3414 2425 3730
3610 3166 4077
3253 2340 2
3276 2348 2
3368 2381 2
3287 2243 838
3433 2433 1677
3550 2612 2446
3409 2808 3116
3318 2743 3681
3603 3369 4058
3139 2708 1
3156 2720 1
3226 2773 1
3132 2578 374
3256 2823 1374
3395 2998 2210
3463 3272 2992
3451 3237 3654
3629 3623 4039
3021 3062 0
3033 3076 0
3082 3138 0
3179 3260 2
3087 3211 874
3223 3401 1876
3317 3621 2798
3470 3685 3574
3635 3869 4012
2843 3405 2
2850 3420 2
2881 3488 12
2928 3616 12
2980 3818 12
3026 3846 1490
3097 3999 2563
3215 4085 3396
3598 4095 3953
3532 19 4
3538 14 195
3534 3 672
3550 0 1178
3631 5 1726
3780 13 2335
3997 26 3004
3787 1853 3660
3878 2792 4061
3875 746 4
3560 20 4
3565 18 617
3572 0 1148
3650 5 1712
3796 13 2330
4011 26 3003
3779 1886 3656
3873 2803 4058
3866 1210 4
3883 1149 4
3677 20 5
3673 0 987
3732 5 1644
3867 13 2304
3726 1005 3043
3752 2014 3639
3866 2858 4053
3786 1612 3
3800 1590 3
3855 1468 4
3860 1232 920
3743 1250 1674
3707 1336 2397
3738 1684 3049
3713 2227 3609
3855 2965 4044
3709 1987 3
3720 1981 3
3771 1944 3
3701 1642 612
3834 1855 1559
3829 1985 2315
3631 2100 2968
3622 2455 3549
3846 3124 4032
3620 2355 2
3631 2357 2
3678 2359 2
3705 1934 115
3680 2249 1250
3812 2487 2107
3846 2725 2874
3668 2807 3503
3830 3318 4015
3507 2711 1
3525 2718 1
3578 2747 1
3671 2788 1
3529 2584 709
3680 2857 1778
3803 3131 2663
3830 3295 3458
3855 3583 4003
3392 3049 0
3406 3061 0
3466 3108 0
3547 3185 2
3683 3289 2
3553 3218 1144
3706 3471 2310
3827 3684 3303
3845 3832 3982
3275 3381 2
3286 3395 2
3332 3453 2
3420 3559 11
3533 3705 12
3687 3900 13
3738 3918 1634
3817 4043 2962
3841 4095 3968
