Toning/Toning-Goldie.3dl
#25pt 3DLUT created by 3D LUT Creator Pro (c) Oleg Sharonov
#Copyright Oleg Sharonov
#IMAGEPROFILE sRGB IEC61966-2.1 v.2.10
#INPUTGAMMA sRGB IEC61966-2.1 v.2.10
#OUTPUTGAMMA sRGB IEC61966-2.1 v.2.10
0 128 256 384 512 640 768 896 1023
0 0 0
63 13 71
183 146 203
362 327 377
559 525 565
790 751 780
1048 1002 1018
1337 1284 1280
1621 1566 1539
462 425 284
586 512 528
656 621 654
760 724 754
889 850 874
1045 1000 1015
1243 1193 1196
1485 1431 1416
1734 1677 1645
1065 1044 720
1133 1090 855
1352 1277 1207
1289 1246 1227
1369 1325 1312
1478 1431 1412
1616 1566 1537
1779 1724 1690
1951 1890 1859
1856 1907 1279
1933 1985 1396
2142 2197 1721
1941 1885 1725
1835 1797 1724
1896 1853 1805
1988 1937 1898
2102 2044 2011
2230 2167 2138
2336 2453 1646
2378 2502 1718
2476 2628 1912
2589 2763 2191
2375 2346 2166
2289 2248 2173
2347 2303 2258
2432 2382 2350
2528 2471 2448
2731 2911 1969
2758 2943 2018
2812 3016 2142
2902 3137 2360
2903 3070 2552
2732 2710 2559
2698 2673 2614
2758 2727 2697
2828 2789 2771
3051 3224 2258
3069 3243 2295
3096 3278 2379
3146 3342 2525
3227 3445 2745
3190 3332 2901
3062 3057 2954
3078 3077 3042
3124 3113 3101
3335 3505 2528
3352 3524 2558
3373 3552 2622
3398 3582 2723
3432 3620 2870
3484 3679 3075
3433 3541 3216
3407 3431 3375
3426 3449 3438
3580 3740 2782
3596 3757 2809
3611 3774 2858
3632 3799 2935
3665 3836 3048
3704 3879 3201
3725 3885 3390
3709 3802 3580
3742 3810 3788
758 0 57
734 129 373
540 352 442
609 501 562
754 671 716
931 861 892
1153 1089 1103
1417 1355 1348
1686 1625 1595
662 447 131
825 571 503
866 729 775
892 807 840
983 917 940
1118 1057 1071
1303 1244 1244
1538 1480 1461
1780 1720 1687
998 944 493
1207 1184 794
1567 1505 1342
1387 1329 1295
1434 1378 1357
1519 1463 1441
1646 1591 1560
1807 1748 1713
1986 1921 1889
1752 1800 1082
1916 1970 1301
2172 2227 1690
2089 2063 1825
1899 1849 1773
1936 1887 1837
2015 1958 1918
2124 2061 2028
2257 2190 2162
2291 2407 1527
2390 2513 1669
2521 2676 1906
2689 2902 2242
2475 2477 2242
2334 2289 2211
2377 2329 2284
2453 2399 2367
2550 2490 2467
2713 2879 1895
2775 2949 1992
2852 3044 2149
2935 3152 2353
2973 3161 2591
2795 2790 2608
2731 2703 2644
2780 2746 2716
2845 2803 2786
3051 3217 2216
3089 3257 2285
3132 3306 2394
3180 3367 2531
3256 3466 2747
3232 3382 2923
3100 3099 2983
3099 3097 3062
3137 3124 3113
3343 3509 2503
3374 3542 2557
3405 3578 2639
3425 3601 2734
3456 3637 2874
3504 3693 3077
3466 3581 3237
3429 3453 3396
3438 3459 3449
3598 3757 2773
3622 3782 2817
3643 3804 2879
3664 3828 2953
3694 3863 3061
3726 3897 3207
3749 3908 3399
3730 3825 3589
3756 3823 3801
1454 133 200
1539 168 534
1434 458 793
1195 723 869
1151 904 975
1239 1069 1111
1392 1261 1282
1596 1496 1486
1812 1725 1699
1452 604 283
1621 685 606
1691 763 1007
1423 971 1079
1337 1100 1151
1383 1226 1254
1511 1391 1397
1697 1606 1582
1896 1811 1784
1380 1049 375
1604 1253 675
1987 1632 1337
1715 1444 1444
1661 1497 1487
1699 1576 1560
1780 1688 1657
1912 1831 1798
2081 2002 1972
1791 1668 770
1897 1796 958
2121 2090 1397
2281 2281 1944
2024 1931 1864
2027 1963 1903
2094 2025 1981
2197 2125 2090
2331 2258 2229
2251 2295 1282
2325 2405 1413
2474 2604 1716
2732 2927 2214
2615 2659 2335
2419 2347 2274
2437 2379 2332
2508 2446 2414
2608 2543 2520
2665 2806 1702
2723 2867 1805
2830 2993 2022
2970 3160 2341
3056 3260 2625
2888 2905 2664
2781 2746 2682
2822 2781 2751
2889 2842 2825
3030 3179 2077
3073 3226 2159
3133 3293 2312
3211 3383 2528
3284 3478 2737
3282 3435 2942
3149 3153 3010
3133 3124 3089
3167 3149 3138
3335 3490 2409
3370 3528 2474
3413 3577 2586
3449 3613 2737
3477 3646 2870
3524 3701 3075
3500 3618 3252
3457 3476 3417
3461 3475 3465
3612 3767 2717
3637 3792 2767
3662 3818 2849
3691 3848 2963
3717 3879 3065
3744 3907 3207
3769 3925 3403
3749 3843 3589
3775 3837 3814
2258 625 515
2425 521 612
2390 506 1061
2108 802 1192
1875 1074 1278
1718 1291 1377
1746 1478 1512
1858 1673 1680
2006 1857 1854
2359 1012 601
2464 1112 872
2611 985 1130
2283 999 1326
2032 1232 1410
1846 1426 1496
1847 1592 1615
1935 1757 1761
2082 1939 1934
2382 1518 655
2520 1636 913
2752 1909 1484
2539 1454 1564
2258 1568 1661
2070 1693 1729
2035 1811 1820
2112 1949 1942
2243 2113 2103
2195 1783 657
2295 1883 854
2489 2119 1300
2803 2522 1995
2376 1997 1985
2279 2046 2037
2282 2118 2099
2352 2221 2205
2460 2357 2335
2405 2234 975
2467 2319 1104
2580 2485 1411
2750 2753 1894
2814 2913 2432
2536 2432 2364
2540 2465 2412
2604 2531 2496
2704 2631 2608
2753 2756 1473
2788 2810 1573
2841 2896 1773
2939 3063 2096
3109 3288 2580
2995 3027 2732
2861 2807 2744
2895 2844 2811
2966 2912 2894
3058 3165 1897
3093 3216 1973
3118 3256 2120
3196 3343 2361
3315 3484 2708
3346 3498 2964
3217 3225 3041
3188 3166 3129
3220 3195 3184
3344 3487 2270
3371 3514 2332
3406 3552 2449
3456 3608 2628
3504 3655 2856
3550 3709 3069
3544 3663 3267
3494 3519 3436
3498 3504 3493
3634 3783 2619
3657 3806 2674
3681 3831 2763
3709 3859 2893
3747 3898 3063
3768 3919 3211
3790 3934 3405
3774 3862 3590
3802 3855 3833
2968 1322 913
3053 1289 961
3138 856 990
2921 720 1391
2695 1091 1544
2456 1401 1648
2215 1655 1755
2179 1845 1885
2246 2016 2036
3073 1598 961
3091 1622 1124
3133 1355 1157
3062 992 1428
2792 1219 1640
2537 1499 1740
2286 1741 1836
2244 1919 1957
2312 2089 2107
3031 1891 937
3104 1953 1123
3165 2097 1557
3121 1785 1664
2906 1511 1827
2664 1722 1922
2430 1926 2006
2389 2081 2114
2452 2243 2258
2911 2157 921
2982 2220 1086
3089 2373 1476
3251 2663 2073
3049 2102 2098
2802 2058 2176
2626 2193 2249
2580 2323 2344
2642 2465 2474
2784 2378 886
2841 2442 1029
2933 2567 1352
3067 2762 1826
3276 3076 2464
2905 2474 2471
2793 2530 2536
2790 2617 2617
2861 2727 2725
2936 2747 1163
2964 2787 1265
3009 2860 1490
3079 2978 1826
3198 3179 2310
3203 3250 2801
2972 2889 2834
3001 2932 2897
3066 3004 2986
3185 3156 1645
3212 3197 1724
3244 3251 1883
3265 3297 2127
3326 3408 2458
3419 3567 2919
3296 3304 3086
3257 3226 3188
3299 3265 3253
3425 3500 2100
3441 3525 2164
3457 3552 2275
3473 3589 2455
3511 3645 2699
3577 3712 3022
3599 3710 3292
3549 3565 3459
3551 3547 3536
3689 3835 2503
3705 3851 2556
3716 3860 2644
3735 3876 2778
3768 3911 2962
3801 3938 3194
3819 3946 3408
3805 3884 3591
3840 3881 3859
3350 1774 1161
3377 1719 1170
3442 1486 1173
3482 1097 1372
3271 983 1742
3067 1350 1889
2819 1702 1997
2572 1990 2108
2527 2178 2231
3411 1991 1248
3398 1966 1332
3428 1814 1377
3534 1422 1406
3342 1095 1811
3132 1437 1967
2882 1774 2068
2624 2057 2171
2579 2240 2292
3413 2228 1248
3454 2286 1396
3464 2339 1684
3456 2105 1780
3425 1564 1933
3220 1656 2117
2991 1934 2210
2733 2196 2303
2696 2371 2422
3371 2477 1210
3416 2532 1356
3480 2647 1678
3542 2779 2112
3459 2338 2179
3315 1996 2322
3099 2202 2415
2883 2410 2500
2858 2569 2613
3298 2619 1057
3335 2654 1196
3396 2750 1499
3490 2916 1942
3578 3081 2478
3410 2577 2555
3202 2536 2662
3065 2675 2742
3050 2812 2846
3220 2836 1035
3249 2866 1152
3290 2925 1413
3353 3023 1789
3454 3179 2269
3561 3354 2833
3296 2908 2927
3224 2981 3003
3232 3077 3093
3362 3183 1330
3383 3214 1416
3411 3263 1606
3428 3303 1891
3460 3374 2249
3546 3529 2718
3424 3423 3112
3351 3300 3267
3397 3349 3338
3547 3516 1827
3563 3540 1896
3578 3566 2024
3595 3602 2234
3608 3635 2493
3637 3704 2838
3671 3778 3277
3606 3611 3484
3617 3605 3595
3804 3881 2339
3814 3895 2396
3818 3905 2490
3816 3912 2635
3818 3929 2830
3840 3972 3078
3857 3968 3382
3844 3910 3613
3888 3915 3889
3580 2131 1412
3601 2103 1425
3645 1967 1441
3760 1518 1417
3674 1051 1841
3498 1244 2093
3341 1614 2214
3031 2047 2320
2831 2308 2423
3629 2297 1478
3626 2288 1545
3651 2190 1589
3741 1831 1570
3731 1322 1856
3559 1320 2152
3394 1680 2278
3072 2108 2377
2871 2364 2476
3667 2536 1517
3698 2584 1629
3691 2570 1820
3702 2321 1876
3799 1789 1916
3620 1559 2274
3453 1857 2403
3155 2234 2491
2962 2477 2587
3667 2674 1389
3703 2714 1507
3743 2789 1775
3757 2810 2106
3733 2464 2194
3684 2010 2424
3523 2134 2581
3270 2430 2662
3093 2652 2752
3641 2801 1214
3676 2839 1338
3713 2903 1613
3763 2999 2008
3806 3081 2451
3736 2701 2597
3603 2483 2790
3387 2694 2872
3255 2871 2961
3595 2987 1107
3623 3015 1225
3643 3045 1492
3689 3124 1866
3762 3251 2328
3801 3330 2821
3672 2932 2967
3493 2995 3106
3413 3124 3190
3585 3263 1111
3595 3277 1219
3602 3298 1462
3616 3333 1802
3652 3393 2204
3733 3521 2687
3699 3485 3138
3574 3322 3348
3565 3396 3428
3698 3557 1520
3711 3576 1598
3722 3599 1764
3737 3631 2010
3752 3667 2317
3764 3710 2679
3805 3810 3148
3660 3649 3518
3694 3671 3662
3919 3921 2074
3927 3933 2140
3931 3943 2256
3930 3951 2431
3926 3956 2651
3935 3985 2922
3919 3999 3276
3892 3943 3635
3930 3954 3910
3745 2403 1596
3767 2366 1601
3813 2206 1589
3912 1845 1562
3939 1339 1834
3815 1065 2225
3662 1510 2393
3443 1982 2501
3136 2377 2590
3791 2530 1646
3794 2499 1691
3825 2367 1703
3908 2066 1679
3986 1522 1822
3854 1180 2283
3700 1589 2455
3488 2033 2555
3171 2428 2638
3848 2693 1635
3872 2716 1724
3858 2637 1852
3883 2418 1900
3985 1926 1890
3898 1584 2348
3750 1777 2562
3554 2158 2658
3242 2532 2735
3866 2787 1492
3892 2810 1596
3923 2863 1833
3927 2841 2105
3930 2544 2200
3968 2127 2424
3808 2074 2717
3633 2366 2810
3347 2693 2881
3861 2907 1322
3886 2929 1438
3917 2978 1691
3961 3060 2052
3981 3088 2431
3958 2802 2625
3863 2448 2906
3716 2641 2999
3464 2901 3065
3829 3066 1194
3853 3088 1314
3882 3132 1566
3922 3204 1925
3966 3312 2367
3979 3312 2793
3920 2952 2997
3784 2964 3207
3600 3142 3274
3802 3310 1148
3817 3320 1263
3832 3339 1504
3851 3371 1840
3903 3457 2247
3945 3526 2713
3916 3495 3153
3840 3310 3423
3727 3412 3497
3851 3601 1252
3861 3615 1345
3871 3634 1549
3884 3662 1842
3889 3688 2225
3895 3724 2644
3929 3818 3115
3824 3691 3519
3825 3701 3727
4012 3973 3162
4013 3982 3179
4016 3987 3270
4014 3990 3193
4011 3991 3091
4007 3995 2953
4014 4006 3150
3963 3992 3568
3975 3989 3942
3904 2512 1671
3928 2471 1667
3977 2327 1650
3983 2060 1706
3985 1784 1998
3975 1324 2320
3933 1385 2556
3790 1852 2681
3490 2373 2762
3946 2601 1688
3953 2569 1725
3976 2449 1734
3982 2243 1837
3985 1959 2047
3977 1598 2353
3966 1467 2608
3831 1904 2733
3523 2420 2807
3962 2769 1702
3967 2797 1871
3972 2690 1882
3981 2525 2004
3987 2268 2168
3984 1999 2440
3968 1737 2706
3885 2040 2830
3585 2518 2895
3959 2880 1762
3964 2914 1941
3973 2971 2181
3981 2915 2308
3991 2714 2400
3994 2484 2599
3977 2126 2848
3950 2266 2970
3665 2672 3026
3953 3004 1761
3960 3040 1984
3968 3091 2210
3983 3177 2535
3995 3166 2722
4002 2921 2759
3996 2588 2960
3990 2577 3135
3754 2881 3189
3945 3174 1803
3953 3203 2014
3965 3251 2285
3979 3321 2569
3993 3370 2823
4005 3337 2984
4012 3073 3078
4005 2959 3318
3847 3134 3375
3938 3366 1801
3945 3381 2007
3955 3406 2224
3969 3453 2511
3985 3495 2781
4003 3558 3091
4016 3538 3296
4021 3348 3466
3934 3410 3577
3960 3678 2361
3970 3694 2557
3975 3708 2666
3982 3709 2781
3985 3707 2839
4002 3755 3159
4018 3811 3466
4023 3682 3527
3993 3709 3789
4028 3998 3800
4029 4004 3837
4029 4006 3839
4029 4006 3870
4029 4006 3831
4029 4006 3830
4029 4013 3862
4029 4013 3841
4023 4023 3974
