Toning/Toning-Grey and Orange.3dl
#25pt 3DLUT created by 3D LUT Creator Pro (c) Oleg Sharonov
#Copyright Oleg Sharonov
#IMAGEPROFILE sRGB IEC61966-2.1 v.2.10
#INPUTGAMMA sRGB IEC61966-2.1 v.2.10
#OUTPUTGAMMA sRGB IEC61966-2.1 v.2.10
0 256 512 768 1023
0 0 0
242 78 207
779 352 629
1095 649 1238
1383 951 1960
738 832 193
751 847 598
1075 884 1198
1315 1026 1782
1545 1233 2382
1269 1811 579
1272 1818 888
1281 1836 1688
1590 1843 2480
1832 1920 3111
1758 2879 1141
1760 2882 1378
1766 2895 2011
1778 2916 2874
2093 2910 3660
2291 3943 1892
2292 3945 2052
2299 3953 2486
2311 3967 3167
2330 3988 3983
1029 199 113
1099 233 433
1126 474 861
1300 732 1435
1519 1013 2107
1308 869 204
1081 1081 1081
1338 901 1603
1470 1047 2136
1653 1257 2633
1566 1830 588
1440 1870 754
1447 1876 1736
1695 1871 2620
1916 1943 3256
1936 2891 1151
1855 2917 1273
1861 2926 1976
1873 2942 2901
2169 2931 3717
2408 3950 1902
2369 3963 2003
2376 3970 2458
2388 3982 3163
2409 4001 3997
1758 600 389
1787 618 618
1865 663 1281
1829 917 1880
1907 1170 2464
1965 1009 488
2127 936 679
2138 950 1666
2025 1155 2350
2051 1373 2880
2188 1877 612
2197 1888 780
2136 2136 2136
2216 1914 2792
2271 1983 3615
2399 2925 1180
2367 2944 1304
2359 2957 1987
2372 2968 2928
2489 2976 3829
2744 3973 1933
2720 3984 2035
2700 3998 2451
2712 4008 3174
2733 4023 4020
2454 1016 756
2472 1027 938
2524 1058 1479
2607 1109 2321
2540 1373 2915
2605 1287 848
2729 1227 971
2757 1248 1647
2802 1284 2582
2685 1529 3197
2870 1977 1033
2926 1965 1153
2984 1957 1833
2993 1976 2836
2945 2074 3697
3074 2979 1231
3080 2986 1357
3084 2993 2047
3143 3143 3143
3124 3043 3766
3301 4012 1988
3292 4019 2093
3288 4029 2508
3388 4009 3319
3415 4031 4028
3172 1442 1215
3185 1450 1365
3225 1472 1801
3296 1512 2474
3393 1567 3322
3293 1630 1300
3386 1593 1401
3417 1612 1889
3471 1647 2609
3544 1698 3493
3572 2190 1507
3632 2174 1606
3771 2131 2036
3789 2156 2853
3815 2194 3790
3853 3069 1774
3877 3067 1874
3918 3068 2290
3846 3116 3083
3872 3151 3853
4065 4063 2068
4068 4067 2178
4074 4072 2592
4075 4074 3408
4095 4095 4095
