Toning/Toning-Stretch blues and oranges 2.3dl
#25pt 3DLUT created by 3D LUT Creator Pro (c) Oleg Sharonov
#Copyright Oleg Sharonov
#INPUTGAMMA sRGB
#IMAGEPROFILE sRGB
#OUTPUTGAMMA sRGB
0 128 256 384 512 640 768 896 1023
0 0 0
0 0 580
0 0 1220
0 0 1821
0 0 2353
0 0 2841
0 0 3290
0 0 3710
0 0 4095
0 512 0
0 594 580
0 676 1220
0 758 1821
0 840 2353
0 922 2841
0 1004 3290
0 1086 3710
0 1168 4095
0 1024 0
0 1132 580
0 1241 1220
0 1349 1821
0 1457 2354
0 1566 2841
0 1674 3290
0 1783 3710
0 1892 4095
0 1536 0
0 1639 580
0 1742 1220
0 1845 1821
0 1948 2354
0 2052 2841
0 2155 3290
0 2258 3709
0 2361 4095
0 2047 0
0 2130 580
0 2213 1220
0 2296 1821
0 2379 2354
0 2462 2841
0 2545 3290
0 2628 3710
0 2711 4095
0 2559 0
0 2621 580
0 2682 1220
0 2743 1821
0 2804 2354
0 2865 2841
0 2926 3290
0 2987 3710
0 3048 4095
0 3071 0
0 3111 580
0 3151 1220
0 3191 1821
0 3230 2354
0 3270 2841
0 3310 3290
0 3350 3710
0 3389 4095
0 3583 0
0 3603 580
0 3623 1220
0 3642 1821
0 3662 2354
0 3682 2841
0 3701 3290
0 3721 3710
0 3741 4095
0 4095 0
0 4095 581
0 4095 1220
0 4095 1821
0 4095 2354
0 4095 2841
0 4095 3290
0 4095 3710
0 4095 4095
512 0 0
465 0 500
417 0 1078
361 0 1713
305 0 2276
250 0 2788
194 0 3258
138 0 3694
82 0 4095
512 448 0
465 512 500
417 579 1077
361 655 1713
305 731 2276
250 808 2788
194 884 3257
138 961 3695
82 1037 4095
512 908 0
465 1001 500
417 1097 1077
361 1207 1713
305 1317 2276
250 1428 2788
194 1538 3257
138 1648 3694
82 1758 4095
512 1439 0
465 1531 500
417 1627 1077
361 1736 1713
305 1846 2276
250 1956 2788
194 2066 3257
138 2175 3694
82 2285 4095
512 1970 0
465 2046 500
417 2123 1077
361 2212 1713
305 2302 2276
250 2391 2788
194 2481 3257
138 2570 3694
85 2660 4095
512 2501 0
465 2557 500
417 2614 1077
361 2680 1713
305 2746 2276
250 2812 2788
194 2878 3257
138 2944 3694
85 3010 4095
512 3033 0
465 3069 500
417 3106 1077
361 3149 1713
305 3192 2276
250 3234 2788
194 3277 3257
138 3320 3694
80 3363 4095
512 3564 0
465 3582 500
417 3600 1077
361 3621 1713
305 3643 2276
250 3664 2788
194 3685 3257
138 3706 3694
82 3728 4095
512 4095 0
464 4095 500
418 4095 1078
362 4095 1713
306 4095 2276
251 4095 2788
197 4095 3257
138 4095 3694
85 4095 4095
1024 0 0
1008 0 421
991 0 934
968 0 1602
945 0 2198
923 0 2735
900 0 3224
877 0 3679
854 0 4095
1024 384 0
1008 432 421
991 484 933
968 553 1601
945 622 2198
923 692 2734
899 761 3224
877 830 3679
855 900 4095
1024 792 0
1008 869 421
991 951 934
968 1062 1602
946 1172 2198
923 1283 2734
900 1393 3225
877 1504 3679
855 1614 4095
1024 1342 0
1008 1423 421
991 1509 934
968 1625 1602
945 1740 2198
923 1856 2734
899 1972 3224
877 2088 3679
854 2203 4095
1024 1893 0
1008 1960 421
991 2031 934
968 2127 1602
946 2224 2198
923 2320 2734
900 2416 3224
877 2512 3679
855 2608 4095
1024 2443 0
1008 2493 421
991 2546 934
968 2617 1602
945 2688 2198
923 2759 2734
899 2830 3224
877 2901 3679
855 2972 4095
1024 2994 0
1008 3026 421
991 3060 934
968 3106 1602
946 3153 2198
923 3199 2734
900 3245 3224
877 3291 3679
854 3337 4095
1024 3544 0
1008 3560 421
991 3577 934
968 3600 1602
946 3623 2198
923 3646 2734
900 3668 3224
877 3691 3679
855 3714 4095
1024 4095 0
1008 4095 422
991 4095 934
968 4095 1602
946 4095 2198
922 4095 2734
900 4095 3224
877 4095 3679
855 4095 4095
1536 0 0
1532 0 344
1527 0 789
1521 0 1488
1514 0 2119
1507 0 2680
1500 0 3191
1494 0 3664
1486 0 4095
1535 320 0
1532 354 344
1527 392 789
1521 452 1488
1514 512 2119
1507 573 2680
1500 633 3191
1493 694 3664
1486 754 4095
1536 677 0
1532 737 344
1527 805 789
1521 913 1488
1514 1022 2119
1507 1130 2680
1500 1238 3191
1493 1348 3664
1486 1456 4095
1536 1246 0
1532 1314 344
1527 1389 789
1521 1510 1488
1514 1632 2119
1507 1753 2680
1500 1874 3191
1493 1995 3664
1486 2116 4095
1536 1815 0
1532 1873 344
1527 1938 789
1521 2041 1488
1514 2144 2119
1507 2247 2680
1500 2350 3191
1493 2454 3664
1486 2557 4095
1536 2385 0
1532 2428 344
1527 2476 789
1521 2552 1488
1514 2628 2119
1507 2705 2680
1500 2781 3191
1493 2857 3664
1486 2934 4095
1536 2955 0
1532 2983 344
1527 3014 789
1521 3063 1488
1514 3113 2119
1507 3163 2680
1500 3212 3191
1493 3262 3664
1487 3311 4095
1536 3525 0
1532 3539 344
1527 3554 789
1521 3578 1488
1514 3603 2119
1507 3627 2680
1500 3652 3191
1493 3676 3664
1486 3701 4095
1536 4095 0
1532 4095 344
1528 4095 790
1521 4095 1488
1513 4095 2119
1507 4095 2680
1500 4095 3191
1492 4095 3664
1486 4095 4095
2048 0 0
2044 0 270
2040 0 643
2031 0 1372
2024 0 2039
2015 0 2625
2007 0 3158
1999 0 3649
1991 0 4094
2048 256 0
2044 278 269
2040 304 643
2032 355 1373
2023 403 2039
2015 453 2625
2007 502 3158
1999 552 3648
1991 608 4095
2047 561 0
2044 605 269
2040 657 642
2031 757 1373
2023 858 2038
2015 959 2625
2007 1061 3158
1999 1160 3648
1991 1263 4095
2047 1149 0
2044 1203 269
2040 1269 643
2032 1394 1372
2023 1520 2038
2016 1646 2625
2007 1771 3158
1999 1897 3648
1991 2023 4095
2047 1738 0
2044 1786 269
2040 1843 642
2032 1953 1372
2023 2063 2038
2015 2174 2625
2007 2284 3158
1999 2394 3648
1991 2505 4095
2047 2327 0
2044 2363 269
2040 2405 642
2032 2487 1372
2023 2568 2038
2015 2650 2625
2007 2732 3158
1999 2814 3648
1991 2896 4095
2047 2916 0
2044 2939 269
2040 2967 642
2032 3020 1373
2023 3073 2038
2015 3126 2625
2007 3179 3158
1999 3232 3648
1991 3285 4095
2047 3506 0
2044 3517 269
2040 3531 642
2032 3557 1372
2023 3583 2038
2015 3609 2625
2007 3635 3158
1999 3661 3648
1991 3687 4095
2047 4095 0
2044 4095 270
2040 4095 643
2031 4095 1372
2024 4095 2038
2015 4095 2625
2008 4095 3158
1998 4095 3648
1990 4095 4095
2559 0 0
2556 0 198
2552 0 496
2543 0 1255
2534 0 1957
2524 0 2570
2514 0 3124
2505 0 3633
2496 0 4095
2559 192 0
2556 204 198
2552 220 496
2543 259 1255
2533 298 1957
2524 337 2570
2515 375 3124
2505 414 3633
2496 453 4095
2559 445 0
2556 473 198
2552 509 497
2543 596 1255
2534 683 1957
2524 770 2570
2515 857 3124
2505 944 3633
2496 1034 4095
2559 1052 0
2556 1093 198
2552 1147 496
2543 1275 1255
2534 1405 1957
2524 1534 2570
2514 1663 3124
2505 1793 3633
2496 1923 4095
2559 1661 0
2556 1698 198
2552 1747 496
2543 1864 1255
2533 1982 1957
2524 2099 2570
2515 2217 3124
2505 2334 3633
2496 2452 4095
2559 2269 0
2556 2297 198
2552 2333 496
2543 2420 1255
2534 2508 1957
2524 2595 2570
2515 2682 3124
2505 2770 3633
2496 2857 4095
2559 2878 0
2556 2896 198
2552 2919 496
2543 2976 1255
2534 3033 1957
2524 3089 2570
2515 3146 3124
2505 3203 3633
2496 3259 4095
2559 3486 0
2556 3495 198
2552 3507 496
2543 3534 1255
2534 3562 1957
2524 3590 2570
2515 3618 3124
2505 3646 3633
2496 3674 4095
2559 4095 0
2556 4095 197
2552 4095 498
2543 4095 1255
2534 4095 1957
2524 4095 2570
2514 4095 3124
2505 4095 3633
2496 4095 4095
3071 0 0
3070 0 129
3067 0 356
3058 0 1136
3050 0 1873
3042 0 2514
3033 0 3090
3025 0 3618
3016 0 4095
3071 128 0
3069 133 129
3067 142 355
3058 169 1136
3050 196 1873
3041 223 2514
3033 249 3091
3024 276 3617
3016 295 4095
3071 329 0
3069 343 129
3067 365 355
3058 434 1136
3050 502 1873
3041 571 2514
3033 639 3091
3025 708 3617
3016 777 4095
3071 955 0
3069 982 129
3067 1025 355
3058 1156 1136
3050 1287 1873
3041 1419 2514
3033 1551 3090
3025 1682 3617
3016 1815 4095
3071 1583 0
3069 1609 129
3067 1649 355
3058 1773 1136
3050 1898 1873
3041 2022 2514
3033 2147 3091
3025 2272 3617
3016 2397 4095
3071 2211 0
3069 2230 129
3067 2260 355
3058 2353 1136
3050 2446 1873
3041 2539 2514
3033 2633 3091
3025 2726 3617
3016 2819 4095
3071 2839 0
3069 2851 129
3067 2871 355
3058 2931 1136
3050 2992 1873
3041 3052 2514
3033 3113 3091
3025 3173 3617
3016 3234 4095
3071 3467 0
3069 3473 129
3067 3483 355
3058 3512 1136
3050 3542 1873
3041 3571 2514
3033 3601 3091
3025 3631 3617
3016 3661 4095
3071 4095 0
3069 4095 129
3067 4095 357
3058 4095 1137
3050 4095 1873
3041 4095 2514
3033 4095 3091
3024 4095 3617
3016 4095 4095
3583 0 0
3583 0 63
3582 0 222
3577 0 1016
3573 0 1788
3569 0 2458
3564 0 3056
3560 0 3602
3556 0 4095
3583 64 0
3582 65 63
3582 68 222
3577 82 1016
3573 96 1788
3569 109 2458
3565 123 3057
3560 137 3601
3556 150 4095
3583 214 0
3582 218 63
3582 229 222
3577 275 1016
3573 321 1788
3569 367 2458
3565 414 3057
3560 460 3602
3556 500 4095
3583 859 0
3582 872 63
3582 902 222
3577 1035 1016
3573 1167 1788
3569 1300 2458
3564 1433 3057
3560 1565 3602
3556 1698 4095
3583 1506 0
3583 1519 63
3582 1549 222
3577 1680 1016
3573 1812 1788
3569 1944 2458
3565 2075 3057
3560 2207 3601
3556 2338 4095
3583 2153 0
3583 2163 63
3582 2186 222
3577 2285 1016
3573 2384 1788
3569 2483 2458
3565 2582 3057
3560 2682 3602
3556 2781 4095
3583 2800 0
3583 2807 63
3582 2822 222
3577 2886 1016
3573 2950 1788
3569 3015 2458
3565 3079 3057
3560 3143 3602
3556 3208 4095
3583 3448 0
3583 3451 63
3582 3458 222
3577 3489 1016
3573 3521 1788
3569 3553 2458
3564 3584 3056
3560 3616 3602
3556 3647 4095
3583 4095 0
3583 4095 63
3582 4095 222
3577 4095 1015
3573 4095 1789
3569 4095 2458
3564 4095 3056
3560 4095 3602
3557 4095 4095
4095 0 0
4095 0 0
4095 0 98
4095 0 896
4094 0 1701
4094 0 2401
4095 0 3023
4095 0 3586
4094 0 4094
4095 0 0
4095 0 0
4095 0 98
4095 0 895
4095 0 1701
4095 0 2401
4095 0 3023
4095 0 3586
4095 0 4095
4095 99 0
4095 99 0
4095 101 98
4095 124 896
4095 146 1701
4095 168 2401
4095 185 3022
4095 212 3586
4094 226 4095
4095 762 0
4095 762 0
4095 781 98
4095 913 896
4095 1045 1701
4095 1177 2401
4095 1310 3022
4095 1441 3586
4094 1573 4095
4095 1429 0
4095 1429 0
4095 1449 98
4095 1586 895
4095 1724 1701
4095 1862 2401
4095 2000 3022
4095 2138 3586
4094 2277 4095
4095 2095 0
4095 2095 0
4095 2110 98
4095 2216 896
4095 2321 1701
4095 2426 2401
4095 2532 3022
4095 2637 3586
4094 2743 4095
4095 2762 0
4095 2762 0
4095 2772 98
4095 2840 896
4095 2908 1701
4095 2977 2401
4095 3045 3022
4095 3114 3586
4094 3182 4095
4095 3428 0
4095 3428 0
4095 3433 97
4095 3466 895
4095 3500 1701
4095 3533 2401
4095 3567 3023
4095 3600 3586
4094 3634 4095
4095 4095 0
4095 4095 0
4095 4095 96
4095 4095 895
4095 4095 1700
4095 4095 2400
4095 4095 3021
4095 4095 3586
4094 4095 4095
