Toning/Toning-Sunny.3dl
#25pt 3DLUT created by 3D LUT Creator Pro (c) Oleg Sharonov
#Copyright Oleg Sharonov
#IMAGEPROFILE sRGB
#INPUTGAMMA sRGB
#OUTPUTGAMMA sRGB
0 128 256 384 512 640 768 896 1023
171 0 0
201 0 127
206 0 595
210 0 1053
215 2 1490
222 31 1873
231 101 2187
243 209 2412
251 294 2539
220 518 0
248 527 212
250 501 659
253 494 1098
258 495 1521
262 505 1894
267 530 2197
272 563 2411
275 582 2534
269 1089 42
298 1118 281
300 1080 764
300 1040 1191
302 1014 1578
304 999 1919
306 984 2190
306 967 2385
305 935 2502
318 1654 86
347 1682 329
352 1680 863
351 1619 1314
350 1566 1687
349 1522 1991
348 1479 2230
345 1420 2404
338 1332 2497
367 2201 131
396 2228 377
401 2232 905
403 2200 1446
401 2128 1843
398 2057 2141
393 1984 2343
387 1896 2477
377 1775 2549
416 2718 176
445 2742 426
450 2746 954
456 2749 1518
454 2679 2016
449 2591 2334
442 2491 2549
432 2377 2648
419 2232 2683
469 3190 222
494 3211 475
500 3214 1003
505 3217 1527
509 3198 2111
503 3103 2538
494 2992 2765
482 2857 2902
466 2698 2911
519 3599 268
544 3617 524
550 3619 1053
555 3621 1576
561 3622 2124
560 3566 2642
550 3452 2988
536 3321 3127
518 3160 3201
573 3973 314
594 3990 574
600 3992 1102
605 3994 1624
611 3996 2131
618 3995 2702
608 3885 3101
594 3749 3356
575 3598 3428
739 0 0
759 0 181
727 0 627
715 0 1070
705 0 1497
684 4 1903
628 7 2253
519 9 2529
354 9 2697
789 524 0
818 554 238
757 498 703
694 442 1140
627 392 1547
500 303 1912
232 109 2204
243 216 2422
251 297 2542
838 1095 44
867 1124 286
826 1101 787
759 1051 1223
685 1009 1615
545 965 1956
301 929 2220
301 909 2403
300 877 2512
887 1660 89
916 1688 335
910 1694 871
791 1639 1336
672 1582 1722
475 1524 2031
347 1463 2253
343 1401 2423
337 1313 2514
936 2206 134
965 2233 383
971 2237 911
862 2216 1453
543 2150 1870
399 2071 2172
393 1985 2359
387 1893 2490
377 1770 2562
987 2722 179
1016 2747 432
1020 2751 960
997 2755 1511
539 2699 2021
451 2608 2353
443 2500 2563
433 2381 2659
420 2234 2693
1037 3194 224
1067 3214 481
1069 3217 1009
1076 3221 1533
896 3210 2108
505 3119 2547
496 3004 2777
483 2865 2913
467 2704 2921
1087 3601 270
1117 3619 531
1119 3622 1058
1126 3624 1581
1104 3626 2115
562 3580 2644
551 3464 2996
537 3330 3137
519 3167 3210
1139 3975 317
1167 3992 581
1169 3994 1108
1175 3996 1630
1182 3998 2136
1032 3999 2694
610 3896 3104
595 3758 3363
576 3606 3436
1308 0 0
1338 0 196
1323 0 703
1270 2 1142
1231 9 1560
1188 13 1945
1125 15 2275
1034 17 2526
923 18 2680
1357 531 2
1386 560 244
1376 551 756
1312 494 1205
1249 428 1626
1164 303 2005
1057 15 2308
961 17 2552
846 14 2690
1405 1101 47
1434 1130 292
1440 1136 820
1360 1093 1270
1285 1050 1663
1201 1007 1998
1071 928 2273
757 679 2489
255 330 2589
1455 1666 91
1483 1694 340
1488 1699 868
1380 1676 1381
1258 1624 1781
1166 1567 2085
1033 1487 2328
659 1328 2513
328 1203 2587
1503 2212 136
1531 2238 389
1536 2242 916
1474 2244 1473
1196 2191 1923
1012 2118 2248
814 2026 2453
385 1870 2543
375 1737 2617
1552 2727 181
1579 2751 438
1584 2755 966
1589 2759 1490
1314 2730 2046
805 2655 2416
448 2546 2646
435 2397 2706
421 2239 2734
1601 3197 227
1629 3218 487
1633 3221 1016
1638 3224 1539
1557 3228 2111
896 3159 2568
501 3051 2835
487 2898 2960
470 2727 2961
1650 3604 273
1678 3622 537
1682 3624 1065
1687 3626 1587
1692 3629 2095
1367 3604 2650
558 3512 3028
542 3368 3178
523 3198 3249
1700 3978 319
1727 3994 587
1732 3996 1115
1736 3999 1636
1741 4001 2142
1670 4003 2683
616 3945 3117
601 3797 3392
581 3639 3471
1866 0 0
1895 0 202
1900 4 728
1871 9 1222
1801 26 1645
1726 40 2031
1634 39 2368
1518 37 2620
1380 34 2760
1914 537 5
1942 565 250
1946 571 776
1919 550 1272
1840 492 1698
1740 366 2087
1611 39 2397
1490 37 2644
1348 34 2782
1961 1107 49
1988 1136 298
1993 1141 825
1979 1131 1333
1882 1084 1786
1757 1016 2203
1600 889 2546
1366 506 2784
1168 26 2870
2008 1672 94
2035 1699 346
2040 1704 874
2045 1709 1400
1893 1673 1823
1720 1627 2173
1583 1548 2406
1376 1385 2580
866 910 2728
2054 2217 139
2081 2243 395
2086 2248 922
2091 2252 1448
1896 2234 1968
1515 2187 2375
1381 2094 2564
1208 1939 2680
366 1617 2753
2101 2732 184
2127 2756 444
2131 2760 971
2138 2764 1496
1968 2769 2076
1382 2721 2507
1022 2619 2775
601 2468 2861
421 2229 2809
2148 3201 229
2174 3221 493
2177 3225 1021
2183 3228 1544
2188 3231 2054
1679 3203 2605
748 3119 2928
496 2968 3074
475 2766 3037
2195 3607 275
2221 3625 543
2224 3627 1071
2229 3629 1593
2234 3632 2100
2063 3630 2663
1103 3566 3061
553 3443 3263
531 3257 3325
2242 3980 322
2267 3997 593
2272 3999 1121
2276 4001 1643
2280 4003 2147
2270 4006 2642
1721 3980 3133
612 3877 3447
591 3704 3540
2403 0 0
2430 5 208
2434 10 734
2439 15 1261
2392 19 1728
2297 72 2115
2177 127 2457
2028 118 2734
1851 83 2904
2448 543 7
2474 571 256
2478 577 783
2483 582 1309
2436 542 1775
2326 426 2159
2173 131 2480
2015 115 2756
1835 80 2922
2492 1114 52
2517 1143 304
2522 1148 832
2526 1153 1358
2490 1128 1833
2370 1068 2237
2200 932 2609
1966 391 2884
1760 76 3004
2535 1678 97
2560 1705 352
2565 1710 880
2569 1715 1406
2551 1701 1897
2374 1640 2387
2125 1530 2823
1840 1294 3109
1511 442 3204
2579 2223 141
2603 2249 401
2608 2253 929
2612 2258 1454
2617 2263 1966
2380 2225 2356
2050 2160 2680
1801 2011 2812
1461 1674 2867
2622 2737 187
2646 2761 450
2651 2765 978
2656 2769 1502
2660 2773 2013
2400 2753 2519
1684 2703 2939
1320 2560 3044
1024 2279 3009
2666 3205 232
2689 3225 498
2694 3228 1028
2698 3231 1550
2704 3234 2059
2472 3242 2630
1603 3197 3033
509 3066 3252
483 2826 3179
2710 3610 278
2733 3627 548
2736 3630 1077
2740 3632 1599
2746 3634 2106
2742 3638 2596
2005 3619 3106
565 3528 3378
543 3338 3437
2754 3983 325
2776 4000 598
2780 4002 1126
2782 4004 1647
2788 4006 2153
2793 4009 2632
2518 4009 3157
816 3969 3495
606 3803 3645
2905 0 0
2929 11 214
2932 16 740
2936 21 1267
2941 27 1785
2869 30 2208
2748 128 2545
2577 287 2826
2372 273 3031
2945 550 10
2969 578 262
2972 583 789
2976 588 1315
2980 594 1832
2906 459 2248
2753 139 2560
2576 293 2843
2366 276 3048
2985 1120 55
3008 1148 310
3012 1153 837
3016 1159 1364
3020 1164 1879
2960 1103 2307
2811 953 2650
2566 310 2916
2335 271 3123
3025 1684 99
3047 1711 359
3051 1716 886
3055 1721 1412
3059 1726 1925
3014 1683 2367
2838 1578 2752
2563 1320 3110
2231 234 3288
3064 2229 144
3086 2254 407
3089 2259 935
3093 2263 1460
3096 2268 1972
3074 2245 2433
2801 2155 2962
2341 1955 3441
1847 1449 3639
3103 2743 190
3124 2766 456
3128 2770 984
3131 2774 1509
3135 2778 2019
3138 2782 2506
2837 2728 2856
2334 2619 3151
1841 2346 3193
3141 3210 235
3161 3229 504
3165 3232 1034
3168 3235 1556
3172 3238 2065
3176 3242 2550
2884 3216 3017
1864 3154 3417
681 2938 3443
3179 3614 282
3199 3631 554
3202 3633 1084
3205 3635 1605
3210 3638 2113
3213 3640 2594
2978 3648 3119
1846 3611 3484
559 3444 3630
3217 3986 328
3237 4003 604
3239 4005 1133
3242 4007 1654
3245 4009 2158
3251 4012 2638
3230 4014 3103
2262 4012 3537
627 3940 3788
3353 0 0
3373 18 220
3375 23 747
3378 28 1274
3381 33 1792
3384 38 2291
3286 41 2651
3146 159 2924
2926 441 3138
3387 556 14
3406 584 269
3409 590 795
3412 595 1322
3415 600 1839
3418 606 2336
3295 41 2660
3151 170 2935
2927 447 3150
3421 1127 58
3440 1155 317
3442 1161 845
3445 1166 1371
3448 1171 1886
3451 1176 2380
3363 970 2742
3168 217 2985
2927 473 3204
3454 1691 103
3473 1717 365
3475 1723 894
3478 1728 1419
3481 1733 1932
3484 1738 2424
3413 1617 2802
3232 1289 3102
2913 518 3316
3487 2235 148
3506 2260 414
3508 2265 942
3511 2270 1466
3513 2274 1978
3516 2279 2467
3465 2202 2865
3246 1989 3229
2855 1356 3563
3520 2748 193
3538 2771 464
3540 2775 991
3543 2779 1515
3546 2783 2026
3548 2788 2512
3522 2752 2932
3186 2600 3452
2451 2233 3686
3553 3214 239
3570 3234 513
3573 3237 1040
3576 3240 1563
3578 3243 2072
3581 3246 2556
3584 3250 3006
3245 3170 3310
2380 2989 3624
3586 3618 285
3603 3635 561
3606 3637 1091
3609 3639 1612
3611 3641 2119
3614 3644 2600
3617 3647 3046
3303 3623 3455
1786 3538 3770
3619 3990 332
3636 4006 611
3638 4008 1139
3641 4011 1661
3643 4013 2164
3647 4015 2643
3649 4018 3085
3401 4019 3539
2557 4010 3813
3744 0 0
3762 25 227
3764 30 754
3766 35 1281
3769 40 1798
3771 45 2298
3766 51 2761
3640 52 3049
3487 105 3252
3775 564 17
3792 592 276
3795 597 802
3797 602 1329
3799 607 1845
3802 613 2342
3796 554 2799
3646 52 3056
3491 116 3261
3805 1135 62
3823 1162 324
3825 1168 852
3827 1173 1378
3829 1178 1893
3832 1184 2387
3833 1184 2850
3674 53 3087
3507 167 3298
3836 1698 107
3853 1724 373
3855 1730 901
3857 1735 1426
3860 1740 1939
3862 1745 2431
3865 1750 2892
3762 1302 3190
3537 288 3373
3867 2242 152
3884 2266 421
3885 2272 950
3887 2276 1473
3890 2281 1985
3892 2286 2473
3895 2291 2932
3816 2039 3253
3590 1010 3511
3897 2754 197
3914 2777 470
3916 2781 999
3918 2785 1521
3921 2789 2033
3923 2793 2518
3926 2798 2971
3870 2658 3313
3606 2143 3669
3928 3219 243
3944 3238 521
3947 3241 1048
3949 3244 1570
3951 3247 2078
3954 3251 2562
3956 3254 3012
3927 3202 3374
3493 2886 3732
3959 3622 289
3975 3638 570
3978 3641 1098
3980 3643 1618
3982 3645 2125
3985 3648 2606
3988 3651 3051
3991 3654 3442
3523 3532 3762
3990 3994 335
4007 4010 618
4009 4012 1147
4012 4014 1668
4014 4017 2171
4016 4019 2649
4020 4022 3091
4023 4025 3476
3408 4022 3819
4095 4 0
4095 32 234
4095 37 761
4095 42 1287
4095 47 1805
4095 52 2304
4095 58 2775
4095 63 3174
3962 63 3395
4095 571 21
4095 597 281
4095 603 810
4095 608 1336
4095 613 1852
4095 620 2349
4095 626 2816
4095 63 3178
3968 63 3401
4095 1142 66
4095 1169 330
4095 1175 859
4095 1180 1385
4095 1185 1899
4095 1191 2393
4095 1197 2857
4095 937 3243
3992 64 3425
4095 1706 111
4095 1731 379
4095 1737 908
4095 1743 1434
4095 1748 1947
4095 1753 2438
4095 1758 2899
4095 1687 3297
4040 66 3473
4095 2249 156
4095 2273 428
4095 2279 957
4095 2284 1482
4095 2288 1992
4095 2293 2482
4095 2298 2939
4095 2303 3345
4095 730 3578
4095 2761 202
4095 2783 478
4095 2788 1006
4095 2792 1530
4095 2796 2039
4095 2800 2526
4095 2805 2977
4095 2810 3379
4095 2141 3672
4095 3225 248
4095 3244 528
4095 3247 1057
4095 3250 1578
4095 3253 2086
4095 3256 2570
4095 3261 3019
4095 3264 3414
4095 2933 3732
4095 3627 294
4095 3644 580
4095 3646 1107
4095 3648 1626
4095 3651 2133
4095 3653 2614
4095 3656 3058
4095 3660 3448
4095 3534 3783
4095 4000 341
4095 4015 629
4095 4018 1157
4095 4020 1676
4095 4022 2180
4095 4025 2658
4095 4027 3097
4095 4031 3482
4095 4034 3831
