Toning/Toning-Film Warmth.3dl
#25pt 3DLUT created by 3D LUT Creator Pro (c) Oleg Sharonov
#Copyright Oleg Sharonov
#INPUTGAMMA sRGB IEC61966-2.1 v.2.10
#IMAGEPROFILE sRGB IEC61966-2.1 v.2.10
#OUTPUTGAMMA sRGB IEC61966-2.1 v.2.10
0 256 512 768 1023
0 9 9
0 0 1008
0 0 1881
0 0 2437
0 0 2621
0 993 37
0 1029 1028
0 1018 1889
0 1003 2437
0 981 2621
0 1862 96
0 1883 1040
0 1909 1907
0 1897 2445
0 1873 2621
0 2423 127
0 2428 1050
0 2449 1894
0 2448 2447
0 2433 2621
1060 2654 788
573 2641 1146
0 2621 1880
0 2621 2430
1109 2738 3020
1510 167 0
1408 212 1232
1322 137 2238
1222 23 2851
1259 0 3075
1452 995 360
1338 1082 1240
1253 1004 2252
1159 963 2841
1207 945 3056
1279 1900 422
1090 1941 1260
419 1946 2039
184 1910 2515
916 1935 2951
1269 2454 419
1074 2484 1266
0 2452 1909
0 2452 2452
599 2473 2836
1618 2652 355
1475 2703 1219
1106 2710 2182
34 2623 2435
1695 2881 3231
2866 457 0
2813 559 1397
2723 623 2629
2685 538 3354
2765 298 3615
2810 1143 0
2764 1281 1440
2671 1363 2637
2646 1338 3349
2733 1293 3604
2782 1981 951
2745 2084 1695
2627 2274 2630
2610 2251 3361
2703 2270 3593
2658 2599 943
2588 2713 1678
2445 2838 2622
2301 2887 3245
2595 2998 3554
2778 2747 634
2749 2914 1546
2667 3091 2628
2567 3170 3303
2864 3349 3651
3764 731 0
3748 878 1363
3706 1115 2853
3684 1049 3695
3723 690 3961
3747 1265 0
3732 1493 1420
3692 1749 2863
3668 1784 3695
3715 1637 3958
3710 2015 151
3692 2368 1608
3658 2673 2904
3632 2808 3697
3697 2790 3951
3715 2836 1462
3707 3013 2083
3682 3291 3055
3644 3505 3692
3710 3543 3956
3724 2928 982
3714 3188 1822
3684 3529 2955
3675 3746 3691
3757 3872 3973
4088 1158 0
4092 1166 1068
4092 1250 2825
4090 1247 3795
4094 1109 4093
4093 1394 0
4094 1526 859
4092 1870 2831
4089 2041 3785
4094 1694 4094
4092 2037 0
4091 2329 1041
4089 2820 2851
4087 3045 3797
4094 2916 4095
4091 2468 0
4090 2921 1317
4088 3458 2885
4087 3758 3797
4094 3792 4094
4094 2984 1010
4094 3288 1853
4093 3705 3016
4094 3992 3813
4094 4094 4095
