Toning/Toning-2 Strip Teal Orange.3dl
#25pt 3DLUT created by 3D LUT Creator Pro (c) Oleg Sharonov
#Copyright Oleg Sharonov
#INPUTGAMMA sRGB
#IMAGEPROFILE sRGB
#OUTPUTGAMMA sRGB
0 256 512 768 1023
249 249 249
581 788 801
1007 1658 1701
1561 2544 2593
2051 3026 3068
249 344 594
249 933 1385
524 1879 2410
881 2710 3053
1276 3144 3424
249 446 1068
249 1105 2110
249 2098 2930
439 2850 3412
697 3254 3510
249 557 1751
249 1299 2732
249 2308 3313
251 2980 3510
304 3358 3510
249 677 2456
249 1508 3155
249 2502 3510
249 3101 3510
249 3456 3510
872 260 249
1465 805 552
2143 1686 1276
2674 2567 2208
2980 3041 2813
432 356 377
818 953 1003
1364 1908 1994
1972 2729 2797
2436 3158 3219
249 460 761
393 1128 1671
752 2126 2649
1204 2867 3206
1673 3268 3510
249 572 1323
249 1325 2384
344 2334 3093
652 2996 3510
960 3371 3510
249 693 2045
249 1536 2913
249 2525 3445
268 3116 3510
495 3468 3510
2006 273 249
2639 824 332
3059 1716 903
3365 2590 1755
3510 3058 2480
1236 370 249
1923 975 702
2556 1937 1537
2962 2748 2457
3224 3173 2976
671 474 508
1162 1153 1233
1816 2154 2260
2409 2885 2961
2783 3282 3350
282 587 939
624 1352 1947
1072 2360 2831
1642 3012 3338
2131 3384 3510
249 710 1588
249 1565 2613
567 2549 3233
938 3131 3510
1351 3480 3510
3060 287 249
3406 844 249
3510 1749 598
3510 2615 1261
3510 3075 2004
2557 385 249
3015 1000 435
3358 1969 1072
3510 2769 1978
3510 3190 2656
1818 490 273
2489 1181 838
2954 2185 1759
3277 2904 2637
3497 3298 3099
1074 605 626
1734 1383 1441
2396 2389 2461
2851 3030 3085
3128 3399 3449
568 730 1115
1007 1597 2166
1627 2575 2963
2236 3148 3438
2655 3494 3510
3510 304 249
3510 869 249
3510 1786 312
3510 2643 807
3510 3095 1419
3456 402 249
3510 1030 251
3510 2007 677
3510 2793 1394
3510 3209 2144
3077 509 249
3420 1215 504
3510 2221 1194
3510 2926 2119
3510 3315 2755
2581 626 335
3031 1418 934
3372 2423 1902
3510 3051 2738
3510 3415 3173
1849 752 707
2514 1635 1580
2971 2605 2578
3291 3167 3160
3510 3510 3510
