Toning/Toning-Art.3dl
#25pt 3DLUT created by 3D LUT Creator Pro (c) Oleg Sharonov
#Copyright Oleg Sharonov
#IMAGEPROFILE sRGB IEC61966-2.1 v.2.10
#INPUTGAMMA sRGB IEC61966-2.1 v.2.10
#OUTPUTGAMMA sRGB IEC61966-2.1 v.2.10
0 43 86 128 171 214 256 299 341 384 427 469 512 555 597 640 682 725 768 810 853 896 938 981 1023 
99 106 94
107 121 157
0 29 321
0 46 509
0 66 724
0 85 939
0 106 1164
0 127 1393
0 147 1614
0 168 1843
0 186 2065
0 204 2290
0 225 2513
0 245 2732
0 264 2943
216 616 3086
511 1063 3192
742 1396 3320
961 1682 3426
1160 1918 3475
1335 2111 3510
1486 2283 3538
1626 2431 3559
1755 2567 3574
1873 2686 3585
106 168 102
104 176 154
0 184 320
0 222 515
0 257 725
0 293 936
0 329 1158
0 362 1381
0 393 1599
0 423 1826
0 453 2044
0 484 2264
0 517 2483
0 548 2698
0 582 2903
223 760 3069
513 1129 3188
747 1443 3318
963 1714 3416
1161 1941 3467
1336 2129 3505
1487 2297 3534
1627 2443 3556
1756 2576 3572
1874 2693 3583
0 319 0
0 347 142
0 378 320
0 426 519
0 475 726
0 523 939
0 568 1157
0 609 1373
0 649 1594
0 688 1817
0 729 2031
0 770 2243
0 812 2461
0 857 2670
0 914 2866
245 1046 3043
529 1308 3179
756 1567 3310
965 1798 3389
1160 2001 3444
1336 2177 3489
1487 2333 3521
1626 2472 3546
1755 2600 3564
1873 2713 3576
0 509 0
0 548 154
0 596 335
0 644 530
0 700 732
0 757 939
0 812 1151
0 864 1365
0 915 1582
0 964 1796
0 1014 2010
0 1063 2219
0 1111 2428
0 1167 2632
0 1228 2823
266 1338 3013
545 1535 3159
763 1736 3266
970 1928 3349
1164 2101 3414
1337 2255 3464
1487 2394 3501
1627 2524 3530
1754 2640 3551
1873 2746 3565
0 723 0
0 767 159
0 819 344
0 871 538
0 928 735
0 991 940
0 1053 1148
0 1116 1358
0 1174 1569
0 1228 1780
0 1288 1988
0 1343 2194
0 1398 2400
0 1459 2600
0 1525 2787
292 1618 2968
558 1773 3107
773 1930 3219
977 2085 3307
1168 2226 3377
1339 2355 3432
1488 2478 3475
1627 2591 3508
1754 2696 3532
1872 2793 3549
0 943 0
0 991 165
0 1047 349
0 1103 543
0 1165 741
0 1229 940
0 1299 1145
0 1366 1352
0 1428 1559
0 1487 1767
0 1548 1968
0 1612 2171
0 1673 2372
0 1738 2567
0 1807 2749
323 1888 2921
573 2010 3057
786 2135 3169
986 2252 3260
1174 2363 3336
1343 2472 3397
1490 2575 3445
1628 2672 3482
1754 2765 3509
1873 2851 3529
0 1166 0
0 1217 170
0 1276 355
0 1336 547
0 1400 743
0 1468 940
0 1542 1142
0 1610 1346
0 1674 1550
0 1738 1756
0 1806 1955
0 1868 2151
0 1931 2349
0 1999 2538
0 2071 2716
359 2139 2877
594 2234 3006
800 2328 3118
998 2418 3213
1182 2508 3293
1346 2595 3359
1492 2679 3411
1630 2762 3452
1756 2842 3483
1874 2918 3507
0 1392 0
0 1446 168
0 1508 353
0 1569 548
0 1636 744
0 1706 940
0 1783 1139
0 1852 1341
0 1916 1542
0 1980 1743
0 2048 1938
0 2114 2133
0 2174 2326
0 2244 2507
0 2317 2680
399 2369 2832
620 2446 2959
826 2515 3071
1020 2584 3169
1193 2652 3252
1355 2722 3321
1499 2790 3376
1635 2857 3421
1759 2924 3455
1876 2989 3481
0 1618 0
0 1675 171
0 1740 353
0 1803 549
0 1869 743
0 1941 939
0 2016 1136
0 2083 1334
0 2148 1534
0 2211 1733
0 2278 1923
0 2341 2113
0 2405 2303
0 2476 2480
133 2532 2646
447 2579 2788
660 2636 2914
862 2685 3028
1047 2738 3127
1216 2791 3210
1368 2843 3281
1510 2897 3340
1643 2952 3388
1766 3008 3424
1881 3063 3453
0 1844 0
0 1904 173
0 1967 354
0 2030 550
0 2095 742
0 2165 938
0 2237 1135
0 2305 1330
0 2372 1524
0 2435 1721
0 2502 1910
0 2564 2097
0 2625 2279
0 2694 2451
254 2731 2611
509 2767 2750
714 2806 2874
907 2840 2987
1083 2879 3087
1244 2919 3171
1390 2960 3244
1527 3001 3304
1656 3046 3353
1777 3092 3392
1890 3136 3424
0 2068 0
0 2124 173
0 2187 354
0 2250 550
0 2315 743
0 2385 936
0 2458 1131
0 2523 1326
0 2586 1519
0 2648 1711
0 2712 1896
0 2772 2080
0 2831 2258
0 2893 2424
369 2906 2577
587 2935 2714
782 2958 2838
961 2982 2949
1125 3011 3048
1277 3040 3133
1417 3068 3206
1550 3101 3268
1673 3133 3319
1791 3170 3361
1903 3206 3395
0 2290 0
0 2347 173
0 2409 356
0 2470 553
0 2533 746
0 2599 938
0 2670 1130
0 2732 1320
0 2791 1513
0 2849 1703
0 2908 1885
0 2961 2064
0 3014 2239
247 3036 2401
486 3057 2546
677 3076 2679
855 3090 2802
1018 3108 2913
1170 3130 3011
1314 3151 3097
1448 3169 3171
1576 3193 3233
1695 3218 3286
1810 3245 3329
1918 3275 3364
0 2514 0
0 2569 174
0 2628 356
0 2686 554
0 2743 745
0 2805 937
0 2871 1129
0 2929 1318
0 2982 1505
0 3032 1695
0 3084 1878
0 3132 2053
187 3154 2222
425 3170 2378
608 3190 2520
777 3197 2650
934 3207 2769
1082 3221 2878
1223 3238 2976
1357 3251 3063
1485 3263 3136
1607 3280 3200
1723 3298 3253
1833 3318 3297
1937 3341 3334
0 2733 0
0 2784 175
0 2839 360
0 2892 557
0 2943 748
0 2999 938
0 3057 1130
0 3106 1318
0 3153 1505
0 3197 1692
0 3244 1873
244 3255 2045
424 3270 2206
582 3289 2357
735 3301 2497
880 3306 2624
1019 3313 2741
1153 3323 2845
1282 3333 2942
1407 3341 3029
1528 3348 3103
1643 3357 3167
1754 3371 3220
1861 3387 3266
1961 3402 3304
0 2944 0
0 2989 178
0 3038 370
0 3084 565
0 3130 755
0 3179 945
0 3229 1136
0 3272 1325
130 3298 1512
250 3323 1697
364 3345 1872
481 3363 2038
605 3379 2195
733 3388 2340
860 3398 2477
985 3402 2602
1108 3407 2717
1230 3414 2820
1347 3416 2912
1462 3420 2998
1576 3424 3072
1684 3430 3135
1790 3440 3189
1891 3450 3236
1988 3460 3275
220 3176 189
227 3194 270
239 3228 427
258 3263 605
283 3296 789
314 3329 975
351 3360 1165
392 3388 1351
439 3412 1534
501 3434 1710
579 3451 1875
670 3464 2035
771 3471 2187
875 3477 2328
982 3484 2460
1091 3488 2583
1201 3491 2695
1310 3492 2797
1416 3490 2888
1524 3491 2969
1628 3494 3042
1730 3497 3105
1831 3504 3159
1927 3509 3207
2019 3515 3246
504 3375 431
507 3383 470
513 3401 570
523 3420 707
537 3443 866
556 3464 1037
580 3487 1213
609 3507 1390
648 3522 1561
701 3532 1726
766 3540 1883
841 3547 2036
923 3552 2182
1010 3556 2319
1102 3561 2448
1198 3563 2565
1294 3562 2675
1392 3560 2775
1490 3557 2864
1588 3556 2944
1684 3557 3014
1780 3558 3076
1875 3560 3130
1965 3563 3178
2054 3566 3217
712 3527 609
714 3531 635
719 3539 708
726 3550 819
737 3563 957
752 3575 1110
771 3586 1271
799 3598 1433
836 3608 1592
881 3611 1746
934 3615 1896
994 3620 2041
1063 3624 2182
1138 3625 2315
1218 3627 2439
1300 3624 2551
1386 3622 2658
1474 3618 2755
1564 3614 2843
1654 3612 2921
1744 3612 2990
1834 3611 3049
1921 3609 3103
2007 3610 3151
2092 3612 3190
897 3640 767
900 3642 788
904 3647 846
910 3654 938
920 3662 1057
934 3667 1191
953 3672 1336
977 3678 1481
1007 3684 1628
1044 3684 1771
1087 3685 1913
1138 3687 2052
1197 3689 2186
1261 3687 2314
1329 3683 2433
1401 3678 2542
1479 3675 2644
1559 3670 2739
1640 3664 2824
1724 3662 2901
1807 3660 2969
1890 3655 3027
1971 3652 3079
2052 3651 3125
2133 3652 3164
1071 3734 918
1073 3736 934
1077 3738 981
1083 3742 1058
1091 3745 1158
1102 3747 1275
1118 3749 1402
1138 3750 1534
1163 3751 1669
1194 3749 1802
1232 3749 1936
1274 3747 2067
1322 3744 2195
1377 3737 2317
1437 3732 2432
1503 3728 2536
1572 3723 2634
1644 3717 2726
1719 3710 2808
1795 3706 2883
1872 3702 2949
1948 3695 3008
2025 3691 3059
2100 3689 3103
2177 3687 3140
1230 3813 1056
1232 3814 1070
1235 3815 1108
1240 3816 1172
1247 3816 1258
1256 3816 1359
1269 3815 1472
1286 3813 1592
1307 3808 1714
1333 3803 1838
1364 3799 1964
1400 3796 2087
1442 3790 2208
1490 3783 2324
1545 3777 2434
1603 3771 2534
1665 3764 2628
1730 3757 2716
1798 3751 2796
1868 3744 2868
1938 3737 2933
2008 3731 2990
2079 3727 3040
2151 3723 3083
2223 3719 3118
1374 3875 1182
1376 3875 1194
1379 3875 1227
1383 3874 1281
1389 3873 1355
1397 3871 1444
1408 3868 1544
1423 3863 1652
1441 3856 1764
1463 3849 1878
1490 3844 1995
1522 3839 2111
1559 3832 2225
1601 3824 2335
1649 3816 2440
1701 3809 2536
1757 3801 2626
1817 3795 2709
1877 3786 2786
1940 3777 2855
2005 3769 2918
2070 3764 2975
2136 3759 3024
2204 3753 3065
2272 3748 3099
1509 3925 1303
1511 3925 1313
1513 3924 1341
1517 3922 1387
1522 3919 1451
1530 3917 1529
1540 3913 1618
1552 3906 1714
1568 3897 1816
1587 3888 1922
1611 3882 2031
1639 3876 2140
1672 3868 2246
1709 3860 2350
1751 3851 2449
1797 3843 2540
1847 3834 2625
1900 3825 2704
1955 3816 2778
2013 3807 2845
2071 3798 2906
2132 3793 2962
2195 3786 3009
2258 3780 3049
2323 3775 3081
1636 3964 1416
1637 3963 1424
1639 3962 1449
1643 3960 1489
1647 3957 1545
1654 3954 1613
1662 3947 1691
1673 3939 1778
1687 3932 1871
1705 3923 1969
1726 3916 2071
1751 3909 2171
1780 3900 2270
1813 3891 2368
1848 3880 2460
1889 3871 2546
1934 3862 2628
1981 3852 2703
2032 3842 2773
2085 3833 2838
2140 3825 2897
2197 3817 2951
2255 3809 2997
2315 3802 3035
2377 3799 3066
1755 3995 1523
1756 3995 1531
1758 3994 1552
1761 3993 1587
1766 3989 1635
1771 3984 1694
1779 3978 1764
1789 3971 1843
1801 3963 1929
1817 3954 2019
1835 3946 2112
1856 3936 2204
1881 3925 2297
1909 3914 2388
1942 3904 2474
1978 3894 2556
2019 3885 2633
2062 3875 2705
2109 3864 2771
2158 3854 2834
2210 3845 2892
2263 3837 2944
2318 3828 2988
2374 3821 3025
2433 3817 3054
158 114 102
163 118 156
146 29 320
157 47 514
164 66 728
167 87 955
167 106 1170
163 127 1398
158 148 1627
153 168 1849
149 187 2077
148 205 2295
151 225 2518
164 245 2740
192 264 2944
314 630 3086
554 1063 3192
777 1398 3324
988 1683 3433
1182 1920 3479
1353 2113 3512
1501 2285 3539
1638 2432 3560
1765 2568 3574
1882 2687 3585
161 169 99
164 177 156
143 178 332
87 145 548
0 69 763
0 88 973
0 108 1193
0 129 1416
0 149 1642
0 169 1863
0 187 2083
0 206 2306
0 226 2528
0 246 2746
0 265 2956
316 761 3068
561 1134 3189
782 1446 3323
991 1716 3423
1183 1942 3471
1354 2131 3507
1502 2298 3535
1639 2444 3556
1766 2577 3572
1883 2695 3583
145 324 0
140 353 136
123 393 333
57 426 547
0 460 756
0 497 962
0 535 1179
0 569 1393
0 604 1612
0 637 1835
0 673 2048
0 711 2264
0 749 2479
0 791 2687
0 847 2885
334 1042 3044
573 1308 3179
794 1572 3317
995 1803 3395
1183 2003 3448
1356 2180 3491
1502 2336 3523
1640 2475 3546
1765 2601 3564
1883 2715 3576
158 518 0
86 565 83
58 621 332
0 662 544
0 707 750
0 756 960
0 807 1171
0 851 1382
0 897 1597
0 943 1815
0 990 2025
0 1036 2233
0 1083 2445
0 1136 2648
0 1195 2840
357 1344 3023
590 1538 3165
798 1739 3272
999 1932 3354
1186 2102 3417
1355 2256 3465
1502 2396 3502
1640 2524 3530
1765 2641 3551
1882 2748 3565
167 742 0
0 763 0
0 843 327
0 892 541
0 943 745
0 999 952
0 1058 1163
0 1113 1372
0 1168 1583
0 1222 1795
0 1277 2001
0 1329 2206
0 1385 2414
0 1444 2614
0 1508 2800
377 1625 2979
603 1776 3112
810 1934 3224
1006 2088 3310
1190 2227 3379
1356 2355 3433
1503 2479 3476
1639 2592 3509
1764 2697 3532
1881 2794 3549
173 970 0
0 976 0
0 1065 326
0 1122 538
0 1181 743
0 1243 949
0 1307 1155
0 1370 1363
0 1430 1571
0 1485 1778
0 1546 1981
0 1606 2182
0 1665 2383
0 1728 2578
0 1797 2759
397 1888 2927
616 2012 3061
819 2136 3172
1013 2253 3262
1195 2364 3337
1360 2473 3398
1504 2576 3445
1640 2673 3482
1765 2765 3509
1882 2852 3529
175 1195 0
0 1194 0
0 1290 326
0 1352 537
0 1415 741
0 1483 945
0 1554 1150
0 1616 1353
0 1679 1559
0 1742 1766
0 1807 1964
0 1867 2160
0 1930 2359
0 1997 2548
105 2061 2727
427 2141 2881
635 2236 3009
832 2327 3120
1026 2420 3215
1203 2508 3294
1363 2595 3359
1507 2680 3411
1642 2762 3452
1766 2843 3483
1883 2918 3507
169 1418 0
0 1416 0
0 1519 320
0 1583 535
0 1650 740
0 1718 941
0 1793 1143
0 1861 1347
0 1923 1549
0 1984 1750
0 2052 1946
0 2116 2141
0 2175 2334
0 2243 2515
191 2301 2688
459 2367 2835
661 2446 2961
858 2514 3073
1044 2584 3170
1215 2653 3253
1371 2722 3321
1513 2790 3376
1646 2857 3421
1769 2925 3455
1885 2990 3481
164 1644 0
0 1639 0
0 1747 318
0 1815 533
0 1883 737
0 1952 938
0 2026 1138
0 2093 1338
0 2156 1539
0 2217 1739
0 2283 1929
0 2346 2121
0 2408 2310
0 2477 2487
266 2522 2650
500 2576 2790
699 2633 2916
893 2684 3029
1072 2738 3128
1236 2790 3211
1384 2843 3281
1524 2898 3340
1655 2953 3388
1776 3008 3424
1890 3063 3452
159 1870 0
0 1865 0
0 1972 317
0 2040 532
0 2107 734
0 2175 934
0 2248 1135
0 2315 1332
0 2380 1528
0 2442 1726
0 2508 1914
0 2569 2103
0 2629 2285
0 2697 2457
342 2724 2613
557 2766 2751
749 2803 2876
935 2838 2988
1105 2878 3087
1262 2919 3172
1406 2960 3244
1541 3001 3304
1668 3047 3353
1787 3092 3392
1900 3136 3424
153 2090 0
0 2085 0
0 2190 316
0 2258 531
0 2325 734
0 2394 931
0 2468 1130
0 2532 1327
0 2594 1522
0 2655 1714
0 2718 1899
0 2777 2085
0 2835 2263
171 2875 2429
434 2902 2579
628 2933 2715
814 2955 2839
986 2981 2950
1146 3010 3049
1295 3039 3133
1432 3068 3206
1562 3101 3268
1685 3133 3319
1801 3170 3360
1911 3207 3394
