Toning/Toning-OrangeAndBlue-Toned.3dl
#25pt 3DLUT created by 3D LUT Creator Pro (c) Oleg Sharonov
#Copyright Oleg Sharonov
#IMAGEPROFILE sRGB IEC61966-2.1 v.2.10
#INPUTGAMMA sRGB IEC61966-2.1 v.2.10
#OUTPUTGAMMA sRGB IEC61966-2.1 v.2.10
0 256 512 768 1023
0 0 0
189 383 563
562 910 1264
1146 1488 1876
1722 1993 2339
582 763 601
107 994 1219
230 1274 1970
983 1742 2329
1662 2172 2647
1379 1659 1383
1383 1746 1681
394 2131 2430
546 2320 2992
1511 2611 3224
2312 2547 2208
2335 2580 2385
2293 2766 2707
1186 3101 3349
1418 3229 3772
3173 3327 2997
3189 3345 3092
3207 3421 3320
2951 3661 3626
2067 3916 4095
1082 6 0
493 702 758
865 1129 1281
1367 1618 1872
1868 2074 2339
965 931 103
842 1098 1151
1111 1421 1662
1537 1833 2141
1992 2232 2535
1536 1794 1409
1575 1845 1720
1036 2170 2408
1200 2357 2952
1865 2643 3173
2398 2617 2235
2426 2644 2409
2432 2784 2754
1611 3111 3336
1789 3237 3760
3223 3367 3014
3240 3383 3108
3271 3446 3337
3151 3653 3592
2330 3919 4095
2279 6 0
2205 269 847
1357 1568 1660
1757 1935 2027
2156 2294 2429
2251 846 6
2362 847 888
1568 1782 1863
1926 2105 2195
2289 2427 2571
2198 1812 525
2132 2094 1259
2057 2274 2329
2301 2502 2655
2592 2760 2963
2656 2805 2312
2671 2828 2475
2730 2898 2830
2414 3148 3301
2509 3272 3731
3374 3481 3069
3386 3495 3158
3431 3538 3380
3440 3673 3631
2902 3938 4095
3269 0 0
3292 0 807
2724 1498 1910
2208 2330 2399
2523 2602 2666
3293 721 0
3342 659 669
2890 1634 2010
2334 2455 2518
2631 2709 2769
3140 1720 284
3160 1715 295
3235 2120 2184
2668 2783 2829
2925 2996 3045
3234 2646 1131
3197 2861 1704
3191 3180 2544
3145 3244 3271
3325 3407 3503
3633 3663 3153
3641 3674 3233
3668 3714 3443
3729 3784 3722
3513 3994 4087
4091 10 3
4089 48 634
3819 1120 2059
3067 2541 2738
2931 2960 3007
4078 735 113
4095 635 501
3870 1336 2156
3232 2586 2796
3015 3043 3087
3781 1769 416
3793 1765 425
3885 2188 2242
3602 2781 2974
3256 3279 3314
3986 2451 668
3992 2454 674
3868 3123 2220
3923 3236 3266
3631 3644 3664
4095 3429 1818
4077 3595 2260
4082 3861 2978
4095 4036 3554
4095 4095 4095
