Toning/Toning-Blue curves.3dl
#25pt 3DLUT created by 3D LUT Creator Pro (c) Oleg Sharonov
#Copyright Oleg Sharonov
#IMAGEPROFILE sRGB IEC61966-2.1 v.2.10
#INPUTGAMMA sRGB IEC61966-2.1 v.2.10
#OUTPUTGAMMA sRGB IEC61966-2.1 v.2.10
0 43 86 128 171 214 256 299 341 384 427 469 512 555 597 640 682 725 768 810 853 896 938 981 1023 
32 64 64
36 74 133
41 87 221
51 110 359
63 140 520
77 177 694
95 223 852
114 279 997
129 331 1130
142 384 1262
152 440 1387
161 497 1504
167 558 1606
172 620 1696
177 687 1776
183 753 1848
189 819 1916
197 885 1976
205 952 2034
213 1018 2091
222 1085 2146
233 1150 2201
247 1216 2258
264 1281 2320
283 1347 2389
47 226 118
48 230 311
60 230 492
74 243 653
88 264 791
103 292 911
117 328 1028
131 369 1144
141 409 1257
151 455 1371
159 504 1478
165 560 1577
170 616 1664
175 676 1744
180 737 1815
186 799 1881
192 862 1943
200 925 2001
208 989 2056
216 1052 2111
225 1117 2164
237 1180 2219
252 1244 2275
269 1308 2339
289 1371 2409
67 393 192
68 397 377
68 399 593
88 399 791
106 407 937
121 423 1062
134 446 1173
143 472 1278
152 508 1382
159 548 1480
165 591 1571
169 639 1652
174 692 1728
179 748 1797
184 803 1860
190 860 1922
197 918 1977
204 976 2031
212 1037 2084
220 1097 2136
230 1158 2188
243 1220 2242
258 1281 2299
276 1343 2365
298 1402 2434
96 576 306
97 580 475
97 581 672
99 586 875
120 585 1044
134 590 1183
146 603 1304
154 624 1412
161 649 1508
166 679 1592
171 717 1669
175 757 1738
179 801 1800
184 846 1860
190 896 1918
196 946 1971
203 999 2023
210 1052 2073
218 1108 2123
227 1164 2173
238 1222 2223
252 1278 2277
268 1337 2337
287 1393 2404
312 1448 2471
126 784 454
126 785 600
126 788 762
127 792 935
127 797 1116
143 795 1276
154 798 1409
162 808 1521
167 823 1613
172 844 1689
176 870 1759
180 900 1819
185 935 1875
191 973 1929
197 1014 1979
204 1057 2028
211 1104 2076
218 1151 2123
227 1200 2170
237 1252 2219
250 1303 2270
265 1356 2326
283 1408 2389
305 1458 2454
333 1508 2519
147 993 615
147 994 735
147 996 859
148 999 1007
148 1003 1169
149 1007 1340
159 1005 1486
167 1008 1602
172 1014 1693
177 1027 1769
181 1044 1833
187 1066 1892
193 1091 1946
199 1121 1995
206 1154 2042
213 1190 2088
220 1229 2134
228 1270 2179
239 1313 2225
252 1358 2275
266 1402 2329
283 1447 2389
304 1491 2451
330 1536 2514
361 1581 2576
162 1200 774
162 1202 859
162 1204 959
162 1206 1086
162 1209 1233
163 1213 1388
163 1217 1540
170 1216 1660
176 1217 1754
181 1222 1830
187 1232 1898
194 1246 1955
201 1264 2007
208 1285 2056
215 1311 2103
222 1340 2148
231 1371 2193
242 1403 2239
255 1437 2288
269 1473 2342
286 1509 2401
308 1547 2461
334 1586 2521
363 1626 2581
395 1666 2642
172 1404 911
172 1405 980
172 1406 1062
172 1408 1173
172 1411 1305
172 1414 1445
172 1418 1580
173 1423 1703
179 1420 1799
186 1420 1880
193 1424 1949
201 1431 2007
209 1442 2062
216 1456 2112
224 1472 2160
234 1492 2207
246 1515 2254
260 1539 2305
275 1566 2361
292 1595 2419
315 1626 2478
341 1658 2537
370 1691 2595
402 1724 2654
435 1757 2712
180 1587 1039
180 1588 1096
180 1588 1168
181 1590 1263
181 1592 1380
181 1595 1504
181 1598 1624
181 1601 1734
181 1606 1834
190 1604 1919
198 1603 1989
207 1606 2051
216 1612 2109
225 1620 2162
236 1631 2213
249 1645 2265
263 1661 2319
279 1680 2378
299 1700 2438
323 1723 2497
350 1746 2555
380 1771 2613
411 1796 2671
444 1822 2727
479 1849 2784
192 1756 1164
192 1756 1212
192 1757 1273
192 1758 1357
192 1759 1458
192 1762 1565
192 1764 1670
192 1767 1769
193 1770 1860
193 1774 1949
203 1772 2022
213 1771 2088
222 1773 2149
234 1777 2207
249 1783 2264
264 1791 2323
282 1802 2387
304 1814 2451
330 1828 2513
359 1844 2572
389 1861 2631
422 1880 2690
455 1899 2746
491 1921 2803
529 1943 2867
205 1900 1285
205 1900 1326
205 1901 1378
205 1902 1450
205 1903 1535
205 1905 1626
206 1907 1717
206 1909 1805
206 1911 1890
206 1915 1971
207 1918 2049
217 1916 2119
230 1915 2184
244 1916 2247
262 1919 2312
280 1924 2382
304 1930 2451
332 1939 2518
363 1949 2582
396 1960 2644
430 1973 2704
466 1988 2762
502 2003 2821
542 2021 2890
587 2040 2965
219 2033 1401
219 2033 1434
220 2034 1478
220 2034 1537
220 2035 1608
220 2037 1685
220 2038 1765
220 2040 1843
221 2042 1922
221 2045 1996
221 2048 2070
222 2051 2145
236 2049 2215
254 2048 2284
274 2049 2359
299 2051 2436
328 2055 2510
362 2060 2580
398 2067 2647
434 2076 2711
471 2086 2772
511 2097 2835
554 2110 2909
600 2124 2987
648 2138 3062
239 2158 1507
239 2158 1535
239 2158 1570
239 2159 1619
240 2160 1677
240 2161 1743
240 2162 1811
240 2164 1882
241 2166 1954
241 2168 2023
242 2170 2094
242 2173 2166
243 2176 2241
263 2174 2318
287 2173 2402
318 2174 2484
353 2175 2562
392 2178 2636
431 2183 2706
471 2188 2771
513 2196 2840
559 2204 2918
608 2214 3001
659 2225 3079
711 2237 3156
267 2276 1602
267 2277 1624
267 2277 1653
267 2278 1693
267 2279 1742
267 2280 1798
268 2281 1858
268 2282 1923
268 2284 1987
269 2286 2052
270 2288 2120
270 2291 2188
271 2293 2263
272 2296 2350
300 2294 2440
336 2293 2527
377 2293 2608
419 2295 2686
463 2297 2758
508 2301 2831
557 2307 2914
609 2313 3002
664 2321 3085
718 2330 3167
774 2340 3253
305 2396 1686
305 2396 1704
305 2397 1728
305 2397 1761
305 2398 1802
305 2399 1850
306 2400 1905
307 2401 1962
307 2403 2021
308 2405 2083
309 2407 2147
310 2409 2213
311 2412 2288
312 2415 2377
313 2418 2474
354 2416 2564
399 2414 2650
445 2415 2730
493 2416 2807
545 2418 2893
601 2421 2988
659 2426 3078
717 2432 3165
776 2439 3256
835 2447 3348
359 2520 1762
360 2521 1777
360 2521 1796
360 2522 1823
360 2522 1860
361 2523 1903
361 2524 1951
362 2526 2002
362 2527 2056
363 2529 2115
364 2531 2175
365 2533 2241
367 2536 2316
368 2539 2406
369 2542 2500
371 2545 2596
419 2543 2686
470 2542 2769
523 2541 2856
581 2542 2956
643 2544 3054
706 2548 3148
768 2552 3244
832 2558 3342
895 2565 3438
424 2647 1829
424 2647 1842
425 2648 1859
425 2648 1883
425 2649 1915
425 2649 1953
426 2650 1994
427 2651 2041
428 2653 2093
428 2654 2148
429 2656 2206
431 2658 2272
432 2660 2349
433 2662 2437
435 2665 2529
436 2667 2623
438 2670 2717
492 2668 2805
551 2667 2905
616 2667 3012
683 2668 3114
750 2669 3215
817 2672 3321
885 2675 3423
951 2680 3523
497 2764 1893
497 2764 1904
497 2764 1919
497 2765 1940
498 2765 1967
498 2766 2000
499 2767 2038
499 2768 2082
500 2769 2130
501 2771 2182
502 2773 2240
503 2774 2305
505 2776 2385
506 2779 2471
508 2781 2560
510 2784 2651
512 2786 2742
513 2789 2839
578 2787 2951
649 2786 3063
720 2786 3169
791 2786 3280
864 2788 3391
935 2790 3498
1004 2793 3602
583 2887 1952
583 2888 1961
583 2888 1974
583 2888 1992
584 2889 2016
584 2889 2046
585 2890 2082
586 2891 2123
587 2892 2168
588 2894 2218
589 2895 2275
590 2897 2344
592 2899 2423
593 2901 2507
595 2904 2592
597 2906 2681
599 2909 2769
602 2912 2870
604 2915 2993
679 2913 3108
754 2911 3222
830 2911 3340
907 2911 3456
981 2912 3567
1054 2914 3676
682 3004 2006
682 3004 2015
683 3004 2026
683 3004 2043
683 3005 2065
684 3005 2093
684 3006 2126
685 3007 2164
686 3008 2207
687 3009 2257
688 3010 2315
690 3011 2386
691 3013 2463
693 3015 2544
695 3017 2627
697 3019 2713
699 3021 2799
701 3024 2905
704 3026 3027
706 3029 3149
786 3027 3272
867 3026 3396
946 3025 3515
1023 3025 3631
1100 3026 3737
788 3117 2059
788 3117 2067
788 3117 2077
789 3118 2093
789 3118 2113
790 3119 2139
790 3119 2170
791 3120 2206
792 3121 2249
793 3122 2299
794 3124 2361
796 3125 2430
797 3127 2505
799 3129 2583
801 3131 2664
803 3133 2745
805 3135 2833
807 3138 2943
809 3140 3062
812 3143 3183
815 3146 3317
900 3144 3445
982 3142 3570
1063 3142 3689
1142 3142 3789
901 3237 2111
901 3237 2118
901 3237 2128
901 3238 2142
902 3238 2161
902 3239 2185
903 3239 2215
904 3240 2251
905 3241 2294
905 3242 2347
907 3244 2409
908 3245 2476
910 3247 2548
911 3248 2623
913 3250 2701
915 3252 2780
917 3255 2872
920 3257 2985
922 3260 3099
924 3262 3220
927 3265 3354
930 3269 3491
1016 3266 3620
1100 3265 3738
1183 3264 3838
1015 3361 2162
1015 3361 2168
1015 3361 2177
1016 3362 2191
1016 3362 2209
1017 3363 2233
1017 3363 2262
1018 3364 2299
1019 3365 2344
1020 3366 2398
1021 3367 2459
1022 3369 2523
1024 3370 2592
1025 3372 2665
1027 3374 2739
1029 3376 2818
1031 3378 2916
1033 3380 3027
1036 3383 3139
1038 3385 3262
1041 3388 3393
1043 3391 3528
1046 3394 3665
1133 3392 3778
1220 3391 3888
1132 3487 2213
1132 3487 2219
1132 3487 2228
1132 3487 2241
1132 3488 2259
1133 3488 2283
1134 3489 2314
1134 3490 2353
1135 3491 2399
1136 3492 2452
1137 3493 2509
1139 3495 2571
1140 3496 2638
1141 3498 2707
1143 3500 2778
1145 3502 2862
1147 3504 2964
1149 3506 3071
1151 3509 3182
1154 3512 3306
1156 3514 3435
1159 3518 3567
1162 3521 3700
1165 3524 3816
1254 3522 3937
1251 3645 2266
1251 3645 2273
1251 3646 2281
1252 3646 2295
1252 3647 2314
1252 3648 2339
1253 3649 2372
1254 3650 2411
1254 3652 2456
1255 3654 2506
1257 3656 2561
1258 3658 2620
1259 3661 2684
1261 3664 2750
1262 3667 2822
1264 3671 2912
1266 3675 3014
1268 3679 3117
1270 3684 3229
1272 3689 3352
1275 3694 3478
1277 3700 3608
1280 3706 3735
1283 3713 3848
1286 3719 3982
70 84 94
76 91 226
74 107 340
79 130 475
88 160 629
102 200 784
115 246 913
127 298 1045
139 349 1174
149 399 1296
157 455 1419
164 510 1527
169 570 1624
174 633 1712
179 697 1788
185 764 1859
192 828 1924
199 893 1984
207 960 2041
215 1025 2097
224 1091 2151
236 1156 2206
250 1222 2263
267 1287 2325
287 1352 2395
100 236 123
101 240 325
103 246 524
108 261 697
115 281 833
123 311 950
132 345 1064
141 382 1178
150 425 1291
157 468 1397
163 517 1500
168 571 1595
173 627 1679
177 687 1756
182 746 1824
188 808 1890
195 871 1952
202 933 2007
210 996 2063
218 1059 2117
228 1123 2170
240 1186 2224
255 1250 2281
272 1313 2344
294 1376 2414
114 403 196
114 403 385
116 407 608
123 411 812
131 419 961
138 435 1083
146 457 1196
152 485 1300
158 520 1403
163 560 1499
168 603 1587
172 652 1667
176 703 1740
181 756 1807
186 812 1869
192 868 1929
199 926 1984
207 985 2038
214 1045 2090
223 1104 2142
233 1165 2194
247 1226 2247
262 1288 2305
280 1348 2370
303 1407 2440
130 583 311
131 585 483
131 588 679
132 591 881
141 593 1053
149 601 1197
155 614 1320
161 633 1426
165 659 1521
169 691 1606
173 727 1680
177 765 1747
181 809 1810
186 856 1869
192 904 1926
199 954 1978
206 1006 2028
213 1059 2078
220 1115 2129
230 1170 2177
242 1226 2228
256 1284 2282
272 1342 2342
292 1398 2409
318 1453 2476
146 789 454
146 790 608
146 793 767
147 795 939
147 801 1120
156 801 1283
162 806 1418
167 814 1528
171 831 1621
175 853 1699
179 878 1766
183 908 1825
188 942 1882
194 981 1936
200 1021 1985
206 1065 2033
213 1110 2081
221 1158 2128
230 1207 2175
241 1257 2223
254 1309 2274
269 1361 2331
287 1412 2394
311 1462 2459
339 1512 2523
159 997 618
159 998 738
159 1000 861
159 1003 1010
160 1006 1173
160 1012 1345
166 1009 1490
171 1012 1606
176 1020 1699
180 1032 1774
185 1051 1839
190 1071 1897
196 1097 1950
202 1126 1999
209 1160 2046
215 1195 2092
223 1234 2138
232 1275 2183
243 1318 2230
256 1363 2279
270 1406 2333
288 1451 2394
310 1495 2456
337 1539 2518
367 1584 2581
168 1204 774
168 1205 861
169 1207 961
169 1208 1089
169 1212 1235
169 1217 1392
169 1222 1543
174 1219 1663
180 1221 1757
185 1226 1834
191 1237 1901
198 1250 1959
204 1269 2011
211 1291 2060
218 1316 2107
226 1345 2152
235 1375 2197
247 1407 2243
260 1442 2292
274 1476 2346
292 1513 2405
314 1551 2465
341 1589 2525
370 1629 2585
402 1669 2645
176 1407 913
176 1408 982
176 1409 1064
176 1411 1176
177 1413 1306
177 1416 1446
177 1420 1582
177 1425 1704
183 1422 1801
190 1423 1882
197 1427 1951
205 1434 2010
212 1445 2064
220 1459 2115
229 1476 2162
239 1496 2210
251 1518 2258
265 1543 2308
280 1570 2364
299 1599 2423
322 1629 2482
348 1661 2540
378 1694 2599
409 1727 2657
442 1760 2715
185 1589 1042
185 1589 1098
185 1591 1169
185 1592 1266
186 1594 1381
186 1597 1505
186 1600 1626
186 1603 1735
186 1608 1835
195 1606 1920
203 1606 1990
211 1609 2053
220 1614 2111
230 1623 2164
241 1634 2215
254 1648 2267
269 1664 2321
286 1683 2381
306 1703 2441
331 1726 2500
358 1749 2558
388 1773 2617
419 1798 2675
452 1824 2730
487 1851 2787
197 1758 1166
197 1758 1214
197 1759 1275
197 1760 1359
197 1761 1460
197 1763 1567
197 1766 1671
198 1769 1770
198 1772 1861
198 1775 1949
208 1773 2023
217 1773 2090
227 1775 2151
240 1779 2208
255 1785 2265
271 1793 2325
289 1803 2389
312 1816 2453
339 1830 2515
368 1845 2575
399 1863 2634
430 1882 2693
464 1902 2748
500 1923 2806
538 1945 2870
210 1901 1286
210 1902 1327
210 1902 1379
210 1903 1451
210 1904 1536
210 1906 1627
211 1908 1718
211 1910 1806
211 1913 1891
211 1916 1972
212 1919 2050
222 1917 2120
235 1916 2185
251 1918 2248
268 1921 2313
288 1925 2384
313 1932 2453
342 1940 2520
374 1950 2584
406 1961 2646
440 1975 2707
475 1989 2764
512 2005 2824
553 2023 2893
597 2042 2968
