Toning/Toning-Bronze.3dl
#25pt 3DLUT created by 3D LUT Creator Pro (c) Oleg Sharonov
#Copyright Oleg Sharonov
#IMAGEPROFILE sRGB IEC61966-2.1 v.2.10
#INPUTGAMMA sRGB IEC61966-2.1 v.2.10
#OUTPUTGAMMA sRGB IEC61966-2.1 v.2.10
0 43 86 128 171 214 256 299 341 384 427 469 512 555 597 640 682 725 768 810 853 896 938 981 1023 
0 0 0
10 0 0
23 1 1
43 3 3
73 4 4
113 5 3
163 0 0
220 0 0
282 0 0
347 0 0
414 0 0
483 0 0
556 0 0
630 0 0
705 0 0
781 0 0
856 0 0
935 0 0
1020 0 0
1107 0 0
1194 0 0
1282 0 0
1369 0 0
1456 0 0
1542 0 0
172 202 91
179 165 76
191 105 52
199 0 13
226 0 0
260 0 0
300 0 0
347 0 0
398 0 0
455 0 0
513 0 0
576 0 0
642 0 0
709 0 0
778 0 0
848 0 0
920 0 0
999 0 0
1082 0 0
1165 0 0
1248 0 0
1332 0 0
1417 0 0
1501 0 0
1584 0 0
385 399 160
390 370 146
397 329 124
407 262 91
421 145 0
421 0 20
452 0 0
491 0 0
534 0 0
582 0 0
634 0 0
688 0 0
746 0 0
806 0 0
869 0 0
935 0 0
1007 0 0
1084 0 0
1161 0 0
1240 0 0
1319 0 0
1399 0 0
1480 0 0
1560 0 0
1640 0 0
651 639 279
656 618 267
661 587 251
669 539 224
676 465 183
683 355 112
676 179 0
673 0 29
706 0 0
746 0 0
789 0 0
836 0 0
886 0 0
941 0 0
1002 0 0
1066 0 0
1134 0 0
1203 0 0
1274 0 0
1347 0 0
1420 0 0
1495 0 0
1570 0 0
1645 0 0
1720 0 0
930 898 413
934 880 404
939 856 390
946 817 370
955 763 339
965 687 296
976 582 233
985 430 121
970 192 0
943 0 40
976 0 0
1021 0 0
1069 0 0
1120 0 0
1175 0 0
1232 0 0
1291 0 0
1353 0 0
1417 0 0
1483 0 0
1549 0 0
1617 0 0
1685 0 0
1754 0 0
1823 0 0
1216 1178 563
1219 1163 555
1223 1142 544
1230 1110 526
1237 1065 501
1247 1004 468
1260 924 422
1273 820 362
1284 682 275
1294 485 111
1273 163 0
1245 0 53
1280 0 0
1324 0 0
1371 0 0
1420 0 0
1472 0 0
1526 0 0
1583 0 0
1640 0 0
1699 0 0
1761 0 0
1822 0 0
1883 0 0
1946 0 0
1501 1474 727
1504 1461 720
1508 1444 710
1513 1417 695
1520 1379 675
1528 1328 647
1539 1262 610
1552 1179 564
1565 1074 504
1579 941 427
1592 769 317
1603 521 78
1572 0 0
1546 0 66
1581 0 0
1623 0 0
1668 0 0
1715 0 0
1764 0 0
1814 0 0
1866 0 0
1919 0 0
1973 0 0
2027 0 0
2083 0 0
1780 1779 916
1782 1768 910
1785 1753 900
1789 1730 886
1795 1698 867
1802 1655 841
1812 1601 809
1822 1532 769
1834 1446 720
1848 1341 660
1861 1213 587
1876 1052 493
1890 844 362
1900 540 40
1848 0 208
1838 0 76
1871 0 0
1911 0 0
1953 0 0
1996 0 0
2041 0 0
2086 0 0
2133 0 0
2180 0 0
2228 0 0
2046 2084 1135
2048 2075 1129
2049 2062 1120
2053 2043 1107
2058 2016 1089
2063 1980 1065
2070 1934 1034
2078 1877 997
2088 1807 952
2100 1722 899
2112 1618 836
2126 1494 762
2140 1343 674
2155 1155 565
2169 910 416
2180 543 81
2107 0 314
2112 0 87
2143 0 0
2180 0 0
2217 0 0
2256 0 0
2295 0 0
2336 0 0
2378 0 0
2294 2381 1383
2296 2373 1377
2297 2363 1369
2299 2347 1357
2302 2324 1339
2306 2294 1316
2311 2256 1288
2317 2209 1253
2324 2151 1211
2333 2082 1162
2343 1998 1104
2354 1898 1038
2366 1779 961
2380 1637 872
2394 1463 768
2408 1249 644
2422 968 480
2433 533 162
2350 0 383
2362 0 96
2391 0 0
2425 0 0
2459 0 0
2494 0 0
2530 0 0
2522 2661 1656
2523 2655 1650
2524 2646 1642
2525 2633 1631
2527 2615 1614
2529 2590 1593
2532 2559 1566
2536 2521 1533
2541 2473 1494
2547 2417 1448
2554 2349 1395
2563 2269 1333
2573 2174 1263
2584 2062 1183
2596 1929 1093
2609 1770 990
2624 1577 871
2639 1336 730
2653 1021 552
2665 507 246
2582 0 422
2594 0 102
2621 0 0
2652 0 0
2683 0 0
2736 2919 1948
2736 2914 1943
2736 2907 1936
2737 2896 1924
2738 2881 1909
2739 2862 1889
2740 2837 1864
2742 2806 1834
2745 2768 1797
2748 2723 1754
2752 2669 1705
2757 2605 1647
2764 2530 1583
2772 2441 1510
2782 2337 1427
2793 2214 1334
2805 2069 1230
2819 1895 1113
2834 1683 979
2850 1419 823
2865 1067 630
2878 466 333
2797 0 460
2808 0 106
2834 0 0
2936 3148 2253
2936 3144 2248
2936 3139 2241
2936 3130 2231
2935 3119 2217
2935 3103 2199
2935 3084 2176
2935 3059 2148
2936 3030 2114
2937 2994 2074
2938 2952 2029
2940 2902 1976
2944 2843 1917
2948 2775 1849
2954 2694 1774
2961 2599 1689
2970 2488 1594
2981 2356 1489
2994 2200 1371
3009 2012 1240
3025 1783 1092
3041 1496 922
3058 1109 716
3073 405 421
2997 0 494
3120 3344 2556
3120 3340 2552
3119 3336 2546
3119 3330 2538
3118 3321 2525
3117 3310 2510
3116 3295 2489
3116 3277 2465
3115 3254 2435
3114 3227 2400
3113 3196 2359
3113 3158 2312
3113 3113 2258
3114 3061 2197
3116 2999 2128
3119 2927 2051
3124 2843 1965
3131 2744 1870
3140 2627 1764
3151 2488 1647
3164 2323 1516
3180 2124 1372
3197 1880 1210
3215 1571 1026
3234 1149 806
3281 3507 2839
3280 3505 2836
3280 3502 2831
3279 3497 2824
3279 3490 2814
3278 3481 2800
3276 3469 2784
3275 3455 2763
3273 3438 2738
3272 3418 2709
3270 3394 2675
3269 3366 2635
3268 3334 2589
3267 3295 2537
3266 3251 2478
3267 3198 2411
3268 3137 2336
3271 3064 2251
3276 2978 2157
3282 2877 2051
3290 2757 1935
3302 2613 1806
3316 2441 1664
3333 2232 1506
3352 1973 1331
3425 3651 3099
3425 3649 3096
3424 3647 3091
3423 3643 3085
3422 3637 3076
3421 3630 3064
3419 3621 3049
3418 3610 3031
3415 3596 3009
3413 3580 2985
3411 3561 2956
3408 3539 2924
3405 3514 2888
3403 3484 2846
3401 3451 2798
3399 3412 2743
3398 3367 2681
3398 3315 2611
3399 3255 2532
3402 3184 2443
3407 3100 2343
3414 2999 2231
3424 2878 2106
3436 2732 1967
3451 2554 1813
3553 3775 3358
3552 3774 3356
3552 3772 3352
3551 3769 3346
3550 3764 3338
3549 3759 3327
3547 3752 3314
3545 3743 3297
3543 3732 3278
3541 3720 3255
3538 3705 3229
3535 3687 3198
3532 3668 3164
3529 3645 3125
3526 3619 3082
3522 3588 3034
3519 3554 2982
3517 3514 2926
3515 3469 2864
3514 3417 2793
3514 3357 2713
3517 3288 2622
3521 3207 2519
3528 3109 2404
3539 2990 2274
3662 3882 3598
3662 3881 3596
3662 3879 3592
3661 3877 3588
3660 3873 3581
3659 3869 3572
3658 3863 3561
3656 3856 3547
3654 3848 3531
3652 3838 3512
3650 3826 3489
3647 3813 3464
3644 3797 3434
3641 3779 3401
3638 3759 3363
3634 3736 3321
3631 3710 3273
3627 3679 3221
3624 3645 3163
3621 3606 3099
3619 3561 3029
3618 3509 2955
3617 3450 2875
3619 3381 2786
3622 3301 2683
3753 3971 3805
3753 3970 3803
3753 3969 3800
3752 3967 3797
3752 3965 3791
3751 3961 3784
3750 3957 3776
3749 3951 3765
3748 3945 3752
3746 3937 3737
3744 3928 3719
3742 3918 3698
3740 3906 3675
3737 3892 3648
3734 3876 3617
3731 3858 3583
3728 3838 3544
3725 3815 3500
3722 3789 3451
3718 3759 3397
3715 3725 3336
3712 3687 3269
3710 3643 3195
3709 3592 3114
3709 3534 3026
3821 4046 3977
3821 4046 3976
3821 4045 3974
3821 4043 3971
3821 4041 3966
3821 4038 3961
3820 4035 3954
3820 4030 3946
3819 4025 3935
3818 4019 3924
3818 4012 3910
3817 4004 3894
3816 3994 3875
3814 3983 3855
3813 3971 3831
3811 3958 3804
3809 3942 3774
3807 3925 3740
3805 3905 3702
3802 3882 3659
3799 3857 3611
3797 3828 3557
3794 3795 3497
3792 3758 3429
3790 3715 3354
3867 4095 4095
3867 4095 4095
3867 4095 4095
3868 4095 4095
3868 4095 4095
3868 4095 4095
3868 4095 4095
3869 4095 4095
3869 4094 4091
3869 4089 4081
3870 4083 4070
3870 4076 4057
3870 4068 4042
3870 4060 4025
3870 4050 4006
3870 4039 3985
3870 4026 3962
3869 4013 3936
3869 3997 3906
3868 3980 3873
3867 3961 3837
3865 3939 3796
3864 3915 3749
3863 3887 3698
3861 3856 3640
3896 4095 4095
3896 4095 4095
3896 4095 4095
3897 4095 4095
3897 4095 4095
3897 4095 4095
3898 4095 4095
3898 4095 4095
3899 4095 4095
3899 4095 4095
3900 4095 4095
3901 4095 4095
3902 4095 4095
3903 4095 4095
3904 4095 4095
3907 4095 4095
3909 4095 4095
3911 4087 4095
3912 4074 4075
3914 4060 4048
3915 4044 4019
3916 4027 3986
3917 4008 3951
3917 3987 3911
3917 3964 3867
3925 4095 4095
3925 4095 4095
3925 4095 4095
3925 4095 4095
3926 4095 4095
3926 4095 4095
3926 4095 4095
3927 4095 4095
3927 4095 4095
3928 4095 4095
3928 4095 4095
3929 4095 4095
3930 4095 4095
3931 4095 4095
3932 4095 4095
3933 4095 4095
3934 4095 4095
3935 4095 4095
3937 4095 4095
3938 4095 4095
3940 4095 4095
3944 4095 4095
3949 4086 4095
3953 4068 4086
3956 4048 4050
3953 4095 4095
3953 4095 4095
3953 4095 4095
3953 4095 4095
3954 4095 4095
3954 4095 4095
3954 4095 4095
3955 4095 4095
3955 4095 4095
3956 4095 4095
3956 4095 4095
3957 4095 4095
3958 4095 4095
3958 4095 4095
3959 4095 4095
3960 4095 4095
3962 4095 4095
3963 4095 4095
3964 4095 4095
3965 4095 4095
3967 4095 4095
3968 4095 4095
3970 4095 4095
3972 4095 4095
3974 4095 4095
3981 4095 4095
3981 4095 4095
3981 4095 4095
3981 4095 4095
3981 4095 4095
3982 4095 4095
3982 4095 4095
3982 4095 4095
3983 4095 4095
3983 4095 4095
3984 4095 4095
3984 4095 4095
3985 4095 4095
3986 4095 4095
3987 4095 4095
3988 4095 4095
3989 4095 4095
3990 4095 4095
3991 4095 4095
3993 4095 4095
3994 4095 4095
3995 4095 4095
3997 4095 4095
3999 4095 4095
4001 4095 4095
125 1 1
88 3 53
66 4 4
86 5 4
116 4 2
156 1 0
205 0 0
260 0 0
317 0 0
378 0 0
444 0 0
511 0 0
582 0 0
654 0 0
726 0 0
800 0 0
876 0 0
953 0 0
1038 0 0
1124 0 0
1210 0 0
1297 0 0
1383 0 0
1469 0 0
1554 0 0
187 176 28
206 153 94
232 81 29
238 0 0
263 0 0
297 0 0
335 0 0
380 0 0
429 0 0
481 0 0
539 0 0
601 0 0
665 0 0
731 0 0
798 0 0
867 0 0
939 0 0
1018 0 0
1099 0 0
1181 0 0
1264 0 0
1347 0 0
1431 0 0
1514 0 0
1597 0 0
420 388 148
422 358 132
428 316 108
440 244 62
445 127 0
450 0 0
481 0 0
518 0 0
560 0 0
606 0 0
657 0 0
709 0 0
766 0 0
825 0 0
888 0 0
953 0 0
1026 0 0
1101 0 0
1177 0 0
1255 0 0
1333 0 0
1412 0 0
1492 0 0
1572 0 0
1651 0 0
677 630 270
680 608 258
685 577 241
693 528 213
701 453 169
707 338 85
694 160 0
694 0 0
728 0 0
766 0 0
809 0 0
855 0 0
904 0 0
959 0 0
1020 0 0
1084 0 0
1150 0 0
1219 0 0
1289 0 0
1361 0 0
1434 0 0
1507 0 0
1582 0 0
1656 0 0
1731 0 0
950 890 406
954 872 396
959 848 382
966 809 361
975 754 329
985 677 285
995 571 218
1003 415 90
984 173 0
960 0 17
995 0 0
1039 0 0
1086 0 0
1137 0 0
1191 0 0
1247 0 0
1306 0 0
1367 0 0
1431 0 0
1495 0 0
1561 0 0
1628 0 0
1696 0 0
1765 0 0
1833 0 0
1233 1171 557
1236 1156 548
1240 1136 537
1246 1104 520
1255 1058 495
1264 997 460
1275 916 414
1287 811 352
1300 672 262
1309 470 63
1283 138 0
1258 0 31
1294 0 0
1338 0 0
1385 0 0
1433 0 0
1485 0 0
1539 0 0
1594 0 0
1652 0 0
1711 0 0
1770 0 0
1831 0 0
1893 0 0
1955 0 0
1515 1468 722
1518 1456 715
1521 1438 705
1526 1411 690
1534 1373 669
1542 1322 641
1553 1256 604
1565 1172 557
1578 1067 497
1592 933 417
1604 759 305
1613 508 0
1577 0 64
1557 0 45
1593 0 0
1635 0 0
1679 0 0
1726 0 0
1774 0 0
1824 0 0
1875 0 0
1928 0 0
1981 0 0
2035 0 0
2091 0 0
1791 1774 911
1794 1763 905
1796 1748 896
1801 1726 882
1806 1693 862
1813 1650 836
1822 1595 804
1833 1526 763
1845 1441 714
1858 1336 654
1872 1207 581
1886 1044 486
1899 835 351
1907 529 0
1852 0 220
1846 0 56
1881 0 0
1921 0 0
1962 0 0
2004 0 0
2049 0 0
2094 0 0
2140 0 0
2187 0 0
2235 0 0
2055 2080 1131
2056 2071 1125
2058 2058 1116
2062 2039 1103
2066 2012 1085
2072 1976 1061
2079 1930 1030
2087 1873 993
2097 1802 948
2108 1717 894
2121 1614 831
2134 1489 757
2148 1336 668
2163 1147 558
2176 901 406
2186 530 0
2111 0 319
2118 0 67
2150 0 0
2187 0 0
2224 0 0
2262 0 0
2302 0 0
2342 0 0
2384 0 0
2301 2377 1379
2302 2370 1374
2303 2359 1365
2305 2343 1353
2309 2320 1335
2313 2291 1313
2317 2252 1284
2324 2205 1249
2331 2147 1207
2339 2078 1157
2349 1994 1100
2360 1894 1033
2373 1774 956
2386 1631 868
2400 1457 763
2414 1242 637
2428 960 472
2439 516 129
2355 0 377
2367 0 75
2397 0 0
2430 0 0
2464 0 0
2500 0 0
2536 0 0
2527 2659 1652
2528 2652 1647
2529 2644 1639
2530 2631 1627
2532 2612 1611
2534 2587 1589
2537 2556 1562
2541 2518 1530
2546 2470 1490
2552 2414 1444
2559 2346 1391
2568 2266 1329
2578 2171 1259
2589 2058 1179
2601 1925 1089
2615 1765 985
2629 1571 866
2644 1330 724
2658 1013 545
2670 491 227
2586 0 416
2598 0 83
2626 0 0
2657 0 0
2688 0 0
