Toning/Toning-Warm-BlueShadows.3dl
#25pt 3DLUT created by 3D LUT Creator Pro (c) Oleg Sharonov
#Copyright Oleg Sharonov
#IMAGEPROFILE sRGB IEC61966-2.1 v.2.10
#INPUTGAMMA sRGB IEC61966-2.1 v.2.10
#OUTPUTGAMMA sRGB IEC61966-2.1 v.2.10
0 256 512 768 1023
0 0 435
40 40 807
169 168 1474
346 343 2338
523 518 3304
423 604 505
406 637 821
496 691 1561
568 743 2493
653 814 3500
943 1277 623
925 1334 735
881 1317 1528
999 1392 2492
1101 1459 3511
1489 1850 920
1500 1862 926
1427 2041 1394
1375 2007 2435
1485 2075 3500
2039 2426 1234
2046 2434 1238
2006 2555 1531
1929 2760 2251
1874 2696 3434
943 98 469
912 114 793
632 183 1533
350 346 2359
525 521 3318
1058 893 532
1001 1004 1040
874 928 1637
570 745 2513
655 816 3513
1423 1503 730
1446 1610 897
1431 1656 1674
1170 1498 2529
1103 1460 3525
1869 2026 1005
1877 2036 1010
1885 2299 1564
1831 2288 2533
1487 2077 3515
2341 2567 1302
2348 2575 1307
2408 2765 1691
2307 2994 2357
2263 2940 3505
1895 351 560
2026 7 770
1842 384 1441
1612 376 2519
1260 548 3410
2061 608 576
1894 886 872
1835 1105 1596
1644 1090 2596
1343 1133 3501
2128 1712 837
2172 1849 1146
1998 2005 2105
1923 1965 2741
1732 1850 3654
2473 2294 1136
2478 2340 1224
2463 2620 1768
2469 2671 2875
2311 2580 3689
2870 2820 1435
2875 2828 1440
2922 3034 1921
2877 3317 2684
2845 3298 3688
2832 614 679
3027 1 851
2957 380 1324
2753 656 2285
2535 755 3382
2851 619 682
3048 1 853
2937 702 1364
2772 1202 2404
2558 1240 3497
3146 1569 812
3028 1731 1092
2817 1973 1766
2679 2150 2723
2594 2110 3717
3174 2483 1241
3222 2601 1534
3143 2886 2091
2989 2998 3381
2970 3001 3714
3439 3096 1571
3444 3103 1576
3472 3348 2279
3502 3591 2928
3800 3821 3753
3792 875 826
4026 99 951
4044 3 1412
3879 740 2065
3684 936 3233
3805 878 828
4040 102 952
4058 3 1414
3895 738 2063
3705 1351 3326
4080 1241 817
3885 1523 1158
3823 1729 1678
3792 1972 2402
3678 2203 3554
4095 2353 1263
4095 2471 1505
4031 2775 2005
3807 2969 3080
3488 3243 3718
4095 3254 1685
4095 3366 2072
4095 3663 3005
4088 3824 3440
4094 4025 3827
