Toning/Toning-Accent blues.3dl
#25pt 3DLUT created by 3D LUT Creator Pro (c) Oleg Sharonov
#Copyright Oleg Sharonov
#INPUTGAMMA sRGB IEC61966-2.1 v.2.10
#IMAGEPROFILE sRGB IEC61966-2.1 v.2.10
#OUTPUTGAMMA sRGB IEC61966-2.1 v.2.10
0 128 256 384 512 640 768 896 1023
0 0 0
0 0 512
0 0 1023
0 0 1535
0 0 2047
0 0 2559
0 0 3071
0 0 3583
0 0 4095
0 512 0
0 449 512
0 387 1023
0 324 1535
0 262 2047
0 199 2559
0 136 3071
0 74 3583
0 11 4095
0 1024 0
0 970 512
0 916 1024
0 863 1535
0 809 2047
0 755 2559
0 702 3071
0 648 3583
0 595 4095
0 1536 0
0 1491 512
0 1446 1024
0 1402 1536
0 1357 2048
0 1312 2559
0 1268 3071
0 1222 3583
0 1178 4095
0 2048 0
0 2012 512
0 1976 1024
0 1940 1536
0 1904 2047
0 1869 2559
0 1833 3071
0 1797 3583
0 1762 4095
0 2559 0
0 2533 512
0 2506 1024
0 2479 1536
0 2452 2047
0 2425 2559
0 2398 3071
0 2372 3583
0 2345 4095
0 3071 0
0 3053 512
0 3035 1024
0 3018 1536
0 3000 2047
0 2982 2559
0 2964 3071
0 2946 3583
0 2928 4095
0 3583 0
0 3574 512
0 3565 1024
0 3556 1536
0 3547 2047
0 3538 2559
0 3530 3071
0 3521 3583
0 3512 4095
0 4095 0
0 4095 512
0 4095 1024
0 4095 1536
0 4095 2047
0 4095 2559
0 4095 3071
0 4095 3583
0 4095 4095
512 0 0
448 0 512
384 0 1023
320 0 1535
256 0 2047
192 0 2559
128 0 3071
64 0 3583
0 0 4095
512 512 0
448 449 512
384 387 1024
320 324 1535
256 262 2047
192 199 2559
128 136 3071
64 74 3583
0 11 4095
512 1024 0
448 970 512
384 916 1024
320 863 1535
256 809 2047
192 755 2559
128 702 3071
64 648 3583
0 594 4095
512 1536 0
448 1491 512
384 1446 1024
320 1402 1536
256 1357 2048
192 1312 2559
128 1268 3071
64 1222 3583
0 1178 4095
512 2048 0
448 2012 512
384 1976 1024
320 1940 1536
256 1905 2047
192 1869 2559
128 1833 3071
64 1797 3583
0 1762 4095
512 2559 0
448 2533 512
384 2506 1024
320 2479 1536
256 2452 2047
192 2425 2559
128 2398 3071
64 2372 3583
0 2345 4095
512 3071 0
448 3053 512
384 3035 1024
320 3018 1536
256 3000 2047
192 2982 2559
128 2964 3071
64 2946 3583
0 2928 4095
512 3583 0
448 3574 512
384 3565 1024
320 3556 1536
256 3547 2047
192 3538 2559
128 3530 3071
64 3521 3583
0 3512 4095
512 4095 0
448 4095 512
384 4095 1024
320 4095 1536
256 4095 2047
192 4095 2559
128 4095 3071
64 4095 3583
0 4095 4095
1024 0 0
915 0 512
807 0 1023
698 0 1535
590 0 2047
481 0 2559
373 0 3071
264 0 3583
156 0 4095
1024 512 0
915 449 512
807 387 1024
699 324 1536
590 262 2048
482 199 2560
373 136 3071
264 74 3583
156 11 4095
1024 1024 0
915 970 512
807 917 1024
699 863 1536
590 809 2048
482 756 2560
373 702 3071
264 648 3583
156 594 4095
1024 1536 0
915 1491 512
807 1446 1024
699 1402 1536
590 1357 2047
482 1312 2559
373 1268 3071
265 1223 3583
156 1178 4095
1024 2048 0
915 2012 512
807 1976 1024
699 1940 1536
590 1905 2047
482 1869 2559
373 1833 3071
264 1797 3583
156 1762 4095
1024 2559 0
915 2533 512
807 2506 1024
699 2479 1536
590 2452 2047
482 2425 2559
373 2398 3071
265 2372 3583
156 2345 4095
1024 3071 0
915 3053 512
807 3035 1024
699 3018 1536
590 3000 2047
482 2982 2559
373 2964 3071
265 2946 3583
156 2928 4095
1024 3583 0
915 3574 512
807 3565 1024
699 3556 1536
590 3547 2047
482 3538 2559
373 3529 3071
265 3520 3583
156 3511 4095
1024 4095 0
915 4095 512
807 4095 1024
698 4095 1535
590 4095 2047
481 4095 2559
373 4095 3071
264 4095 3583
156 4095 4095
1536 0 0
1445 0 512
1355 0 1024
1264 0 1535
1174 0 2047
1083 0 2559
993 0 3071
903 0 3583
813 0 4095
1536 512 0
1445 449 512
1355 387 1024
1264 324 1535
1174 262 2047
1084 199 2560
993 136 3071
903 74 3583
813 11 4095
1536 1024 0
1445 970 512
1355 916 1024
1265 863 1536
1174 809 2047
1084 756 2560
993 702 3071
903 648 3583
813 594 4095
1536 1536 0
1445 1491 512
1355 1446 1024
1265 1402 1536
1174 1357 2047
1084 1312 2559
993 1268 3071
903 1223 3583
812 1178 4095
1536 2048 0
1445 2012 512
1355 1976 1024
1265 1940 1536
1174 1904 2047
1084 1869 2559
993 1833 3071
903 1797 3583
813 1762 4095
1536 2559 0
1445 2533 512
1355 2506 1024
1265 2479 1536
1174 2452 2047
1084 2425 2559
993 2398 3071
903 2372 3583
813 2345 4095
1536 3071 0
1445 3053 512
1355 3035 1024
1265 3018 1536
1174 3000 2047
1084 2982 2559
993 2964 3071
903 2946 3583
813 2928 4095
1536 3583 0
1445 3574 512
1355 3565 1024
1265 3556 1536
1174 3547 2047
1084 3538 2559
993 3529 3071
903 3521 3583
813 3511 4095
1536 4095 0
1445 4095 512
1355 4095 1024
1264 4095 1535
1174 4095 2047
1083 4095 2559
993 4095 3071
903 4095 3583
813 4095 4095
2048 0 0
1975 0 512
1903 0 1024
1831 0 1536
1758 0 2048
1686 0 2559
1614 0 3071
1542 0 3583
1469 0 4094
2048 512 0
1975 449 512
1903 387 1024
1831 324 1536
1758 262 2047
1686 199 2559
1614 136 3071
1541 74 3583
1469 13 4095
2048 1024 0
1975 970 512
1903 917 1024
1831 863 1536
1758 809 2047
1686 756 2559
1614 702 3071
1541 649 3583
1469 595 4095
2048 1536 0
1975 1491 512
1903 1446 1024
1830 1402 1536
1758 1357 2047
1686 1312 2559
1614 1268 3071
1541 1223 3583
1469 1178 4095
2048 2048 0
1975 2012 512
1903 1976 1024
1831 1940 1536
1758 1905 2047
1686 1869 2559
1614 1833 3071
1541 1797 3583
1469 1762 4095
2048 2559 0
1975 2533 512
1903 2506 1024
1831 2479 1536
1758 2452 2047
1686 2425 2559
1614 2398 3071
1541 2372 3583
1469 2345 4095
2048 3071 0
1975 3053 512
1903 3036 1024
1831 3018 1536
1758 3000 2047
1686 2982 2559
1614 2964 3071
1541 2946 3583
1469 2928 4095
2048 3583 0
1975 3574 512
1903 3565 1024
1831 3556 1536
1758 3547 2047
1686 3538 2559
1614 3529 3071
1541 3520 3583
1469 3511 4095
2048 4095 0
1975 4095 512
1903 4095 1024
1831 4095 1536
1758 4095 2048
1686 4095 2559
1613 4095 3071
1541 4095 3583
1468 4095 4095
2559 0 0
2505 0 512
2451 0 1024
2397 0 1536
2342 0 2047
2288 0 2559
2234 0 3071
2180 0 3583
2126 0 4095
2559 512 0
2505 449 512
2451 387 1024
2397 324 1535
2342 262 2047
2288 199 2559
2234 136 3071
2180 74 3583
2126 11 4095
2559 1024 0
2505 970 512
2451 916 1024
2397 863 1535
2342 809 2047
2288 755 2559
2234 702 3071
2180 649 3583
2126 595 4095
2559 1536 0
2505 1491 512
2451 1446 1024
2397 1402 1536
2343 1357 2047
2288 1312 2559
2234 1268 3071
2180 1223 3583
2126 1178 4095
2559 2048 0
2505 2012 512
2451 1976 1024
2397 1940 1536
2342 1905 2047
2288 1869 2559
2234 1833 3071
2180 1797 3583
2126 1762 4095
2559 2559 0
2505 2533 512
2451 2506 1024
2397 2479 1536
2342 2452 2047
2288 2425 2559
2234 2398 3071
2180 2372 3583
2126 2345 4095
2559 3071 0
2505 3053 512
2451 3035 1024
2397 3018 1536
2342 3000 2047
2288 2982 2559
2234 2964 3071
2180 2946 3583
2126 2928 4095
2559 3583 0
2505 3574 512
2451 3565 1024
2397 3556 1536
2342 3547 2047
2288 3538 2559
2234 3529 3071
2180 3521 3583
2126 3512 4095
2559 4095 0
2505 4095 512
2451 4095 1024
2397 4095 1536
2342 4095 2047
2288 4095 2559
2234 4095 3071
2180 4095 3583
2126 4095 4095
3071 0 0
3035 0 512
2999 0 1024
2963 0 1536
2927 0 2047
2890 0 2559
2854 0 3071
2818 0 3583
2782 0 4095
3071 512 0
3035 449 512
2999 387 1024
2963 324 1535
2926 262 2047
2890 199 2559
2854 136 3071
2818 74 3583
2782 11 4095
3071 1024 0
3035 970 512
2999 916 1024
2963 863 1535
2927 809 2047
2890 755 2559
2854 702 3071
2818 648 3583
2782 594 4095
3071 1536 0
3035 1491 512
2999 1446 1024
2963 1402 1536
2927 1357 2047
2891 1312 2559
2854 1268 3071
2818 1223 3583
2782 1178 4095
3071 2048 0
3035 2012 512
2999 1976 1024
2963 1940 1536
2927 1905 2047
2890 1869 2559
2854 1833 3071
2818 1797 3583
2782 1762 4095
3071 2559 0
3035 2533 512
2999 2506 1024
2963 2479 1536
2927 2452 2047
2890 2425 2559
2854 2398 3071
2818 2372 3583
2782 2345 4095
3071 3071 0
3035 3053 512
2999 3035 1024
2963 3018 1536
2927 3000 2047
2890 2982 2559
2854 2964 3071
2818 2946 3583
2782 2928 4095
3071 3583 0
3035 3574 512
2999 3565 1024
2963 3556 1536
2927 3547 2047
2890 3538 2559
2854 3529 3071
2818 3520 3583
2782 3512 4095
3071 4095 0
3035 4095 512
2999 4095 1024
2963 4095 1535
2927 4095 2047
2890 4095 2559
2854 4095 3071
2818 4095 3583
2782 4095 4095
3583 0 0
3565 0 512
3547 0 1024
3529 0 1536
3511 0 2047
3493 0 2559
3475 0 3071
3457 0 3583
3438 0 4095
3583 512 0
3565 449 512
3547 387 1024
3529 324 1536
3511 262 2047
3493 199 2559
3475 136 3071
3457 74 3583
3438 13 4095
3583 1024 0
3565 970 512
3547 917 1024
3529 863 1536
3511 809 2047
3493 756 2559
3475 702 3071
3457 649 3583
3438 595 4095
3583 1536 0
3565 1491 512
3547 1446 1024
3529 1402 1536
3511 1357 2047
3493 1312 2559
3475 1268 3071
3456 1223 3583
3438 1178 4095
3583 2048 0
3565 2012 512
3547 1976 1024
3529 1940 1536
3511 1905 2047
3493 1869 2559
3475 1833 3071
3457 1797 3583
3438 1762 4095
3583 2559 0
3565 2533 512
3547 2506 1024
3529 2479 1536
3511 2452 2047
3493 2425 2559
3475 2398 3071
3456 2372 3583
3438 2345 4095
3583 3071 0
3565 3053 512
3547 3035 1024
3529 3018 1536
3511 3000 2047
3493 2982 2559
3475 2964 3071
3456 2946 3583
3438 2928 4095
3583 3583 0
3565 3574 512
3547 3565 1024
3529 3556 1536
3511 3547 2047
3493 3538 2559
3475 3529 3071
3456 3520 3583
3438 3511 4095
3583 4095 0
3565 4095 511
3547 4095 1024
3529 4095 1536
3511 4095 2048
3493 4095 2560
3475 4095 3072
3456 4095 3583
3438 4095 4095
4095 0 0
4095 0 512
4095 0 1024
4095 0 1536
4095 0 2047
4095 0 2559
4095 0 3071
4095 0 3583
4095 0 4095
4095 512 0
4095 449 512
4095 387 1024
4095 325 1536
4095 262 2047
4095 200 2559
4095 135 3071
4095 74 3583
4095 11 4095
4095 1024 0
4095 970 512
4095 917 1024
4095 863 1536
4095 809 2047
4095 756 2559
4095 702 3071
4095 648 3583
4095 594 4095
4095 1536 0
4095 1491 512
4095 1446 1024
4095 1402 1536
4095 1357 2047
4095 1312 2559
4095 1268 3071
4095 1223 3583
4095 1178 4095
4095 2048 0
4095 2012 512
4095 1976 1024
4095 1940 1536
4095 1905 2047
4095 1869 2559
4095 1833 3071
4095 1797 3583
4095 1761 4095
4095 2559 0
4095 2533 512
4095 2506 1024
4095 2479 1535
4095 2452 2047
4095 2425 2559
4095 2398 3071
4095 2372 3583
4095 2345 4095
4095 3071 0
4095 3053 512
4095 3035 1024
4095 3018 1535
4095 3000 2047
4095 2982 2559
4095 2964 3071
4095 2946 3583
4095 2928 4095
4095 3583 0
4095 3574 512
4095 3565 1024
4095 3556 1535
4095 3547 2047
4095 3538 2559
4095 3529 3071
4095 3520 3583
4095 3511 4095
4095 4095 0
4095 4095 512
4095 4095 1023
4095 4095 1535
4095 4095 2047
4095 4095 2559
4095 4095 3071
4095 4095 3583
4095 4095 4095
