Toning/Toning-Cool-Seperate warms.3dl
#25pt 3DLUT created by 3D LUT Creator Pro (c) Oleg Sharonov
#Copyright Oleg Sharonov
#IMAGEPROFILE sRGB IEC61966-2.1 v.2.10
#INPUTGAMMA sRGB IEC61966-2.1 v.2.10
#OUTPUTGAMMA sRGB IEC61966-2.1 v.2.10
0 256 512 768 1023
0 0 0
0 0 559
35 153 1166
57 254 1627
73 338 2158
333 817 700
194 593 1394
55 351 1892
64 364 2224
63 432 2650
940 1978 1379
878 1920 1709
507 1615 2604
39 1029 3393
14 1039 3749
1696 3035 2020
1580 3040 2163
1627 2905 2777
1164 2730 3687
1094 2600 4082
2886 3776 2965
2888 3769 3064
2954 3731 3350
3018 3708 3697
3218 3659 3952
658 133 251
245 168 638
95 178 1365
81 266 1775
82 345 2290
865 980 308
715 920 1365
235 459 1755
157 428 2191
67 443 2763
1229 2072 1133
1189 2004 1651
847 1694 2441
215 1136 3331
17 1085 3825
1851 3078 1893
1853 3036 2177
1780 2957 2731
1370 2733 3596
1189 2609 4084
2963 3796 2929
2966 3788 3039
3008 3754 3329
3097 3721 3690
3277 3679 3953
1858 380 409
1609 359 930
548 390 1266
262 349 1896
147 346 2731
2231 897 359
1818 875 1124
904 670 1620
378 515 2304
124 457 3173
2233 2178 434
2102 2162 1162
1838 2134 2346
1087 1506 2873
69 1248 4022
2393 3194 1369
2357 3153 1779
2289 3075 2603
1963 2859 3384
1481 2637 4084
3214 3854 2795
3214 3848 2921
3219 3826 3253
3327 3777 3662
3457 3742 3962
3012 620 626
2986 502 932
2137 651 1672
1137 674 1879
715 691 2527
3258 1017 584
2945 1042 1128
2409 974 1787
1393 915 2090
823 804 2824
3511 2056 528
3352 2050 1075
2842 2024 2050
2073 1761 2633
1083 1271 3809
3478 3215 651
3400 3196 1167
3212 3172 2193
2965 3188 3241
1967 2577 4082
3626 3983 2387
3614 3974 2558
3589 3958 3012
3613 3916 3616
3730 3872 4012
3873 1115 977
3894 984 1148
3667 935 1808
2748 1122 2315
1878 1162 2550
3917 1424 1037
3975 1296 1225
3881 1139 1880
3056 1236 2441
2055 1290 2712
4051 2217 1148
4085 2156 1272
4088 2027 2037
3875 1635 2823
2617 1684 3202
4077 3201 1248
4083 3184 1537
4091 3147 2268
4069 3033 3075
3507 2574 3755
4091 4057 2620
4090 4058 2726
4089 4063 3032
4089 4074 3510
4095 4095 4095
