Toning/Toning-Film palette.3dl
#25pt 3DLUT created by 3D LUT Creator Pro (c) Oleg Sharonov
#Copyright Oleg Sharonov
#IMAGEPROFILE sRGB IEC61966-2.1 v.2.10
#INPUTGAMMA sRGB IEC61966-2.1 v.2.10
#OUTPUTGAMMA sRGB IEC61966-2.1 v.2.10
0 128 256 384 512 640 768 896 1023
0 0 0
0 0 653
0 0 1265
0 0 1797
0 0 2281
0 0 2746
0 0 3192
0 0 3611
0 0 4052
0 213 0
0 577 658
0 335 1271
0 91 1807
0 0 2290
0 0 2754
0 0 3200
0 0 3617
0 0 4058
0 569 0
0 835 608
0 1158 1279
0 955 1816
0 731 2296
0 586 2761
0 506 3209
0 469 3627
0 459 4071
0 920 0
0 1096 436
0 1407 1281
0 1652 1819
0 1509 2306
0 1322 2770
0 1217 3215
0 1166 3636
0 1150 4081
0 1253 0
0 1372 265
0 1613 1149
0 1865 1819
0 2091 2306
0 2039 2775
0 1908 3228
0 1847 3648
0 1829 4088
0 1553 0
0 1636 108
0 1818 999
0 2070 1762
0 2276 2305
0 2510 2773
0 2576 3225
0 2503 3651
0 2480 4092
0 1817 0
0 1879 0
0 2022 859
0 2233 1637
0 2486 2304
0 2674 2771
0 2920 3223
0 3121 3647
0 3094 4087
0 2053 0
0 2102 0
0 2218 738
0 2399 1522
0 2627 2208
0 2853 2769
0 3068 3221
0 3314 3645
0 3601 4080
0 2275 0
0 2316 0
0 2414 633
0 2571 1417
0 2778 2118
0 3017 2730
0 3232 3218
0 3457 3643
0 3726 4077
489 0 0
338 0 658
64 0 1279
0 0 1821
0 0 2310
0 0 2778
0 0 3232
0 0 3658
0 0 4095
493 250 0
305 636 681
50 335 1274
0 91 1812
0 0 2296
0 0 2763
0 0 3213
0 0 3635
0 0 4095
407 633 0
273 875 619
60 1188 1291
0 953 1820
0 728 2303
0 584 2768
0 503 3219
0 465 3641
0 450 4095
235 958 0
162 1126 441
74 1429 1293
0 1669 1823
0 1507 2309
0 1322 2774
0 1215 3223
0 1165 3645
0 1148 4095
110 1278 0
72 1393 271
19 1627 1150
0 1879 1823
0 2102 2308
0 2038 2776
0 1908 3229
0 1847 3650
0 1829 4095
20 1571 0
1 1652 113
0 1830 999
0 2079 1759
0 2286 2306
0 2518 2773
0 2574 3226
0 2502 3651
0 2480 4092
0 1831 0
0 1891 0
0 2032 859
0 2241 1633
0 2492 2300
0 2681 2771
0 2925 3223
0 3120 3646
0 3094 4087
0 2064 0
0 2112 0
0 2227 738
0 2406 1519
0 2633 2203
0 2860 2767
0 3073 3221
0 3319 3644
0 3607 4080
0 2284 0
0 2324 0
0 2421 632
0 2578 1412
0 2783 2112
0 3021 2725
0 3237 3217
0 3462 3641
45 3731 4077
1040 0 0
1042 0 462
784 0 1280
471 0 1820
289 0 2309
185 0 2777
129 0 3231
102 0 3657
94 0 4095
1042 298 0
1040 511 463
756 323 1293
449 69 1836
269 0 2327
167 0 2799
111 0 3256
84 0 3683
95 0 4095
1040 631 0
1041 940 462
742 1249 1315
445 962 1816
272 732 2302
174 588 2768
122 506 3217
99 469 3638
98 450 4095
1040 1047 0
904 1202 383
735 1485 1318
498 1708 1835
285 1504 2313
173 1324 2774
124 1216 3224
101 1166 3645
100 1148 4095
845 1339 0
739 1450 216
652 1666 1149
540 1910 1833
352 2128 2312
220 2035 2780
146 1907 3231
106 1848 3649
103 1829 4095
670 1613 0
596 1694 61
536 1861 996
487 2101 1750
389 2310 2308
287 2537 2774
209 2571 3228
161 2500 3653
145 2480 4092
533 1862 0
481 1923 0
437 2057 860
413 2260 1621
421 2506 2287
321 2699 2769
265 2941 3221
230 3117 3646
199 3095 4087
430 2088 0
391 2137 0
365 2248 740
347 2424 1506
357 2646 2188
374 2877 2763
298 3087 3218
268 3331 3642
287 3620 4081
347 2305 0
320 2345 0
305 2440 632
291 2594 1402
303 2797 2098
352 3031 2712
346 3250 3212
302 3473 3638
334 3745 4078
1554 0 0
1555 0 146
1555 0 1190
1208 0 1820
913 0 2308
739 0 2778
645 0 3231
600 0 3655
585 0 4095
1555 274 0
1555 277 148
1555 277 1192
1195 74 1829
903 0 2320
730 0 2791
636 0 3248
592 0 3676
586 0 4095
1555 664 0
1555 905 146
1539 1221 1245
1152 946 1843
872 713 2333
703 565 2805
614 483 3261
572 445 3688
589 449 4095
1555 993 0
1555 1184 146
1373 1590 1233
1205 1767 1851
886 1517 2305
719 1328 2771
629 1219 3222
589 1168 3645
590 1147 4095
1555 1372 0
1553 1524 152
1299 1747 1068
1245 1973 1855
1026 2173 2318
774 2030 2785
647 1909 3230
595 1849 3649
593 1829 4095
1448 1684 0
1381 1757 35
1190 1924 930
1196 2140 1725
1093 2350 2308
889 2572 2774
741 2566 3231
660 2498 3657
617 2482 4093
1268 1916 0
1213 1974 0
1078 2108 804
1066 2297 1597
1084 2531 2258
939 2731 2765
827 2967 3219
756 3112 3646
661 3095 4088
1115 2132 0
1077 2179 0
979 2290 693
958 2457 1490
980 2671 2158
1007 2908 2753
869 3112 3212
809 3352 3638
732 3645 4081
991 2341 0
962 2380 0
891 2475 594
865 2624 1397
890 2821 2069
939 3050 2685
925 3274 3202
848 3492 3632
771 3768 4078
2022 0 0
2023 0 0
2023 0 873
2020 0 1815
1650 0 2307
1411 0 2777
1278 0 3230
1216 0 3655
1195 0 4095
2022 82 0
2022 82 0
2022 82 873
2018 83 1817
1644 0 2315
1408 0 2787
1276 0 3242
1213 0 3668
1196 0 4095
2022 757 0
2022 937 0
2021 956 874
2007 959 1818
1624 719 2322
1392 568 2796
1263 485 3252
1203 446 3677
1197 448 4095
2022 1004 0
2022 1158 0
2022 1490 874
1822 1805 1862
1587 1503 2334
1366 1314 2802
1243 1207 3257
1186 1156 3683
1200 1147 4095
2022 1311 0
2022 1438 0
2022 1724 873
1857 2087 1890
1729 2234 2328
1414 2037 2780
1265 1914 3224
1206 1851 3647
1202 1829 4095
2022 1650 0
2022 1754 0
2011 1997 884
1824 2211 1753
1814 2424 2314
1642 2619 2773
1385 2558 3236
1263 2497 3659
1207 2483 4095
2021 1996 0
1977 2048 0
1865 2171 775
1732 2356 1619
1779 2576 2207
1723 2776 2754
1527 3006 3214
1401 3104 3648
1245 3096 4089
1862 2196 0
1826 2240 0
1731 2346 673
1637 2508 1504
1678 2712 2095
1782 2940 2706
1582 3149 3201
1482 3385 3632
1298 3663 4083
1716 2395 0
1686 2433 0
1616 2524 576
1545 2669 1400
1550 2861 2026
1640 3080 2633
1652 3309 3181
1529 3523 3621
1331 3804 4080
2482 0 0
2483 0 0
2483 0 614
2483 0 1500
2445 0 2304
2175 0 2776
2012 0 3230
1935 0 3654
1909 0 4095
2483 0 0
2483 0 0
2483 0 614
2483 0 1500
2443 0 2305
2172 0 2780
2011 0 3238
1936 0 3663
1910 0 4095
2483 746 0
2483 746 0
2482 747 616
2482 747 1500
2437 728 2306
2162 574 2786
2005 487 3243
1931 449 3669
1912 449 4095
2483 1089 0
2483 1207 0
2483 1474 615
2483 1539 1501
2426 1516 2308
2148 1319 2790
1995 1208 3246
1922 1158 3672
1914 1147 4095
2483 1329 0
2483 1431 0
2483 1668 615
2483 2026 1500
2320 2267 2345
2133 2039 2795
1986 1909 3245
1922 1851 3653
1916 1828 4095
2483 1606 0
2483 1694 0
2483 1901 614
2483 2222 1500
2360 2551 2330
2319 2695 2781
2069 2562 3238
1933 2507 3649
1917 2484 4095
2483 1900 0
2483 1976 0
2483 2156 614
2470 2440 1506
2314 2664 2238
2407 2871 2751
2361 3055 3209
2169 3096 3617
1938 3097 4091
2483 2197 0
2483 2263 0
2482 2423 619
2369 2585 1422
2252 2789 2149
2389 3004 2649
2450 3196 3175
2340 3428 3589
1970 3665 4086
2455 2475 0
2431 2510 0
2371 2596 543
2273 2739 1338
2184 2928 2067
2308 3137 2561
2549 3342 3093
2417 3558 3576
2001 3859 4081
2981 0 0
2980 0 0
2981 0 415
2980 0 1247
2981 0 2045
2971 0 2772
2816 0 3226
2735 0 3654
2706 0 4095
2980 0 0
2981 0 0
2981 0 415
2981 0 1247
2981 0 2045
2970 0 2772
2815 0 3227
2735 0 3658
2707 0 4095
2980 583 0
2981 583 0
2980 583 415
2981 582 1247
2981 582 2045
2969 579 2774
2813 495 3231
2732 452 3661
2708 450 4095
2981 1256 0
2981 1328 0
2981 1328 415
2980 1329 1248
2980 1328 2045
2965 1324 2774
2808 1213 3233
2729 1160 3662
2711 1147 4095
2981 1439 0
2981 1520 0
2981 1711 414
2980 2010 1248
2980 2051 2045
2962 2045 2774
2801 1912 3234
2727 1852 3650
2713 1828 4095
2981 1661 0
2981 1732 0
2981 1904 414
2980 2177 1248
2979 2526 2049
2923 2738 2784
2802 2579 3234
2734 2507 3649
2714 2483 4095
2981 1904 0
2981 1967 0
2981 2120 414
2980 2368 1248
2979 2690 2048
2925 3011 2786
2967 3175 3209
2792 3115 3640
2714 3100 4095
2981 2156 0
2981 2212 0
2981 2349 414
2981 2574 1248
2979 2871 2048
2899 3118 2715
3027 3329 3175
2997 3526 3595
2734 3667 4089
2981 2419 0
2981 2469 0
2981 2592 414
2980 2795 1249
2937 3022 2008
2859 3242 2655
3027 3445 3095
3060 3651 3576
2758 3942 4084
3516 0 0
3517 0 0
3517 0 287
3517 0 1083
3517 0 1848
3517 0 2559
3517 0 3183
3480 0 3648
3458 0 4095
3517 0 0
3517 0 0
3517 0 287
3517 0 1083
3517 0 1848
3517 0 2559
3517 0 3184
3480 0 3648
3458 0 4095
3517 478 0
3517 478 0
3517 477 286
3517 477 1083
3517 477 1848
3517 477 2559
3517 477 3184
3479 458 3649
3458 447 4095
3517 1190 0
3517 1190 0
3517 1189 286
3517 1190 1083
3517 1189 1848
3517 1189 2559
3516 1189 3185
3478 1162 3650
3459 1146 4095
3517 1669 0
3517 1732 0
3517 1882 286
3517 1882 1083
3516 1883 1849
3516 1883 2559
3516 1883 3184
3477 1850 3648
3459 1828 4095
3517 1844 0
3517 1902 0
3517 2042 286
3517 2270 1082
3516 2547 1849
3517 2546 2559
3517 2546 3183
3479 2507 3647
3460 2484 4095
3517 2042 0
3517 2094 0
3517 2223 286
3517 2434 1082
3517 2714 1849
3517 3032 2559
3516 3170 3184
3480 3126 3647
3460 3100 4095
3517 2253 0
3517 2300 0
3517 2418 286
3517 2612 1082
3517 2872 1849
3517 3172 2559
3516 3477 3183
3544 3681 3635
3460 3671 4095
3517 2478 0
3517 2521 0
3517 2628 286
3517 2806 1082
3517 3047 1849
3517 3328 2559
3505 3600 3167
3576 3805 3587
3475 4065 4089
4094 0 0
4094 0 0
4094 0 247
4094 0 1031
4094 0 1785
4094 0 2486
4095 0 3103
4095 0 3617
4094 0 4095
4094 0 0
4095 0 0
4095 0 247
4095 0 1030
4095 0 1785
4095 0 2487
4095 0 3104
4095 0 3617
4094 0 4095
4094 446 0
4095 444 0
4095 445 247
4095 444 1030
4095 444 1785
4095 444 2487
4095 444 3104
4095 445 3617
4094 445 4095
4094 1146 0
4095 1145 0
4095 1145 247
4095 1145 1030
4095 1145 1785
4095 1145 2487
4095 1145 3104
4095 1145 3617
4095 1145 4095
4094 1828 0
4095 1828 0
4095 1828 246
4095 1828 1030
4095 1828 1785
4095 1828 2487
4095 1828 3104
4095 1828 3617
4095 1828 4095
4094 2150 0
4095 2197 0
4095 2316 246
4095 2483 1030
4095 2483 1785
4095 2483 2487
4095 2483 3104
4095 2483 3617
4095 2483 4095
4094 2315 0
4095 2360 0
4095 2469 246
4095 2653 1030
4095 2899 1784
4095 3100 2487
4095 3100 3104
4095 3100 3617
4095 3100 4095
4094 2495 0
4095 2536 0
4095 2639 246
4095 2809 1030
4095 3041 1785
4095 3312 2486
4095 3591 3104
4095 3671 3617
4095 3671 4095
4095 2691 0
4095 2729 0
4095 2823 246
4095 2982 1030
4095 3198 1784
4095 3454 2487
4095 3719 3104
4095 3966 3617
4095 4095 4095
