Toning/Toning-Sunny film look.3dl
#25pt 3DLUT created by 3D LUT Creator Pro (c) Oleg Sharonov
#Copyright Oleg Sharonov
#IMAGEPROFILE sRGB IEC61966-2.1 v.2.10
#INPUTGAMMA sRGB IEC61966-2.1 v.2.10
#OUTPUTGAMMA sRGB IEC61966-2.1 v.2.10
0 256 512 768 1023
0 0 0
80 13 1126
23 241 3101
3 999 3941
2038 2479 4093
0 1209 3
2 1060 1973
0 1385 3234
0 1873 3834
2053 2579 4075
0 2123 3
0 2170 1707
0 2477 2884
35 2875 3685
2118 2937 4017
0 2975 0
0 2994 1136
0 3147 2390
204 3710 3543
2408 3542 3962
0 3730 15
0 3747 967
0 3909 2096
369 4095 3403
2665 4094 3901
915 1 0
1163 162 487
527 39 1409
237 711 3604
2175 2501 4095
675 664 2
817 928 886
256 1129 2470
321 1707 3686
2209 2607 4094
407 1529 4
656 1960 1096
599 2501 2440
403 2652 3536
2257 2961 4034
360 2498 2
519 2833 754
476 3305 2073
728 3608 3432
2503 3550 3972
305 3470 6
0 3699 304
0 4008 2150
707 4095 3332
2729 4094 3905
1888 6 1
1959 8 495
1426 43 1490
1445 843 3624
2677 2602 4095
1972 857 2
2094 906 636
1374 980 2010
1443 1530 3611
2694 2703 4095
1834 1786 3
1854 1787 682
2084 2258 2205
1344 2421 3440
2773 3063 4095
1627 2640 1
1616 2582 395
1728 3080 1850
1810 3499 3263
2857 3589 4014
1391 3432 2
1285 3545 10
1392 3915 1735
1537 4090 3166
2975 4095 3919
2789 12 3
2794 14 623
2779 4 1696
3010 914 3352
3396 2769 4095
3070 1075 3
3177 954 664
2656 923 1937
2885 1430 3354
3391 2854 4095
2903 1919 2
2868 1732 460
3142 2094 1970
2612 2254 3308
3384 3165 4095
2720 2698 1
2781 2486 51
2814 2895 1630
2945 3374 3131
3407 3634 4070
2386 3431 2
2394 3525 11
2401 3713 980
2547 4055 2872
3369 4095 3940
3532 19 4
3534 3 672
3631 5 1726
3997 26 3004
3878 2792 4061
3866 1210 4
3677 20 5
3732 5 1644
3726 1005 3043
3866 2858 4053
3709 1987 3
3771 1944 3
3834 1855 1559
3631 2100 2968
3846 3124 4032
3507 2711 1
3578 2747 1
3529 2584 709
3803 3131 2663
3855 3583 4003
3275 3381 2
3332 3453 2
3533 3705 12
3738 3918 1634
3841 4095 3968
