Toning/Toning-SplitWarmsAndColds_MXYe.3dl
#25pt 3DLUT created by 3D LUT Creator Pro (c) Oleg Sharonov
#Copyright Oleg Sharonov
#IMAGEPROFILE 
#INPUTGAMMA 
#OUTPUTGAMMA 
0 128 256 384 512 640 768 896 1023
0 0 0
24 14 503
114 73 977
204 198 1413
376 353 1831
587 524 2202
819 710 2542
1066 898 2857
1330 1091 3139
65 504 19
24 515 498
136 594 883
277 691 1267
446 802 1660
646 929 2021
853 1084 2355
1075 1254 2663
1299 1441 2942
117 1017 30
16 996 609
92 1053 943
237 1144 1281
425 1247 1615
631 1369 1937
846 1506 2234
1085 1637 2552
1318 1781 2846
156 1526 30
41 1497 676
52 1536 1020
204 1609 1336
403 1697 1648
615 1804 1950
840 1921 2234
1078 2046 2518
1322 2175 2796
171 2043 11
57 2027 645
24 2032 1076
173 2087 1399
375 2166 1698
596 2258 1977
843 2356 2267
1075 2467 2534
1334 2578 2814
182 2553 3
95 2547 594
90 2514 1211
161 2573 1479
374 2635 1765
603 2716 2045
849 2803 2319
1097 2897 2592
1358 2993 2867
173 3067 3
95 3066 551
111 3029 1217
103 3063 1557
376 3112 1863
609 3180 2130
865 3254 2401
1117 3340 2669
1380 3420 2942
189 3579 5
68 3583 511
71 3562 1152
24 3575 1575
367 3587 1980
630 3638 2267
891 3706 2526
1155 3774 2787
1434 3847 3059
228 4088 11
65 4095 476
38 4086 1073
38 4085 1578
330 4094 1998
740 4091 2408
1173 4086 2755
1613 4076 3079
2028 4065 3376
511 0 0
438 11 581
422 8 1077
508 0 1535
641 8 1995
865 171 2374
1113 358 2724
1382 543 3042
1662 722 3335
549 486 14
530 497 520
427 396 1196
514 480 1562
643 601 1924
823 755 2251
1023 924 2562
1250 1104 2853
1494 1278 3132
682 958 27
589 992 538
478 975 1140
604 1041 1466
751 1131 1785
925 1239 2112
1114 1367 2413
1318 1510 2714
1526 1675 2981
755 1467 27
628 1504 536
428 1504 1161
599 1534 1499
758 1614 1792
939 1713 2080
1143 1824 2356
1359 1947 2633
1579 2071 2915
797 1988 35
652 2022 524
504 2013 1151
573 2036 1541
759 2096 1835
954 2176 2106
1159 2276 2375
1379 2378 2639
1608 2493 2906
827 2505 46
659 2540 504
545 2535 1126
510 2550 1571
752 2582 1884
962 2651 2158
1175 2732 2420
1408 2820 2686
1642 2915 2951
848 3023 54
660 3057 474
567 3056 1070
434 3048 1652
739 3071 1967
959 3127 2230
1200 3191 2497
1431 3271 2757
1673 3350 3021
877 3538 62
647 3576 432
558 3580 1029
470 3564 1642
656 3571 2036
972 3592 2362
1217 3652 2612
1467 3713 2868
1725 3782 3134
892 4051 76
641 4089 396
550 4095 995
485 4088 1584
591 4095 2022
965 4080 2450
1304 4086 2774
1725 4077 3095
2135 4066 3390
1025 0 0
1034 0 492
916 16 1149
848 22 1672
976 5 2077
1152 0 2485
1403 109 2823
1675 293 3142
1952 467 3437
1075 448 19
1198 312 346
1013 383 1169
827 290 1824
968 370 2162
1152 506 2487
1366 655 2789
1611 822 3073
1866 979 3347
1086 980 16
1110 1002 326
1045 1008 1034
911 891 1805
1016 976 2109
1163 1102 2393
1336 1242 2663
1530 1403 2927
1749 1556 3186
1229 1437 35
1166 1493 383
1099 1500 1045
977 1477 1690
1114 1545 1971
1272 1632 2246
1451 1731 2532
1634 1852 2802
1829 1986 3070
1333 1929 65
1197 2002 383
1122 2014 1033
951 2017 1675
1129 2045 1983
1307 2114 2251
1486 2211 2505
1686 2308 2760
1894 2422 3019
1404 2442 92
1210 2523 370
1132 2537 1013
1011 2532 1634
1114 2551 2011
1320 2601 2286
1510 2675 2536
1724 2760 2792
1939 2851 3050
1444 2959 117
1216 3039 347
1136 3054 985
1036 3054 1596
1056 3063 2062
1314 3087 2343
1538 3142 2606
1755 3214 2858
1983 3288 3117
1483 3481 136
1213 3560 310
1129 3576 950
1036 3578 1548
962 3574 2110
1307 3563 2465
1545 3612 2709
1786 3666 2961
2025 3731 3219
1518 3995 161
1210 4074 282
1123 4092 914
1034 4095 1516
999 4091 2086
1256 4075 2500
1564 4074 2844
1909 4078 3143
2294 4067 3429
1533 3 0
1567 0 347
1545 0 1006
1397 33 1704
1344 38 2218
1510 5 2582
1720 0 2931
1987 71 3235
2262 232 3523
1578 423 16
1701 161 117
1652 310 968
1476 356 1719
1320 294 2343
1503 390 2644
1716 515 2930
1956 654 3205
2206 792 3478
1604 958 16
1766 825 117
1733 868 928
1548 911 1679
1389 829 2379
1536 931 2646
1720 1048 2912
1935 1186 3153
2161 1317 3413
1611 1488 16
1651 1497 87
1618 1528 866
1550 1525 1542
1453 1441 2278
1566 1526 2547
1715 1642 2798
1882 1770 3038
2080 1914 3268
1752 1934 60
1710 1987 144
1662 2016 902
1593 2021 1545
1512 2010 2146
1665 2071 2410
1824 2156 2658
1999 2247 2923
2182 2361 3171
1868 2418 103
1745 2498 166
1683 2528 888
1607 2536 1524
1484 2548 2126
1683 2571 2417
1864 2632 2669
2051 2716 2913
2246 2801 3165
1949 2918 149
1760 3014 171
1693 3047 861
1611 3059 1498
1515 3059 2105
1674 3066 2462
1888 3109 2722
2087 3172 2968
2299 3244 3222
2005 3434 178
1763 3535 150
1692 3566 825
1607 3578 1464
1520 3583 2062
1610 3571 2547
1886 3583 2819
2119 3629 3066
2342 3689 3318
2048 3950 210
1762 4052 142
1693 4084 793
1609 4093 1442
1530 4095 2043
1558 4091 2551
1893 4055 2942
2146 4080 3216
2506 4068 3494
2048 16 0
2079 0 302
2066 0 967
2054 0 1522
1916 43 2215
1891 49 2711
2088 0 3036
2332 0 3323
2600 19 3604
2073 449 5
2172 174 101
2232 136 667
2120 346 1507
1973 365 2227
1887 354 2787
2092 440 3059
2317 546 3320
2563 656 3586
2109 941 14
2267 737 117
2320 749 672
2178 869 1515
2025 905 2210
1921 873 2818
2112 974 3055
2312 1081 3300
2536 1191 3554
2128 1465 22
2236 1401 112
2311 1399 616
2228 1427 1442
2066 1457 2153
1965 1419 2798
2128 1511 3028
2314 1608 3266
2513 1721 3504
2121 2003 22
2160 2005 93
2168 2047 612
2117 2055 1378
2053 2044 2049
2014 2006 2673
2131 2090 2922
2285 2195 3155
2453 2307 3383
2262 2442 81
2238 2479 131
2215 2529 669
2154 2545 1399
2081 2550 2037
2061 2552 2557
2226 2605 2813
2387 2685 3051
2559 2766 3309
2387 2914 141
2291 2983 155
2240 3039 664
2168 3058 1377
2087 3066 2010
2027 3075 2572
2250 3089 2847
2434 3143 3092
2625 3213 3341
2471 3409 195
2316 3494 182
2243 3553 648
2171 3577 1345
2088 3588 1985
2024 3588 2568
2240 3566 2944
2461 3607 3181
2671 3657 3427
2521 3926 224
2331 4015 190
2251 4071 635
2177 4091 1322
2096 4094 1966
2038 4095 2554
2203 4074 3006
2471 4064 3320
2762 4070 3582
2555 46 0
2585 0 260
2626 0 757
2591 0 1467
2558 3 2044
2437 54 2716
2489 33 3147
2715 0 3422
2972 0 3677
2569 478 3
2654 209 90
2746 82 390
2682 220 1389
2604 386 2031
2478 409 2717
2491 423 3182
2706 490 3432
2940 560 3686
2611 940 11
2739 735 106
2838 664 457
2794 769 1264
2630 919 2039
2522 934 2695
2510 940 3189
2706 1023 3428
2922 1098 3675
2613 1481 14
2757 1345 120
2871 1284 476
2833 1350 1232
2666 1434 2038
2553 1470 2660
2532 1471 3176
2712 1551 3410
2910 1625 3653
2635 1984 30
2722 1938 123
2820 1928 378
2797 1971 1152
2704 1986 1942
2562 2009 2622
2547 2008 3148
2722 2076 3377
2902 2153 3621
2619 2522 24
2648 2526 95
2691 2557 348
2671 2586 1134
2618 2583 1871
2559 2560 2558
2581 2570 3031
2705 2646 3278
2852 2738 3519
2745 2970 90
2748 2986 150
2741 3036 438
2710 3065 1182
2645 3076 1888
2564 3082 2531
2627 3076 2982
2791 3127 3231
2950 3199 3474
2836 3451 149
2812 3480 190
2766 3544 454
2726 3575 1176
2652 3590 1868
2567 3597 2503
2583 3579 3058
2815 3595 3306
3008 3639 3549
2888 3957 187
2832 3997 212
2778 4055 463
2732 4086 1156
2671 4090 1860
2600 4094 2507
2577 4094 3052
2814 4058 3433
3057 4074 3690
3067 68 0
3094 0 238
3133 0 698
3111 0 1421
3107 0 1976
3058 8 2580
2986 52 3180
3131 0 3516
3370 0 3751
3068 524 0
3146 228 87
3226 82 351
3266 82 1059
3154 347 1946
3088 440 2560
3012 457 3174
3117 475 3541
3343 488 3776
3091 979 5
3209 759 104
3305 652 421
3347 690 1013
3211 830 1945
3110 958 2549
3037 976 3156
3118 993 3548
3332 1039 3778
3111 1483 14
3257 1306 123
3344 1265 469
3377 1299 1034
3295 1374 1810
3128 1481 2538
3051 1503 3139
3124 1511 3543
3320 1564 3783
3108 2014 14
3226 1922 123
3325 1888 449
3364 1899 1032
3309 1940 1755
3143 1993 2544
3065 2030 3109
3134 2034 3526
3313 2091 3771
3132 2513 30
3203 2478 123
3271 2480 384
3303 2509 943
3275 2532 1665
3185 2537 2427
3066 2554 3084
3138 2566 3495
3307 2620 3742
3111 3046 22
3132 3051 90
3169 3077 323
3197 3106 909
3171 3119 1653
3123 3107 2368
3066 3076 3067
3135 3114 3426
3261 3183 3675
3217 3505 81
3214 3523 136
3231 3555 363
3242 3581 972
3204 3598 1691
3139 3604 2384
3061 3605 3031
3179 3590 3440
3351 3635 3685
3269 3997 133
3236 4028 166
3243 4061 434
3266 4083 987
3229 4086 1738
3167 4090 2413
3092 4094 3035
3150 4085 3524
3389 4076 3813
3577 103 0
3604 0 209
3644 0 662
3679 0 1187
3633 0 1917
3617 0 2493
3571 8 3095
3574 8 3592
3781 0 3845
3573 558 0
3646 246 85
3719 82 357
3771 82 949
3708 182 1827
3641 422 2478
3576 502 3091
3573 475 3606
3761 468 3869
3588 1016 0
3698 776 98
3777 686 433
3817 706 990
3819 746 1644
3661 939 2477
3585 1013 3077
3583 998 3597
3748 1016 3884
3611 1495 8
3739 1315 117
3804 1285 489
3834 1313 1037
3856 1336 1606
3704 1418 2478
3597 1525 3058
3589 1523 3588
3739 1540 3891
3601 2024 11
3736 1891 131
3804 1870 522
3827 1900 1063
3846 1922 1616
3778 1958 2323
3609 2038 3042
3584 2050 3581
3729 2057 3896
3600 2544 8
3695 2480 117
3761 2472 461
3794 2487 1030
3814 2493 1616
3787 2511 2248
3628 2538 3043
3580 2574 3564
3726 2576 3890
3620 3047 16
3678 3021 109
3717 3034 464
3737 3055 1012
3749 3074 1579
3757 3079 2178
3667 3078 2926
3576 3085 3559
3715 3098 3887
3600 3570 16
3615 3577 82
3639 3599 454
3659 3619 1017
3673 3635 1586
3676 3642 2175
3631 3624 2877
3575 3590 3578
3680 3642 3861
3674 4046 62
3665 4065 109
3684 4085 527
3707 4087 1098
3714 4087 1732
3709 4087 2326
3659 4091 2960
3594 4094 3570
3731 4083 3946
4085 136 0
4095 49 313
4090 178 891
4084 296 1446
4089 202 2004
4089 224 2512
4095 81 3034
4095 3 3574
4039 867 3885
4079 580 0
4095 510 298
4085 625 873
4077 706 1396
4071 759 1916
4085 644 2490
4095 552 3020
4095 520 3577
4045 1025 3904
4080 1057 0
4095 1012 333
4087 1078 860
4075 1146 1376
4064 1208 1889
4083 1108 2486
4088 1087 3005
4092 1043 3577
4050 1335 3923
4089 1544 0
4095 1522 367
4089 1564 875
4075 1618 1388
4065 1662 1884
4061 1685 2390
4080 1607 3003
4090 1558 3570
4057 1728 3946
4094 2050 0
4095 2035 399
4092 2061 891
4081 2095 1396
4072 2125 1891
4062 2161 2393
4082 2096 3014
4091 2066 3555
4065 2167 3967
4081 2574 0
4095 2544 317
4095 2562 877
4088 2581 1415
4078 2609 1918
4068 2638 2417
4062 2659 2922
4088 2584 3537
4066 2658 3976
4085 3077 0
4095 3057 236
4093 3081 821
4086 3096 1415
4081 3108 1942
4077 3119 2448
4073 3134 2949
4087 3094 3545
4073 3136 4004
4095 3582 3
4095 3575 182
4093 3590 882
4090 3596 1442
4087 3604 1944
4084 3613 2457
4081 3619 2989
4078 3629 3502
4087 3606 4046
4095 4092 68
4095 4095 163
4095 4095 936
4095 4095 1491
4095 4095 2024
4095 4095 2551
4095 4095 3067
4095 4095 3566
4093 4095 4094
