Toning/Toning-WoodenHueTwists.3dl
#25pt 3DLUT created by 3D LUT Creator Pro (c) Oleg Sharonov
#Copyright Oleg Sharonov
#IMAGEPROFILE sRGB IEC61966-2.1 v.2.10
#INPUTGAMMA sRGB IEC61966-2.1 v.2.10
#OUTPUTGAMMA sRGB IEC61966-2.1 v.2.10
0 128 256 384 512 640 768 896 1023
0 0 0
46 65 512
93 128 1024
132 182 1536
143 197 2048
104 143 2559
38 54 3071
3 5 3583
0 0 4095
175 512 167
0 512 512
0 512 1024
44 572 1536
71 611 2048
62 598 2559
25 547 3071
3 516 3583
0 512 4095
349 1024 334
329 1024 680
0 1024 1024
0 1024 1536
0 1023 2048
21 1052 2559
13 1041 3071
2 1026 3583
0 1024 4095
521 1536 500
500 1536 845
326 1536 1190
0 1536 1536
0 1536 2048
0 1535 2559
0 1535 3071
0 1535 3583
0 1535 4095
680 2048 661
656 2048 1002
633 2048 1344
316 2048 1696
0 2048 2048
0 2048 2559
0 2047 3071
0 2047 3583
0 2046 4095
817 2559 813
789 2559 1148
761 2559 1484
598 2559 1834
299 2559 2196
0 2559 2559
0 2559 3071
0 2559 3583
0 2559 4095
944 3071 960
911 3071 1291
879 3071 1621
847 3071 1952
564 3071 2325
282 3071 2698
0 3071 3071
0 3071 3583
0 3071 4095
1083 3583 1113
1049 3583 1441
1015 3583 1769
981 3583 2098
826 3583 2450
550 3583 2828
275 3583 3206
0 3583 3583
0 3583 4095
1236 4095 1271
1202 4095 1599
1167 4095 1927
1133 4095 2255
1099 4095 2583
824 4095 2961
549 4095 3339
275 4095 3717
0 4095 4095
512 0 0
512 105 505
628 238 1024
666 292 1536
674 307 2048
630 253 2559
561 163 3071
524 115 3583
521 110 4095
512 441 46
512 512 512
559 576 1024
599 634 1536
618 660 2048
594 626 2559
544 556 3071
516 516 3583
512 512 4095
705 1024 337
686 1024 679
512 1024 1024
512 1024 1536
547 1073 2048
553 1080 2559
530 1050 3071
514 1026 3583
512 1024 4095
877 1536 502
859 1536 845
838 1536 1190
512 1536 1535
512 1536 2048
512 1535 2559
518 1544 3071
512 1536 3583
511 1535 4095
1040 2048 661
1021 2048 1007
998 2048 1349
828 2048 1695
512 2048 2047
512 2048 2559
512 2047 3071
512 2047 3583
512 2047 4095
1186 2559 810
1165 2559 1161
1138 2559 1498
1110 2559 1834
811 2559 2196
511 2559 2559
512 2559 3071
512 2559 3583
512 2559 4095
1320 3071 955
1298 3071 1311
1266 3071 1642
1233 3071 1973
1076 3071 2325
794 3071 2698
511 3071 3071
512 3071 3583
512 3071 4095
1462 3583 1106
1440 3583 1465
1406 3583 1794
1372 3583 2122
1338 3583 2451
1062 3583 2828
787 3583 3205
511 3583 3582
512 3583 4095
1616 4095 1264
1593 4095 1623
1559 4095 1952
1525 4095 2280
1491 4095 2608
1336 4095 2961
1061 4095 3339
786 4095 3716
511 4095 4094
1024 0 0
1024 68 544
1024 210 1011
1140 339 1536
1205 416 2048
1156 363 2559
1083 273 3071
1045 226 3583
1040 221 4095
1024 426 0
1024 428 441
1024 617 1017
1134 743 1536
1150 769 2048
1121 736 2559
1066 666 3071
1035 626 3583
1032 622 4095
1024 882 91
1024 953 558
1024 1024 1024
1068 1085 1536
1095 1123 2048
1085 1109 2559
1049 1059 3071
1026 1027 3583
1023 1023 4095
1275 1528 438
1215 1536 847
1197 1536 1190
1024 1535 1536
1023 1536 2048
1044 1564 2559
1037 1553 3071
1025 1538 3583
1023 1535 4095
1402 2048 662
1382 2048 1007
1363 2048 1354
1340 2048 1696
1023 2047 2048
1024 2048 2559
1024 2048 3071
1025 2048 3583
1024 2047 4095
1555 2559 808
1534 2559 1159
1514 2559 1511
1486 2559 1847
1323 2559 2197
1024 2559 2559
1024 2560 3071
1024 2559 3583
1024 2559 4095
1696 3071 949
1674 3071 1306
1653 3071 1663
1620 3071 1994
1588 3071 2325
1306 3071 2698
1024 3071 3071
1024 3071 3583
1024 3071 4095
1842 3583 1100
1820 3583 1459
1797 3583 1818
1763 3583 2146
1729 3583 2475
1574 3583 2828
1299 3583 3205
1024 3583 3582
1024 3583 4095
1995 4095 1258
1973 4095 1617
1951 4095 1976
1916 4095 2304
1882 4095 2633
1847 4095 2962
1573 4095 3339
1298 4095 3717
1023 4095 4094
1536 0 0
1536 14 499
1536 167 1049
1536 308 1518
1634 407 2048
1648 417 2559
1605 384 3071
1565 337 3583
1561 331 4095
1536 396 0
1536 352 376
1536 576 1055
1536 718 1524
1630 820 2048
1648 845 2559
1588 776 3071
1555 736 3583
1552 732 4095
1536 890 14
1536 927 450
1536 944 956
1536 1126 1529
1626 1232 2048
1612 1219 2559
1571 1169 3071
1546 1137 3583
1543 1133 4095
1536 1334 131
1536 1401 599
1536 1469 1067
1536 1536 1536
1571 1585 2048
1577 1593 2559
1555 1562 3071
1538 1538 3583
1535 1535 4095
1786 2001 463
1779 2048 932
1725 2048 1354
1706 2048 1701
1535 2047 2048
1535 2048 2559
1542 2056 3071
1537 2049 3583
1536 2047 4095
1935 2559 697
1903 2559 1157
1883 2559 1509
1862 2559 1861
1834 2559 2197
1535 2559 2559
1535 2559 3071
1535 2559 3583
1536 2559 4095
2072 3071 944
2050 3071 1301
2029 3071 1658
2007 3071 2016
1975 3071 2346
1818 3071 2698
1535 3071 3071
1535 3071 3583
1536 3071 4095
2221 3583 1093
2199 3583 1453
2177 3583 1811
2155 3583 2171
2120 3583 2500
2087 3583 2828
1811 3583 3206
1536 3583 3583
1537 3583 4095
2375 4095 1251
2352 4095 1611
2330 4095 1970
2308 4095 2329
2274 4095 2658
2239 4095 2986
2085 4095 3339
1810 4095 3717
1536 4095 4094
2048 0 0
2048 0 472
2048 105 1074
2048 244 1553
2048 383 2032
2104 415 2559
2087 390 3071
2071 396 3583
2081 442 4095
2048 408 0
2048 318 346
2048 499 993
2048 660 1556
2048 799 2036
2104 844 2559
2090 835 3071
2075 847 3583
2072 843 4095
2048 939 0
2048 901 406
2048 895 914
2048 1076 1561
2048 1215 2040
2104 1274 2559
2094 1280 3071
2067 1248 3583
2063 1244 4095
2048 1396 49
2048 1422 495
2048 1477 973
2048 1471 1480
2048 1631 2044
2104 1703 2559
2077 1672 3071
2058 1649 3583
2056 1646 4095
2048 1830 140
2048 1884 617
2048 1939 1094
2048 1993 1571
2048 2048 2048
2068 2076 2559
2061 2066 3071
2050 2050 3583
2048 2048 4095
2298 2532 451
2294 2559 938
2263 2559 1398
2231 2559 1858
2211 2559 2210
2048 2559 2559
2048 2560 3071
2048 2560 3583
2047 2559 4095
2425 3071 662
2415 3071 1157
2405 3071 1653
2384 3071 2010
2362 3071 2368
2329 3071 2698
2047 3071 3071
2047 3071 3583
2046 3071 4095
2579 3583 936
2578 3583 1446
2556 3583 1805
2534 3583 2165
2512 3583 2525
2478 3583 2853
2323 3583 3206
2046 3583 3583
2046 3583 4095
2754 4095 1245
2732 4095 1604
2710 4095 1963
2688 4095 2323
2665 4095 2683
2631 4095 3011
2597 4095 3339
2322 4095 3717
2046 4095 4095
2559 0 0
2559 0 472
2559 36 1031
2559 144 1564
2559 279 2062
2559 414 2559
2568 396 3071
2563 405 3583
2574 451 4095
2559 478 0
2559 371 392
2559 467 975
2559 572 1564
2559 708 2062
2559 843 2559
2572 841 3071
2569 857 3583
2579 903 4095
2559 1042 0
2559 958 416
2559 912 929
2559 1017 1518
2559 1137 2062
2559 1273 2559
2576 1286 3071
2573 1308 3583
2584 1354 4095
2559 1547 0
2559 1554 446
2559 1507 959
2559 1461 1472
2559 1566 2062
2559 1701 2559
2579 1731 3071
2578 1759 3583
2576 1756 4095
2559 1980 47
2559 1993 519
2559 2025 1011
2559 2057 1504
2559 2011 2016
2559 2131 2559
2582 2176 3071
2570 2161 3583
2568 2158 4095
2559 2402 102
2559 2433 593
2559 2465 1085
2559 2497 1576
2559 2528 2068
2559 2559 2559
2565 2568 3071
2561 2562 3583
2560 2560 4095
2777 3071 379
2767 3071 875
2758 3071 1371
2748 3071 1866
2739 3071 2362
2716 3071 2719
2559 3071 3071
2560 3072 3583
2559 3072 4095
2915 3583 627
2914 3583 1137
2914 3583 1648
2914 3583 2158
2891 3583 2518
2868 3583 2877
2834 3583 3206
2559 3583 3583
2559 3583 4095
3089 4095 934
3089 4095 1445
3090 4095 1957
3067 4095 2317
3045 4095 2677
3023 4095 3037
2988 4095 3364
2834 4095 3717
2558 4094 4095
3071 0 0
3071 0 495
3071 5 1020
3071 28 1549
3071 160 2064
3071 292 2578
3050 403 3071
3056 415 3583
3067 460 4095
3071 567 0
3071 463 470
3071 487 999
3071 519 1535
3071 600 2059
3071 732 2574
3054 847 3071
3061 866 3583
3073 913 4095
3071 1164 0
3071 1063 468
3071 978 985
3071 1010 1521
3071 1042 2056
3071 1174 2571
3058 1293 3071
3066 1318 3583
3077 1364 4095
3071 1764 0
3071 1670 472
3071 1586 989
3071 1500 1505
3071 1533 2042
3071 1616 2567
3061 1737 3071
3071 1769 3583
3083 1817 4095
3071 2183 0
3071 2184 488
3071 2194 993
3071 2109 1511
3071 2024 2027
3071 2058 2564
3064 2181 3071
3076 2220 3583
3088 2269 4095
3071 2599 16
3071 2604 516
3071 2613 1021
3071 2623 1527
3071 2633 2033
3071 2548 2550
3068 2627 3071
3081 2671 3583
3080 2670 4095
3071 3013 38
3071 3022 544
3071 3032 1049
3071 3042 1555
3071 3052 2061
3071 3062 2565
3071 3071 3071
3071 3071 3583
3071 3071 4095
3252 3583 318
3251 3583 828
3251 3583 1339
3250 3583 1850
3249 3583 2361
3248 3583 2871
3226 3583 3230
3071 3583 3583
3072 3584 4095
3424 4095 623
3424 4095 1134
3425 4095 1646
3424 4095 2158
3425 4095 2670
3402 4095 3030
3380 4095 3389
3345 4095 3717
3071 4094 4095
3583 0 0
3583 0 511
3583 0 1023
3583 2 1536
3583 68 2054
3583 198 2575
3583 329 3097
3548 424 3583
3560 470 4095
3583 610 0
3583 507 508
3583 509 1021
3583 511 1535
3583 514 2048
3583 644 2569
3583 774 3091
3554 875 3583
3566 922 4095
3583 1222 0
3583 1120 501
3583 1019 1020
3583 1021 1534
3583 1024 2048
3583 1091 2565
3583 1221 3086
3559 1328 3583
3571 1375 4095
3583 1835 0
3583 1733 494
3583 1633 1014
3583 1532 1533
3583 1534 2046
3583 1537 2560
3583 1667 3081
3563 1778 3583
3576 1827 4095
3583 2347 0
3583 2347 488
3583 2246 1007
3583 2145 1526
3583 2044 2044
3583 2048 2559
3583 2114 3077
3568 2229 3583
3581 2278 4095
3583 2757 0
3583 2757 497
3583 2758 1008
3583 2759 1520
3583 2658 2039
3583 2558 2557
3583 2560 3072
3572 2680 3583
3586 2730 4095
3583 3167 0
3583 3168 506
3583 3168 1017
3583 3169 1529
3583 3170 2041
3583 3171 2552
3583 3070 3070
3579 3132 3583
3591 3181 4095
3583 3578 3
3583 3578 516
3583 3579 1026
3583 3580 1538
3583 3581 2050
3583 3582 2561
3583 3582 3071
3583 3583 3583
3583 3583 4095
3760 4095 311
3760 4095 823
3760 4095 1334
3760 4095 1847
3760 4095 2359
3760 4095 2871
3760 4095 3382
3737 4095 3742
3583 4095 4095
4095 0 0
4095 0 512
4095 0 1024
4095 0 1536
4095 0 2048
4095 131 2570
4095 261 3092
4095 391 3614
4054 480 4095
4095 614 0
4095 511 512
4095 511 1024
4095 511 1535
4095 511 2047
4095 576 2564
4095 707 3086
4095 837 3608
4060 931 4095
4095 1228 0
4095 1125 505
4095 1023 1024
4095 1023 1536
4095 1023 2048
4095 1023 2559
4095 1154 3081
4095 1284 3603
4066 1385 4095
4095 1842 0
4095 1739 497
4095 1638 1017
4095 1536 1537
4095 1536 2048
4095 1536 2559
4095 1601 3076
4095 1731 3598
4070 1836 4095
4095 2456 0
4095 2354 490
4095 2252 1009
4095 2150 1529
4095 2047 2046
4095 2047 2559
4095 2048 3071
4095 2177 3593
4075 2287 4095
4095 2866 0
4095 2866 490
4095 2866 1002
4095 2764 1522
4095 2661 2040
4095 2559 2558
4095 2560 3071
4095 2625 3589
4079 2739 4095
4095 3275 0
4095 3275 497
4095 3275 1009
4095 3275 1521
4095 3275 2034
4095 3173 2552
4095 3072 3071
4095 3071 3583
4084 3191 4095
4095 3685 0
4095 3685 505
4095 3685 1016
4095 3685 1528
4095 3685 2041
4095 3685 2553
4095 3685 3064
4095 3583 3583
4090 3644 4095
4095 4095 46
4095 4095 512
4095 4095 1023
4095 4095 1535
4095 4095 2048
4095 4095 2560
4095 4095 3071
4095 4095 3583
4095 4095 4095
