Toning/Toning-Accent warms.3dl
#25pt 3DLUT created by 3D LUT Creator Pro (c) Oleg Sharonov
#Copyright Oleg Sharonov
#INPUTGAMMA sRGB IEC61966-2.1 v.2.10
#IMAGEPROFILE sRGB IEC61966-2.1 v.2.10
#OUTPUTGAMMA sRGB IEC61966-2.1 v.2.10
0 128 256 384 512 640 768 896 1023
0 0 0
0 0 512
0 0 1024
0 0 1536
0 0 2048
0 0 2559
0 0 3071
0 0 3583
0 0 4095
0 512 0
0 512 512
0 512 1024
0 512 1536
0 512 2048
0 512 2559
0 512 3071
0 512 3583
0 512 4095
0 1024 0
0 1024 512
0 1024 1024
0 1024 1536
0 1024 2048
0 1024 2559
0 1024 3071
0 1024 3583
0 1024 4095
0 1536 0
0 1536 512
0 1536 1024
0 1536 1536
0 1536 2048
0 1536 2559
0 1536 3071
0 1536 3583
0 1536 4095
0 2048 0
0 2048 512
0 2048 1024
0 2048 1536
0 2048 2048
0 2048 2559
0 2048 3071
0 2048 3583
0 2048 4095
0 2559 0
0 2559 512
0 2559 1024
0 2559 1536
0 2559 2048
0 2559 2559
0 2559 3071
0 2559 3583
0 2559 4095
0 3071 0
0 3071 512
0 3071 1024
0 3071 1536
0 3071 2048
0 3071 2559
0 3071 3071
0 3071 3583
0 3071 4095
0 3583 0
0 3583 512
0 3583 1024
0 3583 1536
0 3583 2048
0 3583 2559
0 3583 3071
0 3583 3583
0 3583 4095
0 4095 0
0 4095 512
0 4095 1024
0 4095 1536
0 4095 2048
0 4095 2559
0 4095 3071
0 4095 3583
0 4095 4095
512 0 0
512 0 448
512 0 905
512 0 1437
512 0 1969
512 0 2500
512 0 3032
512 0 3563
512 0 4095
512 448 0
512 448 448
512 448 905
512 448 1437
512 448 1968
512 448 2500
512 448 3032
512 448 3563
512 448 4095
512 941 0
512 941 448
512 941 905
512 941 1437
512 941 1969
512 941 2500
512 941 3032
512 941 3563
512 941 4095
512 1466 0
512 1466 448
512 1466 905
512 1466 1437
512 1466 1969
512 1466 2500
512 1466 3032
512 1466 3563
512 1466 4095
512 1992 0
512 1992 448
512 1992 905
512 1992 1437
512 1992 1969
512 1992 2500
512 1992 3032
512 1992 3563
512 1992 4095
512 2518 0
512 2518 448
512 2518 905
512 2518 1437
512 2518 1969
512 2518 2500
512 2518 3032
512 2518 3563
512 2518 4095
512 3044 0
512 3044 448
512 3044 905
512 3044 1437
512 3044 1969
512 3044 2500
512 3044 3032
512 3044 3563
512 3044 4095
512 3569 0
512 3569 448
512 3569 905
512 3569 1437
512 3569 1969
512 3569 2500
512 3569 3032
512 3569 3563
512 3569 4095
512 4095 0
512 4095 448
512 4095 905
512 4095 1437
512 4095 1969
512 4095 2500
512 4095 3032
512 4095 3563
512 4095 4095
1024 0 0
1024 0 384
1023 0 787
1023 0 1338
1024 0 1889
1024 0 2441
1024 0 2992
1024 0 3544
1024 0 4095
1024 384 0
1024 384 384
1024 384 787
1024 384 1339
1024 384 1890
1024 384 2441
1024 384 2992
1024 384 3544
1024 384 4095
1024 857 0
1024 857 384
1024 857 787
1024 857 1339
1024 857 1890
1024 857 2441
1024 857 2992
1024 857 3544
1024 857 4095
1024 1397 0
1024 1397 384
1024 1397 787
1024 1397 1338
1024 1397 1890
1024 1397 2441
1024 1397 2992
1024 1397 3544
1024 1397 4095
1024 1937 0
1024 1937 384
1024 1937 787
1024 1937 1338
1024 1937 1890
1024 1937 2441
1024 1937 2992
1024 1937 3544
1024 1937 4095
1024 2476 0
1024 2476 384
1024 2476 787
1024 2476 1338
1024 2476 1890
1024 2476 2441
1024 2476 2992
1024 2476 3544
1024 2476 4095
1024 3016 0
1024 3016 384
1024 3016 787
1024 3016 1338
1024 3016 1890
1024 3016 2441
1024 3016 2992
1024 3016 3544
1024 3016 4095
1024 3555 0
1024 3555 384
1024 3555 787
1024 3555 1338
1024 3555 1890
1024 3555 2441
1024 3555 2992
1024 3555 3544
1024 3555 4095
1024 4095 0
1024 4095 384
1024 4095 787
1024 4095 1338
1024 4095 1890
1023 4095 2441
1024 4095 2992
1024 4095 3544
1024 4095 4095
1535 0 0
1535 0 320
1535 0 669
1535 0 1240
1535 0 1811
1535 0 2382
1535 0 2953
1536 0 3524
1536 0 4095
1535 320 0
1535 320 320
1535 320 669
1535 320 1239
1535 320 1811
1536 320 2382
1535 320 2953
1535 320 3524
1536 320 4095
1535 774 0
1535 774 320
1535 774 669
1536 774 1240
1535 774 1811
1536 774 2382
1535 774 2953
1536 774 3524
1536 774 4095
1536 1328 0
1536 1328 320
1536 1328 669
1536 1328 1240
1536 1328 1811
1536 1328 2382
1536 1328 2953
1536 1328 3524
1535 1328 4095
1536 1881 0
1536 1881 320
1536 1881 669
1536 1881 1240
1536 1881 1811
1536 1881 2382
1536 1881 2953
1536 1881 3524
1536 1881 4095
1536 2435 0
1536 2435 320
1536 2435 669
1536 2435 1240
1536 2435 1811
1536 2435 2382
1536 2435 2953
1536 2435 3524
1536 2435 4095
1536 2988 0
1536 2988 320
1536 2988 669
1536 2988 1240
1536 2988 1811
1536 2988 2382
1536 2988 2953
1536 2988 3524
1536 2988 4095
1536 3542 0
1536 3542 320
1536 3541 669
1536 3541 1240
1536 3541 1811
1536 3541 2382
1536 3541 2953
1536 3542 3524
1536 3541 4095
1536 4095 0
1536 4095 320
1535 4095 669
1535 4095 1240
1535 4095 1811
1535 4095 2382
1536 4095 2953
1536 4095 3524
1536 4095 4095
2048 0 0
2048 0 256
2048 0 551
2048 0 1141
2048 0 1732
2047 0 2323
2048 0 2914
2048 0 3505
2047 0 4095
2048 256 0
2048 256 256
2047 256 551
2047 256 1141
2047 256 1732
2047 256 2323
2047 256 2914
2047 256 3504
2047 256 4095
2048 691 0
2048 691 256
2047 691 551
2047 691 1141
2047 691 1732
2047 691 2323
2047 691 2914
2047 691 3504
2047 691 4095
2047 1258 0
2047 1258 256
2047 1258 550
2047 1258 1141
2047 1258 1732
2047 1258 2323
2047 1258 2913
2047 1258 3504
2047 1258 4095
2047 1826 0
2047 1826 256
2047 1826 551
2047 1826 1141
2047 1826 1732
2047 1826 2323
2047 1826 2914
2047 1826 3504
2047 1826 4095
2047 2393 0
2047 2393 256
2047 2393 551
2047 2393 1141
2047 2393 1732
2047 2393 2323
2047 2393 2913
2047 2393 3504
2047 2393 4095
2047 2960 0
2047 2960 256
2047 2960 551
2047 2960 1141
2047 2960 1732
2047 2960 2323
2047 2960 2913
2047 2960 3504
2047 2960 4095
2047 3528 0
2047 3528 256
2047 3528 551
2047 3528 1141
2047 3528 1732
2047 3528 2323
2047 3528 2913
2047 3528 3504
2047 3528 4095
2047 4095 0
2047 4095 256
2048 4095 551
2048 4095 1142
2048 4095 1732
2048 4095 2323
2047 4095 2913
2047 4095 3504
2047 4095 4095
2559 0 0
2559 0 192
2559 0 432
2559 0 1043
2559 0 1653
2559 0 2263
2559 0 2874
2559 0 3485
2559 0 4095
2559 192 0
2559 192 192
2559 192 432
2559 192 1042
2559 192 1653
2559 192 2263
2559 192 2874
2559 192 3484
2559 192 4095
2559 608 0
2559 608 192
2559 608 432
2559 608 1042
2559 608 1653
2559 608 2263
2559 608 2874
2559 608 3484
2559 608 4095
2559 1189 0
2559 1189 192
2559 1189 432
2559 1189 1043
2559 1189 1653
2559 1189 2264
2559 1189 2874
2559 1189 3484
2559 1189 4095
2559 1770 0
2559 1770 192
2559 1770 432
2559 1770 1043
2559 1770 1653
2559 1770 2264
2559 1770 2874
2559 1770 3484
2559 1770 4095
2559 2351 0
2559 2351 192
2559 2351 432
2559 2351 1043
2559 2351 1653
2559 2351 2264
2559 2351 2874
2559 2351 3484
2559 2351 4095
2559 2933 0
2559 2933 192
2559 2933 432
2559 2933 1043
2559 2933 1653
2559 2933 2264
2559 2933 2874
2559 2933 3484
2559 2933 4095
2559 3514 0
2559 3514 192
2559 3514 432
2559 3514 1043
2559 3514 1653
2559 3514 2264
2559 3514 2874
2559 3514 3485
2559 3514 4095
2559 4095 0
2559 4095 192
2559 4095 432
2559 4095 1043
2559 4095 1653
2559 4095 2264
2559 4095 2874
2559 4095 3485
2559 4095 4095
3071 0 0
3071 0 128
3071 0 313
3071 0 944
3071 0 1574
3071 0 2204
3071 0 2834
3071 0 3465
3071 0 4095
3071 128 0
3071 128 128
3071 128 313
3071 128 944
3071 128 1574
3071 128 2204
3071 128 2834
3071 128 3465
3071 128 4095
3071 524 0
3071 524 128
3071 524 313
3071 524 944
3071 524 1574
3071 524 2204
3071 524 2834
3071 524 3465
3071 524 4095
3071 1120 0
3071 1120 128
3071 1120 314
3071 1120 944
3071 1120 1574
3071 1120 2204
3071 1120 2835
3071 1120 3465
3071 1119 4095
3071 1715 0
3071 1715 128
3071 1715 313
3071 1715 944
3071 1715 1574
3071 1715 2204
3071 1715 2835
3071 1715 3465
3071 1715 4095
3071 2310 0
3071 2310 128
3071 2310 314
3071 2310 944
3071 2310 1574
3071 2310 2204
3071 2310 2835
3071 2310 3465
3071 2310 4095
3071 2905 0
3071 2905 128
3071 2905 314
3071 2905 944
3071 2905 1574
3071 2905 2204
3071 2905 2835
3071 2905 3465
3071 2905 4095
3071 3500 0
3071 3500 128
3071 3500 314
3071 3500 944
3071 3500 1574
3071 3500 2204
3071 3500 2835
3071 3500 3465
3071 3500 4095
3071 4095 0
3071 4095 128
3071 4095 313
3071 4095 944
3071 4095 1574
3071 4095 2204
3071 4095 2835
3071 4095 3465
3071 4095 4095
3583 0 0
3583 0 64
3583 0 196
3583 0 845
3583 0 1495
3583 0 2145
3583 0 2795
3583 0 3445
3583 0 4095
3583 64 0
3583 64 64
3583 64 196
3583 64 845
3583 64 1495
3583 64 2145
3583 64 2795
3583 64 3445
3583 64 4095
3583 442 0
3583 442 64
3583 442 196
3583 442 845
3583 442 1495
3583 442 2145
3583 442 2795
3583 442 3445
3583 442 4095
3583 1050 0
3583 1050 64
3583 1050 196
3583 1050 845
3583 1050 1495
3583 1050 2145
3583 1050 2795
3583 1050 3445
3583 1050 4095
3583 1659 0
3583 1659 64
3583 1659 196
3583 1659 845
3583 1659 1495
3583 1659 2145
3583 1659 2795
3583 1659 3445
3583 1659 4095
3583 2268 0
3583 2268 64
3583 2268 196
3583 2268 845
3583 2268 1495
3583 2268 2145
3583 2268 2795
3583 2268 3445
3583 2268 4095
3583 2877 0
3583 2877 64
3583 2877 196
3583 2877 845
3583 2877 1495
3583 2877 2145
3583 2877 2795
3583 2877 3445
3583 2877 4095
3583 3486 0
3583 3486 64
3583 3486 196
3583 3486 845
3583 3486 1495
3583 3486 2145
3583 3486 2795
3583 3486 3445
3583 3486 4095
3583 4095 0
3583 4095 64
3583 4095 198
3583 4095 846
3583 4095 1496
3583 4095 2146
3583 4095 2796
3583 4095 3445
3583 4095 4095
4095 0 0
4095 0 0
4095 0 77
4095 0 747
4095 0 1416
4095 0 2086
4095 0 2755
4095 0 3425
4095 0 4095
4095 0 0
4095 0 0
4095 0 78
4095 0 747
4095 0 1416
4095 0 2086
4095 0 2756
4095 0 3425
4095 0 4095
4095 358 0
4095 358 0
4095 359 78
4095 359 747
4095 359 1416
4095 359 2086
4095 359 2756
4095 358 3425
4095 358 4095
4095 981 0
4095 981 0
4095 981 78
4095 981 747
4095 981 1416
4095 981 2086
4095 981 2756
4095 981 3425
4095 981 4095
4095 1604 0
4095 1604 0
4095 1604 78
4095 1604 747
4095 1604 1416
4095 1604 2086
4095 1604 2756
4095 1604 3425
4095 1604 4095
4095 2227 0
4095 2227 0
4095 2227 77
4095 2227 746
4095 2227 1416
4095 2227 2086
4095 2227 2756
4095 2227 3425
4095 2227 4095
4095 2849 0
4095 2849 0
4095 2849 77
4095 2849 746
4095 2849 1416
4095 2849 2086
4095 2849 2756
4095 2849 3425
4095 2849 4095
4095 3472 0
4095 3472 0
4095 3472 77
4095 3472 746
4095 3472 1416
4095 3472 2086
4095 3472 2756
4095 3472 3425
4095 3472 4095
4095 4095 0
4095 4095 0
4095 4095 74
4095 4095 744
4095 4095 1415
4095 4095 2085
4095 4095 2755
4095 4095 3425
4095 4095 4095
