Toning/Toning-Coldness.3dl
#25pt 3DLUT created by 3D LUT Creator Pro (c) Oleg Sharonov
#Copyright !UNREGISTERED VERSION OF 3D LUT CREATOR!
#IMAGEPROFILE sRGB IEC61966-2.1 v.2.10
#INPUTGAMMA sRGB IEC61966-2.1 v.2.10
#OUTPUTGAMMA sRGB IEC61966-2.1 v.2.10
0 43 86 128 171 214 256 299 341 384 427 469 512 555 597 640 682 725 768 810 853 896 938 981 1023 
89 89 89
88 89 260
87 88 431
85 88 603
84 88 776
83 88 952
82 88 1135
81 87 1334
79 87 1543
78 86 1757
76 86 1974
75 85 2188
74 85 2396
72 84 2594
71 84 2780
70 83 2951
69 83 3104
68 83 3241
67 83 3365
66 83 3479
66 84 3584
65 84 3682
65 84 3774
64 84 3862
64 84 3947
88 228 89
87 228 260
86 228 431
85 227 603
83 227 777
82 226 952
81 226 1136
80 225 1334
78 224 1543
77 223 1758
75 222 1974
74 221 2188
73 220 2396
71 220 2595
70 219 2781
69 218 2951
68 218 3104
67 217 3241
66 217 3365
66 216 3479
65 216 3584
64 216 3682
64 215 3774
63 215 3862
63 215 3947
87 369 89
86 369 260
85 368 432
84 368 603
82 367 777
81 366 952
80 365 1136
79 364 1335
77 363 1544
76 362 1759
75 361 1975
73 359 2189
72 358 2397
70 357 2595
69 356 2781
68 355 2951
67 354 3104
66 353 3241
65 352 3365
65 351 3479
64 350 3584
63 349 3681
63 348 3774
62 348 3862
62 347 3947
86 513 89
85 513 260
84 513 431
83 513 604
81 512 777
80 511 953
79 510 1136
78 508 1335
76 507 1544
75 505 1759
74 504 1976
72 502 2190
71 500 2397
70 499 2596
68 497 2781
67 496 2952
66 494 3104
65 493 3241
65 491 3365
64 490 3479
63 489 3583
63 487 3681
62 486 3773
61 485 3861
61 483 3946
85 662 90
84 662 260
83 662 431
82 662 603
81 661 777
79 660 953
78 658 1137
77 657 1335
75 655 1545
74 653 1760
73 651 1976
71 649 2190
70 647 2398
69 645 2596
67 643 2782
66 641 2952
65 639 3104
64 637 3241
64 635 3365
63 633 3478
62 631 3583
62 629 3681
61 627 3773
61 625 3861
60 623 3946
84 815 90
83 815 260
82 815 430
81 814 602
80 814 776
78 814 953
77 812 1137
76 810 1336
74 808 1545
73 806 1760
72 803 1977
70 801 2191
69 798 2398
68 796 2596
66 793 2782
65 791 2952
64 788 3104
63 786 3241
63 783 3365
62 781 3478
61 778 3583
61 776 3681
60 773 3773
60 771 3861
59 768 3946
83 972 90
82 972 259
81 972 430
80 972 601
78 972 775
77 972 951
76 972 1137
75 969 1336
73 967 1545
72 964 1761
71 961 1977
69 958 2191
68 955 2399
67 952 2597
65 949 2782
64 946 2952
63 943 3104
62 940 3241
62 937 3365
61 934 3478
60 931 3583
60 928 3680
59 924 3772
59 921 3860
58 918 3945
82 1141 90
81 1141 259
80 1141 429
79 1141 600
77 1141 773
76 1141 949
75 1141 1135
74 1141 1336
72 1138 1546
71 1135 1761
69 1131 1977
68 1127 2191
67 1124 2399
65 1120 2597
64 1116 2782
63 1113 2952
62 1109 3104
61 1105 3240
61 1101 3364
60 1097 3478
59 1093 3582
59 1089 3680
58 1085 3772
58 1081 3860
57 1076 3945
81 1326 90
80 1326 258
78 1327 428
77 1327 599
76 1327 771
75 1327 947
74 1327 1132
72 1327 1333
71 1327 1546
70 1323 1761
68 1319 1978
67 1314 2192
66 1310 2399
64 1306 2597
63 1301 2782
62 1296 2952
61 1292 3104
60 1287 3240
59 1282 3364
59 1277 3477
58 1272 3582
58 1267 3679
57 1262 3771
57 1257 3859
56 1251 3944
79 1525 89
78 1525 258
77 1525 427
76 1526 597
75 1526 769
74 1526 945
73 1526 1129
71 1526 1330
70 1526 1542
68 1526 1761
67 1521 1978
66 1516 2192
64 1511 2399
63 1506 2597
62 1500 2782
61 1495 2952
60 1489 3104
59 1484 3240
58 1478 3364
58 1472 3477
57 1466 3581
56 1460 3679
56 1454 3771
55 1447 3859
55 1441 3944
78 1733 89
77 1734 257
76 1734 426
75 1735 595
73 1735 767
72 1735 942
71 1735 1126
70 1736 1326
68 1736 1537
67 1736 1756
65 1736 1978
64 1730 2192
63 1724 2399
62 1718 2597
60 1711 2782
59 1705 2952
58 1698 3103
58 1692 3239
57 1685 3363
56 1678 3476
56 1671 3581
55 1664 3678
54 1657 3770
54 1649 3858
54 1642 3943
77 1948 89
75 1948 256
74 1949 424
73 1949 594
72 1949 765
71 1950 939
70 1950 1123
68 1950 1322
67 1950 1533
66 1950 1751
64 1950 1972
63 1950 2192
61 1943 2399
60 1937 2597
59 1930 2782
58 1922 2951
57 1915 3103
56 1908 3239
55 1900 3362
55 1892 3475
54 1884 3580
54 1876 3677
53 1868 3769
53 1859 3857
52 1850 3942
75 2163 88
74 2164 255
73 2164 423
72 2164 592
71 2165 763
70 2165 937
68 2165 1119
67 2166 1318
66 2166 1528
64 2166 1745
63 2166 1966
61 2166 2185
60 2166 2399
59 2158 2597
57 2150 2782
56 2143 2951
55 2135 3102
55 2126 3238
54 2118 3362
53 2109 3475
53 2101 3579
52 2092 3677
52 2082 3768
51 2073 3856
51 2063 3941
74 2376 88
73 2376 254
71 2377 422
70 2377 590
69 2377 761
68 2378 934
67 2378 1116
66 2378 1313
64 2378 1523
63 2378 1740
61 2378 1959
60 2378 2178
58 2378 2392
57 2378 2597
56 2370 2781
55 2361 2951
54 2353 3102
53 2344 3238
53 2335 3361
52 2326 3474
51 2316 3578
51 2307 3676
50 2297 3768
50 2286 3855
49 2276 3940
72 2582 88
71 2582 254
70 2582 420
69 2583 588
68 2583 758
67 2583 931
66 2583 1112
64 2583 1309
63 2583 1518
62 2583 1734
60 2583 1953
59 2583 2171
57 2583 2384
56 2583 2589
55 2583 2781
54 2574 2950
53 2565 3101
52 2556 3237
51 2547 3361
51 2537 3473
50 2527 3578
49 2517 3675
49 2506 3767
48 2496 3855
48 2485 3940
71 2776 88
70 2777 253
69 2777 419
68 2777 586
67 2777 756
66 2778 928
64 2778 1109
63 2778 1305
62 2778 1513
60 2777 1728
59 2777 1946
57 2777 2164
56 2777 2377
55 2777 2581
53 2777 2773
52 2777 2950
51 2768 3101
51 2759 3237
50 2749 3360
49 2739 3473
49 2729 3577
48 2718 3674
48 2708 3766
47 2697 3854
47 2685 3939
70 2957 87
69 2957 252
68 2957 418
67 2957 585
65 2957 754
64 2957 925
63 2957 1105
62 2957 1300
61 2957 1507
59 2957 1722
58 2956 1940
56 2956 2156
55 2956 2369
54 2956 2573
52 2956 2765
51 2956 2942
50 2956 3101
49 2947 3236
49 2937 3360
48 2927 3472
47 2917 3577
47 2907 3674
46 2896 3766
46 2885 3853
46 2874 3938
69 3119 87
68 3119 252
67 3119 417
66 3119 583
64 3119 751
63 3119 923
62 3119 1102
61 3118 1296
60 3118 1502
58 3118 1716
57 3117 1933
55 3117 2149
54 3117 2361
53 3116 2564
51 3116 2756
50 3116 2933
49 3116 3093
48 3116 3236
48 3107 3359
47 3098 3472
46 3088 3576
46 3078 3673
45 3068 3765
45 3057 3853
44 3046 3938
68 3265 87
67 3265 251
66 3265 415
65 3265 581
64 3265 749
62 3265 920
61 3264 1098
60 3264 1292
59 3264 1497
57 3263 1709
56 3263 1925
54 3262 2141
53 3262 2353
52 3262 2556
50 3261 2748
49 3261 2925
48 3261 3084
47 3261 3228
47 3261 3359
46 3252 3472
45 3242 3576
45 3233 3673
44 3223 3765
44 3212 3852
43 3202 3937
67 3398 88
66 3398 251
65 3398 414
64 3398 580
63 3398 747
62 3398 917
60 3397 1094
59 3397 1287
58 3396 1491
56 3396 1703
55 3395 1918
54 3395 2133
52 3394 2344
51 3394 2547
50 3393 2739
49 3393 2916
47 3393 3076
47 3393 3220
46 3393 3351
45 3393 3472
44 3384 3576
44 3374 3673
43 3365 3764
43 3354 3852
43 3344 3937
66 3521 88
65 3521 250
64 3520 413
63 3520 578
62 3520 745
61 3520 914
60 3519 1091
58 3519 1283
57 3518 1486
56 3518 1696
54 3517 1911
53 3517 2125
52 3516 2336
50 3515 2538
49 3515 2730
48 3515 2907
47 3514 3067
46 3514 3211
45 3514 3343
44 3514 3464
44 3514 3575
43 3505 3672
43 3495 3764
42 3486 3852
42 3475 3937
65 3635 88
64 3634 250
63 3634 412
62 3634 576
61 3633 742
60 3633 911
59 3633 1087
58 3632 1278
56 3632 1480
55 3631 1690
54 3630 1903
52 3630 2117
51 3629 2327
50 3629 2529
48 3628 2720
47 3628 2898
46 3627 3058
45 3627 3203
44 3627 3334
44 3627 3455
43 3627 3567
42 3627 3672
42 3618 3764
41 3608 3852
41 3598 3936
65 3741 88
64 3741 249
63 3741 411
62 3740 575
61 3740 740
59 3740 908
58 3739 1083
57 3739 1273
56 3738 1475
54 3738 1683
53 3737 1896
52 3736 2108
50 3736 2318
49 3735 2520
48 3734 2711
47 3734 2888
46 3734 3049
45 3733 3194
44 3733 3326
43 3733 3447
42 3733 3559
42 3733 3664
41 3733 3764
41 3724 3851
40 3713 3936
64 3843 89
63 3843 249
62 3843 410
61 3842 573
60 3842 738
59 3842 905
58 3841 1079
57 3841 1268
55 3840 1469
54 3839 1677
52 3839 1888
51 3838 2100
50 3837 2308
48 3837 2510
47 3836 2701
46 3836 2879
45 3835 3040
44 3835 3185
43 3835 3317
43 3835 3438
42 3835 3550
41 3835 3655
41 3835 3755
40 3835 3851
40 3825 3936
63 3942 89
62 3942 249
61 3941 409
60 3941 571
59 3941 735
58 3940 902
57 3940 1075
56 3939 1263
55 3938 1462
53 3938 1670
52 3937 1880
51 3936 2091
49 3936 2299
48 3935 2500
47 3935 2691
46 3934 2869
45 3934 3030
44 3933 3175
43 3933 3307
42 3933 3429
41 3933 3541
41 3933 3647
40 3933 3746
39 3933 3842
39 3933 3936
100 109 116
109 89 261
108 89 432
107 89 604
106 89 777
105 89 953
104 88 1136
103 88 1335
101 87 1544
100 87 1759
99 86 1975
97 86 2189
96 85 2397
95 85 2596
94 84 2782
93 84 2952
92 84 3105
91 84 3242
90 84 3366
89 84 3480
89 84 3585
88 84 3682
88 85 3775
87 85 3863
87 85 3948
109 202 134
108 229 261
107 228 432
106 228 604
105 227 778
104 227 953
103 226 1137
102 225 1335
101 225 1544
99 224 1759
98 223 1976
97 222 2190
95 221 2398
94 221 2596
93 220 2782
92 219 2952
91 219 3105
90 218 3242
89 218 3366
89 217 3480
88 217 3584
88 217 3682
87 216 3774
86 216 3862
86 216 3947
113 370 140
107 369 261
106 369 433
105 368 605
104 368 778
103 367 953
102 366 1137
101 365 1336
100 364 1545
98 363 1760
97 361 1976
96 360 2190
95 359 2398
93 358 2597
92 357 2782
91 356 2952
90 355 3105
89 354 3242
89 353 3366
88 352 3479
87 351 3584
87 350 3682
86 349 3774
86 349 3862
85 348 3947
109 514 111
107 514 261
106 514 432
105 514 605
104 513 778
103 511 954
101 510 1137
100 509 1336
99 507 1545
98 506 1760
96 504 1977
95 503 2191
94 501 2399
93 500 2597
91 498 2783
90 497 2953
90 495 3105
89 494 3242
88 492 3366
87 491 3479
87 490 3584
86 488 3682
86 487 3774
85 486 3862
85 484 3947
107 663 91
106 663 261
105 663 431
104 662 604
103 662 778
102 661 954
101 659 1138
99 657 1337
98 656 1546
97 654 1761
96 652 1977
94 650 2191
93 648 2399
92 646 2597
91 644 2783
90 642 2953
89 640 3105
88 638 3242
87 636 3366
87 634 3479
86 632 3584
85 630 3681
85 628 3774
84 627 3861
84 625 3946
106 816 91
105 816 261
104 815 431
103 815 603
102 815 777
101 815 954
100 813 1138
99 811 1337
97 809 1546
96 806 1761
95 804 1978
93 801 2192
92 799 2400
91 796 2598
90 794 2783
89 791 2953
88 789 3105
87 787 3242
86 784 3366
86 782 3479
85 779 3584
85 777 3681
84 774 3773
84 772 3861
83 769 3946
105 973 91
104 973 260
103 973 430
102 973 601
101 973 775
100 973 952
99 973 1138
98 970 1337
96 967 1547
95 965 1762
94 962 1978
93 959 2192
91 956 2400
90 953 2598
89 950 2783
88 947 2953
87 944 3105
86 941 3241
86 938 3365
85 935 3479
84 932 3583
84 929 3681
83 925 3773
83 922 3861
82 919 3946
104 1142 91
103 1142 260
102 1142 430
101 1142 600
100 1142 774
99 1142 950
98 1142 1136
97 1142 1338
96 1139 1547
94 1135 1762
93 1132 1979
92 1128 2193
90 1125 2400
89 1121 2598
88 1117 2783
87 1113 2953
86 1109 3105
85 1106 3241
85 1102 3365
84 1098 3478
83 1094 3583
83 1090 3680
82 1086 3772
82 1082 3860
81 1078 3945
103 1327 91
102 1328 260
101 1328 429
100 1328 599
99 1328 772
98 1328 948
97 1328 1133
96 1328 1334
95 1328 1547
93 1324 1762
92 1320 1979
90 1315 2193
89 1311 2400
88 1306 2598
87 1302 2783
86 1297 2953
85 1292 3105
84 1288 3241
84 1283 3365
83 1278 3478
82 1273 3582
82 1268 3680
81 1263 3772
81 1258 3860
80 1253 3945
102 1526 91
101 1526 259
100 1527 428
99 1527 598
98 1527 770
97 1527 945
96 1528 1130
95 1528 1331
93 1528 1543
92 1528 1763
91 1523 1979
89 1517 2193
88 1512 2401
87 1507 2598
86 1501 2783
85 1496 2953
84 1490 3104
83 1484 3241
82 1479 3364
82 1473 3477
81 1467 3582
81 1461 3679
80 1455 3771
80 1448 3859
79 1442 3944
100 1735 90
99 1735 258
98 1736 427
97 1736 596
96 1736 768
95 1737 943
94 1737 1127
93 1737 1327
92 1737 1539
91 1737 1758
90 1737 1979
88 1731 2193
87 1725 2401
86 1719 2598
85 1712 2783
84 1706 2953
83 1699 3104
82 1693 3240
81 1686 3364
81 1679 3477
80 1672 3581
80 1665 3679
79 1658 3771
79 1650 3858
78 1643 3943
