Toning/Toning - Contrast & Red shaping.3dl
#25pt 3DLUT created by 3D LUT Creator Pro (c) Oleg Sharonov
#Copyright Oleg Sharonov
#IMAGEPROFILE ProPhoto RGB v.2.10
#INPUTGAMMA ProPhoto RGB v.2.10
#OUTPUTGAMMA ProPhoto RGB v.2.10
0 256 512 768 1023
0 0 0
0 0 1091
0 0 2611
0 0 3786
0 0 4095
0 955 0
0 1075 1096
0 1244 2616
0 1372 3784
0 1415 4095
0 2249 0
0 2417 1096
0 2654 2616
0 2832 3780
0 2887 4094
0 3649 0
0 3714 1097
0 3805 2618
0 3874 3775
0 3896 4095
2 4095 0
0 4095 1103
0 4095 2625
0 4095 3777
0 4095 4095
1286 9 0
1286 9 1326
1281 9 2908
1280 9 3835
1287 9 4095
1169 1008 0
1164 1105 1235
1150 1239 2799
1142 1338 3927
1145 1374 4095
1083 2345 0
1076 2464 1151
1063 2634 2701
1053 2764 3793
1055 2809 4095
996 3669 0
993 3716 1104
985 3779 2625
981 3828 3774
985 3846 4095
975 4095 0
974 4095 1104
971 4095 2629
970 4095 3775
976 4095 4095
2821 151 0
2822 151 1500
2817 150 2974
2818 150 3880
2825 153 4095
2539 1214 0
2532 1271 1321
2516 1345 3033
2507 1405 3865
2511 1435 4095
2355 2498 0
2344 2565 1233
2325 2655 2892
2314 2730 3898
2315 2761 4095
2164 3698 0
2159 3724 1119
2151 3758 2656
2147 3787 3777
2150 3799 4095
2112 4095 0
2113 4095 1107
2110 4094 2632
2110 4095 3771
2115 4095 4095
4028 1668 0
4031 1668 1627
4028 1665 3207
4028 1665 3935
4029 1673 4095
3705 2351 0
3702 2364 1611
3694 2378 3330
3690 2394 3941
3692 2404 4095
3500 3073 0
3495 3091 1395
3485 3113 3176
3480 3137 3982
3482 3148 4095
3309 3832 0
3308 3839 1156
3303 3846 2733
3302 3855 3824
3306 3860 4095
3270 4095 0
3271 4095 1107
3267 4094 2634
3268 4095 3768
3274 4095 4095
4094 2783 0
4095 2783 1640
4094 2783 3480
4094 2783 3988
4094 2783 4095
4095 3091 0
4095 3091 1636
4094 3090 3487
4094 3091 3975
4094 3092 4095
4095 3508 0
4095 3508 1444
4094 3508 3219
4095 3509 3957
4095 3511 4095
4095 3953 0
4095 3953 1181
4094 3952 2776
4095 3952 3918
4095 3954 4095
4095 4095 0
4095 4095 1108
4094 4095 2638
4095 4095 3767
4095 4095 4095
