Toning/Toning-Green.3dl
#25pt 3DLUT created by 3D LUT Creator Pro (c) Oleg Sharonov
#Copyright Oleg Sharonov
#IMAGEPROFILE sRGB IEC61966-2.1 v.2.10
#INPUTGAMMA sRGB IEC61966-2.1 v.2.10
#OUTPUTGAMMA sRGB IEC61966-2.1 v.2.10
0 128 256 384 512 640 768 896 1023
0 0 0
0 0 256
0 0 544
0 0 850
0 2 1165
0 4 1454
3 4 1813
3 4 2285
3 2 2776
77 399 95
0 371 397
0 323 756
0 224 885
0 191 1181
0 164 1591
2 136 2059
2 93 2583
2 40 3121
120 737 104
53 717 337
0 722 751
0 744 1322
0 586 1721
0 446 2056
2 344 2485
1 254 2974
1 168 3457
167 1072 107
67 1073 285
30 1064 643
0 1124 1069
0 1161 1723
0 1073 2316
0 888 2701
1 741 3116
1 624 3559
222 1430 101
76 1429 221
55 1399 612
0 1413 977
0 1505 1438
0 1577 2126
0 1536 2798
0 1374 3283
1 1221 3681
402 2259 145
131 2264 171
113 2219 793
82 2204 1217
0 2134 1608
0 2090 2013
0 2055 2622
0 1973 3241
0 1901 3775
655 3273 223
443 3267 224
244 3236 937
218 3204 1515
131 3175 2027
0 3026 2435
0 2876 2805
0 2684 3307
0 2563 3739
783 3965 385
608 3967 388
398 3953 991
380 3928 1644
322 3908 2187
0 3882 2727
0 3756 3181
0 3553 3600
0 3389 3888
2480 4093 2454
2487 4093 2471
2467 4093 2528
2379 4093 2630
2362 4093 2828
2332 4093 3079
1979 4095 3301
0 4083 3578
0 3950 3964
503 26 50
423 0 371
338 0 640
307 0 912
291 0 1200
271 0 1462
289 1 1886
306 1 2339
321 0 2813
257 389 292
506 453 501
287 244 666
208 153 974
122 46 1266
101 0 1514
103 1 1915
109 1 2361
115 0 2835
186 570 326
446 832 409
421 853 837
336 769 1408
192 548 1758
46 370 2081
1 270 2535
1 181 3022
1 95 3494
321 1024 195
418 1161 353
371 1166 709
364 1207 1148
305 1197 1793
156 1053 2352
0 856 2747
1 702 3154
1 583 3599
377 1427 144
424 1499 324
340 1489 657
340 1505 1043
322 1571 1500
214 1601 2171
0 1537 2846
0 1358 3316
1 1203 3707
576 2280 159
593 2287 407
442 2261 785
429 2237 1237
391 2188 1649
251 2128 2048
0 2071 2654
0 1978 3274
0 1906 3787
839 3296 220
838 3269 507
573 3240 891
563 3199 1512
540 3171 2025
369 3060 2458
0 2898 2826
0 2695 3328
0 2574 3751
955 3967 384
946 3957 610
671 3948 961
664 3920 1642
635 3901 2183
576 3874 2721
0 3768 3185
0 3565 3608
0 3400 3901
2500 4093 2458
2508 4093 2475
2503 4093 2536
2418 4093 2635
2391 4093 2829
2365 4093 3079
2090 4094 3321
0 4093 3581
0 3957 3971
972 0 33
963 0 354
843 0 753
740 0 1037
693 0 1331
679 0 1668
684 1 2060
694 1 2481
705 0 2920
1004 375 0
985 350 365
835 336 831
715 230 1157
641 126 1471
646 1 1714
644 1 2095
649 1 2509
657 0 2947
621 759 266
867 889 492
1078 1011 959
825 784 1420
626 573 1809
485 410 2238
353 237 2685
276 85 3023
275 0 3058
442 1079 282
535 1151 456
966 1374 851
959 1405 1338
835 1298 1934
634 1067 2377
442 846 2807
212 591 3290
1 377 3763
502 1447 235
614 1508 390
873 1679 758
848 1702 1187
857 1736 1659
766 1701 2300
584 1574 2941
256 1302 3424
1 1105 3822
870 2352 182
921 2356 430
1037 2401 865
947 2368 1316
927 2340 1770
866 2281 2196
669 2170 2786
212 2000 3415
0 1922 3837
1229 3361 182
1247 3336 497
1267 3272 999
1111 3226 1516
1096 3205 2049
1019 3119 2509
809 2974 2899
0 2736 3418
0 2615 3804
1367 3973 362
1375 3963 594
1353 3921 1083
1199 3896 1581
1181 3870 2164
1147 3842 2697
903 3763 3169
0 3610 3641
0 3431 3942
2608 4093 2481
2612 4093 2498
2608 4093 2558
2559 4093 2659
2502 4093 2834
2481 4093 3083
2383 4085 3355
1260 4095 3608
0 3987 3998
1611 18 0
1613 0 347
1555 0 837
1391 0 1252
1278 0 1584
1220 0 1931
1181 1 2292
1158 0 2673
1140 0 3054
1634 428 0
1763 259 141
1610 268 896
1287 289 1402
1142 184 1771
1107 72 2075
1171 1 2326
1142 0 2701
1120 0 3078
1559 939 34
1802 975 71
1659 971 882
1367 823 1458
1100 631 1940
889 452 2394
695 251 2855
689 65 3169
1009 1 3179
1091 1372 234
1343 1477 303
1528 1531 921
1643 1552 1471
1366 1342 1992
1093 1100 2444
842 874 2902
577 600 3425
269 142 3939
926 1639 274
981 1676 331
1131 1761 784
1534 1934 1349
1518 1964 1879
1342 1834 2471
1071 1599 2985
747 1319 3484
373 995 3949
1197 2513 274
1215 2513 394
1375 2519 861
1609 2523 1398
1540 2501 1900
1476 2428 2339
1248 2260 2894
932 2082 3536
467 1919 3921
1681 3469 203
1686 3446 396
1735 3389 969
1795 3267 1525
1667 3203 2050
1633 3171 2556
1473 3026 2950
1059 2797 3504
0 2691 3908
1818 3978 280
1839 3971 541
1852 3931 1040
1846 3857 1595
1749 3822 2134
1725 3800 2666
1600 3741 3149
1174 3597 3630
0 3486 4027
2827 4093 2533
2828 4093 2549
2815 4093 2607
2785 4093 2710
2691 4093 2844
2675 4094 3090
2644 4093 3382
2263 4057 3646
0 4049 4054
2193 193 0
2273 0 208
2233 0 821
2145 0 1340
1950 0 1773
1834 0 2133
1755 0 2493
1690 0 2859
1646 1 3221
2205 494 0
2340 357 0
2418 0 727
2175 123 1440
1709 208 1985
1603 95 2327
1759 0 2517
1687 0 2882
1638 1 3241
2211 999 0
2345 988 0
2322 960 778
2099 805 1474
1693 689 2074
1400 495 2555
1146 264 3041
1205 27 3309
1596 1 3329
2108 1536 73
2243 1562 147
2408 1606 744
2243 1553 1415
1943 1374 1998
1629 1147 2528
1345 918 3040
1018 604 3578
753 82 4042
1690 1940 234
1861 2014 215
2062 2084 757
2162 2099 1397
2198 2095 1989
1927 1893 2543
1611 1637 3053
1255 1340 3566
1029 1066 3990
2040 2769 274
2040 2762 259
2037 2728 763
2055 2669 1328
2214 2606 1969
2132 2571 2478
1874 2368 3023
1523 2108 3585
1313 1957 3947
2465 3573 274
2438 3569 264
2362 3528 837
2294 3403 1432
2337 3247 2058
2213 3179 2566
2112 3094 3017
1722 2825 3541
1432 2763 3968
2376 3974 257
2365 3965 458
2357 3931 962
2367 3876 1511
2496 3749 2283
2475 3700 2754
2306 3688 3140
1919 3580 3617
1667 3471 4008
3098 4093 2580
3096 4093 2597
3075 4093 2648
3077 4094 2780
3023 4094 2921
2929 4094 3102
2907 4094 3391
2685 4072 3672
1945 4052 4057
2727 453 0
2823 258 0
2871 0 690
2808 0 1306
2702 0 1860
2476 0 2289
2359 0 2667
2268 0 3035
2199 0 3389
2742 650 0
2836 580 0
3003 0 512
2937 0 1287
2784 21 1935
2174 110 2537
2369 0 2684
2273 0 3053
2195 1 3408
2771 1049 0
2858 1048 0
2956 963 538
2892 677 1337
2505 641 2144
2038 543 2702
1728 275 3210
2021 0 3311
2194 3 3477
2768 1566 0
2846 1583 0
3009 1598 390
2842 1572 1326
2687 1400 1974
2276 1219 2627
1946 964 3168
1597 605 3723
1884 200 3819
2734 2124 133
2816 2147 188
3080 2251 303
2957 2193 1315
2783 2130 1946
2541 1945 2556
2195 1674 3109
1863 1376 3664
1777 1117 4025
2703 2768 233
2801 2807 221
3027 2900 452
2903 2790 1289
2818 2698 1960
2733 2629 2513
2488 2428 3090
2141 2140 3640
2077 1997 4017
3336 3661 274
3316 3649 264
3237 3601 520
3113 3506 1291
2949 3368 1968
2830 3196 2560
2697 3120 3044
2379 2881 3597
2198 2783 4008
3144 3951 274
3127 3948 267
3089 3928 842
3002 3879 1395
2988 3785 2203
2975 3697 2772
2885 3668 3177
2634 3549 3597
2360 3489 4038
3432 4094 2700
3430 4094 2714
3421 4094 2770
3400 4094 2878
3334 4094 2982
3295 4094 3182
3205 4094 3402
3138 4087 3714
2599 4070 4072
3222 696 0
3285 609 0
3465 0 305
3421 0 1177
3340 0 1824
3211 0 2386
2960 0 2813
2852 0 3196
2760 0 3553
3236 825 0
3294 815 0
3518 264 0
3518 0 1106
3431 0 1830
3290 4 2449
2972 0 2824
2860 0 3208
2765 0 3567
3267 1179 0
3322 1179 0
3493 1010 0
3689 406 885
3356 430 2071
2942 491 2809
2436 319 3350
2892 0 3262
2780 0 3622
3294 1629 0
3346 1635 0
3507 1654 0
3413 1616 1197
3443 1374 1838
3092 1255 2650
2639 1030 3275
2313 615 3844
2801 0 3737
3300 2133 23
3346 2154 17
3512 2225 1
3481 2209 1126
3319 2163 1873
3231 1984 2487
2854 1751 3181
2550 1418 3757
2630 1131 4069
3350 2743 172
3393 2764 198
3550 2849 246
3581 2863 1074
3435 2770 1875
3270 2684 2476
3092 2494 3109
2773 2173 3681
2827 2018 4054
3559 3490 233
3593 3505 225
3699 3547 204
3608 3468 1191
3478 3355 1919
3335 3220 2518
3222 3138 3050
3009 2931 3625
2886 2782 4047
3622 3918 274
3614 3914 267
3586 3895 753
3539 3859 1306
3473 3796 2055
3426 3738 2701
3325 3669 3147
3160 3572 3614
2950 3484 4064
3644 4094 2661
3643 4094 2676
3638 4094 2739
3644 4094 2891
3656 4094 3104
3641 4094 3298
3576 4094 3479
3492 4094 3737
3173 4083 4085
3663 977 0
3706 927 0
3876 614 0
3974 0 925
3913 0 1714
3813 0 2359
3628 0 2905
3401 0 3327
3297 0 3695
3676 1060 0
3714 1057 0
3878 779 0
4044 0 804
3982 0 1687
3880 0 2373
3699 0 2949
3410 0 3335
3303 0 3705
3717 1322 0
3751 1334 0
3877 1224 0
4095 778 652
4085 430 1837
3904 266 2777
3466 354 3471
3450 0 3371
3328 0 3748
3757 1735 0
3790 1748 0
3909 1773 0
3903 1683 1016
3961 1506 1685
3877 1236 2562
3562 1123 3330
3103 676 3931
3375 0 3834
3782 2210 0
3813 2222 0
3934 2274 0
3959 2265 909
3813 2227 1789
3758 2123 2404
3622 1865 3164
3269 1492 3826
3446 1064 4095
3815 2742 45
3843 2758 41
3955 2827 29
4033 2874 790
3854 2827 1905
3765 2762 2457
3683 2604 3036
3476 2241 3746
3492 2033 4075
3885 3358 129
3910 3369 124
3992 3407 264
4006 3397 1013
3851 3338 2120
3793 3281 2591
3719 3209 3054
3579 2977 3640
3518 2798 4074
3920 3842 457
3930 3845 518
3952 3849 811
3915 3820 1359
3829 3766 2467
3796 3736 2800
3744 3685 3167
3644 3587 3626
3526 3472 4082
3899 4094 2886
3899 4094 2900
3898 4094 2951
3896 4094 3047
3892 4094 3186
3873 4094 3317
3864 4094 3545
3833 4095 3784
3654 4090 4091
4095 1322 613
4095 1331 707
4095 1371 1005
4095 1409 1392
4095 1223 1942
4094 911 2585
4095 404 3334
4026 0 3428
3820 0 3820
4095 1380 639
4095 1389 730
4095 1428 1028
4095 1480 1414
4095 1314 1941
4095 1016 2573
4095 542 3316
4037 0 3432
3827 0 3827
4095 1599 734
4095 1606 816
4095 1638 1101
4095 1709 1495
4095 1637 1950
4095 1380 2538
4095 990 3241
4087 53 3997
3857 0 3857
4095 1933 880
4095 1938 952
4095 1960 1213
4095 2013 1603
4094 2104 2025
4093 1923 2514
4095 1604 3152
4095 955 3936
3918 0 3918
4094 2314 1042
4095 2317 1104
4094 2331 1338
4092 2371 1699
4093 2464 2144
4093 2537 2577
4093 2278 3089
4094 1811 3785
4062 1028 4095
4095 2754 1134
4095 2756 1192
4095 2763 1414
4095 2783 1772
4093 2827 2206
4093 2941 2708
4094 2922 3128
4093 2573 3675
4075 2055 4088
4095 3238 1269
4095 3237 1315
4095 3233 1502
4095 3227 1825
4093 3217 2213
4094 3245 2696
4094 3314 3197
4093 3196 3637
4085 2828 4088
4095 3722 1697
4095 3720 1726
4095 3716 1842
4095 3708 2048
4094 3694 2333
4094 3673 2687
4094 3660 3140
4095 3708 3705
4091 3496 4091
4094 4086 3051
4094 4086 3059
4094 4087 3096
4094 4088 3167
4094 4089 3275
4095 4090 3420
4095 4092 3605
4095 4094 3832
4095 4095 4095
