Toning/Toning-Pale greens.3dl
#25pt 3DLUT created by 3D LUT Creator Pro (c) Oleg Sharonov
#Copyright Oleg Sharonov
#IMAGEPROFILE sRGB IEC61966-2.1 v.2.10
#INPUTGAMMA sRGB IEC61966-2.1 v.2.10
#OUTPUTGAMMA sRGB IEC61966-2.1 v.2.10
0 256 512 768 1023
0 0 0
62 103 553
166 279 1106
207 464 1658
330 635 2300
269 914 792
36 1026 979
201 1098 1295
305 1198 1847
452 1313 2524
530 1872 1464
71 1978 1752
325 2039 1975
554 2085 2401
688 2152 2967
916 2853 1884
571 2927 2380
0 3020 2636
723 3035 2988
932 3067 3483
1516 3836 1884
1441 3861 2437
1161 3936 2989
662 4032 3512
1138 4029 3933
940 112 0
827 240 553
810 369 1106
837 521 1658
950 673 2321
1133 928 663
991 1040 938
902 1136 1295
943 1233 1860
1063 1342 2538
1079 1914 1451
843 2002 1743
1082 2047 1964
1187 2101 2405
1292 2168 2976
1465 2876 1884
1130 2947 2380
946 3026 2635
1382 3039 2985
1540 3076 3486
2077 3849 1884
2006 3873 2437
1736 3946 2989
1445 4023 3501
1764 4030 3932
1915 267 0
1747 419 553
1632 538 1106
1607 656 1658
1680 776 2361
2124 949 329
2011 1054 945
1743 1234 1259
1705 1329 1877
1776 1425 2569
2226 1893 1234
2101 1982 1611
1961 2081 1936
1936 2151 2414
1989 2219 2997
2161 2913 1884
2113 2954 2314
2119 3012 2583
2170 3056 2980
2241 3102 3496
2663 3888 1884
2604 3908 2437
2448 3959 2989
2370 4011 3481
2498 4037 3935
2810 498 0
2678 608 553
2525 729 1106
2478 825 1658
2492 928 2263
2937 1150 0
2996 1117 721
2630 1375 1106
2553 1469 1721
2573 1555 2549
3163 1953 905
3055 2042 1262
2906 2134 1884
2768 2236 2385
2769 2307 3003
3324 2878 1664
3236 2936 2119
3092 3028 2501
3023 3096 2959
3024 3152 3499
3428 3913 1884
3410 3924 2437
3346 3958 2989
3294 4010 3461
3310 4055 3940
3600 793 0
3520 850 553
3395 942 1106
3331 1025 1658
3335 1108 2211
3687 1416 0
3897 1278 553
3619 1498 1106
3401 1644 1658
3383 1727 2211
3908 2166 0
3948 2153 553
3838 2228 1610
3593 2374 2146
3557 2443 2880
4095 3007 1343
4070 3041 1776
3956 3110 2306
3859 3177 2891
3807 3243 3466
4095 4008 1854
4095 4014 2402
4095 4029 2939
4095 4059 3462
4095 4095 3963
