Toning/Toning-Warm&Soft&Colorful.3dl
#25pt 3DLUT created by 3D LUT Creator Pro (c) Oleg Sharonov
#Copyright Oleg Sharonov
#IMAGEPROFILE sRGB IEC61966-2.1 v.2.10
#INPUTGAMMA sRGB IEC61966-2.1 v.2.10
#OUTPUTGAMMA sRGB IEC61966-2.1 v.2.10
0 43 86 128 171 214 256 299 341 384 427 469 512 555 597 640 682 725 768 810 853 896 938 981 1023 
0 0 324
0 0 429
0 0 528
0 0 630
0 0 732
0 0 832
1 1 935
1 1 1038
2 2 1138
2 2 1241
2 2 1343
3 3 1446
3 3 1547
4 4 1649
4 4 1751
5 5 1853
5 5 1957
6 6 2058
6 6 2160
7 7 2262
7 7 2364
8 8 2466
8 8 2568
9 9 2670
9 9 2772
0 169 323
0 169 425
0 170 527
0 170 630
0 171 732
0 171 833
1 172 935
1 172 1038
2 173 1138
2 173 1241
3 174 1343
3 174 1446
3 174 1547
4 175 1649
4 175 1751
5 176 1853
5 176 1955
6 177 2058
6 177 2160
7 178 2262
7 178 2364
8 179 2466
8 179 2568
9 180 2670
9 180 2772
0 337 323
0 340 425
0 338 526
0 340 628
0 341 730
0 341 833
1 342 936
1 342 1036
2 343 1139
2 343 1242
3 344 1343
3 344 1444
3 345 1548
4 345 1650
4 346 1752
5 346 1853
5 347 1955
6 347 2056
6 348 2158
7 348 2261
7 349 2363
8 349 2465
8 349 2567
9 350 2669
9 350 2771
0 509 322
0 510 424
0 510 526
0 511 628
0 511 730
0 512 832
1 512 934
1 513 1036
2 513 1139
2 514 1240
3 514 1343
3 515 1444
3 515 1546
4 516 1648
4 516 1750
5 517 1852
5 517 1955
6 518 2056
6 518 2158
7 518 2261
7 519 2362
8 519 2464
8 520 2566
9 520 2669
9 521 2771
0 680 322
0 681 424
0 681 526
0 681 628
0 682 729
0 683 832
1 683 934
1 684 1036
2 685 1138
2 684 1239
3 685 1342
3 685 1444
3 685 1545
4 686 1647
4 686 1750
5 687 1851
5 688 1954
6 688 2056
6 688 2158
7 690 2260
7 690 2362
8 691 2464
8 691 2566
9 692 2668
9 692 2770
0 851 321
0 851 423
0 852 525
0 852 627
0 853 730
0 853 831
1 854 933
1 854 1035
2 854 1137
2 855 1239
3 855 1341
3 856 1443
3 857 1545
4 857 1647
4 858 1749
5 858 1851
5 859 1954
6 859 2055
6 859 2157
7 860 2260
7 860 2362
8 861 2464
8 861 2566
9 862 2668
9 862 2770
0 1021 321
0 1022 423
0 1022 525
0 1023 627
0 1023 729
0 1024 830
1 1024 933
1 1025 1035
2 1026 1137
2 1025 1239
3 1027 1341
3 1026 1443
3 1027 1545
4 1027 1647
4 1028 1749
5 1028 1851
5 1029 1953
6 1029 2055
6 1030 2157
7 1031 2259
7 1031 2361
8 1031 2463
8 1032 2565
9 1033 2667
9 1033 2769
0 1192 320
0 1193 422
0 1193 524
0 1194 626
0 1194 729
0 1195 830
1 1195 933
1 1196 1035
2 1196 1136
2 1197 1238
3 1197 1340
3 1198 1442
3 1198 1544
4 1199 1647
4 1199 1748
5 1200 1851
5 1199 1952
6 1200 2055
6 1201 2157
7 1201 2258
7 1202 2361
8 1202 2463
8 1203 2565
9 1203 2667
9 1204 2769
0 1363 320
0 1363 422
0 1364 524
0 1364 626
0 1364 728
0 1365 830
1 1366 932
1 1366 1034
2 1366 1136
2 1367 1238
3 1368 1340
3 1368 1442
3 1369 1544
4 1369 1646
4 1370 1748
5 1370 1850
5 1370 1952
6 1371 2054
6 1371 2156
7 1372 2258
7 1372 2360
8 1373 2462
8 1373 2564
9 1373 2666
9 1374 2768
0 1533 319
0 1534 422
0 1534 523
0 1534 625
0 1535 727
0 1536 829
1 1536 932
1 1536 1033
2 1537 1135
2 1538 1237
3 1538 1340
3 1538 1441
3 1539 1544
4 1540 1646
4 1540 1748
5 1541 1850
5 1541 1952
6 1542 2054
6 1542 2156
7 1542 2258
7 1543 2359
8 1543 2462
8 1543 2564
9 1544 2666
9 1545 2768
0 1704 319
0 1704 421
0 1705 523
0 1705 625
0 1706 727
0 1707 829
1 1707 931
1 1707 1033
2 1708 1135
2 1709 1237
3 1709 1339
3 1709 1441
3 1710 1543
4 1710 1645
4 1711 1747
5 1711 1849
5 1712 1951
6 1712 2053
6 1713 2155
7 1713 2257
7 1713 2359
8 1714 2461
8 1714 2563
9 1715 2665
9 1715 2767
0 1875 318
0 1875 421
0 1876 522
0 1876 624
0 1876 727
0 1877 828
1 1878 931
1 1878 1032
2 1878 1134
2 1879 1237
3 1879 1339
3 1880 1440
3 1880 1543
4 1881 1645
4 1881 1747
5 1882 1849
5 1882 1951
6 1883 2053
6 1883 2155
7 1883 2257
7 1884 2359
8 1884 2461
8 1885 2563
9 1885 2665
9 1886 2767
0 2045 318
0 2046 420
0 2046 522
0 2047 624
0 2047 726
0 2047 828
1 2048 930
1 2049 1032
2 2049 1134
2 2049 1236
3 2050 1338
3 2050 1440
3 2051 1542
4 2051 1644
4 2052 1746
5 2052 1848
5 2053 1950
6 2053 2052
6 2054 2154
7 2054 2256
7 2055 2358
8 2055 2460
8 2056 2562
9 2056 2664
9 2057 2766
0 2216 317
0 2217 420
0 2217 521
0 2217 623
0 2218 726
0 2218 827
1 2219 929
1 2219 1032
2 2220 1133
2 2220 1236
3 2221 1338
3 2221 1439
3 2221 1541
4 2222 1644
4 2222 1745
5 2223 1848
5 2224 1950
6 2224 2052
6 2224 2154
7 2225 2256
7 2225 2358
8 2226 2460
8 2226 2562
9 2227 2664
9 2227 2766
0 2386 317
0 2387 419
0 2387 521
0 2388 623
0 2388 725
0 2389 827
1 2389 929
1 2390 1031
2 2390 1133
2 2391 1235
3 2391 1337
3 2391 1439
3 2392 1541
4 2393 1643
4 2393 1745
5 2394 1847
5 2394 1949
6 2395 2051
6 2395 2153
7 2395 2255
7 2396 2357
8 2396 2459
8 2397 2561
9 2397 2663
9 2398 2765
0 2557 316
0 2558 419
0 2558 520
0 2559 622
0 2559 725
0 2559 827
1 2560 929
1 2560 1031
2 2561 1132
2 2561 1235
3 2562 1337
3 2562 1439
4 2563 1541
4 2563 1643
4 2564 1745
5 2564 1847
5 2565 1949
6 2565 2051
6 2566 2153
7 2566 2255
7 2567 2357
8 2567 2459
8 2568 2561
9 2568 2663
9 2568 2765
0 2728 316
0 2728 418
0 2729 520
0 2729 622
0 2730 724
0 2730 826
1 2731 928
1 2731 1030
2 2732 1132
2 2732 1234
3 2732 1336
3 2733 1438
4 2734 1540
4 2734 1642
4 2735 1744
5 2735 1846
5 2735 1948
6 2736 2050
6 2736 2152
7 2737 2254
7 2737 2356
8 2738 2458
8 2738 2561
9 2739 2662
12 2739 2764
0 2898 315
0 2899 418
0 2899 520
0 2900 621
0 2900 724
0 2901 826
1 2901 927
1 2902 1030
2 2902 1132
2 2902 1234
3 2903 1336
3 2903 1438
4 2904 1540
4 2905 1642
4 2905 1744
5 2906 1846
5 2906 1948
6 2906 2050
6 2907 2152
7 2907 2254
7 2908 2356
8 2908 2458
8 2909 2560
9 2909 2662
9 2910 2764
0 3069 315
0 3069 417
0 3070 519
0 3070 621
0 3071 723
0 3071 825
1 3072 927
1 3072 1029
2 3073 1131
2 3073 1233
3 3074 1335
3 3074 1437
4 3075 1539
4 3075 1641
4 3076 1743
5 3076 1845
5 3077 1947
6 3077 2049
6 3078 2151
7 3078 2253
7 3078 2355
8 3079 2457
8 3079 2559
9 3080 2661
9 3080 2763
0 3240 314
0 3240 417
0 3241 519
0 3241 620
0 3242 723
0 3242 825
1 3243 927
1 3243 1029
2 3244 1131
2 3244 1233
3 3244 1335
3 3245 1437
4 3245 1539
4 3246 1641
4 3246 1743
5 3247 1845
5 3247 1947
6 3248 2049
6 3248 2151
7 3249 2253
7 3249 2355
8 3250 2457
8 3250 2559
9 3250 2661
9 3251 2763
0 3410 314
0 3411 416
0 3411 518
0 3411 620
0 3412 722
0 3413 824
1 3413 926
1 3413 1028
2 3414 1130
2 3414 1232
3 3415 1334
3 3415 1436
4 3416 1538
4 3416 1640
4 3417 1742
5 3417 1844
5 3418 1946
6 3418 2048
6 3419 2150
7 3419 2252
7 3420 2354
8 3420 2456
8 3420 2558
9 3421 2660
9 3421 2762
0 3581 314
0 3581 416
0 3582 518
0 3582 620
0 3583 722
0 3583 824
1 3584 926
1 3584 1028
2 3585 1130
2 3585 1232
3 3586 1334
3 3586 1436
4 3587 1538
4 3587 1640
4 3587 1742
5 3588 1844
5 3588 1946
6 3589 2048
6 3589 2150
7 3590 2252
7 3590 2354
8 3591 2456
8 3591 2558
9 3592 2660
12 3592 2762
0 3751 313
0 3752 415
0 3752 517
0 3753 619
0 3753 721
0 3754 823
1 3754 925
1 3755 1027
2 3755 1129
2 3756 1231
3 3756 1333
3 3757 1435
4 3757 1537
4 3758 1639
4 3758 1741
5 3759 1843
5 3759 1945
6 3760 2047
6 3760 2149
7 3760 2252
7 3761 2353
8 3761 2455
8 3762 2557
9 3762 2659
9 3763 2761
0 3922 313
0 3922 415
0 3923 517
0 3923 619
0 3924 721
0 3924 823
1 3925 925
1 3925 1027
2 3926 1129
2 3926 1231
3 3927 1333
3 3927 1435
4 3928 1537
4 3928 1639
4 3929 1741
5 3929 1843
5 3930 1945
6 3930 2047
6 3931 2149
7 3931 2251
7 3931 2353
8 3932 2455
8 3932 2557
9 3933 2659
9 3933 2761
1 4093 314
2 4093 416
2 4094 516
2 4094 619
3 4095 720
0 4095 822
1 4095 924
4 4095 1027
2 4095 1128
2 4095 1230
3 4095 1332
6 4095 1434
4 4095 1536
4 4095 1638
4 4095 1740
5 4095 1842
5 4095 1944
6 4095 2046
6 4095 2148
13 4095 2251
11 4095 2352
11 4095 2454
11 4095 2557
15 4095 2658
12 4095 2761
230 3 312
230 1 410
226 4 516
230 9 624
236 14 731
240 20 841
243 26 943
246 31 1051
250 37 1158
253 42 1262
256 48 1370
260 54 1475
263 59 1580
266 65 1688
269 70 1792
273 75 1900
276 81 2006
279 86 2111
282 91 2217
286 97 2323
289 102 2429
292 107 2533
296 112 2631
299 117 2729
302 122 2826
233 169 313
231 170 414
230 172 520
234 177 626
237 181 733
240 186 838
243 192 945
247 197 1051
250 202 1158
253 208 1263
257 213 1368
260 219 1475
263 224 1581
266 229 1687
270 235 1793
273 240 1899
276 245 2006
279 251 2111
283 256 2217
286 261 2323
289 266 2429
292 271 2533
296 276 2630
299 281 2728
302 286 2826
234 337 314
231 338 418
232 341 523
235 345 629
238 349 735
241 353 840
244 358 946
247 363 1051
250 368 1157
254 373 1264
257 378 1369
260 383 1476
263 388 1581
267 394 1687
270 399 1793
273 404 1899
276 409 2005
280 415 2111
283 420 2217
286 425 2322
289 430 2429
293 435 2533
296 440 2630
299 445 2727
302 450 2826
234 509 319
233 509 423
234 511 526
237 514 631
239 517 736
242 521 842
245 526 947
248 529 1052
251 534 1158
254 539 1264
257 544 1370
261 549 1475
264 554 1582
267 559 1688
270 564 1793
273 569 1899
277 574 2005
280 579 2110
283 584 2217
286 589 2322
289 594 2428
293 599 2531
296 604 2629
299 609 2727
303 614 2825
234 679 326
235 679 428
236 681 530
238 683 634
241 686 738
243 690 843
246 694 948
249 697 1053
252 702 1159
255 706 1265
258 711 1370
261 715 1476
264 720 1582
267 725 1688
271 730 1794
274 735 1899
277 740 2005
280 745 2111
283 750 2217
287 755 2323
290 759 2428
293 764 2531
296 768 2629
300 774 2727
300 778 2825
236 849 332
237 850 433
239 851 535
240 854 638
243 856 741
245 859 846
247 861 950
250 866 1055
253 869 1161
256 873 1265
259 878 1372
262 882 1477
265 886 1582
268 890 1688
271 896 1793
274 900 1899
277 905 2006
281 910 2111
284 915 2217
287 920 2323
290 924 2429
293 929 2531
297 934 2629
300 939 2726
303 943 2824
239 1020 338
240 1021 439
241 1022 540
243 1024 642
245 1026 744
247 1029 849
249 1031 953
252 1034 1057
254 1038 1162
257 1042 1268
260 1046 1373
263 1049 1478
266 1054 1584
269 1058 1689
272 1063 1795
275 1067 1900
278 1072 2006
281 1076 2111
284 1081 2218
287 1085 2323
291 1089 2429
294 1094 2530
297 1099 2628
300 1103 2726
303 1108 2824
241 1191 344
242 1192 444
244 1193 545
245 1195 646
247 1196 749
249 1198 852
251 1200 955
253 1204 1060
256 1206 1164
258 1210 1269
261 1213 1374
264 1217 1479
267 1221 1585
270 1225 1690
273 1229 1795
276 1233 1901
279 1238 2007
282 1243 2112
285 1247 2218
288 1252 2324
291 1256 2429
294 1260 2530
298 1265 2628
301 1269 2726
304 1274 2823
244 1362 350
245 1362 450
246 1364 550
247 1365 651
249 1367 753
251 1368 855
253 1370 959
255 1373 1062
257 1376 1167
260 1379 1271
262 1382 1376
265 1386 1481
268 1389 1586
271 1393 1692
274 1397 1797
277 1401 1902
280 1405 2008
283 1409 2113
286 1413 2219
289 1417 2324
292 1422 2430
295 1426 2530
298 1430 2627
301 1435 2725
304 1439 2823
247 1532 356
248 1533 455
249 1534 555
250 1535 655
251 1537 757
253 1538 859
255 1540 962
257 1543 1066
259 1545 1170
261 1548 1274
264 1551 1378
267 1554 1483
269 1557 1588
272 1561 1693
275 1565 1798
278 1568 1903
281 1572 2009
284 1576 2114
286 1580 2220
290 1584 2325
293 1588 2431
296 1593 2529
299 1597 2627
302 1601 2725
305 1605 2822
249 1703 361
250 1704 461
251 1705 560
252 1706 660
254 1707 762
255 1708 864
257 1710 966
259 1712 1069
261 1714 1173
263 1717 1277
266 1720 1381
268 1723 1485
271 1726 1590
273 1729 1695
276 1733 1800
279 1736 1905
282 1740 2010
285 1744 2115
287 1748 2221
290 1751 2326
293 1755 2431
296 1759 2529
300 1763 2626
303 1767 2724
306 1771 2822
