Toning/Toning-Warm Only (Yellow).3dl
#25pt 3DLUT created by 3D LUT Creator Pro (c) Oleg Sharonov
#Copyright Oleg Sharonov
#IMAGEPROFILE sRGB IEC61966-2.1 v.2.10
#INPUTGAMMA sRGB IEC61966-2.1 v.2.10
#OUTPUTGAMMA sRGB IEC61966-2.1 v.2.10
0 128 256 384 512 640 768 896 1023
0 71 0
39 228 0
451 560 52
974 887 615
1500 1254 1143
1964 1659 1637
2334 2079 2059
2626 2473 2418
2864 2814 2728
168 339 61
252 452 32
650 713 245
1118 1004 746
1603 1346 1239
2034 1734 1706
2383 2139 2110
2663 2519 2457
2894 2850 2760
712 775 113
788 831 252
1015 982 623
1400 1230 1005
1812 1538 1436
2183 1897 1851
2493 2272 2221
2747 2625 2544
2961 2933 2832
1357 1209 489
1400 1246 686
1512 1343 1028
1771 1541 1371
2091 1818 1714
2390 2139 2060
2650 2472 2384
2872 2785 2677
3064 3060 2945
1971 1681 993
1994 1708 1128
2071 1788 1382
2170 1926 1775
2398 2160 2041
2627 2435 2315
2837 2718 2587
3025 2984 2846
3194 3221 3089
2486 2189 1432
2499 2210 1534
2540 2272 1743
2609 2380 2046
2704 2539 2380
2873 2760 2597
3040 2988 2820
3197 3206 3043
3342 3402 3260
2897 2687 1858
2905 2703 1937
2925 2746 2114
2972 2827 2347
3028 2937 2642
3118 3087 2891
3249 3265 3073
3378 3436 3262
3501 3584 3455
3230 3134 2291
3235 3145 2351
3246 3174 2494
3277 3229 2678
3321 3308 2906
3369 3405 3159
3459 3531 3336
3564 3654 3497
3663 3757 3653
3511 3512 2732
3515 3520 2776
3524 3540 2880
3544 3577 3029
3577 3631 3204
3619 3696 3402
3666 3767 3603
3747 3847 3729
3822 3916 3841
158 100 16
214 391 0
618 659 189
1087 961 710
1577 1311 1209
2013 1705 1682
2366 2116 2091
2648 2500 2440
2880 2834 2746
414 508 13
445 593 90
790 795 367
1221 1068 825
1674 1399 1296
2081 1778 1744
2415 2174 2137
2685 2546 2476
2909 2870 2775
883 869 103
950 922 297
1124 1046 713
1483 1283 1074
1871 1585 1486
2222 1937 1885
2520 2303 2245
2767 2649 2563
2975 2951 2847
1469 1279 512
1512 1314 719
1611 1403 1065
1834 1587 1426
2136 1858 1755
2422 2173 2089
2673 2499 2405
2889 2805 2694
3077 3076 2958
2045 1740 1004
2069 1766 1136
2129 1837 1410
2217 1966 1810
2431 2194 2074
2652 2463 2340
2856 2741 2605
3039 3002 2861
3205 3235 3102
2530 2235 1438
2544 2255 1538
2577 2311 1764
2643 2416 2062
2729 2567 2404
2892 2782 2619
3055 3007 2837
3208 3221 3057
3352 3413 3272
2924 2721 1864
2932 2736 1942
2949 2775 2128
2993 2853 2362
3049 2960 2652
3133 3105 2908
3261 3279 3086
3388 3448 3274
3509 3592 3464
3247 3157 2299
3252 3168 2358
3264 3195 2500
3292 3248 2692
3334 3324 2917
3383 3419 3167
3468 3541 3348
3572 3662 3507
3669 3763 3661
3523 3528 2741
3527 3536 2784
3536 3554 2887
3554 3589 3042
3587 3642 3215
3628 3705 3411
3673 3774 3613
3753 3852 3737
3827 3920 3847
726 123 52
845 195 23
950 865 530
1336 1126 921
1751 1447 1362
2128 1818 1787
2443 2204 2164
2702 2567 2495
2920 2883 2788
971 409 36
1060 425 23
1087 973 657
1444 1217 1022
1833 1525 1439
2188 1884 1843
2487 2258 2208
2736 2609 2529
2948 2917 2816
1304 1047 0
1374 1117 0
1385 1206 891
1670 1411 1242
2006 1699 1606
2317 2034 1968
2586 2381 2305
2814 2707 2608
3012 2994 2883
1719 1431 536
1771 1483 742
1831 1553 1141
1982 1701 1551
2241 1957 1856
2498 2257 2162
2728 2566 2459
2930 2857 2736
3109 3114 2991
2205 1872 1015
2233 1909 1151
2274 1965 1451
2351 2078 1843
2512 2278 2151
2711 2533 2401
2901 2797 2652
3074 3045 2898
3233 3268 3132
2632 2348 1446
2643 2368 1546
2671 2413 1784
2723 2503 2100
2789 2636 2459
2938 2838 2669
3091 3051 2878
3238 3256 3089
3375 3439 3300
2986 2804 1877
2994 2818 1954
3013 2852 2137
3044 2917 2399
3097 3017 2679
3169 3148 2947
3290 3313 3122
3412 3475 3303
3528 3612 3488
3288 3214 2318
3293 3224 2376
3306 3248 2516
3327 3293 2726
3368 3365 2945
3415 3454 3188
3492 3568 3378
3591 3682 3532
3685 3777 3680
3552 3567 2763
3556 3573 2806
3565 3591 2907
3580 3621 3070
3611 3670 3242
3651 3728 3434
3693 3792 3633
3768 3866 3756
3839 3931 3861
1349 113 32
1420 110 23
1688 696 365
1682 1373 1243
2002 1663 1596
2302 2001 1951
2564 2349 2284
2790 2677 2585
2986 2965 2860
1553 347 23
1624 349 13
1813 783 445
1764 1448 1323
2066 1731 1659
2351 2058 2000
2602 2396 2322
2820 2715 2617
3011 2995 2886
1895 1004 0
1954 1026 0
2076 1066 637
1945 1623 1495
2204 1884 1803
2459 2191 2112
2688 2506 2411
2890 2804 2690
3070 3067 2949
2175 1675 0
2207 1723 0
2275 1840 564
2211 1903 1713
2406 2121 2012
2618 2394 2285
2818 2676 2550
2998 2943 2806
3162 3180 3049
2447 2076 1005
2468 2113 1135
2507 2191 1436
2540 2269 1896
2640 2420 2269
2807 2648 2506
2975 2889 2734
3132 3117 2963
3279 3323 3186
2785 2512 1451
2798 2539 1553
2819 2588 1785
2850 2653 2146
2904 2762 2507
3015 2931 2751
3151 3126 2948
3287 3316 3146
3414 3482 3349
3088 2932 1900
3096 2948 1977
3109 2980 2154
3133 3029 2435
3175 3111 2728
3229 3222 3012
3339 3372 3183
3453 3521 3355
3561 3645 3529
3357 3306 2355
3361 3315 2411
3372 3338 2544
3392 3374 2757
3423 3433 2995
3468 3514 3226
3532 3611 3429
3624 3714 3575
3711 3801 3712
3600 3630 2805
3603 3636 2846
3612 3651 2944
3628 3676 3102
3651 3715 3291
3688 3767 3475
3730 3823 3663
3793 3888 3788
3859 3948 3884
2020 87 0
2074 84 0
2299 530 287
2396 1378 1359
2284 1944 1884
2509 2237 2165
2716 2539 2443
2904 2822 2709
3075 3075 2960
2197 339 0
2245 336 0
2394 649 393
2484 1409 1370
2331 2000 1934
2547 2286 2205
2747 2579 2476
2930 2856 2737
3097 3102 2984
2478 971 0
2515 986 0
2611 1012 577
2688 1474 1378
2439 2133 2048
2634 2399 2301
2820 2674 2555
2991 2934 2804
3150 3166 3042
2733 1690 0
2756 1715 0
2827 1764 284
2886 1809 1525
2602 2344 2215
2767 2577 2453
2932 2824 2682
3088 3057 2912
3234 3268 3136
2833 2377 0
2843 2408 0
2871 2486 243
2887 2594 1316
2807 2620 2399
2934 2805 2639
3073 3013 2850
3212 3216 3055
3343 3397 3263
2978 2722 1448
2986 2745 1546
3006 2799 1779
3024 2866 2129
3048 2937 2559
3117 3060 2861
3234 3229 3048
3354 3398 3230
3469 3541 3418
3219 3089 1931
3224 3104 2007
3238 3140 2186
3253 3187 2454
3279 3243 2786
3323 3330 3076
3408 3454 3266
3509 3582 3429
3606 3689 3586
3450 3421 2407
3454 3431 2464
3463 3453 2595
3477 3487 2797
3501 3530 3051
3538 3594 3286
3588 3670 3501
3669 3758 3636
3748 3835 3756
3666 3709 2870
3670 3715 2910
3677 3728 3005
3689 3750 3154
3709 3778 3345
3738 3817 3536
3777 3865 3709
3828 3919 3832
3888 3972 3917
2647 65 0
2679 55 0
2849 452 393
3005 1123 1168
2851 2052 2088
2723 2507 2407
2883 2756 2635
3036 2992 2862
3181 3206 3085
2807 431 0
2839 439 0
2920 591 512
3055 1195 1229
2892 2098 2118
2753 2547 2441
2908 2789 2663
3058 3020 2887
3201 3229 3107
3016 1003 0
3041 1015 0
3095 1043 649
3167 1373 1374
2995 2197 2177
2823 2641 2522
2968 2869 2731
3111 3088 2946
3247 3284 3160
3195 1688 0
3206 1707 0
3258 1740 532
3301 1782 1514
3206 2277 2192
2932 2792 2647
3064 2997 2844
3195 3195 3044
3321 3371 3248
3253 2458 0
3262 2474 0
3279 2512 0
3318 2565 1160
3328 2597 2296
3074 2989 2806
3188 3162 2994
3306 3335 3177
3419 3483 3365
3285 3016 0
3289 3033 0
3297 3079 145
3306 3141 1219
3304 3209 2131
3242 3219 2978
3334 3354 3168
3436 3492 3339
3536 3610 3503
3378 3274 1881
3379 3284 1982
3383 3309 2217
3398 3358 2489
3412 3410 2805
3435 3466 3142
3492 3553 3371
3577 3654 3523
3662 3743 3656
3558 3551 2484
3562 3559 2537
3569 3580 2664
3582 3611 2862
3598 3647 3100
3622 3688 3361
3661 3742 3576
3725 3811 3709
3793 3875 3809
3744 3793 2958
3746 3798 2996
3753 3810 3088
3764 3828 3232
3779 3851 3410
3800 3878 3608
3832 3915 3767
3871 3957 3885
3924 4002 3957
3232 316 0
3251 328 61
3311 514 634
3421 1127 1315
3416 1821 2006
3125 2646 2615
3054 2984 2844
3177 3174 3038
3296 3342 3234
3315 644 0
3333 656 87
3366 672 729
3456 1202 1378
3440 1871 2037
3149 2679 2639
3075 3011 2868
3196 3198 3059
3313 3360 3253
3451 1125 0
3467 1140 87
3494 1161 834
3532 1385 1530
3493 1997 2114
3208 2759 2694
3125 3077 2929
3240 3254 3112
3353 3406 3300
3558 1762 0
3568 1774 0
3593 1806 787
3611 1852 1625
3564 2217 2246
3309 2883 2778
3205 3183 3027
3314 3344 3199
3418 3479 3376
3573 2485 0
3577 2497 0
3600 2526 289
3610 2569 1390
3614 2608 2334
3490 2992 2836
3313 3324 3158
3411 3460 3321
3506 3574 3479
3580 3106 0
3581 3120 0
3582 3156 0
3593 3194 912
3597 3223 2047
3589 3242 2948
3442 3487 3315
3526 3592 3467
3610 3684 3600
3615 3519 0
3615 3531 0
3617 3552 676
3621 3581 1443
3622 3613 2227
3618 3648 2922
3587 3657 3486
3655 3731 3625
3725 3802 3733
3688 3694 2409
3689 3699 2483
3691 3710 2655
3694 3728 2914
3705 3757 3179
3722 3789 3421
3744 3822 3652
3787 3869 3788
3844 3920 3869
3828 3877 3076
3830 3880 3111
3835 3889 3196
3843 3903 3330
3856 3923 3500
3871 3945 3676
3892 3969 3832
3923 4000 3939
3965 4035 4001
3656 727 126
3665 740 403
3682 769 963
3725 1246 1577
3695 1859 2174
3558 2551 2658
3334 3123 3044
3319 3352 3228
3415 3472 3389
3699 931 149
3706 944 461
3721 971 1019
3745 1317 1641
3708 1913 2208
3574 2578 2674
3350 3147 3063
3335 3370 3247
3429 3487 3405
3768 1342 149
3772 1354 532
3781 1382 1101
3788 1488 1795
3736 2047 2291
3610 2652 2718
3390 3202 3110
3372 3414 3293
3463 3524 3444
3808 1917 0
3810 1930 446
3813 1959 1093
3814 2002 1833
3775 2270 2425
3661 2789 2799
3456 3293 3186
3435 3486 3369
3520 3584 3508
3785 2574 0
3792 2584 0
3796 2610 869
3795 2649 1670
3788 2695 2466
3719 2986 2919
3549 3412 3288
3519 3580 3473
3596 3665 3595
3770 3168 0
3771 3175 0
3777 3196 328
3776 3222 1390
3773 3250 2287
3765 3280 3018
3689 3520 3375
3621 3690 3598
3688 3759 3699
3803 3596 0
3803 3603 0
3803 3623 0
3801 3649 1122
3799 3669 2091
3795 3679 2921
3788 3691 3507
3734 3808 3731
3790 3862 3813
3862 3860 902
3862 3862 1083
3862 3868 1474
3863 3876 2022
3862 3887 2616
3861 3900 3153
3861 3916 3585
3854 3928 3864
3899 3966 3931
3928 3967 3028
3928 3968 3075
3929 3972 3188
3931 3980 3360
3934 3990 3567
3943 4006 3755
3959 4025 3889
3979 4045 3990
4010 4070 4046
3922 1128 700
3924 1144 915
3927 1182 1371
3920 1465 1930
3863 2017 2414
3761 2595 2801
3591 3185 3179
3508 3467 3407
3531 3592 3534
3936 1286 736
3937 1300 952
3938 1336 1407
3930 1530 1985
3870 2068 2446
3769 2629 2822
3606 3200 3191
3520 3482 3421
3543 3604 3547
3954 1635 780
3954 1649 1001
3953 1682 1458
3948 1734 2088
3886 2194 2526
3787 2715 2873
3655 3214 3204
3551 3519 3458
3572 3634 3580
3951 2148 732
3949 2160 967
3946 2189 1438
3938 2234 2074
3908 2401 2655
3816 2859 2962
3711 3278 3252
3603 3578 3519
3620 3684 3633
3924 2726 509
3923 2736 792
3919 2758 1307
3912 2792 1976
3901 2837 2660
3853 3057 3081
3770 3396 3341
3674 3658 3601
3686 3751 3705
3905 3254 0
3904 3260 485
3902 3275 1109
3897 3296 1837
3889 3324 2560
3878 3363 3152
3835 3547 3465
3761 3752 3699
3766 3831 3793
3923 3666 0
3921 3673 0
3919 3680 897
3916 3689 1710
3911 3700 2491
3905 3714 3128
3900 3734 3589
3873 3842 3790
3858 3920 3889
3986 3914 496
3985 3916 759
3984 3920 1245
3980 3927 1882
3976 3935 2550
3970 3942 3157
3967 3948 3637
3967 3959 3902
3956 4012 3990
4051 4068 2086
4050 4068 2192
4049 4068 2435
4046 4069 2788
4044 4071 3180
4042 4075 3545
4044 4082 3829
4049 4091 4001
4058 4095 4091
