Toning/Toning-Warm-GreenShadows.3dl
#25pt 3DLUT created by 3D LUT Creator Pro (c) Oleg Sharonov
#Copyright Oleg Sharonov
#INPUTGAMMA sRGB IEC61966-2.1 v.2.10
#IMAGEPROFILE sRGB IEC61966-2.1 v.2.10
#OUTPUTGAMMA sRGB IEC61966-2.1 v.2.10
0 256 512 768 1023
251 192 70
271 263 397
358 348 1310
479 473 2214
633 628 3128
540 557 199
534 661 524
590 730 1478
684 800 2389
869 947 3171
1032 1086 393
1035 1207 550
1014 1353 1441
1151 1440 2410
1331 1562 3252
1701 1869 919
1716 1886 932
1677 2128 1438
1679 2174 2377
1853 2272 3327
2440 2688 1568
2451 2699 1578
2453 2808 1805
2412 3035 2381
2434 3032 3355
936 206 75
858 294 416
637 358 1390
482 476 2234
635 630 3141
940 731 264
970 947 600
866 907 1457
686 802 2407
871 950 3181
1383 1254 451
1403 1438 701
1397 1592 1485
1253 1504 2421
1333 1564 3263
1931 1975 963
1943 1990 975
1945 2274 1540
1940 2339 2401
1856 2274 3339
2591 2755 1600
2601 2765 1610
2633 2910 1894
2591 3130 2444
2609 3137 3381
1862 252 92
1911 230 378
1719 449 1344
1493 519 2396
1195 687 3192
1846 637 357
1878 766 562
1777 1025 1418
1556 1079 2364
1321 1161 3137
1865 1626 822
1871 1755 1023
1938 1947 1614
1859 1902 2431
1758 1843 3228
2361 2231 1167
2376 2275 1236
2424 2541 1735
2421 2644 2483
2368 2599 3356
2959 2922 1687
2967 2932 1697
3009 3102 2078
3004 3328 2637
3012 3365 3475
2837 428 230
2954 225 532
2847 510 1170
2613 742 2216
2349 925 3121
2857 436 239
2977 225 536
2839 732 1206
2649 1182 2259
2401 1297 3157
2789 1634 1055
2774 1694 1221
2829 1831 1587
2798 2009 2416
2567 2072 3277
2878 2570 1545
2883 2641 1678
2912 2826 2011
3001 3015 2650
2934 2971 3459
3359 3192 2018
3366 3200 2025
3431 3356 2399
3524 3570 2906
3529 3684 3610
3738 866 602
3866 667 838
3858 708 1345
3689 1004 1941
3497 1130 3049
3750 873 607
3879 673 843
3871 713 1348
3704 1007 1938
3532 1449 3085
3658 1504 1149
3643 1582 1251
3784 1636 1606
3702 1943 2175
3654 2164 3210
3780 2619 1848
3784 2673 1922
3777 2804 2158
3884 2922 2622
3878 3075 3461
3862 3487 2407
3874 3523 2507
3915 3630 2784
3991 3803 3232
4095 4026 3831
