Toning/Toning-Saturation & Contrast.3dl
#25pt 3DLUT created by 3D LUT Creator Pro (c) Oleg Sharonov
#Copyright Oleg Sharonov
#INPUTGAMMA sRGB IEC61966-2.1 v.2.10
#IMAGEPROFILE sRGB IEC61966-2.1 v.2.10
#OUTPUTGAMMA sRGB IEC61966-2.1 v.2.10
0 43 86 128 171 214 256 299 341 384 427 469 512 555 597 640 682 725 768 810 853 896 938 981 1023 
0 0 0
0 0 37
0 0 79
0 0 167
0 0 288
0 0 427
0 0 578
0 0 767
0 0 937
0 0 1113
0 0 1296
0 0 1482
0 0 1670
0 0 1862
0 0 2056
0 0 2245
0 0 2442
0 0 2636
0 0 2836
0 0 3033
0 0 3232
0 0 3433
0 0 3635
0 0 3838
0 0 4042
0 19 0
0 22 19
0 31 73
0 45 182
0 69 325
0 83 482
0 90 656
0 91 854
0 86 1050
0 78 1243
0 62 1431
0 65 1593
0 54 1769
0 63 1943
0 71 2133
0 80 2312
0 89 2496
0 97 2683
0 106 2867
0 115 3059
0 123 3253
0 132 3450
0 141 3648
0 149 3846
0 158 4042
0 70 0
0 78 23
0 95 80
0 123 187
0 160 322
0 188 478
0 209 641
0 229 839
0 243 1015
0 251 1231
0 255 1438
0 258 1619
0 259 1813
0 253 2016
0 260 2181
0 254 2378
0 260 2552
0 264 2733
0 271 2914
0 281 3095
0 289 3282
0 296 3473
0 304 3665
0 315 3857
0 334 4042
0 184 0
0 191 31
0 219 99
0 249 208
0 281 331
0 309 475
0 334 630
0 361 822
0 382 1011
0 401 1208
0 414 1395
0 425 1602
0 431 1809
0 439 1983
0 444 2173
0 446 2366
0 445 2571
0 440 2780
0 449 2948
0 447 3146
0 457 3321
0 467 3500
0 475 3687
0 489 3857
0 505 4042
0 333 0
0 341 46
0 367 126
0 395 233
0 422 353
0 448 483
0 476 633
0 507 809
0 534 997
0 554 1182
0 572 1375
0 585 1563
0 596 1787
0 606 1968
0 613 2167
0 618 2381
0 623 2566
0 627 2757
0 629 2957
0 639 3121
0 639 3326
0 649 3499
0 649 3689
0 665 3857
0 676 4042
0 503 0
0 510 59
0 529 147
0 554 251
0 577 373
0 601 502
0 627 644
0 659 812
0 687 989
0 713 1177
0 735 1371
0 752 1567
0 766 1762
0 777 1941
0 787 2138
0 793 2354
0 797 2556
0 804 2732
0 810 2918
0 811 3140
0 820 3305
0 824 3502
0 827 3691
0 838 3858
0 847 4043
0 679 0
0 685 64
0 700 162
0 722 268
0 743 390
0 764 520
0 788 660
0 818 821
0 847 992
0 873 1172
0 897 1360
0 917 1554
0 933 1739
0 947 1939
0 958 2127
0 967 2339
0 975 2518
0 980 2735
0 987 2908
0 990 3114
0 996 3299
0 1000 3491
0 1004 3685
0 1010 3859
0 1018 4043
0 859 0
0 865 57
0 876 173
0 897 277
0 914 406
0 933 535
0 955 675
0 984 835
0 1012 1001
0 1038 1174
0 1062 1358
0 1082 1544
0 1101 1738
0 1115 1928
0 1128 2116
0 1138 2314
0 1148 2515
0 1155 2709
0 1161 2917
0 1166 3108
0 1171 3287
0 1175 3491
0 1179 3681
0 1183 3859
0 1189 4044
0 1042 0
0 1048 55
0 1056 181
0 1075 293
0 1091 414
0 1107 549
0 1128 689
0 1156 848
0 1182 1013
0 1205 1182
0 1228 1357
0 1250 1541
0 1268 1731
0 1284 1921
0 1298 2114
0 1309 2309
0 1319 2502
0 1327 2694
0 1334 2900
0 1340 3101
0 1344 3290
0 1348 3486
0 1352 3683
0 1356 3860
0 1361 4044
0 1227 0
0 1231 61
0 1240 181
0 1255 300
0 1271 425
0 1285 559
0 1304 700
0 1330 860
0 1355 1024
0 1378 1192
0 1399 1365
0 1419 1543
0 1437 1725
0 1453 1915
0 1467 2103
0 1480 2300
0 1490 2491
0 1499 2690
0 1506 2892
0 1512 3079
0 1518 3288
0 1522 3476
0 1525 3669
0 1528 3860
0 1532 4044
0 1413 0
0 1418 36
0 1424 184
0 1437 308
0 1453 432
0 1466 567
0 1483 710
0 1508 869
0 1530 1034
0 1552 1202
0 1572 1374
0 1590 1548
0 1608 1729
0 1624 1913
0 1638 2104
0 1650 2293
0 1661 2487
0 1670 2684
0 1678 2878
0 1684 3076
0 1690 3273
0 1694 3476
0 1697 3664
0 1700 3861
0 1703 4044
0 1600 0
0 1604 33
0 1610 181
0 1622 306
0 1635 444
0 1647 577
0 1663 719
0 1686 878
0 1708 1042
0 1728 1211
0 1748 1382
0 1764 1556
0 1781 1733
0 1795 1915
0 1810 2102
0 1822 2292
0 1833 2487
0 1842 2681
0 1850 2876
0 1856 3069
0 1862 3272
0 1866 3468
0 1870 3667
0 1872 3861
0 1874 4045
0 1788 0
0 1794 0
0 1798 168
0 1807 308
0 1821 446
0 1832 579
0 1844 732
0 1867 886
0 1887 1051
0 1906 1219
0 1924 1389
0 1940 1564
0 1956 1740
0 1969 1920
0 1982 2103
0 1994 2291
0 2005 2482
0 2014 2675
0 2022 2869
0 2029 3068
0 2034 3267
0 2038 3461
0 2042 3661
0 2044 3860
0 2045 4045
0 1976 0
0 1981 0
0 1985 180
0 1994 309
0 2007 440
0 2017 586
0 2028 737
0 2049 891
0 2067 1058
0 2084 1226
0 2102 1396
0 2117 1570
0 2132 1747
0 2145 1926
0 2157 2108
0 2167 2293
0 2178 2481
0 2186 2673
0 2194 2868
0 2200 3062
0 2206 3261
0 2210 3459
0 2213 3658
0 2216 3857
0 2216 4046
0 2164 0
0 2168 0
0 2174 138
0 2182 298
0 2192 447
0 2204 580
0 2214 733
0 2231 897
0 2247 1065
0 2266 1230
0 2280 1402
0 2295 1575
0 2308 1752
0 2321 1931
0 2332 2112
0 2342 2296
0 2351 2483
0 2359 2673
0 2367 2867
0 2373 3061
0 2378 3257
0 2382 3455
0 2385 3653
0 2387 3852
0 2388 4046
0 2353 0
0 2357 0
0 2362 150
0 2367 318
0 2379 443
0 2389 590
0 2397 748
0 2413 909
0 2432 1064
0 2446 1236
0 2461 1404
0 2474 1580
0 2486 1757
0 2498 1935
0 2508 2117
0 2517 2300
0 2525 2486
0 2533 2674
0 2540 2866
0 2545 3060
0 2550 3255
0 2554 3455
0 2557 3653
0 2558 3852
0 2559 4046
0 2542 0
0 2545 0
0 2549 159
0 2557 292
0 2566 435
0 2575 593
0 2585 742
0 2598 914
0 2613 1074
0 2627 1243
0 2641 1409
0 2652 1586
0 2665 1761
0 2676 1939
0 2685 2121
0 2693 2304
0 2701 2490
0 2707 2677
0 2713 2866
0 2718 3060
0 2723 3255
0 2726 3453
0 2728 3650
0 2730 3850
0 2730 4047
0 2730 0
0 2733 0
0 2737 168
0 2743 305
0 2751 455
0 2763 590
0 2769 754
0 2784 911
0 2796 1080
0 2809 1246
0 2821 1418
0 2833 1588
0 2844 1763
0 2852 1944
0 2862 2124
0 2869 2307
0 2876 2493
0 2882 2680
0 2887 2869
0 2892 3061
0 2895 3255
0 2898 3452
0 2900 3650
0 2901 3849
0 2901 4047
0 2919 0
0 2922 0
0 2928 90
0 2931 318
0 2940 439
0 2951 579
0 2956 756
0 2968 921
0 2980 1082
0 2991 1252
0 3003 1420
0 3012 1594
0 3023 1768
0 3032 1945
0 3040 2127
0 3047 2310
0 3052 2496
0 3058 2683
0 3062 2872
0 3066 3063
0 3068 3256
0 3071 3451
0 3072 3650
0 3073 3849
0 3073 4047
0 3107 0
0 3111 0
0 3115 108
0 3122 253
0 3127 454
0 3136 605
0 3144 752
0 3157 904
0 3167 1074
0 3174 1256
0 3186 1416
0 3193 1598
0 3204 1768
0 3210 1950
0 3217 2130
0 3223 2313
0 3228 2498
0 3233 2685
0 3237 2874
0 3240 3065
0 3242 3258
0 3243 3452
0 3244 3649
0 3245 3848
0 3244 4048
0 3296 0
0 3300 0
0 3304 95
0 3309 268
0 3316 417
0 3324 583
0 3332 744
0 3342 905
0 3350 1082
0 3358 1254
0 3369 1419
0 3376 1596
0 3384 1770
0 3390 1951
0 3397 2131
0 3402 2314
0 3406 2500
0 3409 2687
0 3412 2876
0 3415 3067
0 3416 3259
0 3417 3454
0 3417 3650
0 3417 3849
0 3415 4048
0 3485 0
0 3488 0
0 3492 100
0 3497 281
0 3502 445
0 3511 595
0 3518 752
0 3526 922
0 3534 1091
0 3541 1260
0 3548 1432
0 3555 1605
0 3562 1781
0 3567 1958
0 3573 2138
0 3577 2320
0 3581 2504
0 3584 2690
0 3586 2878
0 3588 3068
0 3589 3260
0 3589 3454
0 3589 3650
0 3588 3848
0 3587 4048
0 3684 0
0 3686 0
0 3688 231
0 3693 385
0 3699 524
0 3707 663
0 3711 815
0 3718 974
0 3724 1135
0 3731 1298
0 3737 1464
0 3743 1632
0 3748 1804
0 3753 1978
0 3757 2155
0 3760 2334
0 3763 2516
0 3765 2699
0 3766 2886
0 3766 3074
0 3766 3265
0 3765 3457
0 3763 3652
0 3761 3849
0 3759 4049
423 3900 0
349 3912 0
213 3928 0
0 3947 130
0 3952 420
0 3953 618
0 3954 794
0 3954 969
0 3955 1139
0 3955 1309
0 3955 1479
0 3956 1649
0 3956 1821
0 3956 1995
0 3955 2171
0 3955 2349
0 3954 2529
0 3952 2711
0 3950 2895
0 3948 3082
0 3945 3271
0 3942 3462
0 3939 3656
23 3935 3851
23 3930 4049
719 4095 0
668 4095 0
593 4095 0
525 4095 281
522 4095 506
517 4095 684
506 4095 851
476 4095 1019
446 4095 1184
419 4095 1350
393 4095 1516
369 4095 1683
346 4095 1851
325 4095 2022
305 4095 2194
287 4095 2369
269 4095 2546
252 4095 2725
233 4095 2906
213 4095 3090
190 4095 3276
165 4095 3465
136 4095 3657
103 4095 3852
66 4095 4049
0 0 0
0 0 24
0 0 75
0 0 182
0 0 368
0 0 528
2 0 660
11 0 814
20 0 973
28 0 1149
37 0 1329
45 0 1511
54 0 1698
63 0 1881
71 0 2072
80 0 2260
89 0 2451
97 0 2648
106 0 2842
115 0 3038
123 0 3236
132 0 3436
141 0 3637
149 0 3840
158 0 4042
0 22 0
0 25 21
0 3 116
0 57 321
0 71 506
0 69 656
2 55 830
11 36 1003
20 20 1168
28 28 1305
37 37 1468
45 45 1621
54 54 1795
63 63 1967
71 71 2142
80 80 2321
89 89 2504
97 97 2690
106 106 2877
115 115 3065
123 123 3258
132 132 3453
141 141 3650
149 149 3847
158 159 4042
0 78 0
0 85 0
0 111 93
0 156 279
0 183 444
0 200 600
2 213 765
11 225 944
20 235 1103
28 240 1286
37 239 1501
45 239 1685
54 232 1881
63 241 2032
71 236 2224
80 241 2392
89 246 2567
97 256 2739
106 262 2920
115 274 3100
123 277 3290
132 290 3476
141 299 3668
149 312 3857
158 334 4042
0 195 0
0 205 0
0 229 77
0 268 225
0 301 384
0 325 545
2 346 719
11 366 899
20 385 1089
28 400 1277
37 411 1468
45 420 1653
54 429 1816
63 429 2040
71 431 2225
80 430 2425
89 441 2577
97 436 2786
106 445 2953
115 443 3151
123 453 3325
132 464 3504
141 472 3689
149 489 3857
158 504 4042
0 347 0
0 353 0
0 371 94
0 406 221
0 437 367
0 464 519
2 489 682
11 517 869
20 539 1047
28 558 1242
37 573 1430
45 585 1628
54 594 1824
63 603 2007
71 609 2210
80 616 2387
89 622 2571
97 625 2762
106 627 2962
115 628 3161
123 637 3330
132 638 3530
141 648 3689
149 665 3857
158 676 4042
0 514 0
0 520 0
0 534 112
0 563 230
0 589 367
0 613 514
2 638 670
11 668 844
20 696 1028
28 718 1216
37 738 1406
45 753 1591
54 767 1790
63 777 1972
71 785 2172
80 792 2359
89 796 2561
97 799 2769
106 805 2953
115 810 3143
123 814 3336
132 823 3504
141 826 3691
149 837 3858
158 847 4043
0 688 0
0 696 0
0 704 126
0 729 240
0 751 374
0 773 517
2 797 670
11 827 839
20 855 1017
28 879 1198
37 901 1385
45 921 1585
54 936 1775
63 948 1962
71 958 2152
80 966 2342
89 973 2544
97 979 2735
106 984 2934
115 989 3117
123 992 3326
132 996 3516
141 1000 3692
149 1010 3859
158 1018 4043
0 866 0
0 874 0
0 881 128
0 902 250
0 922 382
0 940 525
2 964 674
11 992 843
20 1018 1014
28 1044 1194
37 1067 1377
45 1087 1565
54 1103 1753
63 1117 1943
71 1129 2136
80 1139 2336
89 1148 2536
97 1154 2734
106 1160 2917
115 1165 3111
123 1169 3310
132 1174 3493
141 1179 3681
149 1183 3859
158 1189 4043
0 1048 0
0 1055 0
0 1061 137
0 1078 264
0 1096 395
0 1113 533
2 1134 682
11 1163 848
20 1188 1019
28 1211 1192
37 1233 1371
45 1253 1555
54 1270 1742
63 1286 1932
71 1299 2128
80 1311 2326
89 1320 2520
97 1327 2714
106 1334 2903
115 1339 3102
123 1344 3292
132 1348 3486
141 1352 3685
149 1356 3860
158 1361 4044
0 1232 0
0 1238 0
0 1243 142
0 1258 264
0 1275 403
0 1290 542
2 1309 690
11 1336 855
20 1361 1025
28 1383 1197
37 1403 1372
45 1423 1553
54 1441 1739
63 1456 1926
71 1470 2122
80 1481 2313
89 1491 2505
97 1500 2706
106 1506 2893
115 1512 3094
123 1517 3288
132 1521 3476
141 1525 3682
149 1528 3860
158 1532 4044
0 1417 0
0 1423 0
0 1428 144
0 1440 278
0 1457 410
0 1471 548
2 1488 696
11 1513 861
20 1535 1031
28 1557 1203
37 1577 1378
45 1594 1555
54 1611 1737
63 1627 1924
71 1641 2114
80 1652 2303
89 1663 2498
97 1672 2696
106 1679 2891
115 1685 3088
123 1690 3285
132 1694 3477
141 1698 3675
149 1700 3861
158 1703 4044
