Toning/Toning-Soft blue.3dl
#25pt 3DLUT created by 3D LUT Creator Pro (c) Oleg Sharonov
#Copyright Oleg Sharonov
#IMAGEPROFILE sRGB IEC61966-2.1 v.2.10
#INPUTGAMMA sRGB IEC61966-2.1 v.2.10
#OUTPUTGAMMA sRGB IEC61966-2.1 v.2.10
0 43 86 128 171 214 256 299 341 384 427 469 512 555 597 640 682 725 768 810 853 896 938 981 1023 
0 0 0
10 13 19
19 29 42
39 58 78
65 94 126
97 142 190
139 201 258
190 260 325
236 317 389
287 375 455
337 432 522
387 492 589
437 550 656
486 608 723
536 666 791
586 723 861
636 780 932
685 837 1002
735 895 1074
785 953 1148
835 1011 1222
884 1069 1299
933 1125 1379
983 1181 1462
1031 1237 1547
0 119 47
0 171 165
10 187 204
45 207 233
94 233 270
139 265 313
187 305 363
233 350 415
276 396 469
323 445 526
370 495 585
417 546 646
464 599 707
512 653 771
560 706 836
607 760 902
655 814 969
704 870 1038
753 925 1108
801 981 1180
849 1037 1253
898 1093 1329
946 1148 1408
995 1203 1490
1043 1257 1576
0 235 90
0 290 218
0 338 332
0 357 382
55 375 402
117 397 434
198 421 472
256 451 513
309 488 561
357 527 610
402 570 662
448 615 715
495 662 773
541 709 832
587 758 893
633 808 955
680 860 1019
727 911 1085
774 964 1152
821 1018 1222
869 1071 1294
916 1124 1369
963 1177 1447
1011 1231 1528
1058 1283 1613
3 355 138
0 406 260
0 462 394
0 508 500
0 528 552
58 544 578
129 564 603
226 585 637
311 609 676
373 638 716
429 671 764
479 708 811
526 747 863
573 788 916
619 831 972
665 877 1030
712 924 1091
757 972 1153
803 1021 1217
849 1072 1285
895 1121 1356
942 1171 1429
988 1222 1506
1034 1272 1586
1080 1322 1670
10 483 185
6 541 300
3 594 423
0 649 553
0 685 665
0 699 727
45 714 759
152 731 781
231 753 809
340 772 844
425 796 886
490 822 928
549 855 973
600 889 1021
650 927 1073
697 966 1126
745 1009 1183
791 1052 1241
836 1096 1303
882 1141 1370
927 1187 1438
972 1233 1510
1017 1280 1585
1062 1327 1664
1107 1373 1747
32 625 251
29 709 332
23 759 440
10 816 561
0 849 705
0 853 835
0 866 903
13 884 944
162 898 963
267 916 989
342 939 1020
456 959 1058
540 982 1099
608 1010 1144
668 1041 1191
722 1074 1240
774 1110 1294
822 1147 1351
869 1186 1411
916 1226 1475
961 1267 1541
1005 1309 1611
1050 1351 1685
1094 1394 1763
1137 1437 1846
94 795 345
84 864 411
74 934 478
58 984 583
23 1015 723
0 1018 883
0 1025 1005
0 1037 1079
0 1056 1119
159 1069 1147
294 1086 1173
382 1106 1203
468 1128 1238
575 1147 1279
657 1170 1324
727 1196 1373
787 1225 1424
842 1256 1479
895 1290 1537
944 1325 1599
991 1360 1664
1036 1397 1733
1081 1435 1806
1125 1473 1884
1168 1513 1964
213 995 469
203 1047 511
189 1105 557
162 1164 630
123 1177 759
39 1184 913
0 1190 1063
0 1199 1176
0 1210 1255
0 1227 1298
139 1240 1337
315 1254 1365
420 1271 1396
500 1292 1432
595 1312 1473
695 1331 1520
775 1353 1570
845 1378 1623
905 1405 1681
960 1433 1741
1012 1465 1806
1061 1496 1875
1107 1530 1947
1152 1565 2023
1195 1601 2103
364 1208 607
355 1242 635
341 1284 668
317 1331 723
279 1339 829
209 1348 955
62 1356 1095
0 1363 1241
0 1370 1349
0 1380 1434
0 1395 1485
107 1409 1534
327 1421 1566
453 1436 1601
546 1454 1639
620 1474 1680
721 1491 1729
814 1509 1782
891 1530 1840
958 1554 1901
1018 1579 1964
1072 1607 2032
1123 1636 2104
1170 1667 2181
1215 1698 2264
533 1412 769
523 1430 792
509 1453 820
486 1487 862
449 1503 937
392 1510 1038
296 1517 1158
97 1529 1282
0 1534 1423
0 1541 1526
0 1550 1614
0 1562 1675
78 1575 1734
329 1585 1775
478 1598 1815
584 1613 1858
667 1630 1904
737 1650 1953
840 1666 2010
926 1684 2071
999 1705 2136
1064 1727 2205
1121 1752 2281
1173 1778 2362
1222 1806 2448
712 1602 953
703 1614 968
689 1630 991
666 1652 1023
631 1657 1086
578 1664 1163
501 1673 1255
377 1682 1365
142 1695 1481
0 1703 1606
0 1709 1707
0 1716 1797
0 1728 1871
68 1741 1935
321 1749 1989
491 1760 2036
611 1773 2085
703 1788 2138
780 1806 2193
853 1824 2253
948 1840 2323
1027 1858 2398
1096 1877 2477
1156 1898 2561
1209 1921 2651
896 1783 1149
886 1792 1161
873 1795 1183
850 1799 1217
816 1805 1263
767 1812 1322
698 1821 1392
599 1832 1475
449 1845 1576
195 1860 1680
0 1870 1792
0 1876 1891
0 1884 1983
0 1895 2065
29 1906 2140
300 1914 2206
492 1922 2265
624 1933 2326
725 1946 2388
808 1961 2453
878 1978 2522
953 1994 2598
1037 2009 2682
1109 2025 2771
1171 2043 2865
1079 1932 1370
1069 1934 1383
1056 1937 1399
1034 1941 1425
1001 1947 1459
955 1955 1502
892 1965 1555
805 1978 1619
685 1992 1695
514 2009 1783
243 2025 1880
0 2036 1979
0 2043 2073
0 2050 2168
0 2059 2261
0 2070 2351
267 2077 2431
477 2084 2503
618 2093 2576
727 2103 2651
814 2116 2728
888 2130 2809
952 2145 2893
1026 2159 2985
1100 2172 3086
1257 2070 1596
1247 2072 1605
1234 2075 1618
1213 2080 1637
1181 2087 1663
1138 2096 1695
1079 2107 1736
1001 2121 1784
897 2136 1842
759 2153 1911
577 2172 1988
289 2190 2074
0 2202 2165
0 2209 2259
0 2216 2361
0 2225 2461
0 2235 2565
238 2241 2657
446 2246 2744
595 2253 2832
707 2262 2921
798 2272 3012
874 2283 3106
938 2296 3204
995 2310 3305
1428 2211 1818
1418 2213 1825
1405 2216 1835
1384 2221 1848
1354 2228 1869
1312 2238 1895
1257 2249 1925
1185 2263 1962
1093 2279 2006
974 2297 2058
819 2316 2119
626 2336 2189
330 2356 2269
0 2371 2357
0 2378 2451
0 2385 2557
0 2392 2662
0 2400 2777
177 2406 2887
398 2411 2985
551 2416 3088
664 2422 3193
756 2430 3298
832 2439 3407
897 2448 3519
1588 2353 2030
1578 2356 2036
1565 2359 2043
1545 2364 2055
1516 2371 2070
1477 2380 2090
1425 2391 2115
1359 2405 2145
1275 2421 2180
1169 2440 2221
1037 2460 2270
870 2482 2326
666 2503 2393
369 2524 2465
0 2540 2550
0 2547 2643
0 2553 2753
0 2560 2862
0 2566 2987
74 2572 3113
336 2576 3220
487 2579 3339
601 2584 3458
690 2589 3580
764 2596 3703
1737 2498 2235
1728 2500 2239
1716 2503 2246
1696 2508 2255
1669 2515 2269
1631 2524 2286
1583 2536 2307
1521 2549 2332
1444 2565 2362
1349 2584 2396
1233 2604 2435
1090 2626 2480
912 2649 2530
701 2671 2594
403 2693 2658
0 2709 2743
0 2716 2836
0 2721 2950
0 2728 3058
0 2733 3193
0 2738 3331
246 2741 3452
410 2744 3579
518 2747 3713
603 2751 3849
1877 2645 2436
1868 2647 2440
1857 2650 2445
1838 2655 2454
1812 2662 2465
1777 2671 2480
1731 2682 2498
1674 2695 2519
1603 2711 2545
1517 2729 2573
1412 2749 2606
1286 2770 2642
1132 2794 2683
951 2817 2733
729 2839 2790
435 2861 2849
0 2877 2937
0 2884 3028
0 2889 3145
0 2895 3254
0 2899 3395
0 2903 3540
94 2906 3679
323 2909 3807
423 2911 3953
2007 2794 2629
1998 2796 2633
1987 2799 2638
1970 2804 2645
1946 2811 2655
1914 2819 2668
1872 2830 2684
1819 2843 2703
1753 2857 2725
1674 2874 2751
1579 2893 2779
1465 2913 2811
1330 2936 2845
1170 2959 2883
984 2982 2934
755 3006 2984
465 3028 3037
19 3043 3129
0 3051 3220
0 3055 3340
0 3062 3450
0 3065 3592
0 3068 3744
0 3072 3896
231 3076 4021
2130 2941 2818
2122 2944 2821
2112 2947 2826
2095 2951 2833
2072 2957 2841
2042 2965 2853
2003 2976 2867
1955 2988 2884
1896 3002 2904
1824 3019 2927
1736 3037 2951
1633 3057 2978
1512 3079 3008
1369 3103 3041
1202 3127 3076
1009 3149 3128
776 3170 3177
494 3188 3231
42 3201 3327
0 3208 3418
0 3221 3533
0 3229 3642
0 3233 3782
0 3237 3937
0 3241 4092
2250 3092 2999
2242 3094 3002
2232 3096 3005
2216 3101 3011
2194 3106 3019
2166 3114 3030
2130 3124 3043
2085 3136 3058
2030 3149 3077
1964 3162 3099
1886 3177 3124
1792 3193 3151
1682 3211 3180
1553 3231 3211
1404 3252 3244
1231 3274 3280
1032 3295 3334
797 3315 3380
516 3333 3436
58 3352 3529
0 3371 3608
0 3392 3717
0 3399 3828
0 3404 3965
0 3407 4095
2368 3228 3185
2361 3230 3188
2352 3232 3192
2337 3236 3197
2316 3241 3205
2289 3247 3215
2254 3255 3228
2211 3264 3243
2159 3276 3261
2099 3289 3281
2026 3304 3304
1942 3320 3328
1843 3338 3355
1726 3357 3383
1591 3377 3414
1436 3399 3447
1258 3420 3485
1053 3449 3529
817 3480 3566
534 3509 3615
61 3537 3699
0 3558 3777
0 3563 3902
0 3571 4013
441 3570 4095
2485 3361 3370
2479 3363 3372
2470 3365 3376
2456 3368 3381
2436 3373 3388
2410 3379 3398
2378 3386 3409
2337 3395 3423
2289 3406 3440
2231 3418 3458
2163 3433 3479
2085 3449 3502
1995 3471 3524
1891 3496 3544
1768 3523 3566
1627 3552 3590
1467 3582 3615
1284 3616 3649
1074 3649 3685
835 3678 3721
548 3707 3774
55 3723 3871
0 3731 3959
0 3735 4085
1113 3713 4095
2602 3506 3541
2596 3508 3543
2588 3511 3545
2574 3515 3549
2556 3521 3555
2532 3529 3561
2501 3539 3570
2464 3551 3580
2418 3565 3592
2364 3581 3605
2301 3600 3620
2226 3620 3637
2142 3643 3655
2046 3668 3675
1936 3694 3696
1809 3722 3719
1662 3751 3742
1496 3780 3768
1307 3811 3810
1094 3836 3847
850 3859 3889
557 3879 3955
42 3893 4053
189 3900 4095
1701 3837 4095
2721 3687 3679
2715 3689 3681
2707 3691 3683
2695 3696 3686
2677 3701 3691
2654 3709 3698
2626 3718 3706
2590 3730 3715
2547 3743 3726
2497 3758 3739
2437 3774 3754
2368 3791 3772
2288 3810 3792
2196 3830 3813
2095 3852 3836
1979 3876 3861
1847 3900 3886
1695 3926 3913
1522 3952 3941
1329 3983 3984
1113 4007 4023
864 4030 4065
853 4040 4095
1788 3988 4095
2191 3954 4094
139 7 3
181 6 84
100 49 100
100 84 130
120 120 193
152 171 246
190 223 298
231 279 359
276 337 420
319 390 481
366 448 546
412 504 609
459 561 674
508 619 741
555 674 807
604 732 876
652 788 945
700 844 1014
748 902 1086
797 959 1159
846 1017 1232
895 1074 1310
944 1130 1389
992 1186 1472
1041 1242 1557
168 118 45
97 175 313
130 195 251
152 218 272
178 248 302
207 281 344
241 321 390
276 364 440
317 410 493
357 456 546
399 507 604
443 557 663
486 609 723
533 662 785
579 714 849
624 768 915
672 822 981
718 876 1049
766 932 1119
814 987 1190
862 1043 1262
909 1097 1338
957 1153 1417
1005 1207 1499
1053 1261 1584
165 239 94
167 305 262
84 355 366
78 371 420
133 387 435
212 405 455
263 431 493
307 461 532
350 499 579
390 538 627
432 580 677
475 624 731
518 671 787
562 717 845
606 766 905
651 816 967
696 866 1030
742 918 1096
788 971 1163
834 1023 1231
881 1077 1304
928 1129 1379
975 1182 1457
1021 1235 1537
1068 1287 1622
164 355 136
176 422 303
132 476 425
55 524 521
62 539 576
123 555 603
198 574 624
294 591 652
361 617 690
414 646 732
462 679 777
507 715 824
551 755 875
596 796 929
639 839 984
683 884 1041
728 931 1101
772 978 1163
817 1028 1228
862 1077 1294
907 1126 1365
953 1176 1438
998 1226 1515
1044 1276 1595
1089 1326 1678
164 478 180
182 553 333
167 607 459
107 659 568
19 696 681
32 709 743
113 721 778
207 738 798
292 758 823
392 777 857
464 801 896
522 828 939
575 861 985
624 895 1032
671 933 1083
716 972 1137
762 1014 1192
806 1058 1251
851 1101 1313
895 1145 1379
939 1191 1446
984 1238 1518
1028 1284 1594
1072 1330 1672
1116 1377 1755
171 614 240
202 722 362
191 765 457
162 825 586
78 855 711
0 865 846
0 876 918
84 889 958
220 904 978
304 922 1003
399 943 1030
496 962 1067
571 986 1109
634 1014 1152
691 1045 1199
742 1078 1249
791 1115 1303
838 1151 1359
884 1190 1419
929 1230 1483
973 1271 1549
1017 1313 1619
1060 1355 1693
1104 1397 1772
1147 1440 1854
192 767 317
249 882 429
237 940 494
217 993 606
168 1015 745
45 1025 889
0 1035 1011
0 1046 1091
58 1060 1132
220 1074 1160
333 1091 1185
410 1111 1213
510 1131 1246
607 1150 1288
684 1174 1333
749 1200 1381
807 1228 1432
860 1259 1486
911 1293 1545
958 1328 1606
1004 1363 1672
1049 1400 1741
1092 1438 1814
1135 1476 1892
1178 1516 1972
237 953 426
329 1062 524
318 1116 567
300 1168 640
260 1176 783
181 1184 929
6 1197 1068
0 1206 1179
0 1217 1266
36 1232 1307
209 1243 1347
353 1258 1375
450 1275 1406
523 1296 1441
629 1314 1480
722 1333 1527
798 1356 1578
864 1380 1631
922 1407 1688
976 1437 1749
1026 1467 1814
1073 1499 1883
1119 1533 1954
1163 1568 2030
1206 1603 2111
382 1183 586
444 1253 644
433 1293 677
413 1333 734
378 1340 846
319 1348 972
198 1357 1106
0 1370 1246
0 1376 1353
0 1386 1444
0 1401 1495
187 1412 1543
368 1424 1574
483 1439 1609
570 1456 1647
640 1476 1689
748 1492 1735
836 1511 1790
910 1532 1847
975 1555 1908
1033 1581 1971
1086 1610 2039
1135 1638 2111
1181 1669 2188
1226 1701 2272
551 1402 754
589 1436 799
576 1459 827
556 1492 868
523 1503 944
469 1509 1054
384 1517 1170
233 1530 1288
0 1540 1428
0 1546 1531
0 1554 1623
0 1567 1685
165 1577 1742
375 1587 1782
509 1600 1822
609 1615 1866
688 1632 1911
761 1652 1960
864 1668 2016
946 1686 2077
1017 1707 2143
1079 1729 2213
1135 1754 2289
1186 1780 2370
1234 1808 2456
729 1597 945
752 1618 974
739 1633 995
718 1652 1030
685 1657 1092
637 1664 1168
563 1673 1267
450 1683 1375
269 1696 1485
0 1707 1611
0 1713 1712
0 1721 1806
0 1732 1880
165 1742 1941
373 1751 1995
526 1762 2042
637 1775 2092
725 1790 2144
799 1808 2199
877 1825 2258
969 1841 2330
1045 1859 2404
1112 1879 2484
1170 1900 2568
1223 1922 2658
