Toning/Toning-Greenish.3dl
#25pt 3DLUT created by 3D LUT Creator Pro (c) Oleg Sharonov
#Copyright Oleg Sharonov
#IMAGEPROFILE sRGB IEC61966-2.1 v.2.10
#INPUTGAMMA sRGB IEC61966-2.1 v.2.10
#OUTPUTGAMMA sRGB IEC61966-2.1 v.2.10
0 43 86 128 171 214 256 299 341 384 427 469 512 555 597 640 682 725 768 810 853 896 938 981 1023 
0 0 0
0 0 4
0 0 8
0 0 62
0 0 191
0 0 359
0 0 548
0 0 750
0 0 961
0 0 1170
0 0 1383
0 0 1604
0 0 1823
0 0 2038
0 0 2248
0 0 2458
0 0 2657
0 0 2847
0 0 3025
0 0 3194
0 0 3352
0 0 3505
0 0 3650
0 0 3693
200 126 3698
0 4 0
0 4 4
0 4 8
0 4 56
0 3 187
0 2 361
0 0 552
0 0 753
0 0 957
0 0 1173
0 0 1387
0 0 1607
0 0 1821
0 0 2037
0 0 2250
0 0 2457
0 0 2656
0 0 2846
0 0 3025
0 0 3193
0 0 3354
0 0 3504
0 0 3640
32 72 3652
259 247 3665
0 8 0
0 8 4
0 8 8
0 8 59
0 7 190
0 6 360
0 4 552
0 3 752
0 2 962
0 0 1173
0 0 1387
0 0 1607
0 0 1825
0 0 2041
0 0 2251
0 0 2460
0 0 2659
0 0 2849
0 0 3028
0 0 3196
0 0 3354
0 0 3506
0 98 3579
137 249 3602
327 379 3626
0 187 0
0 190 3
0 191 7
0 193 58
0 193 189
0 193 359
0 193 554
0 193 755
0 193 960
0 193 1172
0 193 1389
0 193 1605
0 193 1824
0 193 2039
0 193 2253
0 193 2459
0 193 2658
0 193 2848
0 194 3027
0 194 3195
0 194 3353
0 240 3459
64 342 3502
257 443 3540
415 543 3577
0 399 0
0 399 1
0 401 5
0 402 57
0 402 189
0 401 359
0 403 553
0 403 755
0 403 960
0 403 1174
0 403 1389
0 403 1605
0 403 1824
0 403 2039
0 403 2253
0 403 2459
0 403 2658
0 403 2848
0 404 3026
0 404 3194
0 442 3297
56 504 3363
231 571 3422
382 645 3475
514 720 3524
0 616 0
0 617 0
0 619 4
0 620 56
0 622 188
0 621 360
0 621 553
0 621 754
0 622 962
0 621 1173
0 622 1388
0 622 1607
0 622 1823
0 622 2038
0 622 2252
0 622 2458
0 622 2657
0 622 2847
0 633 2998
0 663 3103
105 700 3196
250 741 3276
382 791 3349
505 847 3414
620 906 3473
0 842 0
0 843 0
0 845 2
0 845 56
0 846 188
0 846 359
0 847 553
0 847 754
0 847 960
0 848 1174
0 848 1389
0 847 1605
0 848 1823
0 847 2039
0 848 2252
0 848 2455
0 856 2619
0 867 2767
55 884 2898
181 904 3013
299 932 3115
412 965 3207
521 1003 3288
627 1048 3362
730 1096 3430
0 1070 0
0 1073 0
0 1074 1
0 1076 55
0 1076 187
0 1076 359
0 1077 553
0 1076 753
0 1077 961
0 1077 1173
0 1078 1389
0 1077 1603
0 1078 1811
0 1078 2011
0 1081 2200
0 1085 2379
62 1092 2543
162 1101 2692
260 1114 2828
360 1132 2948
458 1154 3057
556 1180 3155
652 1212 3243
746 1247 3323
841 1288 3396
0 1302 0
0 1304 0
0 1305 0
0 1306 61
0 1306 192
0 1306 364
0 1307 555
0 1308 754
0 1307 958
0 1306 1165
0 1306 1373
0 1305 1579
0 1306 1780
4 1307 1974
82 1309 2160
166 1312 2334
249 1318 2496
336 1326 2646
424 1337 2783
512 1352 2907
601 1370 3019
690 1392 3120
778 1418 3212
866 1448 3296
953 1481 3373
0 1528 0
0 1530 0
0 1531 0
0 1532 92
0 1532 220
0 1532 386
0 1533 570
0 1533 762
0 1534 961
0 1535 1166
0 1534 1370
19 1533 1571
92 1532 1768
165 1532 1958
243 1533 2140
321 1536 2311
402 1540 2472
484 1546 2622
567 1555 2759
649 1567 2884
733 1582 2997
818 1600 3101
901 1622 3195
984 1646 3281
1067 1675 3360
13 1752 0
17 1752 0
20 1753 48
20 1754 140
26 1754 263
32 1755 424
38 1755 599
46 1756 782
54 1757 974
64 1758 1172
74 1758 1375
148 1756 1574
223 1755 1768
298 1754 1956
377 1754 2135
455 1755 2305
535 1758 2464
616 1762 2613
697 1769 2750
778 1778 2875
860 1791 2989
941 1805 3093
1022 1823 3189
1102 1844 3276
1182 1868 3357
199 1967 14
200 1968 60
202 1968 119
204 1969 205
209 1970 329
213 1970 478
217 1971 641
223 1972 815
231 1973 999
239 1974 1190
246 1974 1385
258 1976 1585
337 1973 1777
417 1971 1963
498 1970 2141
578 1970 2310
659 1971 2468
740 1974 2616
821 1979 2752
901 1986 2877
982 1996 2991
1062 2007 3096
1140 2021 3192
1219 2038 3280
1297 2058 3361
380 2175 114
382 2175 155
384 2176 211
385 2177 297
389 2177 413
392 2178 548
397 2178 700
401 2179 863
408 2180 1037
415 2181 1219
423 2183 1407
432 2184 1599
442 2186 1793
526 2183 1979
610 2181 2156
693 2179 2324
776 2179 2481
859 2180 2628
941 2183 2764
1021 2188 2888
1101 2195 3002
1181 2204 3106
1259 2215 3202
1336 2228 3290
1413 2245 3372
564 2373 236
565 2373 276
567 2374 332
568 2374 412
571 2374 514
575 2375 637
577 2376 775
582 2377 927
589 2377 1090
595 2379 1262
602 2380 1441
610 2382 1625
619 2383 1811
629 2386 1999
716 2382 2176
802 2380 2344
888 2378 2501
972 2378 2647
1056 2379 2782
1138 2382 2906
1219 2387 3019
1298 2393 3123
1376 2402 3219
1453 2413 3307
1529 2425 3389
751 2560 390
752 2560 426
753 2560 474
754 2561 543
756 2561 633
759 2562 742
762 2563 868
768 2564 1007
772 2564 1159
778 2566 1320
785 2567 1489
792 2569 1663
800 2570 1841
809 2572 2021
819 2575 2201
909 2571 2368
998 2569 2526
1085 2567 2671
1170 2566 2806
1253 2568 2929
1335 2571 3042
1415 2575 3145
1493 2581 3240
1570 2589 3329
1645 2599 3410
940 2735 557
940 2735 587
941 2735 628
943 2735 687
945 2736 766
948 2737 863
951 2737 976
955 2738 1103
960 2739 1244
966 2740 1393
972 2741 1551
978 2743 1715
986 2744 1884
994 2746 2055
1004 2749 2227
1014 2751 2397
1105 2748 2554
1195 2745 2700
1283 2743 2834
1368 2743 2956
1450 2744 3068
1531 2746 3171
1610 2750 3266
1687 2756 3354
1761 2763 3435
1132 2895 731
1132 2896 757
1133 2896 793
1135 2896 845
1137 2897 914
1139 2897 1000
1142 2898 1101
1146 2898 1216
1150 2899 1344
1155 2900 1482
1161 2902 1628
1168 2903 1781
1175 2905 1939
1183 2907 2101
1192 2909 2263
1201 2911 2426
1212 2913 2586
1304 2910 2731
1393 2907 2864
1480 2906 2986
1565 2905 3098
1647 2906 3201
1726 2908 3295
1803 2912 3382
1879 2917 3464
1326 3043 916
1327 3043 938
1328 3043 968
1329 3044 1014
1331 3044 1074
1333 3044 1150
1336 3045 1241
1339 3046 1344
1344 3047 1459
1348 3047 1585
1354 3049 1720
1360 3050 1862
1367 3052 2009
1374 3053 2160
1383 3055 2312
1392 3057 2465
1402 3060 2617
1412 3062 2766
1505 3059 2898
1593 3056 3019
1679 3055 3130
1762 3054 3233
1842 3055 3327
1920 3057 3414
1996 3061 3495
1522 3178 1108
1523 3178 1127
1523 3179 1154
1525 3179 1193
1527 3179 1246
1529 3180 1313
1532 3180 1393
1535 3181 1486
1539 3182 1589
1544 3182 1703
1549 3184 1826
1554 3185 1956
1561 3186 2092
1568 3188 2231
1576 3190 2373
1585 3192 2516
1594 3194 2659
1604 3196 2798
1615 3199 2935
1706 3196 3055
1794 3193 3166
1878 3192 3267
1959 3191 3361
2037 3192 3447
2112 3194 3528
1719 3303 1308
1720 3303 1325
1721 3303 1347
1722 3303 1382
1723 3303 1428
1725 3304 1486
1728 3305 1557
1731 3305 1639
1735 3306 1732
1739 3307 1835
1744 3308 1946
1750 3309 2064
1756 3310 2187
1762 3312 2315
1770 3313 2446
1778 3315 2579
1787 3317 2711
1797 3320 2841
1808 3322 2969
1819 3325 3093
1908 3322 3203
1993 3320 3304
2075 3318 3397
2153 3318 3483
2228 3319 3563
1916 3419 1515
1917 3420 1529
1918 3420 1549
1919 3420 1578
1920 3420 1619
1922 3421 1670
1925 3421 1732
1928 3422 1804
1931 3422 1887
1935 3423 1978
1940 3424 2077
1945 3425 2184
1951 3427 2296
1958 3428 2412
1965 3430 2531
1973 3432 2652
1981 3434 2774
1991 3436 2894
2000 3439 3012
2011 3441 3128
2023 3444 3242
2109 3441 3343
2191 3439 3435
2270 3438 3521
2345 3437 3600
2113 3529 1727
2113 3530 1739
2114 3530 1756
2115 3530 1782
2116 3530 1817
2118 3531 1861
2121 3531 1915
2123 3532 1978
2127 3532 2051
2130 3533 2132
2135 3534 2220
2140 3535 2315
2146 3537 2414
2152 3538 2519
2159 3540 2627
2166 3541 2736
2174 3543 2846
2183 3546 2956
2192 3548 3065
2203 3551 3172
2214 3554 3279
2225 3557 3383
2308 3554 3475
2387 3552 3560
2465 3550 3639
2307 3634 1942
2307 3634 1953
2308 3634 1967
2309 3635 1989
2310 3635 2020
2312 3635 2058
2314 3636 2105
2317 3636 2160
2320 3637 2223
2323 3638 2294
2328 3639 2371
2333 3640 2455
2338 3641 2543
2344 3643 2636
2350 3644 2732
2357 3646 2830
2365 3648 2929
2373 3650 3028
2382 3653 3127
2392 3655 3226
2402 3658 3324
2416 3663 3423
2426 3665 3518
2503 3661 3601
2719 3644 3645
2497 3735 2160
2497 3735 2169
2498 3735 2181
2499 3735 2200
2500 3735 2225
2501 3736 2258
2503 3736 2298
2505 3736 2345
2508 3737 2399
2511 3738 2460
2514 3738 2526
2518 3739 2598
2522 3740 2675
2527 3741 2756
2540 3741 2843
2555 3742 2931
2572 3742 3020
2590 3742 3109
2609 3743 3198
2631 3744 3285
2653 3744 3372
2677 3745 3456
2702 3746 3539
2729 3748 3620
2942 3727 3661
2921 3781 2663
2921 3781 2669
2922 3781 2677
2924 3781 2688
2927 3781 2705
2929 3782 2725
2933 3782 2750
2937 3782 2780
2943 3782 2815
2949 3783 2853
2956 3783 2896
2964 3784 2942
2973 3785 2991
2983 3785 3043
2994 3786 3097
3005 3787 3154
3018 3788 3212
3031 3790 3271
3046 3791 3330
3061 3793 3390
3077 3794 3450
3094 3796 3510
3112 3798 3570
3130 3800 3629
3148 3803 3687
4 0 0
4 0 4
4 0 8
4 0 58
3 0 188
2 0 357
0 0 555
0 0 748
0 0 960
0 0 1169
0 0 1389
0 0 1604
0 0 1823
0 0 2038
0 0 2252
0 0 2458
0 0 2657
0 0 2847
0 0 3026
0 0 3194
0 0 3353
0 0 3505
0 0 3650
87 0 3680
295 143 3688
4 4 0
4 4 4
4 4 9
2 2 159
0 0 515
0 0 832
0 0 969
0 0 1125
0 0 1296
0 0 1472
0 0 1656
0 0 1849
0 0 2043
0 0 2236
0 0 2425
0 0 2614
0 0 2795
0 0 2968
0 0 3132
0 0 3288
0 0 3436
0 0 3580
0 0 3626
159 89 3640
342 260 3656
4 8 0
3 8 3
3 8 8
2 8 86
0 6 286
0 4 561
0 2 774
0 0 981
0 0 1183
0 0 1387
0 0 1596
0 0 1799
0 0 2005
0 0 2206
0 0 2405
0 0 2597
0 0 2782
0 0 2958
0 0 3124
0 0 3282
0 0 3431
0 0 3540
40 114 3567
243 261 3592
403 391 3619
3 190 0
1 201 1
1 201 6
1 200 62
0 201 218
0 200 445
0 192 669
0 183 887
0 174 1102
0 167 1322
0 160 1537
0 154 1754
0 149 1964
0 143 2173
0 139 2379
0 136 2575
0 132 2765
0 128 2944
0 127 3113
0 125 3273
0 152 3400
0 253 3449
180 352 3492
342 452 3532
479 550 3571
1 399 0
0 411 0
0 412 5
0 412 50
0 411 195
0 412 389
0 411 614
0 407 831
0 402 1052
0 396 1272
0 391 1492
0 387 1714
0 381 1930
0 377 2143
0 375 2353
0 370 2554
0 368 2747
0 365 2929
0 363 3101
0 396 3210
9 450 3288
176 510 3355
319 577 3415
449 650 3469
569 726 3519
0 617 0
0 629 0
0 630 3
0 631 42
0 630 184
0 629 367
0 629 574
0 629 795
0 627 1017
0 624 1237
0 620 1462
0 617 1683
0 614 1904
0 611 2120
0 608 2330
0 605 2536
0 603 2729
0 617 2869
0 639 2991
83 667 3097
213 703 3189
334 746 3271
450 796 3344
561 850 3410
666 910 3469
0 843 0
0 851 0
0 853 1
0 854 38
0 855 179
0 854 358
0 853 558
0 854 767
0 854 984
0 853 1206
0 850 1430
0 849 1652
0 847 1868
0 846 2075
0 847 2270
0 851 2450
0 859 2615
67 869 2762
171 886 2892
272 907 3008
375 935 3111
475 968 3203
575 1007 3285
673 1051 3360
769 1099 3427
0 1073 0
0 1077 0
0 1079 0
0 1080 45
0 1080 181
0 1080 356
0 1080 553
0 1080 756
0 1079 964
0 1080 1177
0 1079 1391
0 1079 1602
0 1079 1810
0 1080 2009
24 1082 2199
95 1086 2376
172 1093 2540
255 1102 2689
342 1116 2825
428 1133 2946
518 1156 3055
607 1183 3153
697 1214 3241
787 1251 3322
875 1291 3395
0 1304 0
0 1305 0
0 1306 0
0 1307 62
0 1307 194
0 1308 366
0 1308 557
0 1308 755
0 1308 959
0 1308 1167
0 1307 1374
16 1306 1579
67 1306 1780
125 1307 1973
189 1309 2158
256 1313 2332
329 1319 2495
407 1327 2644
486 1338 2782
567 1353 2905
650 1372 3018
732 1394 3119
816 1420 3211
901 1450 3296
983 1484 3372
0 1530 0
0 1531 0
0 1533 0
0 1533 94
1 1533 221
7 1534 388
13 1534 572
19 1535 764
27 1535 962
35 1536 1167
84 1534 1370
137 1533 1571
195 1532 1768
258 1532 1957
324 1534 2139
393 1536 2311
466 1540 2471
541 1547 2621
617 1557 2758
695 1568 2883
775 1584 2997
854 1602 3100
934 1624 3194
1015 1649 3281
1094 1677 3360
132 1752 0
135 1753 0
135 1753 48
138 1755 141
143 1755 265
145 1755 425
152 1755 599
156 1756 783
165 1757 975
172 1758 1173
180 1758 1375
243 1757 1575
307 1755 1768
373 1755 1956
444 1754 2135
515 1756 2305
589 1759 2465
665 1764 2613
741 1771 2750
817 1780 2875
895 1792 2989
972 1807 3093
1051 1825 3189
1128 1846 3276
1206 1869 3357
