Toning/Toning-Cooler.3dl
#25pt 3DLUT created by 3D LUT Creator Pro (c) Oleg Sharonov
#Copyright Oleg Sharonov
#IMAGEPROFILE sRGB IEC61966-2.1 v.2.10
#INPUTGAMMA sRGB IEC61966-2.1 v.2.10
#OUTPUTGAMMA sRGB IEC61966-2.1 v.2.10
0 128 256 384 512 640 768 896 1023
0 0 0
0 152 222
0 419 537
0 679 845
0 928 1141
0 1146 1399
0 1296 1577
0 1341 1631
0 1341 1631
0 492 0
0 527 554
0 667 721
0 856 940
0 1063 1193
0 1256 1427
0 1394 1593
0 1436 1643
0 1436 1643
0 989 0
0 988 822
0 1050 1096
0 1174 1248
0 1328 1424
0 1484 1598
0 1600 1740
0 1635 1784
0 1635 1784
0 1486 0
0 1486 822
0 1492 1500
0 1573 1636
0 1684 1777
0 1803 1917
0 1897 2023
0 1926 2056
0 1926 2056
0 1988 0
0 1988 822
0 1988 1549
0 2012 2044
0 2093 2173
0 2185 2292
0 2259 2382
0 2282 2409
0 2282 2409
0 2495 0
0 2495 822
0 2495 1548
3 2495 2267
0 2537 2587
0 2608 2699
0 2666 2779
0 2685 2803
0 2685 2803
0 3016 0
0 3016 822
0 3016 1548
3 3016 2266
3 3016 2954
0 3065 3124
0 3112 3202
0 3127 3225
0 3127 3225
0 3555 0
0 3554 823
0 3555 1548
3 3555 2267
3 3555 2954
0 3555 3555
0 3591 3640
0 3603 3664
0 3603 3664
0 4095 0
0 4095 823
0 4095 1548
0 4095 2266
3 4095 2954
6 4095 3555
3 4095 3971
3 4095 4095
3 4095 4095
328 0 0
45 206 464
0 448 696
0 695 967
0 937 1244
0 1152 1492
0 1301 1666
0 1346 1718
0 1346 1718
370 481 29
107 554 587
0 696 761
0 876 993
0 1077 1240
0 1268 1470
0 1404 1633
0 1445 1682
0 1445 1682
324 988 0
324 989 823
0 1069 1118
0 1190 1268
0 1342 1441
0 1496 1620
0 1610 1763
0 1645 1807
0 1645 1807
324 1486 0
324 1487 823
243 1496 1504
0 1584 1650
0 1694 1790
0 1813 1929
0 1906 2035
0 1935 2067
0 1935 2067
324 1988 0
324 1987 822
324 1988 1549
0 2021 2054
0 2101 2183
0 2192 2302
0 2266 2391
0 2289 2418
0 2289 2418
324 2495 0
324 2495 822
324 2495 1548
324 2495 2267
0 2543 2594
0 2614 2706
0 2672 2786
0 2691 2810
0 2691 2810
324 3016 0
322 3016 822
324 3016 1548
326 3016 2266
326 3016 2954
0 3070 3130
0 3117 3208
0 3132 3231
0 3132 3231
326 3555 3
322 3555 822
324 3555 1548
326 3555 2267
326 3554 2954
324 3555 3555
0 3595 3645
0 3607 3669
0 3607 3669
326 4095 3
322 4095 822
322 4095 1548
324 4095 2266
326 4095 2954
326 4095 3555
326 4095 3971
326 4095 4095
326 4095 4095
708 0 0
403 267 702
158 506 944
16 744 1169
0 974 1400
0 1181 1624
0 1325 1786
0 1369 1835
0 1369 1835
971 328 42
558 551 783
318 708 1056
100 897 1266
0 1097 1484
0 1282 1687
0 1415 1838
0 1456 1884
0 1456 1884
783 969 107
707 988 823
332 1096 1151
0 1230 1320
0 1375 1500
0 1522 1691
0 1634 1831
0 1668 1873
0 1668 1873
707 1486 0
707 1487 823
654 1498 1506
0 1613 1686
0 1721 1823
0 1837 1960
0 1928 2064
0 1957 2096
0 1957 2096
707 1988 0
706 1988 822
707 1988 1549
404 2031 2065
0 2121 2207
0 2212 2326
0 2284 2413
0 2307 2441
0 2307 2441
707 2495 0
706 2495 822
707 2495 1548
707 2495 2267
0 2560 2613
0 2629 2725
0 2687 2804
0 2706 2828
0 2706 2828
707 3016 3
706 3016 822
706 3016 1548
707 3016 2266
707 3016 2954
0 3083 3145
0 3129 3222
0 3144 3245
0 3144 3245
707 3555 3
706 3555 822
706 3555 1548
707 3555 2266
707 3554 2954
706 3555 3555
0 3605 3656
0 3617 3680
0 3617 3680
708 4095 3
706 4095 822
706 4095 1548
707 4095 2266
708 4095 2954
708 4095 3555
708 4095 3971
708 4095 4095
708 4095 4095
1097 0 0
1091 13 819
551 553 1286
324 806 1428
149 1031 1632
0 1232 1834
0 1371 1972
0 1412 2014
0 1412 2014
1318 273 0
1098 492 822
696 725 1356
437 939 1516
248 1139 1711
32 1324 1906
0 1454 2038
0 1493 2077
0 1493 2077
1359 876 230
1228 932 910
887 1077 1363
624 1225 1611
396 1385 1815
145 1540 2002
0 1653 2133
0 1686 2169
0 1686 2169
1208 1459 240
1136 1477 839
1049 1500 1508
576 1637 1715
48 1766 1883
0 1880 2017
0 1968 2124
0 1995 2161
0 1995 2161
1127 1982 100
1097 1988 822
1098 1987 1549
872 2037 2072
255 2152 2245
0 2246 2369
0 2317 2456
0 2340 2483
0 2340 2483
1098 2495 3
1097 2495 822
1097 2495 1548
1097 2495 2267
663 2569 2623
0 2657 2759
0 2714 2838
0 2732 2862
0 2732 2862
1098 3016 3
1097 3016 822
1097 3016 1548
1097 3016 2267
1097 3016 2954
439 3098 3162
0 3151 3249
0 3166 3272
0 3166 3272
1098 3554 3
1097 3555 823
1097 3555 1548
1097 3555 2266
1097 3555 2954
1096 3555 3555
508 3616 3668
177 3634 3699
177 3634 3699
1098 4095 3
1097 4095 823
1096 4095 1548
1097 4095 2266
1097 4095 2954
1097 4095 3555
1097 4095 3972
1097 4095 4095
1097 4095 4095
1515 0 0
1517 0 817
1149 563 1396
777 838 1832
520 1099 1926
377 1296 2092
260 1432 2222
217 1473 2263
217 1473 2263
1685 250 0
1517 490 816
1211 742 1439
867 961 1880
603 1195 1991
451 1378 2154
334 1507 2280
295 1546 2319
295 1546 2319
1952 681 68
1697 883 856
1325 1079 1497
1026 1234 1923
778 1412 2104
604 1570 2270
481 1685 2391
442 1720 2429
442 1720 2429
1790 1383 389
1831 1358 1048
1493 1494 1543
1196 1620 1901
930 1756 2138
716 1885 2322
565 1980 2448
518 2009 2486
518 2009 2486
1667 1949 386
1662 1951 897
1515 1988 1549
1310 2048 2082
872 2177 2274
492 2288 2423
78 2368 2525
0 2392 2553
0 2392 2553
1590 2481 297
1533 2492 840
1516 2495 1549
1516 2495 2267
1160 2579 2634
699 2682 2788
257 2754 2887
16 2775 2917
16 2775 2917
1515 3016 3
1515 3016 822
1515 3016 1548
1515 3016 2266
1515 3016 2954
1050 3107 3171
644 3174 3275
490 3194 3304
490 3194 3304
1515 3555 3
1515 3555 823
1515 3555 1548
1515 3555 2266
1515 3555 2954
1514 3555 3555
1112 3621 3673
982 3640 3705
982 3640 3705
1516 4095 3
1515 4095 823
1515 4095 1548
1515 4095 2266
1515 4095 2953
1515 4095 3555
1515 4095 3971
1515 4095 4095
1515 4095 4095
2004 0 0
2005 0 810
1984 74 1540
1289 944 1985
1061 1132 2405
838 1364 2487
699 1512 2561
671 1552 2594
671 1552 2594
2130 240 0
2009 486 809
2004 490 1548
1341 1054 2026
1128 1221 2443
885 1443 2523
758 1579 2610
728 1618 2642
728 1618 2642
2380 620 0
2194 838 798
2004 988 1547
1458 1294 2099
1268 1429 2502
1010 1623 2605
894 1739 2711
861 1774 2743
861 1774 2743
2634 1095 297
2571 1142 971
2005 1486 1546
1651 1629 2176
1430 1755 2522
1219 1895 2708
1087 1995 2826
1049 2026 2861
1049 2026 2861
2344 1862 562
2439 1816 1134
2209 1905 1730
1893 2031 2168
1589 2158 2476
1346 2276 2689
1192 2359 2823
1147 2385 2861
1147 2385 2861
2213 2438 552
2225 2436 975
2107 2469 1582
2004 2495 2267
1674 2595 2650
1301 2710 2820
1061 2787 2928
990 2810 2960
990 2810 2960
2138 2987 518
2115 2993 955
2004 3016 1549
2004 3016 2267
2005 3016 2954
1598 3120 3184
1305 3194 3297
1219 3215 3329
1219 3215 3329
2044 3548 262
2004 3555 823
2003 3555 1548
2004 3554 2267
2004 3554 2954
2005 3554 3555
1665 3629 3681
1566 3650 3716
1566 3650 3716
2004 4095 6
2004 4095 823
2003 4095 1548
2003 4095 2266
2003 4095 2953
2003 4095 3555
2003 4095 3972
2003 4095 4095
2003 4095 4095
2615 3 0
2618 0 801
2618 0 1541
2396 648 2170
1703 1267 2595
1441 1442 3002
1375 1555 3164
1334 1602 3185
1334 1602 3185
2709 238 0
2625 475 797
2619 489 1540
2431 798 2191
1741 1347 2625
1500 1504 3037
1420 1618 3190
1376 1664 3210
1376 1664 3210
2915 585 0
2786 801 744
2619 987 1540
2501 1102 2228
1829 1532 2687
1637 1656 3108
1522 1772 3243
1472 1815 3263
1472 1815 3263
3191 994 0
3097 1101 842
2620 1485 1542
2584 1507 2258
1972 1814 2766
1832 1905 3179
1669 2023 3296
1610 2062 3317
1610 2062 3317
3433 1489 471
3408 1504 1058
3032 1767 1698
2616 1988 2265
2181 2161 2841
2029 2250 3197
1842 2354 3324
1799 2381 3366
1799 2381 3366
3108 2300 773
3181 2263 1240
3136 2274 1904
2773 2430 2394
2449 2557 2854
2212 2662 3156
2044 2742 3324
1995 2767 3369
1995 2767 3369
2913 2929 735
2936 2923 1083
2966 2915 1652
2705 2993 2285
2616 3016 2954
2233 3140 3206
1974 3224 3333
1902 3248 3368
1902 3248 3368
2840 3501 769
2836 3502 1110
2802 3511 1657
2617 3554 2268
2617 3554 2954
2616 3555 3555
2304 3642 3694
2217 3666 3732
2217 3666 3732
2758 4066 673
2738 4071 1039
2663 4086 1590
2617 4095 2267
2617 4095 2954
2617 4095 3555
2617 4095 3971
2618 4095 4095
2618 4095 4095
3357 3 0
3360 0 790
3360 0 1530
3359 0 2261
3054 917 2821
2451 1506 3189
2042 1746 3453
1962 1790 3535
1962 1790 3535
3424 243 0
3373 454 777
3365 478 1529
3360 489 2261
3080 1025 2838
2477 1572 3209
2074 1800 3477
1996 1841 3560
1996 1841 3560
3588 565 0
3517 744 670
3365 982 1530
3360 988 2260
3138 1260 2872
2538 1728 3253
2151 1930 3531
2081 1966 3617
2081 1966 3617
3830 937 0
3789 1013 686
3367 1480 1535
3360 1486 2259
3220 1603 2912
2633 1977 3316
2281 2142 3611
2228 2169 3701
2228 2169 3701
4095 1359 0
4059 1423 854
3817 1661 1564
3360 1987 2259
3306 2019 2942
2756 2302 3383
2471 2422 3699
2445 2437 3795
2445 2437 3795
4095 2002 1197
4095 1999 1432
4095 2024 1836
3604 2372 2339
3358 2495 2952
2907 2683 3446
2747 2748 3787
2739 2756 3879
2739 2756 3879
4095 2689 995
4095 2656 1378
4095 2634 2178
3920 2762 2614
3422 2991 2983
3116 3100 3504
3018 3146 3798
2961 3171 3857
2961 3171 3857
3801 3407 1025
3834 3394 1346
3924 3358 1933
3803 3401 2530
3531 3503 2974
3358 3555 3555
3059 3659 3714
2977 3688 3758
2977 3688 3758
3701 4001 1018
3710 3999 1286
3729 3995 1768
3665 4015 2359
3402 4084 2970
3358 4095 3556
3359 4095 3971
3359 4095 4095
3359 4095 4095
4094 6 0
4095 0 780
4095 0 1519
4095 0 2250
4095 0 2950
3767 1093 3411
3424 1522 3682
3282 1652 3751
3282 1652 3751
4095 352 161
4095 420 751
4095 458 1515
4095 481 2250
4095 490 2950
3787 1182 3423
3445 1584 3698
3302 1710 3764
3302 1710 3764
4095 857 635
4095 934 878
4095 972 1516
4095 984 2250
4095 988 2949
3834 1386 3451
3494 1732 3733
3348 1851 3796
3348 1851 3796
4095 1376 1119
4095 1403 1247
4095 1473 1526
4095 1483 2250
4095 1486 2948
3903 1691 3488
3574 1970 3787
3421 2079 3844
3421 2079 3844
4095 1887 1602
4095 1897 1683
4095 1935 1855
4095 1984 2251
4095 1987 2947
3986 2073 3523
3679 2283 3850
3520 2382 3900
3520 2382 3900
4095 2380 2079
4095 2398 2162
4095 2416 2290
4095 2466 2439
4095 2495 2945
4070 2510 3549
3800 2658 3914
3635 2747 3957
3635 2747 3957
4095 2897 2632
4095 2899 2676
4095 2916 2789
4095 2951 2899
4095 3001 2992
4095 3017 3553
3943 3081 3975
3772 3161 4010
3772 3161 4010
4095 3425 3066
4095 3427 3128
4095 3438 3268
4095 3462 3394
4095 3501 3466
4095 3554 3555
4055 3568 3979
3926 3617 4057
3926 3617 4057
4095 3944 3654
4095 3946 3693
4095 3955 3797
4095 3974 3888
4095 4008 3943
4095 4049 4011
4095 4082 4067
4095 4095 4095
4095 4095 4095
