Toning/Toning-Sunny film look.3dl
#25pt 3DLUT created by 3D LUT Creator Pro (c) Oleg Sharonov
#Copyright Oleg Sharonov
#IMAGEPROFILE sRGB IEC61966-2.1 v.2.10
#INPUTGAMMA sRGB IEC61966-2.1 v.2.10
#OUTPUTGAMMA sRGB IEC61966-2.1 v.2.10
0 43 86 128 171 214 256 299 341 384 427 469 512 555 597 640 682 725 768 810 853 896 938 981 1023 
0 0 0
49 60 230
94 116 398
122 173 607
96 40 689
88 14 878
80 13 1126
75 39 1422
67 71 1760
58 101 2068
47 146 2431
38 185 2748
23 241 3101
13 302 3387
9 450 3657
4 665 3823
3 819 3911
4 930 3944
3 999 3941
39 952 3877
120 891 3802
256 829 3743
805 1463 3900
1545 2115 4074
2038 2479 4093
0 265 0
38 240 297
91 233 461
114 226 638
84 52 696
76 14 883
70 19 1153
65 49 1464
58 86 1816
49 120 2136
36 165 2487
26 203 2786
14 261 3143
10 357 3430
6 509 3680
3 701 3831
3 854 3912
4 957 3945
3 1023 3940
39 970 3879
120 905 3804
257 842 3746
805 1467 3900
1545 2118 4074
2038 2480 4093
0 480 0
0 489 443
72 431 632
81 267 666
54 51 699
47 24 935
39 44 1241
31 81 1555
22 124 1905
17 183 2237
11 274 2631
8 337 2939
4 436 3296
3 531 3558
3 679 3716
3 840 3833
3 988 3909
2 1071 3937
2 1116 3934
41 1046 3883
123 960 3808
262 888 3754
809 1486 3902
1547 2127 4074
2039 2486 4091
0 677 1
0 679 473
0 538 733
32 306 692
17 110 737
13 126 1011
9 204 1374
7 277 1735
4 363 2126
4 433 2452
3 511 2780
2 563 3043
2 660 3326
2 758 3560
2 904 3713
2 1056 3816
1 1182 3886
0 1244 3920
0 1267 3924
43 1166 3878
128 1063 3818
272 978 3771
817 1522 3906
1551 2146 4073
2041 2497 4089
0 863 2
0 862 443
0 869 881
5 569 878
6 408 979
4 403 1257
4 483 1617
3 549 1931
3 619 2249
3 684 2528
2 771 2837
2 821 3074
1 924 3324
1 1012 3521
1 1146 3667
0 1290 3774
0 1399 3845
0 1449 3883
0 1455 3893
48 1323 3859
134 1206 3828
282 1109 3792
830 1578 3912
1556 2176 4071
2043 2516 4085
0 1040 2
0 1034 420
0 1050 860
0 889 1071
3 738 1214
3 702 1471
3 781 1825
3 839 2133
2 880 2383
1 940 2629
1 1026 2877
1 1075 3073
0 1160 3284
0 1230 3446
0 1352 3596
0 1500 3709
0 1609 3792
0 1656 3842
0 1660 3863
55 1500 3835
148 1362 3817
302 1255 3806
843 1657 3918
1556 2213 4063
2047 2543 4081
0 1209 3
0 1199 397
0 1214 827
0 1210 1233
0 1081 1495
2 1051 1716
2 1060 1973
1 1098 2234
0 1106 2437
0 1150 2644
0 1237 2865
0 1296 3048
0 1385 3234
0 1443 3382
0 1543 3536
0 1699 3657
0 1817 3748
0 1864 3802
0 1873 3834
63 1691 3813
165 1530 3801
327 1413 3808
848 1740 3915
1557 2257 4054
2053 2579 4075
0 1371 3
0 1359 360
0 1369 772
0 1389 1185
0 1342 1507
0 1305 1787
0 1288 2002
0 1307 2257
0 1316 2442
0 1343 2624
0 1431 2832
0 1503 3010
0 1607 3192
0 1665 3340
0 1734 3481
0 1886 3612
0 2009 3709
0 2060 3770
0 2079 3804
72 1882 3787
185 1716 3795
360 1594 3816
850 1831 3908
1558 2311 4044
2060 2622 4068
0 1527 4
0 1515 321
0 1520 702
0 1539 1103
0 1557 1472
0 1528 1792
0 1513 2009
0 1518 2228
0 1509 2436
0 1524 2603
0 1611 2802
0 1681 2976
0 1765 3138
0 1826 3280
0 1911 3422
0 2058 3559
0 2185 3666
0 2245 3738
0 2272 3784
80 2070 3762
204 1897 3777
396 1781 3822
871 1953 3918
1561 2374 4031
2070 2673 4061
0 1680 3
0 1664 277
0 1669 639
0 1687 1026
0 1704 1382
0 1725 1713
0 1681 1992
0 1708 2177
0 1703 2373
0 1713 2573
0 1750 2758
0 1813 2923
0 1896 3076
0 1971 3215
0 2078 3360
0 2213 3502
0 2339 3616
0 2405 3700
1 2438 3758
94 2262 3748
222 2075 3758
431 1970 3824
878 2080 3918
1563 2449 4018
2081 2731 4052
0 1831 4
0 1812 245
0 1817 573
0 1834 947
0 1850 1296
0 1870 1616
0 1884 1909
0 1846 2151
0 1902 2317
0 1928 2509
0 1944 2689
0 1966 2859
0 2021 3011
0 2099 3147
0 2215 3296
0 2346 3442
0 2456 3557
0 2526 3649
9 2572 3725
106 2436 3737
248 2257 3744
460 2146 3812
873 2195 3904
1570 2536 4006
2087 2788 4038
0 1979 3
0 1960 209
0 1960 511
0 1976 871
0 1993 1211
0 2012 1521
0 2031 1808
0 2046 2073
0 2072 2260
0 2130 2440
0 2171 2618
0 2201 2785
0 2241 2942
0 2289 3086
0 2383 3237
0 2499 3388
0 2588 3510
0 2673 3614
20 2725 3703
121 2579 3715
272 2426 3735
494 2325 3800
869 2321 3890
1579 2628 3995
2098 2857 4026
0 2123 3
0 2106 181
0 2103 446
0 2117 794
0 2131 1124
0 2152 1427
0 2170 1707
0 2193 1969
0 2215 2212
0 2329 2380
0 2383 2551
0 2420 2716
0 2477 2884
0 2537 3035
0 2629 3192
0 2738 3359
0 2788 3480
0 2852 3587
35 2875 3685
144 2740 3706
301 2566 3720
524 2477 3780
854 2449 3872
1580 2716 3977
2118 2937 4017
0 2268 2
0 2251 151
0 2247 387
0 2259 719
0 2271 1041
0 2292 1335
0 2310 1609
0 2334 1865
0 2356 2103
0 2382 2332
0 2545 2478
0 2642 2659
0 2702 2828
0 2766 2985
0 2855 3159
0 2959 3329
0 2992 3451
0 3059 3562
59 3072 3672
172 2903 3701
339 2723 3714
559 2612 3764
867 2579 3852
1578 2803 3955
2141 3021 4008
0 2413 3
0 2395 123
0 2390 329
0 2401 646
0 2413 958
0 2430 1247
0 2449 1513
0 2472 1763
0 2496 1997
0 2523 2221
0 2625 2402
0 2761 2570
0 2864 2755
0 2971 2943
0 3071 3125
0 3167 3296
0 3192 3421
0 3243 3534
90 3250 3654
224 3113 3702
391 2893 3718
609 2767 3757
899 2711 3827
1587 2906 3940
2181 3118 4000
0 2557 1
0 2537 98
0 2531 267
0 2542 573
0 2553 876
0 2571 1156
0 2588 1417
0 2610 1661
0 2634 1889
0 2662 2109
0 2684 2321
0 2856 2487
0 2978 2672
0 3088 2860
0 3209 3054
0 3322 3244
0 3373 3387
0 3411 3505
126 3413 3635
281 3306 3703
472 3090 3720
679 2937 3760
968 2884 3826
1613 3023 3926
2207 3205 3987
0 2698 1
0 2678 73
0 2668 211
0 2679 500
0 2690 792
0 2708 1067
0 2725 1320
0 2747 1559
0 2770 1783
0 2798 1998
0 2822 2207
0 2849 2412
0 3073 2587
0 3194 2776
0 3315 2975
0 3427 3172
0 3481 3324
13 3534 3473
155 3532 3610
339 3478 3701
564 3286 3722
778 3126 3757
1046 3054 3827
1633 3138 3914
2238 3295 3975
0 2838 1
0 2817 55
0 2804 153
0 2815 430
0 2825 712
0 2842 980
0 2861 1227
0 2882 1461
0 2904 1681
0 2931 1893
0 2957 2100
0 2985 2303
0 3105 2497
0 3289 2697
0 3411 2900
0 3531 3122
0 3579 3273
30 3629 3434
180 3625 3579
373 3589 3688
657 3469 3724
899 3330 3759
1178 3252 3826
1689 3281 3907
2351 3437 3971
0 2975 0
0 2954 28
0 2938 96
0 2949 365
0 2959 634
0 2975 895
0 2994 1136
0 3015 1365
0 3037 1582
0 3062 1791
0 3088 1995
0 3118 2194
0 3147 2390
0 3357 2616
0 3497 2837
0 3627 3091
0 3670 3236
45 3714 3393
204 3710 3543
404 3691 3676
695 3586 3714
1001 3505 3758
1335 3457 3825
1796 3460 3904
2408 3542 3962
0 3109 0
0 3087 11
0 3072 57
0 3081 301
0 3090 558
0 3105 812
0 3124 1047
0 3146 1275
0 3167 1489
0 3193 1695
0 3218 1897
0 3248 2095
0 3277 2289
0 3312 2485
0 3567 2783
0 3711 3060
0 3753 3207
52 3792 3365
224 3787 3510
428 3780 3658
736 3691 3700
1048 3627 3748
1393 3592 3814
1815 3584 3893
2453 3639 3951
0 3239 2
0 3218 15
0 3203 47
0 3209 253
0 3218 497
0 3233 745
0 3248 976
0 3271 1198
0 3293 1406
0 3318 1609
0 3344 1805
0 3374 2002
0 3404 2191
0 3439 2386
0 3527 2636
0 3770 3013
0 3834 3196
50 3866 3348
239 3861 3492
458 3857 3643
766 3789 3682
1096 3743 3737
1441 3714 3800
1809 3706 3878
2483 3733 3936
0 3366 2
0 3345 37
0 3331 43
0 3334 217
0 3342 443
0 3356 682
0 3371 908
0 3392 1123
0 3414 1327
0 3442 1528
0 3470 1734
0 3502 1941
0 3532 2136
0 3568 2342
0 3604 2531
0 3797 2935
0 3911 3208
32 3933 3332
242 3931 3481
481 3927 3627
798 3882 3676
1135 3850 3728
1491 3831 3790
1867 3826 3862
2520 3826 3921
0 3491 14
0 3472 75
0 3459 81
0 3460 220
0 3467 428
0 3482 667
0 3498 888
0 3519 1112
0 3541 1312
0 3570 1522
0 3597 1717
0 3629 1918
0 3660 2109
0 3695 2304
0 3731 2497
0 3771 2692
0 3964 3209
0 3994 3327
226 3997 3474
493 3994 3614
824 3969 3672
1175 3952 3724
1544 3941 3782
1932 3940 3854
2567 3917 3910
0 3612 15
0 3602 174
0 3591 203
0 3590 300
0 3596 493
0 3608 709
0 3624 928
0 3645 1127
0 3668 1331
0 3695 1521
0 3723 1714
0 3754 1904
0 3786 2092
0 3821 2287
0 3858 2475
0 3898 2670
0 3939 2862
0 4050 3366
183 4055 3473
483 4056 3605
835 4051 3673
1211 4048 3721
1597 4048 3776
1996 4049 3849
2613 4007 3905
0 3730 15
0 3728 271
0 3718 308
0 3717 396
0 3721 560
0 3733 765
0 3747 967
0 3768 1164
0 3791 1353
0 3818 1540
0 3846 1727
0 3877 1908
0 3909 2096
0 3945 2276
0 3983 2469
0 4022 2654
0 4064 2844
0 4095 3406
369 4095 3403
783 4095 3536
1162 4095 3624
1540 4095 3687
1911 4095 3750
2281 4095 3827
2665 4094 3901
204 0 0
194 35 162
182 99 322
179 154 523
133 86 658
109 25 826
95 6 1048
87 32 1353
77 61 1681
65 93 2008
53 140 2384
42 182 2712
25 237 3063
14 304 3369
9 448 3645
5 656 3812
3 800 3896
4 917 3935
3 989 3933
43 946 3871
125 889 3800
261 829 3742
809 1464 3901
1548 2116 4075
2040 2479 4093
138 156 0
144 140 133
154 174 320
167 220 555
119 99 670
95 25 829
83 13 1077
76 44 1401
67 77 1739
56 112 2075
40 158 2428
29 201 2750
16 257 3105
11 358 3409
7 504 3668
3 696 3823
3 834 3897
4 944 3935
3 1014 3932
43 965 3872
125 904 3801
262 841 3744
810 1469 3902
1549 2119 4075
2040 2480 4093
138 347 0
135 343 212
149 353 434
148 344 640
86 127 689
60 26 861
48 31 1141
37 73 1480
27 114 1821
19 176 2179
13 266 2569
9 335 2899
5 434 3262
3 533 3544
3 679 3709
3 838 3825
3 968 3895
2 1060 3927
2 1105 3926
44 1044 3879
128 960 3807
267 888 3753
814 1487 3904
1550 2128 4074
2041 2486 4092
138 532 1
119 551 250
133 548 576
94 399 668
37 161 691
20 106 904
14 167 1240
10 260 1646
7 348 2044
4 427 2405
3 506 2734
2 567 3016
2 662 3300
2 765 3545
2 911 3704
2 1058 3808
1 1165 3873
0 1233 3911
0 1257 3916
47 1162 3874
133 1063 3816
277 977 3769
822 1523 3908
1555 2147 4073
2043 2498 4089
48 714 2
17 760 230
24 742 649
23 602 791
10 388 854
6 363 1137
5 447 1507
4 535 1863
3 607 2182
3 683 2485
2 771 2799
2 831 3050
1 932 3302
1 1023 3505
0 1156 3658
0 1295 3765
0 1383 3831
0 1438 3873
0 1446 3885
52 1320 3856
140 1205 3826
287 1111 3792
835 1580 3913
1560 2177 4072
2046 2517 4086
21 894 2
6 1000 138
12 947 675
14 877 947
9 709 1070
5 674 1355
4 755 1733
3 826 2061
2 880 2331
2 942 2588
1 1028 2841
1 1088 3048
0 1171 3263
0 1247 3432
0 1364 3585
0 1504 3699
0 1594 3777
0 1645 3831
0 1652 3855
60 1497 3832
154 1362 3816
308 1257 3807
848 1658 3919
1560 2213 4064
2050 2544 4081
12 1066 3
0 1221 3
4 1171 709
8 1136 1068
7 1052 1305
4 1027 1585
2 1049 1893
1 1095 2174
1 1113 2392
0 1154 2608
0 1241 2833
0 1311 3027
0 1404 3215
0 1463 3366
0 1557 3526
0 1705 3646
0 1802 3731
0 1853 3790
0 1866 3826
68 1688 3810
170 1530 3800
332 1415 3809
852 1741 3916
1560 2258 4055
2055 2579 4075
8 1235 4
0 1381 3
0 1376 707
0 1344 1092
0 1346 1413
0 1296 1655
0 1305 1936
0 1310 2202
0 1331 2410
0 1351 2591
0 1439 2804
0 1519 2991
0 1625 3176
0 1688 3328
0 1755 3471
0 1891 3600
0 1995 3694
0 2049 3757
0 2072 3795
77 1879 3783
191 1717 3796
366 1595 3817
854 1832 3909
1562 2312 4044
2063 2622 4069
0 1398 4
0 1535 4
0 1526 640
0 1545 1075
0 1536 1390
0 1543 1672
0 1549 1937
0 1539 2173
0 1531 2393
0 1537 2575
0 1624 2778
0 1696 2956
0 1779 3120
0 1845 3269
0 1930 3412
0 2060 3546
0 2171 3650
0 2233 3726
2 2266 3776
85 2068 3759
210 1898 3778
401 1782 3823
875 1954 3919
1564 2375 4032
2072 2673 4061
0 1552 4
0 1687 3
0 1674 573
0 1691 996
0 1709 1367
0 1728 1627
0 1748 1881
0 1744 2113
0 1740 2333
0 1744 2539
0 1761 2733
0 1828 2905
0 1912 3060
0 1990 3203
0 2099 3352
0 2211 3489
0 2326 3601
0 2394 3687
8 2437 3754
98 2259 3745
228 2076 3758
437 1971 3825
883 2081 3919
1566 2449 4018
2083 2731 4052
0 1707 4
0 1837 4
0 1820 510
0 1837 918
0 1854 1279
0 1883 1582
0 1917 1822
0 1951 2060
0 1960 2275
0 1964 2475
0 1981 2664
0 2009 2838
0 2043 2995
0 2119 3137
0 2233 3289
0 2345 3429
0 2445 3543
0 2518 3638
15 2570 3722
112 2433 3733
254 2258 3744
466 2148 3813
878 2195 3905
1573 2536 4006
2089 2789 4038
