Toning/Toning-Golden Sunset.3dl
#25pt 3DLUT created by 3D LUT Creator Pro (c) Oleg Sharonov
#Copyright Oleg Sharonov
#IMAGEPROFILE ProPhoto RGB v.2.10
#INPUTGAMMA ProPhoto RGB v.2.10
#OUTPUTGAMMA ProPhoto RGB v.2.10
0 256 512 768 1023
383 0 0
606 32 323
852 183 525
1122 312 883
1564 378 1586
387 617 0
694 609 355
645 635 630
1089 691 879
1522 747 1545
388 1573 0
394 1578 360
963 1559 652
406 1589 1166
1712 1608 1868
389 2695 0
395 2702 354
401 2708 684
1438 2673 1091
1052 2700 2337
391 3616 2
397 3618 349
403 3620 682
409 3621 1161
1935 3585 2300
1328 0 0
1334 0 363
1425 207 568
1646 320 906
1928 384 1703
1333 616 0
1340 619 360
1385 657 568
1610 701 898
1900 751 1666
1335 1574 0
1342 1580 354
1577 1564 659
1356 1590 1164
2004 1627 1886
1334 2697 0
1339 2704 348
1352 2710 680
1892 2676 1096
1542 2709 2347
1338 3614 1
1345 3616 343
1345 3618 678
1362 3618 1159
2252 3585 2303
2527 0 0
2531 0 356
2534 0 685
2561 309 1000
2651 387 1957
2529 613 0
2533 616 353
2536 622 680
2555 691 991
2642 752 1937
2528 1574 0
2532 1579 347
2536 1585 680
2530 1632 1022
2606 1691 1929
2526 2698 0
2530 2704 341
2534 2711 675
2670 2688 1116
2534 2717 2351
2525 3610 0
2529 3612 336
2532 3614 673
2537 3615 1156
2843 3587 2312
3392 0 0
3395 0 351
3398 0 682
3401 0 1161
3408 356 2224
3393 612 0
3396 616 348
3400 618 681
3402 622 1159
3406 725 2216
3392 1576 0
3395 1581 343
3399 1586 677
3399 1596 1148
3393 1670 2201
3389 2701 0
3393 2707 336
3397 2714 672
3399 2719 1157
3379 2764 2258
3388 3608 0
3392 3610 331
3396 3612 669
3398 3613 1155
3516 3594 2326
4094 0 0
4095 0 348
4095 6 680
4095 3 1161
4095 7 2358
4094 613 0
4095 615 345
4095 620 679
4095 622 1162
4095 620 2355
4093 1578 0
4095 1584 339
4095 1590 675
4095 1594 1160
4095 1600 2346
4090 2705 0
4092 2711 333
4094 2718 670
4095 2723 1157
4090 2729 2339
4088 3607 67
4090 3610 328
4093 3611 667
4094 3612 1155
4091 3608 2337
