Toning/Toning-Warm&Soft.3dl
#25pt 3DLUT created by 3D LUT Creator Pro (c) Oleg Sharonov
#Copyright Oleg Sharonov
#IMAGEPROFILE sRGB IEC61966-2.1 v.2.10
#INPUTGAMMA sRGB IEC61966-2.1 v.2.10
#OUTPUTGAMMA sRGB IEC61966-2.1 v.2.10
0 128 256 384 512 640 768 896 1023
0 0 324
0 0 630
1 1 935
2 2 1241
3 3 1547
5 5 1853
6 6 2160
8 8 2466
9 9 2772
0 509 322
0 511 628
1 512 934
2 514 1240
3 515 1546
5 517 1852
6 518 2158
8 519 2464
9 521 2771
0 1021 321
0 1023 627
1 1024 933
2 1025 1239
3 1027 1545
5 1028 1851
6 1030 2157
8 1031 2463
9 1033 2769
0 1533 319
0 1534 625
1 1536 932
2 1538 1237
3 1539 1544
5 1541 1850
6 1542 2156
8 1543 2462
9 1545 2768
0 2045 318
0 2047 624
1 2048 930
2 2049 1236
3 2051 1542
5 2052 1848
6 2054 2154
8 2055 2460
9 2057 2766
0 2557 316
0 2559 622
1 2560 929
2 2561 1235
4 2563 1541
5 2564 1847
6 2566 2153
8 2567 2459
9 2568 2765
0 3069 315
0 3070 621
1 3072 927
2 3073 1233
4 3075 1539
5 3076 1845
6 3078 2151
8 3079 2457
9 3080 2763
0 3581 314
0 3582 620
1 3584 926
2 3585 1232
4 3587 1538
5 3588 1844
6 3589 2150
8 3591 2456
12 3592 2762
1 4093 314
2 4094 619
1 4095 924
2 4095 1230
4 4095 1536
5 4095 1842
6 4095 2148
11 4095 2454
12 4095 2761
679 0 282
680 0 612
681 1 944
682 2 1276
683 3 1608
684 4 1939
685 6 2271
687 7 2603
688 8 2935
679 515 281
680 517 611
681 518 943
682 519 1274
683 520 1606
684 522 1938
685 523 2270
686 524 2602
687 526 2934
679 1034 279
680 1035 610
681 1037 941
682 1038 1273
683 1039 1605
684 1040 1937
685 1042 2269
686 1043 2600
687 1044 2932
678 1552 278
679 1553 608
681 1555 941
682 1556 1272
683 1558 1604
684 1559 1936
685 1560 2268
686 1561 2599
687 1562 2931
678 2068 277
679 2070 607
680 2071 939
681 2072 1271
683 2073 1603
684 2074 1934
685 2076 2266
686 2077 2598
687 2078 2930
678 2580 276
679 2582 606
680 2583 938
681 2584 1270
682 2585 1601
683 2587 1933
685 2588 2265
686 2589 2597
688 2590 2929
678 3087 274
679 3089 605
680 3090 937
681 3091 1268
682 3092 1600
683 3093 1932
684 3095 2264
685 3096 2596
688 3097 2927
678 3591 273
679 3592 604
680 3593 936
681 3594 1267
682 3595 1599
683 3596 1931
684 3598 2263
685 3599 2594
688 3600 2926
679 4093 274
680 4094 603
680 4095 934
681 4095 1266
682 4095 1598
683 4094 1930
684 4094 2261
687 4094 2593
688 4094 2925
1313 0 241
1313 0 596
1314 0 953
1314 2 1310
1316 3 1668
1316 4 2025
1317 5 2383
1318 6 2741
1318 7 3098
1312 521 239
1313 523 595
1314 524 953
1315 525 1310
1316 526 1668
1316 527 2025
1317 528 2382
1317 530 2740
1318 531 3097
1312 1047 238
1313 1048 594
1314 1050 951
1315 1051 1309
1315 1053 1666
1316 1054 2024
1316 1054 2381
1317 1055 2739
1318 1057 3096
1312 1572 237
1313 1573 592
1313 1574 950
1314 1575 1308
1315 1576 1665
1316 1578 2023
1316 1579 2380
1317 1580 2738
1318 1581 3095
1311 2091 236
1312 2092 591
1312 2094 949
1314 2095 1306
1315 2096 1664
1315 2097 2022
1315 2098 2379
1316 2099 2736
1317 2100 3094
1311 2604 235
1312 2605 590
1313 2606 948
1313 2607 1305
1314 2608 1663
1315 2609 2020
1316 2610 2378
1316 2611 2735
1317 2612 3093
1311 3106 234
1312 3107 589
1312 3108 947
1313 3109 1304
1314 3110 1662
1315 3111 2019
1315 3112 2377
1316 3113 2734
1317 3114 3092
1311 3600 233
1312 3601 588
1312 3602 946
1313 3603 1303
1314 3604 1661
1314 3605 2018
1315 3606 2376
1316 3607 2733
1317 3608 3091
1311 4093 232
1311 4094 587
1311 4094 945
1312 4094 1302
1313 4094 1660
1313 4094 2017
1314 4094 2375
1315 4094 2732
1316 4094 3090
1899 0 200
1899 0 580
1900 0 963
1900 1 1346
1900 2 1730
1901 3 2113
1901 4 2496
1902 5 2880
1902 6 3263
1898 528 199
1899 529 579
1899 530 962
1899 531 1345
1900 532 1729
1901 533 2113
1901 534 2495
1901 535 2878
1902 536 3262
1898 1061 198
1898 1062 578
1898 1063 961
1899 1065 1345
1899 1065 1728
1900 1067 2111
1900 1067 2494
1901 1068 2877
1901 1069 3261
1897 1592 197
1898 1593 577
1898 1594 961
1898 1595 1344
1899 1596 1727
1899 1597 2110
1900 1598 2493
1900 1599 2877
1900 1599 3260
1897 2115 196
1897 2116 576
1898 2117 959
1898 2118 1343
1898 2119 1726
1899 2120 2109
1899 2121 2492
1899 2122 2876
1900 2123 3259
1896 2628 195
1897 2629 575
1897 2630 959
1897 2631 1342
1898 2631 1725
1898 2632 2108
1899 2633 2491
1899 2634 2875
1899 2635 3258
1896 3125 194
1896 3126 574
1897 3126 958
1897 3127 1341
1897 3128 1724
1898 3129 2107
1898 3129 2491
1899 3130 2874
1899 3131 3257
1896 3611 193
1896 3611 574
1896 3612 957
1897 3612 1340
1897 3613 1724
1898 3614 2107
1898 3615 2490
1898 3615 2873
1899 3616 3256
1895 4093 192
1896 4094 573
1896 4095 956
1896 4094 1339
1896 4094 1723
1897 4094 2106
1898 4094 2489
1898 4094 2873
1898 4093 3256
2438 0 159
2438 0 565
2438 0 974
2438 1 1383
2438 2 1792
2438 2 2201
2438 3 2610
2438 4 3019
2438 5 3428
2437 535 158
2437 536 564
2437 537 973
2437 538 1382
2437 539 1791
2437 540 2200
2437 541 2609
2437 541 3018
2437 544 3427
2436 1076 157
2436 1077 563
2436 1077 973
2436 1078 1381
2436 1079 1790
2436 1080 2199
2436 1081 2608
2436 1082 3017
2436 1083 3426
2435 1612 157
2435 1613 562
2435 1614 971
2435 1614 1380
2435 1615 1789
2435 1616 2198
2436 1617 2607
2436 1618 3016
2436 1619 3425
2434 2139 156
2435 2140 562
2435 2141 971
2435 2142 1380
2435 2142 1789
2435 2143 2198
2435 2144 2607
2435 2145 3016
2435 2146 3424
2434 2652 155
2434 2653 561
2434 2654 970
2434 2654 1379
2434 2655 1788
2434 2655 2197
2434 2656 2606
2434 2657 3015
2434 2657 3424
2433 3144 155
2433 3144 560
2433 3145 970
2433 3145 1378
2433 3146 1787
2434 3146 2196
2434 3147 2605
2434 3147 3014
2433 3148 3423
2433 3621 154
2433 3621 560
2433 3622 969
2433 3622 1378
2433 3622 1787
2433 3623 2196
2433 3623 2605
2433 3624 3014
2433 3624 3423
2432 4094 153
2432 4095 558
2433 4095 969
2433 4095 1378
2433 4094 1787
2433 4094 2195
2432 4094 2604
2432 4094 3013
2432 4093 3422
2929 0 119
2928 0 551
2928 0 985
2928 1 1420
2927 1 1855
2927 2 2289
2927 2 2724
2927 3 3159
2926 4 3594
2928 543 118
2927 543 550
2927 544 984
2927 545 1419
2926 546 1854
2926 546 2289
2926 547 2723
2926 548 3158
2925 549 3593
2927 1090 118
2926 1091 549
2926 1091 984
2926 1092 1418
2925 1093 1853
2925 1093 2288
2925 1094 2723
2924 1096 3157
2924 1096 3592
2925 1633 117
2925 1633 548
2925 1634 983
2925 1635 1418
2925 1635 1853
2924 1636 2287
2924 1637 2722
2923 1638 3156
2923 1638 3591
2925 2164 117
2924 2164 548
2924 2165 983
2924 2166 1417
2923 2166 1852
2923 2167 2287
2923 2167 2721
2923 2168 3156
2922 2169 3591
2924 2677 116
2923 2677 547
2923 2678 982
2923 2678 1417
2923 2679 1851
2922 2679 2286
2922 2679 2721
2922 2680 3155
2921 2680 3590
2923 3163 115
2923 3163 547
2923 3164 982
2922 3164 1416
2922 3164 1851
2922 3165 2286
2921 3165 2720
2921 3165 3155
2921 3165 3590
2923 3631 115
2922 3631 547
2922 3631 982
2922 3632 1416
2921 3632 1851
2921 3632 2285
2921 3632 2720
2921 3633 3155
2920 3633 3590
2922 4094 115
2922 4095 548
2921 4095 981
2921 4095 1416
2921 4095 1851
2921 4094 2285
2920 4094 2720
2920 4094 3155
2920 4093 3589
3372 0 79
3371 0 537
3371 0 997
3370 1 1458
3369 1 1918
3369 2 2379
3368 3 2839
3368 3 3299
3367 4 3760
3371 550 78
3370 551 536
3369 552 997
3369 552 1457
3368 553 1917
3367 554 2378
3367 554 2838
3366 555 3299
3366 556 3759
3369 1104 78
3369 1105 536
3368 1106 996
3367 1106 1456
3367 1107 1917
3366 1108 2377
3366 1108 2838
3365 1109 3298
3364 1110 3759
3368 1654 78
3368 1654 535
3367 1655 996
3366 1655 1456
3366 1656 1916
3365 1656 2377
3365 1657 2837
3364 1658 3298
3363 1658 3758
3367 2188 77
3366 2189 535
3366 2189 995
3365 2190 1456
3364 2190 1916
3364 2191 2376
3363 2191 2837
3363 2192 3297
3362 2192 3758
3366 2702 77
3365 2702 534
3365 2702 995
3364 2702 1455
3364 2703 1916
3363 2703 2376
3362 2703 2836
3362 2703 3297
3361 2704 3757
3365 3183 77
3365 3183 534
3364 3183 995
3363 3183 1455
3363 3183 1915
3362 3183 2376
3362 3183 2836
3361 3183 3297
3360 3183 3757
3365 3642 76
3364 3642 534
3363 3642 995
3363 3642 1455
3362 3642 1915
3362 3641 2376
3361 3641 2836
3360 3641 3297
3360 3641 3757
3364 4094 77
3363 4095 535
3363 4095 994
3362 4095 1455
3362 4095 1915
3361 4095 2376
3360 4094 2836
3360 4094 3297
3359 4094 3757
3768 1 39
3767 1 524
3766 1 1010
3765 2 1496
3764 2 1982
3763 3 2469
3762 3 2955
3761 4 3441
3760 4 3927
3766 559 39
3766 559 523
3764 560 1010
3763 560 1496
3763 561 1982
3761 561 2468
3761 562 2954
3760 562 3440
3758 564 3926
3765 1120 39
3764 1121 523
3763 1121 1009
3762 1122 1495
3761 1123 1981
3760 1123 2468
3759 1124 2954
3758 1124 3440
3757 1125 3926
3763 1675 39
3762 1675 522
3761 1676 1009
3760 1676 1495
3759 1677 1981
3758 1677 2467
3758 1678 2953
3757 1678 3439
3756 1678 3926
3762 2214 38
3761 2214 522
3760 2214 1009
3759 2214 1495
3758 2215 1981
3757 2215 2467
3756 2215 2953
3755 2216 3439
3754 2216 3925
3761 2727 38
3760 2727 522
3759 2727 1008
3758 2727 1494
3757 2727 1980
3756 2727 2467
3755 2727 2953
3754 2727 3439
3753 2727 3925
3760 3202 38
3759 3202 522
3758 3202 1009
3757 3202 1494
3756 3202 1981
3755 3202 2467
3754 3201 2953
3753 3201 3439
3752 3201 3925
3759 3653 38
3758 3652 522
3757 3652 1009
3756 3652 1495
3755 3651 1981
3754 3651 2467
3753 3651 2953
3752 3651 3439
3751 3650 3925
3759 4095 38
3758 4095 519
3757 4095 1011
3756 4095 1496
3755 4095 1982
3754 4095 2468
3753 4095 2954
3752 4095 3439
3751 4094 3926
4095 3 0
4095 3 512
4095 3 1023
4095 4 1535
4095 4 2047
4095 4 2559
4095 5 3071
4095 5 3583
4095 5 4095
4095 567 0
4095 568 511
4095 570 1023
4095 570 1535
4095 571 2047
4095 571 2559
4095 568 3071
4095 570 3582
4095 571 4094
4095 1136 0
4095 1136 511
4095 1137 1023
4095 1137 1535
4095 1138 2047
4095 1138 2558
4095 1139 3070
4095 1138 3582
4095 1139 4094
4095 1697 0
4095 1697 512
4095 1697 1023
4095 1698 1534
4095 1698 2046
4095 1698 2558
4095 1698 3070
4095 1699 3582
4095 1699 4094
4095 2239 0
4095 2239 510
4095 2239 1023
4095 2239 1534
4095 2240 2046
4095 2240 2558
4095 2240 3070
4095 2240 3582
4095 2240 4093
4095 2752 0
4095 2752 510
4095 2752 1022
4095 2752 1534
4095 2752 2046
4095 2751 2558
4095 2751 3070
4095 2751 3582
4095 2751 4093
4095 3222 0
4095 3222 511
4095 3222 1022
4095 3221 1534
4095 3221 2046
4095 3220 2558
4095 3220 3070
4095 3219 3582
4095 3219 4094
4095 3664 0
4095 3663 512
4095 3662 1023
4095 3662 1535
4095 3661 2047
4095 3661 2559
4095 3660 3071
4095 3660 3582
4095 3659 4094
4095 4095 0
4095 4095 510
4095 4095 1021
4095 4095 1534
4095 4095 2046
4095 4095 2558
4095 4095 3071
4095 4095 3583
4095 4095 4095
