Toning/Toning-WinterFairy.3dl
#25pt 3DLUT created by 3D LUT Creator Pro (c) Oleg Sharonov
#Copyright !UNREGISTERED VERSION OF 3D LUT CREATOR!
#IMAGEPROFILE sRGB IEC61966-2.1 v.2.10
#INPUTGAMMA sRGB IEC61966-2.1 v.2.10
#OUTPUTGAMMA sRGB IEC61966-2.1 v.2.10
0 43 86 128 171 214 256 299 341 384 427 469 512 555 597 640 682 725 768 810 853 896 938 981 1023 
198 264 288
0 0 171
0 0 341
0 0 512
0 0 683
0 0 853
0 0 1024
0 0 1194
0 0 1365
0 0 1536
0 0 1706
0 0 1877
0 0 2048
0 0 2218
0 0 2389
0 0 2559
0 0 2730
0 0 2901
0 0 3071
0 0 3242
0 0 3412
0 0 3583
0 0 3754
0 0 3924
0 0 4095
0 171 0
0 171 171
0 171 341
0 171 512
0 171 683
0 171 853
0 171 1024
0 171 1194
0 171 1365
0 171 1536
0 171 1706
0 171 1877
0 171 2048
0 171 2218
0 171 2389
0 171 2559
0 171 2730
0 171 2901
0 171 3071
0 171 3242
0 171 3412
0 171 3583
0 171 3754
0 171 3924
0 171 4095
0 341 0
0 341 171
0 341 341
0 341 512
0 341 683
0 341 853
0 341 1024
0 341 1194
0 341 1365
0 341 1536
0 341 1706
0 341 1877
0 341 2048
0 341 2218
0 341 2389
0 341 2559
0 341 2730
0 341 2901
0 341 3071
0 341 3242
0 341 3412
0 341 3583
0 341 3754
0 341 3924
0 341 4095
0 512 0
0 512 171
0 512 341
0 512 512
0 512 683
0 512 853
0 512 1024
0 512 1194
0 512 1365
0 512 1536
0 512 1706
0 512 1877
0 512 2048
0 512 2218
0 512 2389
0 512 2559
0 512 2730
0 512 2901
0 512 3071
0 512 3242
0 512 3412
0 512 3583
0 512 3754
0 512 3924
0 512 4095
0 683 0
0 683 171
0 683 341
0 683 512
0 683 683
0 683 853
0 683 1024
0 683 1194
0 683 1365
0 683 1536
0 683 1706
0 683 1877
0 683 2048
0 683 2218
0 683 2389
0 683 2559
0 683 2730
0 683 2901
0 683 3071
0 683 3242
0 683 3412
0 683 3583
0 683 3754
0 683 3924
0 683 4095
0 853 0
0 853 171
0 853 341
0 853 512
0 853 683
0 853 853
0 853 1024
0 853 1194
0 853 1365
0 853 1536
0 853 1706
0 853 1877
0 853 2048
0 853 2218
0 853 2389
0 853 2559
0 853 2730
0 853 2901
0 853 3071
0 853 3242
0 853 3412
0 853 3583
0 853 3754
0 853 3924
0 853 4095
0 1024 0
0 1024 171
0 1024 341
0 1024 512
0 1024 683
0 1024 853
0 1024 1024
0 1024 1194
0 1024 1365
0 1024 1536
0 1024 1706
0 1024 1877
0 1024 2048
0 1024 2218
0 1024 2389
0 1024 2559
0 1024 2730
0 1024 2901
0 1024 3071
0 1024 3242
0 1024 3412
0 1024 3583
0 1024 3754
0 1024 3924
0 1024 4095
0 1194 0
0 1194 171
0 1194 341
0 1194 512
0 1194 683
0 1194 853
0 1194 1024
0 1194 1194
0 1194 1365
0 1194 1536
0 1194 1706
0 1194 1877
0 1194 2048
0 1194 2218
0 1194 2389
0 1194 2559
0 1194 2730
0 1194 2901
0 1194 3071
0 1194 3242
0 1194 3412
0 1194 3583
0 1194 3754
0 1194 3924
0 1194 4095
0 1365 0
0 1365 171
0 1365 341
0 1365 512
0 1365 683
0 1365 853
0 1365 1024
0 1365 1194
0 1365 1365
0 1365 1536
0 1365 1706
0 1365 1877
0 1365 2048
0 1365 2218
0 1365 2389
0 1365 2559
0 1365 2730
0 1365 2901
0 1365 3071
0 1365 3242
0 1365 3412
0 1365 3583
0 1365 3754
0 1365 3924
0 1365 4095
0 1536 0
0 1536 171
0 1536 341
0 1536 512
0 1536 683
0 1536 853
0 1536 1024
0 1536 1194
0 1536 1365
0 1536 1536
0 1536 1706
0 1536 1877
0 1536 2048
0 1536 2218
0 1536 2389
0 1536 2559
0 1536 2730
0 1536 2901
0 1536 3071
0 1536 3242
0 1536 3412
0 1536 3583
0 1536 3754
0 1536 3924
0 1536 4095
0 1706 0
0 1706 171
0 1706 341
0 1706 512
0 1706 683
0 1706 853
0 1706 1024
0 1706 1194
0 1706 1365
0 1706 1536
0 1706 1706
0 1706 1877
0 1706 2048
0 1706 2218
0 1706 2389
0 1706 2559
0 1706 2730
0 1706 2901
0 1706 3071
0 1706 3242
0 1706 3412
0 1706 3583
0 1706 3754
0 1706 3924
0 1706 4095
0 1877 0
0 1877 171
0 1877 341
0 1877 512
0 1877 683
0 1877 853
0 1877 1024
0 1877 1194
0 1877 1365
0 1877 1536
0 1877 1706
0 1877 1877
0 1877 2048
0 1877 2218
0 1877 2389
0 1877 2559
0 1877 2730
0 1877 2901
0 1877 3071
0 1877 3242
0 1877 3412
0 1877 3583
0 1877 3754
0 1877 3924
0 1877 4095
0 2048 0
0 2048 171
0 2048 341
0 2048 512
0 2048 683
0 2048 853
0 2048 1024
0 2048 1194
0 2048 1365
0 2048 1536
0 2048 1706
0 2048 1877
0 2048 2048
0 2048 2218
0 2048 2389
0 2048 2559
0 2048 2730
0 2048 2901
0 2048 3071
0 2048 3242
0 2048 3412
0 2048 3583
0 2048 3754
0 2048 3924
0 2048 4095
0 2218 0
0 2218 171
0 2218 341
0 2218 512
0 2218 683
0 2218 853
0 2218 1024
0 2218 1194
0 2218 1365
0 2218 1536
0 2218 1706
0 2218 1877
0 2218 2048
0 2218 2218
0 2218 2389
0 2218 2559
0 2218 2730
0 2218 2901
0 2218 3071
0 2218 3242
0 2218 3412
0 2218 3583
0 2218 3754
0 2218 3924
0 2218 4095
0 2389 0
0 2389 171
0 2389 341
0 2389 512
0 2389 683
0 2389 853
0 2389 1024
0 2389 1194
0 2389 1365
0 2389 1536
0 2389 1706
0 2389 1877
0 2389 2048
0 2389 2218
0 2389 2389
0 2389 2559
0 2389 2730
0 2389 2901
0 2389 3071
0 2389 3242
0 2389 3412
0 2389 3583
0 2389 3754
0 2389 3924
0 2389 4095
0 2559 0
0 2559 171
0 2559 341
0 2559 512
0 2559 683
0 2559 853
0 2559 1024
0 2559 1194
0 2559 1365
0 2559 1536
0 2559 1706
0 2559 1877
0 2559 2048
0 2559 2218
0 2559 2389
0 2559 2559
0 2559 2730
0 2559 2901
0 2559 3071
0 2559 3242
0 2559 3412
0 2559 3583
0 2559 3754
0 2559 3924
0 2559 4095
0 2730 0
0 2730 171
0 2730 341
0 2730 512
0 2730 683
0 2730 853
0 2730 1024
0 2730 1194
0 2730 1365
0 2730 1536
0 2730 1706
0 2730 1877
0 2730 2048
0 2730 2218
0 2730 2389
0 2730 2559
0 2730 2730
0 2730 2901
0 2730 3071
0 2730 3242
0 2730 3412
0 2730 3583
0 2730 3754
0 2730 3924
0 2730 4095
0 2901 0
0 2901 171
0 2901 341
0 2901 512
0 2901 683
0 2901 853
0 2901 1024
0 2901 1194
0 2901 1365
0 2901 1536
0 2901 1706
0 2901 1877
0 2901 2048
0 2901 2218
0 2901 2389
0 2901 2559
0 2901 2730
0 2901 2901
0 2901 3071
0 2901 3242
0 2901 3412
0 2901 3583
0 2901 3754
0 2901 3924
0 2901 4095
0 3071 0
0 3071 171
0 3071 341
0 3071 512
0 3071 683
0 3071 853
0 3071 1024
0 3071 1194
0 3071 1365
0 3071 1536
0 3071 1706
0 3071 1877
0 3071 2048
0 3071 2218
0 3071 2389
0 3071 2559
0 3071 2730
0 3071 2901
0 3071 3071
0 3071 3242
0 3071 3412
0 3071 3583
0 3071 3754
0 3071 3924
0 3071 4095
0 3242 0
0 3242 171
0 3242 341
0 3242 512
0 3242 683
0 3242 853
0 3242 1024
0 3242 1194
0 3242 1365
0 3242 1536
0 3242 1706
0 3242 1877
0 3242 2048
0 3242 2218
0 3242 2389
0 3242 2559
0 3242 2730
0 3242 2901
0 3242 3071
0 3242 3242
0 3242 3412
0 3242 3583
0 3242 3754
0 3242 3924
0 3242 4095
0 3412 0
0 3412 171
0 3412 341
0 3412 512
0 3412 683
0 3412 853
0 3412 1024
0 3412 1194
0 3412 1365
0 3412 1536
0 3412 1706
0 3412 1877
0 3412 2048
0 3412 2218
0 3412 2389
0 3412 2559
0 3412 2730
0 3412 2901
0 3412 3071
0 3412 3242
0 3412 3412
0 3412 3583
0 3412 3754
0 3412 3924
0 3412 4095
0 3583 0
0 3583 171
0 3583 341
0 3583 512
0 3583 683
0 3583 853
0 3583 1024
0 3583 1194
0 3583 1365
0 3583 1536
0 3583 1706
0 3583 1877
0 3583 2048
0 3583 2218
0 3583 2389
0 3583 2559
0 3583 2730
0 3583 2901
0 3583 3071
0 3583 3242
0 3583 3412
0 3583 3583
0 3583 3754
0 3583 3924
0 3583 4095
0 3754 0
0 3754 171
0 3754 341
0 3754 512
0 3754 683
0 3754 853
0 3754 1024
0 3754 1194
0 3754 1365
0 3754 1536
0 3754 1706
0 3754 1877
0 3754 2048
0 3754 2218
0 3754 2389
0 3754 2559
0 3754 2730
0 3754 2901
0 3754 3071
0 3754 3242
0 3754 3412
0 3754 3583
0 3754 3754
0 3754 3924
0 3754 4095
0 3924 0
0 3924 171
0 3924 341
0 3924 512
0 3924 683
0 3924 853
0 3924 1024
0 3924 1194
0 3924 1365
0 3924 1536
0 3924 1706
0 3924 1877
0 3924 2048
0 3924 2218
0 3924 2389
0 3924 2559
0 3924 2730
0 3924 2901
0 3924 3071
0 3924 3242
0 3924 3412
0 3924 3583
0 3924 3754
0 3924 3924
0 3924 4095
0 4095 0
0 4095 171
0 4095 341
0 4095 512
0 4095 683
0 4095 853
0 4095 1024
0 4095 1194
0 4095 1365
0 4095 1536
0 4095 1706
0 4095 1877
0 4095 2048
0 4095 2218
0 4095 2389
0 4095 2559
0 4095 2730
0 4095 2901
0 4095 3071
0 4095 3242
0 4095 3412
0 4095 3583
0 4095 3754
0 4095 3924
0 4095 4095
171 0 0
171 0 171
171 0 341
171 0 512
171 0 683
171 0 853
171 0 1024
171 0 1194
171 0 1365
171 0 1536
171 0 1706
171 0 1877
171 0 2048
171 0 2218
171 0 2389
171 0 2559
171 0 2730
171 0 2901
171 0 3071
171 0 3242
171 0 3412
171 0 3583
171 0 3754
171 0 3924
171 0 4095
171 171 0
255 372 439
218 402 558
188 378 654
179 362 820
176 354 994
173 358 1167
166 373 1337
164 388 1505
163 403 1671
156 416 1841
154 431 2006
151 439 2175
150 443 2344
150 442 2514
148 439 2685
148 440 2845
150 442 3001
153 444 3154
154 448 3305
157 452 3455
161 455 3604
165 457 3754
165 458 3910
170 209 4091
171 341 0
263 453 419
235 484 557
191 474 665
179 470 824
176 472 993
171 483 1165
165 503 1334
164 520 1503
162 539 1669
156 554 1839
154 569 2006
151 580 2175
150 585 2343
150 585 2514
148 584 2684
148 586 2845
150 589 3001
153 592 3154
154 597 3305
157 602 3455
161 606 3603
165 608 3754
165 611 3910
170 378 4091
171 512 0
257 549 363
235 569 505
204 589 673
177 595 824
173 606 991
169 620 1163
165 640 1332
164 660 1499
162 680 1665
156 697 1836
153 713 2005
151 723 2175
150 730 2343
150 731 2514
148 731 2684
148 734 2845
150 737 3000
153 742 3154
154 748 3305
157 753 3455
161 757 3603
165 761 3754
164 764 3910
170 546 4091
171 683 0
248 691 316
237 707 474
209 723 638
174 741 823
169 752 988
168 765 1160
164 785 1329
163 808 1494
161 828 1661
156 845 1833
152 860 2004
151 871 2174
150 878 2343
150 880 2514
148 880 2684
148 884 2845
150 888 3000
153 892 3153
153 899 3305
157 905 3454
161 910 3603
165 914 3754
164 918 3910
169 714 4091
171 853 0
224 864 238
237 871 450
216 882 617
185 892 798
168 904 984
167 918 1156
163 939 1325
162 962 1489
161 981 1657
154 998 1831
152 1011 2003
151 1021 2174
150 1028 2344
150 1030 2515
148 1031 2684
148 1035 2844
150 1040 3000
152 1045 3153
153 1052 3305
157 1058 3454
161 1064 3603
164 1069 3754
163 1073 3910
169 883 4091
171 1024 0
224 1036 203
238 1046 432
221 1052 601
199 1057 781
172 1062 962
165 1079 1150
162 1098 1320
162 1122 1484
159 1142 1653
154 1155 1828
152 1166 2002
151 1175 2174
150 1181 2345
150 1183 2515
147 1184 2684
148 1188 2844
150 1193 2999
152 1200 3153
153 1206 3305
157 1213 3453
161 1219 3602
163 1225 3753
162 1229 3910
169 1052 4091
171 1194 0
232 1209 197
239 1225 419
227 1226 589
210 1229 767
187 1230 949
165 1241 1128
160 1268 1312
159 1292 1477
157 1307 1648
154 1314 1826
151 1324 2002
150 1331 2175
149 1336 2345
149 1339 2515
147 1339 2684
148 1343 2844
150 1349 2999
152 1355 3152
153 1362 3304
157 1369 3453
160 1376 3602
162 1382 3753
161 1387 3910
169 1220 4091
171 1365 0
238 1383 192
241 1400 409
232 1397 585
217 1398 764
199 1398 947
175 1411 1120
159 1435 1291
158 1463 1469
157 1477 1642
153 1483 1820
151 1484 2002
150 1490 2175
149 1494 2346
148 1495 2516
147 1496 2684
147 1500 2844
150 1506 2998
152 1512 3151
153 1519 3304
156 1527 3453
158 1534 3602
161 1541 3752
161 1543 3910
169 1389 4091
171 1536 0
241 1562 187
231 1579 387
235 1574 584
222 1570 764
207 1568 947
188 1580 1118
165 1598 1285
158 1630 1450
155 1650 1635
153 1653 1814
150 1649 2000
149 1650 2176
148 1653 2347
148 1653 2516
146 1654 2684
147 1658 2843
150 1664 2998
152 1669 3151
152 1678 3303
154 1686 3452
157 1693 3601
160 1698 3752
161 1701 3910
169 1558 4090
171 1706 0
244 1741 185
216 1754 369
237 1749 583
226 1744 763
212 1738 950
198 1750 1119
180 1768 1285
159 1791 1444
156 1811 1621
151 1820 1813
149 1814 1999
149 1813 2175
148 1812 2348
148 1814 2517
146 1814 2684
147 1817 2843
150 1822 2997
150 1830 3150
151 1837 3303
154 1844 3451
158 1851 3601
160 1856 3752
158 1861 3910
169 1728 4090
