Toning/Toning-Warm Only (Yellow).3dl
#25pt 3DLUT created by 3D LUT Creator Pro (c) Oleg Sharonov
#Copyright Oleg Sharonov
#IMAGEPROFILE sRGB IEC61966-2.1 v.2.10
#INPUTGAMMA sRGB IEC61966-2.1 v.2.10
#OUTPUTGAMMA sRGB IEC61966-2.1 v.2.10
0 43 86 128 171 214 256 299 341 384 427 469 512 555 597 640 682 725 768 810 853 896 938 981 1023 
0 71 0
0 103 0
0 152 0
39 228 0
139 324 0
262 448 0
451 560 52
625 666 230
798 775 431
974 887 615
1153 1006 792
1329 1128 967
1500 1254 1143
1666 1385 1315
1820 1520 1480
1964 1659 1637
2096 1800 1786
2220 1940 1926
2334 2079 2059
2438 2216 2185
2536 2347 2304
2626 2473 2418
2710 2593 2526
2790 2707 2629
2864 2814 2728
6 139 6
3 168 3
10 220 0
84 289 0
186 379 0
322 489 10
499 597 97
665 700 276
836 806 470
1010 917 648
1184 1032 820
1357 1151 994
1525 1276 1166
1687 1405 1336
1839 1539 1499
1980 1676 1654
2111 1816 1801
2233 1955 1940
2345 2093 2072
2449 2228 2196
2545 2359 2314
2635 2484 2427
2718 2603 2534
2796 2716 2637
2871 2823 2735
32 230 32
48 252 26
90 293 19
155 356 0
245 448 0
391 547 58
563 646 161
722 744 328
886 846 520
1055 953 689
1224 1066 857
1392 1183 1027
1557 1305 1196
1715 1432 1363
1864 1564 1523
2002 1700 1675
2131 1838 1820
2250 1975 1957
2361 2111 2087
2463 2245 2211
2558 2374 2328
2646 2498 2439
2729 2616 2545
2806 2728 2647
2880 2833 2745
168 339 61
183 362 55
201 389 48
252 452 32
345 536 74
493 626 132
650 713 245
801 805 408
957 902 586
1118 1004 746
1281 1113 909
1444 1227 1074
1603 1346 1239
1755 1470 1401
1900 1600 1557
2034 1734 1706
2159 1869 1848
2275 2005 1983
2383 2139 2110
2484 2270 2232
2576 2397 2347
2663 2519 2457
2744 2636 2562
2821 2746 2663
2894 2850 2760
291 472 74
302 494 65
322 528 55
365 572 113
482 641 158
623 713 228
756 792 345
898 878 508
1045 970 666
1198 1068 818
1354 1173 976
1509 1283 1135
1661 1399 1294
1808 1521 1451
1946 1648 1602
2075 1778 1746
2196 1911 1884
2308 2043 2015
2413 2175 2140
2510 2303 2260
2601 2428 2372
2686 2548 2481
2765 2662 2584
2840 2770 2683
2912 2872 2779
468 631 61
490 647 78
527 671 116
576 703 180
649 748 255
758 811 343
879 882 474
1010 963 623
1149 1050 759
1294 1144 904
1440 1244 1055
1588 1351 1208
1731 1464 1360
1871 1582 1511
2001 1705 1655
2125 1833 1795
2241 1962 1928
2349 2091 2056
2450 2219 2177
2544 2345 2293
2632 2466 2404
2714 2583 2510
2792 2694 2612
2865 2800 2709
2934 2900 2804
712 775 113
726 787 152
751 804 192
788 831 252
827 866 367
905 917 496
1015 982 623
1136 1057 743
1265 1140 869
1400 1230 1005
1538 1326 1146
1676 1429 1291
1812 1538 1436
1942 1654 1579
2065 1774 1718
2183 1897 1851
2293 2023 1980
2396 2148 2103
2493 2272 2221
2583 2393 2334
2668 2511 2441
2747 2625 2544
2822 2733 2644
2893 2836 2740
2961 2933 2832
928 917 203
939 926 238
959 940 289
990 965 365
1029 995 493
1067 1033 663
1163 1092 765
1273 1161 874
1392 1239 992
1517 1325 1117
1645 1417 1250
1774 1517 1385
1900 1623 1521
2021 1735 1656
2136 1850 1788
2246 1970 1915
2351 2091 2038
2449 2212 2156
2541 2332 2270
2627 2449 2379
2708 2563 2484
2785 2673 2584
2857 2777 2682
2926 2877 2775
2992 2971 2866
1143 1060 320
1153 1068 365
1166 1081 433
1195 1102 522
1231 1129 640
1272 1166 770
1321 1210 912
1419 1273 1015
1527 1347 1124
1642 1429 1240
1760 1518 1362
1877 1614 1488
1993 1716 1614
2105 1825 1740
2213 1936 1863
2316 2051 1984
2414 2167 2102
2506 2284 2215
2593 2399 2325
2676 2511 2430
2753 2621 2531
2827 2726 2629
2896 2827 2723
2963 2923 2815
3027 3013 2903
1357 1209 489
1365 1216 541
1377 1227 609
1400 1246 686
1433 1271 777
1471 1304 891
1512 1343 1028
1572 1395 1162
1668 1464 1264
1771 1541 1371
1878 1627 1482
1985 1719 1598
2091 1818 1714
2194 1922 1830
2294 2029 1945
2390 2139 2060
2481 2250 2171
2568 2362 2279
2650 2472 2384
2728 2579 2485
2802 2684 2583
2872 2785 2677
2939 2882 2769
3003 2973 2858
3064 3060 2945
1568 1361 675
1576 1368 715
1586 1378 766
1604 1394 835
1633 1418 917
1668 1449 1019
1707 1486 1142
1744 1530 1288
1813 1588 1406
1904 1661 1506
2000 1743 1609
2096 1832 1712
2192 1926 1819
2286 2026 1927
2378 2128 2034
2466 2233 2140
2552 2339 2245
2633 2445 2348
2710 2550 2448
2784 2652 2544
2854 2752 2639
2920 2848 2730
2984 2940 2819
3046 3028 2905
3105 3111 2990
1773 1517 836
1780 1524 871
1789 1534 917
1802 1548 984
1827 1571 1057
1858 1599 1149
1892 1634 1261
1930 1676 1390
1960 1722 1547
2038 1790 1642
2121 1867 1736
2207 1950 1832
2294 2041 1928
2380 2135 2027
2464 2232 2127
2546 2332 2226
2624 2433 2324
2700 2533 2420
2772 2632 2515
2842 2729 2608
2908 2823 2698
2972 2914 2786
3033 3002 2872
3092 3085 2956
3148 3165 3038
1971 1681 993
1976 1687 1023
1984 1695 1066
1994 1708 1128
2014 1728 1197
2040 1755 1281
2071 1788 1382
2103 1828 1499
2136 1873 1632
2170 1926 1775
2244 1997 1863
2319 2075 1952
2398 2160 2041
2476 2250 2131
2552 2342 2223
2627 2435 2315
2699 2530 2407
2769 2624 2497
2837 2718 2587
2902 2809 2675
2965 2898 2761
3025 2984 2846
3084 3067 2929
3140 3146 3010
3194 3221 3089
2156 1847 1144
2161 1853 1173
2167 1861 1210
2175 1873 1265
2189 1891 1335
2211 1917 1410
2237 1948 1502
2265 1984 1609
2296 2027 1730
2324 2074 1866
2364 2133 1989
2432 2205 2072
2500 2284 2155
2570 2367 2238
2640 2454 2321
2709 2542 2407
2776 2630 2492
2840 2718 2578
2903 2806 2662
2964 2892 2746
3024 2976 2827
3081 3057 2908
3137 3134 2988
3190 3209 3067
3242 3280 3144
2327 2017 1289
2331 2023 1315
2336 2030 1349
2343 2041 1400
2352 2056 1470
2371 2081 1538
2394 2110 1622
2418 2143 1720
2445 2183 1831
2472 2227 1953
2495 2276 2090
2541 2338 2190
2603 2411 2268
2665 2488 2345
2728 2568 2423
2791 2650 2501
2852 2732 2581
2912 2815 2660
2971 2897 2740
3028 2977 2819
3084 3055 2898
3138 3131 2974
3191 3204 3050
3242 3274 3126
3291 3341 3201
2486 2189 1432
2490 2193 1455
2494 2200 1486
2499 2210 1534
2507 2225 1598
2521 2245 1667
2540 2272 1743
2562 2303 1833
2584 2339 1935
2609 2380 2046
2634 2426 2167
2651 2474 2304
2704 2539 2380
2760 2610 2453
2816 2683 2525
2873 2760 2597
2930 2836 2671
2985 2913 2745
3040 2988 2820
3093 3063 2895
3145 3136 2969
3197 3206 3043
3247 3275 3116
3295 3340 3188
3342 3402 3260
2634 2358 1574
2636 2363 1595
2640 2369 1624
2645 2378 1668
2651 2391 1727
2661 2409 1796
2677 2433 1866
2696 2462 1948
2716 2495 2041
2738 2533 2143
2760 2574 2254
2782 2619 2371
2804 2669 2490
2853 2733 2560
2903 2800 2628
2955 2869 2696
3007 2940 2763
3058 3010 2833
3109 3081 2903
3159 3150 2974
3208 3217 3044
3256 3283 3114
3303 3346 3185
3349 3407 3254
3395 3464 3323
2770 2525 1715
2772 2529 1735
2775 2535 1762
2779 2543 1802
2785 2554 1857
2792 2570 1925
2805 2592 1989
2821 2618 2064
2839 2648 2149
2858 2681 2244
2878 2719 2345
2899 2760 2452
2918 2804 2565
2944 2855 2665
2990 2916 2730
3037 2979 2794
3084 3043 2857
3132 3108 2921
3179 3173 2987
3225 3236 3053
3272 3299 3120
3317 3359 3188
3361 3418 3255
3405 3473 3322
3447 3524 3388
2897 2687 1858
2899 2691 1876
2901 2696 1900
2905 2703 1937
2909 2714 1987
2915 2727 2050
2925 2746 2114
2939 2769 2183
2955 2796 2261
2972 2827 2347
2990 2860 2441
3009 2897 2539
3028 2937 2642
3044 2979 2752
3076 3030 2831
3118 3087 2891
3161 3146 2952
3205 3205 3011
3249 3265 3073
3293 3323 3135
3336 3380 3198
3378 3436 3262
3420 3489 3327
3461 3539 3391
3501 3584 3455
3015 2843 2001
3017 2846 2017
3019 2851 2040
3022 2858 2074
3026 2867 2119
3030 2879 2177
3038 2895 2241
3050 2915 2304
3064 2940 2376
3079 2967 2454
3096 2997 2540
3113 3030 2631
3131 3066 2725
3148 3104 2823
3161 3144 2929
3198 3194 2989
3238 3247 3046
3278 3301 3103
3319 3355 3159
3360 3409 3218
3400 3461 3278
3440 3512 3339
3480 3559 3401
3518 3603 3462
3555 3643 3521
3126 2992 2146
3127 2995 2160
3129 2999 2181
3131 3005 2211
3135 3013 2253
3139 3024 2306
3145 3037 2369
3155 3055 2427
3167 3077 2492
3180 3101 2565
3195 3128 2643
3211 3157 2726
3228 3189 2813
3245 3224 2903
3261 3260 2995
3278 3299 3084
3314 3346 3140
3351 3395 3194
3389 3444 3247
3427 3493 3302
3465 3540 3359
3502 3584 3417
3539 3626 3476
3574 3665 3533
3609 3701 3588
3230 3134 2291
3231 3136 2305
3232 3140 2323
3235 3145 2351
3238 3152 2389
3242 3162 2437
3246 3174 2494
3254 3189 2552
3265 3208 2612
3277 3229 2678
3291 3253 2750
3305 3280 2826
3321 3308 2906
3337 3338 2988
3354 3371 3072
3369 3405 3159
3390 3443 3233
3424 3487 3285
3459 3531 3336
3494 3574 3388
3530 3616 3441
3564 3654 3497
3598 3691 3551
3631 3725 3603
3663 3757 3653
3328 3268 2438
3329 3270 2450
3331 3273 2467
3333 3278 2492
3336 3284 2526
3339 3292 2569
3343 3303 2621
3349 3316 2678
3359 3332 2733
3370 3351 2794
3382 3373 2859
3395 3396 2929
3410 3421 3002
3425 3448 3078
3441 3477 3156
3457 3507 3234
3471 3539 3316
3496 3576 3376
3528 3614 3425
3562 3652 3474
3594 3688 3525
3626 3722 3576
3657 3754 3625
3688 3783 3673
3717 3812 3718
3422 3394 2585
3423 3396 2596
3424 3399 2611
3426 3403 2633
3429 3408 2664
3432 3416 2703
3436 3425 2750
3441 3436 2804
3449 3450 2855
3459 3467 2910
3470 3486 2971
3482 3506 3035
3495 3529 3102
3509 3553 3172
3524 3578 3243
3540 3605 3315
3556 3632 3389
3569 3661 3466
3598 3693 3515
3628 3725 3562
3657 3756 3608
3687 3786 3654
3716 3814 3698
3743 3840 3740
3770 3865 3781
3511 3512 2732
3512 3514 2742
3513 3517 2756
3515 3520 2776
3517 3525 2803
3521 3532 2838
3524 3540 2880
3529 3550 2929
3535 3562 2978
3544 3577 3029
3554 3593 3084
3565 3611 3142
3577 3631 3204
3590 3652 3269
3605 3673 3335
3619 3696 3402
3635 3719 3470
3650 3742 3539
3666 3767 3603
3692 3795 3647
3720 3821 3688
3747 3847 3729
3773 3871 3768
3798 3894 3806
3822 3916 3841
0 78 0
0 142 0
0 195 0
78 267 0
177 363 0
316 475 0
493 584 78
657 687 264
827 793 458
1000 904 637
1175 1021 811
1348 1142 985
1518 1267 1158
1680 1397 1329
1833 1531 1493
1975 1669 1648
2106 1809 1795
2228 1949 1935
2341 2088 2067
2445 2223 2192
2542 2354 2310
2631 2479 2423
2715 2599 2530
2793 2712 2633
2868 2819 2732
10 192 6
6 214 3
55 257 0
126 324 0
217 419 0
369 518 26
541 620 123
700 720 302
866 824 496
1036 934 668
1208 1047 838
1377 1166 1010
1543 1289 1180
1702 1417 1348
1852 1550 1510
1992 1687 1663
2122 1826 1809
2242 1964 1947
2353 2101 2078
2456 2236 2202
2551 2366 2320
2640 2490 2431
2723 2609 2538
2801 2721 2640
2875 2827 2739
90 271 26
103 295 23
132 326 16
192 391 0
289 478 19
436 575 78
601 667 189
754 763 358
914 863 542
1080 969 708
1247 1080 874
1412 1196 1042
1574 1318 1209
1730 1444 1375
1876 1575 1533
2013 1710 1684
2140 1847 1828
2259 1984 1964
2368 2120 2093
2470 2252 2216
2563 2381 2332
2651 2504 2443
2733 2622 2550
2811 2733 2651
2884 2838 2749
209 379 52
225 401 45
240 428 39
287 486 48
389 564 90
537 649 152
684 733 273
831 822 436
984 917 606
1142 1019 764
1303 1127 926
1462 1240 1088
1619 1358 1251
1770 1482 1413
1911 1611 1567
2044 1744 1715
2169 1878 1856
2284 2013 1989
2391 2147 2116
2490 2277 2237
2582 2404 2352
2668 2525 2461
2749 2641 2566
2825 2751 2666
2897 2854 2763
328 516 58
345 537 48
372 563 58
412 602 126
527 663 174
658 732 250
787 810 372
925 894 533
1070 984 685
1221 1082 836
1374 1186 991
1527 1296 1149
1677 1411 1306
1821 1532 1462
1958 1658 1611
2085 1788 1754
2205 1920 1892
2317 2052 2022
2420 2183 2146
2517 2311 2265
2607 2434 2377
2691 2553 2485
2770 2667 2588
2844 2775 2687
2915 2876 2783
527 662 48
553 678 71
582 696 119
628 726 186
686 767 273
788 827 369
906 899 503
1035 977 643
1171 1064 778
1314 1157 921
1459 1256 1070
1604 1362 1220
1746 1475 1372
1883 1593 1522
2013 1716 1665
2135 1842 1803
2249 1971 1935
2357 2099 2062
2457 2227 2183
2550 2352 2299
2637 2472 2409
2719 2588 2514
2796 2699 2615
2868 2805 2713
2938 2904 2807
753 798 110
771 811 152
788 826 201
825 852 264
865 885 381
933 933 522
1040 997 646
1159 1071 762
1286 1153 887
1420 1242 1020
1556 1338 1160
1691 1440 1304
1825 1549 1448
1954 1664 1589
2076 1783 1727
2192 1906 1859
2301 2031 1987
2403 2156 2109
2499 2279 2226
2589 2400 2339
2673 2517 2446
2752 2630 2549
2826 2738 2648
2897 2840 2744
2964 2937 2836
963 937 203
978 947 243
992 960 299
1022 982 381
1061 1013 510
1097 1049 676
1186 1105 784
1293 1174 893
1412 1251 1008
1535 1336 1133
1661 1429 1263
1788 1528 1396
1912 1633 1532
2032 1744 1665
2146 1860 1796
2255 1979 1922
2358 2099 2045
2455 2220 2162
2547 2339 2275
2633 2456 2384
2713 2569 2488
2789 2678 2589
2861 2782 2685
2930 2881 2778
2995 2975 2869
1174 1079 324
1185 1087 372
1198 1099 440
1222 1119 538
1258 1145 654
1299 1180 780
1342 1223 928
1438 1286 1031
1544 1358 1139
1658 1439 1254
1774 1528 1375
1890 1624 1499
2005 1726 1624
2115 1834 1749
2222 1945 1871
2324 2059 1991
2421 2175 2108
2512 2290 2221
2599 2405 2330
2681 2518 2434
2757 2626 2535
2831 2731 2633
2900 2831 2727
2966 2927 2818
3029 3017 2906
1385 1225 496
1393 1234 547
1405 1243 613
1424 1260 698
1456 1286 789
1495 1318 902
1535 1357 1036
1590 1407 1175
1684 1474 1277
1785 1551 1383
1891 1637 1494
1997 1729 1608
2101 1827 1723
2203 1930 1838
2302 2037 1953
2397 2147 2066
2488 2257 2177
2573 2368 2285
2655 2478 2389
2733 2585 2489
2806 2689 2587
2876 2790 2681
2942 2886 2773
3006 2977 2861
3067 3064 2948
1592 1376 681
1600 1383 719
1610 1393 770
1624 1408 845
1653 1431 927
1687 1462 1028
1726 1499 1150
1763 1541 1294
1828 1599 1418
1917 1672 1517
2011 1752 1620
2106 1841 1722
2201 1935 1828
2295 2034 1934
2385 2136 2041
2473 2240 2147
2558 2346 2250
2638 2451 2353
2715 2556 2452
2788 2658 2549
2858 2757 2642
2924 2852 2734
2988 2944 2822
3049 3031 2908
3108 3114 2992
