Toning/Toning-SplitWarmsAndColds.3dl
#25pt 3DLUT created by 3D LUT Creator Pro (c) Oleg Sharonov
#Copyright Oleg Sharonov
#IMAGEPROFILE 
#INPUTGAMMA 
#OUTPUTGAMMA 
0 128 256 384 512 640 768 896 1023
0 0 19
0 3 525
0 6 1030
13 13 1496
61 29 1949
139 36 2413
212 58 2887
287 81 3365
349 103 3855
126 446 363
39 439 657
10 494 1053
16 512 1488
48 525 1938
90 547 2397
149 566 2870
233 577 3350
295 588 3845
316 909 633
142 897 894
94 909 1225
55 984 1515
78 997 1950
103 1018 2401
149 1036 2864
195 1059 3334
245 1073 3831
516 1358 925
416 1382 1044
240 1323 1492
235 1361 1750
165 1451 2016
139 1500 2409
165 1522 2859
189 1544 3329
209 1565 3821
708 1809 1209
625 1838 1277
455 1836 1582
389 1768 2014
372 1821 2281
299 1917 2539
198 2012 2857
195 2039 3324
183 2066 3810
903 2263 1477
818 2287 1536
710 2318 1694
523 2251 2165
525 2229 2534
503 2287 2811
420 2391 3075
252 2520 3352
152 2575 3795
1084 2713 1718
995 2724 1809
909 2769 1895
731 2767 2223
635 2706 2691
644 2706 3059
615 2767 3365
517 2878 3632
326 3013 3909
1260 3165 1946
1169 3169 2060
1093 3215 2129
982 3257 2313
784 3200 2823
749 3183 3222
745 3198 3594
716 3254 3932
1079 3360 4095
1430 3625 2166
1341 3624 2296
1264 3658 2393
1178 3715 2502
995 3725 2857
878 3676 3360
849 3679 3753
1008 3699 4095
2018 3730 4095
512 0 13
399 16 642
273 23 1153
293 16 1592
328 26 2024
372 42 2470
416 65 2932
464 87 3403
509 113 3888
584 448 282
451 527 627
386 439 1207
377 406 1692
381 362 2147
403 332 2595
436 318 3051
475 316 3512
516 326 3985
691 882 696
590 936 831
377 978 1219
324 997 1653
337 961 2123
370 939 2588
416 923 3053
464 914 3521
508 917 3998
819 1330 981
757 1364 1072
627 1403 1372
416 1438 1761
312 1500 2080
339 1484 2554
379 1474 3024
428 1467 3498
468 1473 3981
1003 1775 1236
929 1796 1348
863 1859 1492
627 1843 1980
485 1891 2284
367 1976 2566
349 2004 2984
386 2005 3464
414 2018 3947
1192 2225 1486
1109 2238 1614
1051 2300 1712
879 2331 2039
690 2295 2508
573 2353 2805
460 2446 3086
345 2538 3419
360 2553 3906
1381 2686 1730
1294 2691 1870
1227 2738 1966
1132 2797 2134
870 2764 2635
774 2764 3034
675 2828 3341
552 2931 3622
360 3060 3903
1554 3136 1950
1465 3137 2100
1390 3172 2228
1319 3240 2330
1130 3265 2676
938 3233 3174
865 3248 3563
780 3312 3894
1022 3415 4095
1722 3594 2162
1631 3591 2320
1554 3617 2466
1491 3680 2562
1387 3744 2752
1123 3716 3287
1017 3720 3707
953 3748 4095
2027 3759 4095
995 10 19
1036 0 488
946 23 1128
753 39 1710
734 55 2129
752 68 2558
779 87 3003
811 110 3463
844 132 3940
1141 349 52
1126 427 446
924 543 1145
810 506 1725
787 464 2199
773 423 2656
771 396 3111
780 381 3574
801 379 4044
1197 887 393
1073 961 777
978 1064 1126
921 993 1703
909 967 2200
899 943 2674
895 914 3139
904 897 3604
922 891 4077
1279 1336 861
1162 1366 1159
1099 1449 1326
894 1515 1707
843 1548 2136
832 1526 2615
832 1509 3085
847 1496 3561
868 1494 4041
1422 1766 1183
1270 1796 1418
1238 1857 1551
1128 1916 1853
911 1982 2248
800 2056 2560
806 2042 3040
818 2037 3519
836 2043 3999
1549 2215 1467
1439 2229 1656
1388 2275 1808
1341 2358 1960
1105 2366 2462
939 2436 2765
815 2531 3052
787 2570 3470
803 2577 3955
1696 2674 1721
1614 2675 1893
1551 2710 2054
1509 2788 2172
1351 2838 2506
1141 2826 2996
996 2903 3296
866 3009 3578
766 3107 3909
1874 3128 1944
1791 3128 2123
1721 3156 2294
1663 3218 2426
1593 3294 2593
1320 3285 3112
1196 3300 3527
1070 3379 3841
931 3498 4095
2041 3581 2150
1953 3578 2333
1878 3599 2510
1818 3648 2669
1760 3732 2783
1580 3774 3136
1360 3764 3654
1265 3794 4064
2125 3803 4095
1452 42 48
1506 19 384
1541 6 940
1453 36 1566
1293 81 2161
1205 113 2649
1212 129 3088
1237 149 3535
1260 168 4006
1515 436 52
1655 295 245
1601 425 991
1450 552 1620
1289 547 2225
1252 503 2699
1237 470 3160
1230 445 3625
1238 436 4095
1764 723 94
1713 872 440
1615 987 972
1433 1071 1636
1341 1047 2213
1328 1020 2701
1314 986 3170
1307 960 3643
1317 949 4095
1757 1355 525
1666 1394 890
1574 1482 1280
1500 1595 1624
1450 1531 2184
1439 1512 2680
1428 1493 3164
1423 1473 3636
1426 1464 4095
1818 1817 961
1742 1820 1323
1657 1872 1639
1612 1965 1823
1408 2051 2185
1357 2090 2610
1353 2071 3094
1352 2060 3572
1361 2058 4052
2000 2222 1313
1871 2238 1619
1753 2289 1879
1730 2362 2045
1633 2433 2335
1418 2517 2723
1313 2602 3036
1318 2598 3518
1327 2598 4003
2137 2666 1612
1990 2682 1883
1904 2715 2101
1868 2772 2283
1831 2866 2440
1611 2890 2947
1442 2977 3250
1319 3086 3532
1293 3129 3954
2270 3125 1880
2130 3134 2124
2066 3155 2322
2014 3204 2511
1985 3289 2649
1841 3352 2979
1637 3355 3483
1486 3446 3790
1359 3570 4065
2396 3582 2117
2296 3584 2333
2227 3602 2536
2170 3642 2731
2122 3711 2894
2064 3801 3059
1802 3811 3590
1681 3841 4023
2241 3869 4095
1911 94 71
1961 68 374
1990 52 935
2017 45 1409
1951 81 2008
1822 139 2607
1708 183 3153
1698 203 3614
1716 212 4081
1946 494 58
2088 276 186
2141 302 779
2079 457 1466
1963 546 2078
1823 563 2672
1735 538 3200
1723 512 3669
1726 497 4095
2126 779 81
2153 844 255
2176 909 831
2092 988 1521
1948 1083 2114
1817 1083 2711
1791 1044 3195
1782 1017 3672
1786 998 4095
2334 1181 267
2282 1286 563
2189 1439 977
2095 1540 1487
1940 1604 2127
1866 1583 2691
1858 1560 3184
1847 1534 3664
1848 1520 4095
2295 1826 650
2215 1865 1021
2142 1914 1402
2074 2007 1789
2017 2125 2121
1972 2062 2661
1962 2043 3159
1960 2034 3645
1956 2022 4095
2328 2314 1093
2284 2297 1429
2224 2320 1796
2156 2386 2126
2124 2482 2324
1917 2580 2666
1872 2626 3080
1873 2616 3567
1877 2610 4050
2550 2697 1422
2444 2702 1753
2339 2734 2074
2248 2795 2351
2230 2870 2542
2144 2950 2822
1930 3051 3203
1828 3148 3508
1836 3148 3996
2702 3133 1726
2576 3140 2027
2452 3172 2317
2385 3216 2555
2354 3278 2760
2328 3376 2921
2121 3411 3431
1953 3516 3733
1832 3641 4011
2829 3584 1997
2703 3595 2280
2587 3619 2541
2533 3651 2762
2490 3706 2971
2462 3795 3130
2340 3870 3456
2146 3889 3977
2455 3939 4095
2376 180 78
2422 136 384
2467 103 871
2499 87 1377
2499 97 1893
2447 139 2467
2346 198 3066
2251 238 3632
2202 260 4095
2400 542 61
2527 314 168
2582 332 744
2591 345 1398
2551 470 1946
2461 541 2538
2349 572 3128
2249 573 3693
2233 557 4095
2502 889 71
2584 855 222
2626 892 781
2651 914 1364
2570 1020 1999
2454 1080 2586
2344 1088 3161
2279 1070 3696
2281 1049 4095
2738 1174 142
2692 1296 445
2647 1441 806
2651 1495 1376
2566 1543 2036
2442 1612 2607
2341 1613 3189
2326 1586 3680
2328 1574 4095
2852 1683 452
2815 1738 785
2756 1848 1109
2659 1989 1498
2571 2083 1995
2450 2129 2615
2389 2110 3167
2388 2095 3663
2389 2090 4095
2806 2305 796
2750 2340 1148
2681 2383 1530
2625 2436 1912
2578 2527 2292
2528 2645 2614
2493 2592 3135
2485 2575 3630
2489 2571 4095
2836 2809 1227
2798 2794 1561
2763 2795 1909
2713 2830 2280
2658 2898 2612
2633 2993 2823
2427 3109 3142
2383 3159 3550
2392 3157 4039
3066 3182 1552
2994 3181 1870
2902 3201 2211
2821 3240 2529
2743 3304 2819
2729 3379 3034
2651 3467 3309
2440 3584 3677
2340 3694 3982
3235 3607 1832
3134 3616 2154
3025 3635 2466
2927 3673 2757
2870 3723 3012
2844 3789 3237
2827 3892 3409
2636 3937 3920
2660 4024 4095
2852 262 71
2895 209 376
2939 177 854
2950 165 1434
2993 142 1857
2983 165 2394
2947 201 2956
2873 240 3556
2795 273 4095
2864 604 68
2980 365 161
3032 377 726
3064 383 1307
3066 417 1881
3027 494 2438
2961 551 3020
2877 588 3607
2796 601 4095
2911 994 84
3031 868 214
3072 902 757
3100 927 1326
3095 933 1964
3042 1026 2483
2955 1079 3064
2868 1097 3639
2798 1097 4095
3123 1238 155
3104 1339 349
3086 1454 765
3113 1480 1331
3128 1498 1913
3046 1573 2520
2949 1618 3090
2859 1622 3657
2819 1639 4095
3294 1651 377
3236 1751 653
3179 1875 982
3120 2016 1344
3118 2060 1907
3039 2090 2548
2941 2141 3098
2863 2142 3667
2860 2152 4092
3369 2189 636
3327 2232 964
3289 2293 1330
3227 2405 1650
3125 2537 2019
3047 2625 2502
2952 2656 3105
2907 2637 3640
2922 2651 4073
3304 2805 979
3261 2824 1300
3212 2862 1667
3152 2904 2046
3108 2957 2429
3074 3043 2796
3028 3156 3104
3007 3115 3608
3009 3107 4084
3337 3300 1358
3302 3293 1700
3276 3288 2048
3243 3301 2398
3198 3341 2762
3154 3408 3092
3136 3501 3320
2938 3636 3621
2893 3694 4020
3569 3673 1688
3511 3671 2005
3448 3681 2330
3373 3707 2664
3298 3752 2995
3242 3815 3290
3230 3892 3525
3164 3985 3798
3055 4090 4095
3333 336 90
3376 278 345
3416 248 849
3451 220 1369
3475 203 1881
3494 198 2370
3483 212 2922
3451 240 3487
3394 271 4078
3338 662 90
3444 425 174
3494 430 719
3529 436 1293
3537 423 1904
3547 471 2394
3513 532 2960
3466 571 3528
3397 606 4095
3351 1085 100
3489 896 220
3530 923 744
3559 948 1312
3577 962 1887
3566 992 2449
3521 1051 2996
3461 1084 3562
3389 1108 4095
3518 1339 158
3526 1403 276
3543 1465 755
3570 1493 1317
3588 1513 1883
3574 1519 2510
3522 1588 3020
3454 1618 3579
3383 1633 4095
3718 1674 306
3659 1791 553
3602 1927 882
3568 2037 1306
3585 2061 1871
3589 2076 2450
3520 2124 3037
3442 2150 3591
3375 2176 4090
3829 2163 554
3788 2216 881
3723 2319 1197
3656 2444 1526
3585 2584 1875
3572 2619 2430
3508 2634 3056
3432 2668 3590
3377 2708 4062
3885 2697 814
3838 2731 1139
3796 2779 1496
3758 2838 1871
3689 2952 2190
3592 3076 2537
3520 3159 3005
3454 3176 3585
3429 3174 4066
3799 3310 1150
3755 3322 1473
3715 3347 1814
3673 3385 2183
3625 3425 2561
3593 3475 2941
3570 3551 3290
3520 3659 3590
3519 3638 4073
3839 3799 1508
3803 3790 1840
3783 3785 2190
3756 3791 2537
3725 3813 2887
3688 3855 3242
3650 3918 3572
3634 4004 3817
3604 4094 4067
3825 412 116
3868 337 336
3911 304 814
3948 271 1354
3955 260 1949
3992 233 2391
4002 230 2909
3986 245 3475
3961 257 4047
3829 707 116
3923 484 201
3970 486 728
4005 492 1296
4026 496 1868
4043 485 2400
4035 525 2935
4004 572 3503
3973 601 4066
3833 1136 119
3960 937 230
3998 965 749
4029 986 1308
4047 1003 1875
4049 990 2478
4046 1036 2970
4009 1078 3525
3971 1105 4082
3934 1463 155
3976 1466 248
4010 1496 753
4036 1521 1310
4054 1540 1870
4062 1550 2441
4047 1570 2998
4006 1609 3537
3960 1633 4093
4095 1729 235
4086 1859 467
4030 2003 791
4034 2058 1297
4049 2079 1858
4057 2095 2424
4039 2095 3040
3998 2140 3543
3945 2164 4090
4095 2234 798
4095 2288 927
4095 2371 1082
4085 2506 1417
4040 2612 1837
4047 2630 2402
4043 2642 2976
3988 2667 3547
3934 2688 4072
4095 2769 1208
4095 2779 1362
4095 2818 1619
4095 2897 1819
4095 3006 2060
4047 3143 2400
4027 3171 2944
3975 3175 3560
3932 3197 4062
4095 3285 1729
4095 3288 1838
4095 3313 2016
4095 3352 2259
4095 3405 2555
4095 3500 2728
4059 3617 3052
3993 3690 3506
3948 3692 4060
4095 3817 2197
4095 3827 2313
4095 3843 2508
4095 3873 2489
4095 3910 2702
4095 3946 3078
4076 3991 3453
4059 4054 3783
4077 4095 4095
