Toning/Toning-Cinematic.3dl
#25pt 3DLUT created by 3D LUT Creator Pro (c) Oleg Sharonov
#Copyright Oleg Sharonov
#IMAGEPROFILE sRGB IEC61966-2.1 v.2.10
#INPUTGAMMA sRGB IEC61966-2.1 v.2.10
#OUTPUTGAMMA sRGB IEC61966-2.1 v.2.10
0 128 256 384 512 640 768 896 1023
259 259 259
202 202 340
0 0 760
0 0 1295
0 0 1924
0 0 2550
0 0 3123
0 0 3630
0 0 4095
231 316 231
189 349 349
0 347 769
0 383 1314
0 430 1938
0 467 2559
0 494 3127
0 510 3631
0 512 4095
0 672 0
0 728 343
0 791 792
0 846 1359
0 914 1980
0 970 2588
0 1012 3141
0 1031 3635
0 1024 4095
0 1151 0
0 1231 359
0 1329 850
0 1414 1414
0 1463 2024
0 1516 2616
0 1550 3154
0 1560 3636
0 1536 4095
0 1800 0
0 1861 403
0 1957 924
0 2025 1492
0 2075 2075
0 2088 2646
0 2096 3164
0 2088 3635
0 2048 4095
0 2535 0
0 2563 452
0 2628 986
0 2663 1576
0 2679 2141
0 2676 2676
0 2647 3174
0 2612 3632
0 2559 4095
0 3279 0
0 3271 504
0 3292 1060
0 3285 1667
0 3261 2211
0 3226 2718
0 3183 3183
80 3125 3629
0 3071 4095
0 3960 0
0 3923 563
0 3895 1156
0 3845 1756
0 3786 2292
0 3729 2765
190 3673 3191
173 3622 3622
0 3583 4095
1404 4095 1404
1243 4095 1395
1096 4095 1637
954 4095 2006
811 4095 2411
661 4095 2790
494 4095 3178
272 4095 3612
0 4095 4095
316 231 231
349 189 349
330 0 768
349 0 1317
352 0 1947
320 0 2569
384 0 3134
472 0 3634
512 0 4095
322 326 216
293 330 352
209 302 787
192 326 1330
256 376 1948
320 421 2566
384 461 3131
448 493 3633
512 512 4095
280 684 0
202 759 352
128 763 804
192 816 1368
256 883 1987
320 947 2591
384 994 3143
448 1021 3636
512 1024 4095
254 1187 0
64 1280 327
128 1359 902
192 1379 1420
256 1433 2027
320 1493 2618
384 1534 3156
448 1551 3637
512 1536 4095
188 1847 0
64 1906 353
128 1985 950
192 2048 1547
256 2042 2078
320 2059 2646
384 2080 3165
448 2080 3635
512 2048 4095
43 2589 0
64 2604 387
128 2654 1006
192 2680 1626
256 2693 2187
320 2652 2678
384 2629 3174
448 2605 3633
512 2559 4095
0 3329 0
64 3309 425
128 3316 1074
192 3298 1696
256 3271 2253
320 3233 2748
384 3170 3184
521 3120 3629
512 3071 4095
280 3991 0
64 3956 474
128 3914 1168
192 3855 1782
256 3790 2331
320 3733 2791
627 3670 3201
621 3616 3622
512 3583 4095
1482 4095 1417
1361 4095 1416
1263 4095 1664
1173 4095 2031
1084 4095 2429
1000 4095 2806
892 4095 3188
727 4095 3617
512 4095 4095
672 0 0
730 0 373
791 0 792
811 0 1354
878 0 1975
935 0 2586
981 0 3142
1016 0 3635
1024 0 4095
685 311 0
767 333 349
681 234 814
708 192 1377
773 256 1993
838 320 2599
907 384 3151
977 448 3640
1024 512 4095
699 713 0
673 787 316
539 731 824
384 748 1434
512 803 2034
640 877 2621
768 941 3161
896 992 3644
1024 1024 4095
727 1251 0
624 1369 64
461 1453 934
384 1360 1454
512 1404 2059
640 1461 2642
768 1508 3171
896 1537 3644
1024 1536 4095
767 1909 0
591 2007 64
256 2098 925
384 2107 1616
512 2021 2098
640 2038 2662
768 2064 3177
896 2071 3641
1024 2048 4095
809 2634 0
564 2704 64
256 2758 945
384 2743 1653
512 2728 2244
640 2635 2689
768 2614 3182
896 2599 3637
1024 2559 4095
862 3356 0
592 3396 64
256 3409 986
384 3356 1705
512 3301 2296
640 3250 2785
768 3160 3190
996 3113 3629
1024 3071 4095
952 3998 0
681 4019 64
256 3967 1061
384 3903 1779
512 3817 2351
925 3730 2813
1103 3666 3209
1083 3610 3622
1024 3583 4095
1703 4095 1447
1609 4095 1454
1535 4095 1700
1472 4095 2060
1415 4095 2448
1370 4095 2821
1306 4095 3197
1188 4095 3622
1024 4095 4095
1151 0 0
1235 0 377
1336 0 887
1413 0 1414
1416 0 2017
1473 0 2611
1518 0 3152
1542 0 3636
1536 0 4095
1192 309 0
1333 64 173
1438 128 1066
1295 192 1421
1324 256 2026
1400 320 2619
1465 384 3159
1514 448 3640
1536 512 4095
1261 792 0
1383 849 64
1469 890 936
1164 711 1473
1163 512 2111
1250 640 2678
1348 768 3195
1460 945 3647
1536 1024 4095
1311 1337 0
1260 1403 64
1212 1477 933
977 1325 1483
935 1347 2131
960 1390 2700
1152 1450 3205
1415 1514 3647
1536 1536 4095
1374 1999 0
1277 2061 64
1140 2175 871
1064 2170 1667
768 2008 2144
960 2015 2702
1152 2039 3203
1412 2058 3647
1536 2048 4095
1446 2707 0
1306 2750 64
1016 2882 768
970 2835 1664
949 2779 2308
960 2623 2714
1152 2601 3199
1442 2591 3638
1536 2559 4095
1528 3399 0
1348 3424 64
967 3525 765
995 3436 1690
1081 3344 2322
1299 3256 2815
1320 3147 3194
1488 3105 3629
1536 3071 4095
1636 4004 0
1418 4021 64
1254 3967 1081
1269 3903 1802
1357 3803 2373
1476 3718 2829
1590 3660 3216
1557 3603 3621
1536 3583 4095
2096 4095 1500
1960 4095 1504
1890 4095 1744
1839 4095 2092
1799 4095 2466
1775 4095 2827
1734 4095 3207
1654 4095 3626
1536 4095 4095
1800 0 0
1864 0 418
1971 0 1004
2032 0 1530
2074 0 2075
2050 0 2641
2059 0 3162
2068 0 3635
2048 0 4095
1853 295 0
1952 64 163
2056 128 1026
2104 192 1707
1966 256 2075
1964 320 2644
2011 384 3167
2044 448 3639
2048 512 4095
1923 863 0
2008 845 64
2167 796 860
2177 1033 1912
1866 512 2125
1876 640 2687
1945 768 3197
2008 924 3647
2048 1024 4095
2015 1479 0
2104 1579 64
2191 1590 842
2178 1611 1673
1726 1345 2144
1760 1355 2724
1857 1419 3219
1980 1513 3647
2048 1536 4095
2058 2097 0
1961 2120 64
1903 2196 799
1820 2179 1674
1559 1966 2149
1646 1983 2725
1787 2013 3215
1957 2051 3645
2048 2048 4095
2127 2787 0
2000 2801 64
1874 2890 711
1789 2834 1684
1767 2775 2334
1653 2596 2723
1792 2584 3204
1968 2583 3636
2048 2559 4095
2207 3443 0
2053 3447 64
1874 3508 779
1799 3419 1727
1818 3328 2348
1900 3244 2832
1867 3128 3190
1990 3097 3627
2048 3071 4095
2313 3997 0
2132 4003 64
1978 3967 1116
1919 3873 1853
1953 3777 2396
2013 3704 2833
2078 3653 3221
2039 3596 3620
2048 3583 4095
2569 4095 1580
2425 4095 1560
2313 4095 1787
2247 4095 2126
2216 4095 2483
2201 4095 2833
2171 4095 3216
2123 4095 3631
2048 4095 4095
2535 0 0
2565 0 466
2637 0 1050
2673 0 1652
2683 0 2174
2675 0 2676
2623 0 3172
2592 0 3633
2559 0 4095
2593 282 0
2646 64 152
2713 128 1039
2752 192 1812
2728 256 2314
2596 320 2676
2569 384 3176
2570 448 3636
2559 512 4095
2647 938 0
2696 879 64
2879 608 717
2835 892 1810
2776 1010 2468
2523 640 2702
2511 768 3197
2545 959 3645
2559 1024 4095
2724 1585 0
2776 1606 64
2888 1498 354
2834 1606 1670
2701 1752 2513
2428 1361 2724
2449 1423 3212
2521 1520 3642
2559 1536 4095
2803 2262 0
2844 2353 64
2888 2391 905
2828 2308 1691
2765 2279 2335
2324 1988 2723
2396 2014 3207
2499 2053 3638
2559 2048 4095
2818 2865 0
2688 2850 64
2608 2888 649
2498 2828 1680
2430 2768 2335
2214 2564 2721
2347 2568 3199
2481 2576 3632
2559 2559 4095
2873 3479 0
2727 3464 64
2601 3478 834
2499 3392 1740
2445 3305 2361
2462 3227 2836
2380 3108 3185
2493 3090 3623
2559 3071 4095
2953 3978 0
2792 3974 64
2652 3910 1210
2556 3827 1882
2506 3748 2415
2527 3689 2832
2556 3647 3227
2524 3588 3618
2559 3583 4095
3030 4095 1702
2894 4095 1644
2781 4095 1835
2694 4095 2151
2642 4095 2499
2632 4095 2842
2614 4095 3223
2596 4095 3636
2559 4095 4095
3279 0 0
3273 0 516
3298 0 1114
3295 0 1782
3266 0 2273
3228 0 2740
3182 0 3183
3118 57 3630
3071 0 4095
3331 313 0
3347 64 156
3364 128 1082
3352 192 1821
3307 256 2399
3249 320 2830
3139 384 3184
3098 491 3633
3071 512 4095
3364 1024 0
3389 952 64
3528 523 668
3432 878 1787
3321 1156 2518
3244 1171 2897
3098 768 3198
3074 1012 3633
3071 1024 4095
3411 1698 0
3427 1663 64
3507 1509 256
3419 1641 1703
3303 1803 2486
3193 1778 2908
3041 1467 3197
3048 1536 3633
3071 1536 4095
3453 2375 0
3465 2395 64
3485 2352 834
3403 2247 1591
3296 2303 2355
3122 2295 2897
2983 2032 3193
3026 2059 3629
3071 2048 4095
3488 3018 0
3486 3073 64
3432 3059 1232
3340 2980 1941
3267 2859 2384
3205 2792 2824
2926 2572 3186
3007 2576 3624
3071 2559 4095
3468 3514 0
3338 3479 64
3220 3438 1011
3105 3356 1787
3031 3276 2369
3006 3210 2826
2878 3089 3178
2994 3082 3620
3071 3071 4095
3477 3952 562
3339 3909 796
3211 3850 1376
3108 3782 1938
3041 3721 2422
3019 3678 2830
3026 3643 3231
3009 3580 3616
3071 3583 4095
3400 4095 1914
3293 4095 1798
3200 4095 1924
3125 4095 2192
3080 4095 2506
3059 4095 2853
3063 4095 3230
3072 4095 3640
3071 4095 4095
3960 0 0
3924 0 575
3897 0 1204
3846 0 1851
3786 0 2380
3729 0 2804
3671 212 3200
3621 172 3622
3583 0 4095
3991 452 0
3991 64 192
3954 128 1158
3892 192 1871
3800 566 2488
3721 693 2866
3664 733 3229
3605 612 3623
3583 512 4095
3999 1143 0
4005 1058 64
3967 975 1035
3900 1109 1864
3776 1286 2503
3700 1347 2905
3653 1282 3255
3587 1083 3624
3583 1024 4095
4003 1835 0
3998 1756 64
3967 1673 904
3872 1772 1826
3753 1867 2480
3680 1932 2941
3626 1778 3263
3568 1576 3623
3583 1536 4095
3992 2508 0
3988 2474 64
3930 2399 1099
3849 2303 1702
3738 2362 2405
3674 2386 2911
3589 2246 3260
3546 2080 3620
3583 2048 4095
3975 3120 0
3932 3105 675
3851 3041 1432
3778 2943 1956
3726 2817 2330
3674 2797 2826
3553 2715 3258
3525 2584 3617
3583 2559 4095
3937 3576 838
3873 3557 1241
3803 3505 1757
3742 3439 2190
3701 3366 2525
3669 3267 2835
3637 3208 3229
3507 3080 3615
3583 3071 4095
3851 3898 1324
3743 3861 1302
3642 3811 1612
3559 3756 2034
3509 3708 2442
3494 3672 2829
3505 3640 3229
3491 3573 3614
3583 3583 4095
3745 4095 2136
3660 4095 1974
3590 4095 2034
3540 4095 2240
3515 4095 2519
3509 4095 2857
3522 4095 3234
3552 4095 3642
3583 4095 4095
4095 1404 1404
4095 1244 1399
4095 1101 1663
4095 969 2065
4095 842 2494
4095 688 2826
4095 506 3193
4095 275 3616
4095 0 4095
4095 1517 1421
4095 1417 1424
4095 1337 1697
4095 1264 2101
4095 1194 2523
4095 1100 2870
4095 940 3223
4095 742 3630
4095 512 4095
4095 1810 1457
4095 1745 1453
4095 1697 1718
4095 1654 2118
4095 1612 2535
4095 1563 2912
4095 1401 3252
4095 1222 3644
4095 1024 4095
4095 2247 1521
4095 2154 1485
4095 2109 1718
4095 2080 2110
4095 2047 2525
4095 1995 2913
4095 1871 3281
4089 1698 3647
4095 1536 4095
4095 2730 1615
4095 2661 1591
4095 2565 1758
4095 2492 2070
4095 2463 2490
4095 2419 2897
4095 2351 3308
4076 2173 3647
4095 2048 4095
4095 3165 1764
4095 3115 1744
4095 3038 1914
4095 2941 2155
4095 2839 2424
4095 2827 2851
4095 2794 3288
4062 2652 3647
4095 2559 4095
4095 3510 1991
4095 3493 1945
4095 3454 2079
4095 3401 2286
4095 3330 2532
4095 3236 2804
4095 3215 3234
4048 3134 3647
4095 3071 4095
4095 3845 2199
4095 3863 2116
4095 3861 2202
4095 3841 2394
4095 3803 2646
4095 3748 2930
4095 3677 3239
4092 3635 3647
4095 3583 4095
4072 4095 2346
4019 4095 2130
3976 4095 2131
3952 4095 2283
3946 4095 2540
3958 4095 2864
3988 4095 3234
4036 4095 3642
4095 4095 4095
