Toning/Toning-Warm&Soft&Colorful.3dl
#25pt 3DLUT created by 3D LUT Creator Pro (c) Oleg Sharonov
#Copyright Oleg Sharonov
#IMAGEPROFILE sRGB IEC61966-2.1 v.2.10
#INPUTGAMMA sRGB IEC61966-2.1 v.2.10
#OUTPUTGAMMA sRGB IEC61966-2.1 v.2.10
0 128 256 384 512 640 768 896 1023
0 0 324
0 0 630
1 1 935
2 2 1241
3 3 1547
5 5 1853
6 6 2160
8 8 2466
9 9 2772
0 509 322
0 511 628
1 512 934
2 514 1240
3 515 1546
5 517 1852
6 518 2158
8 519 2464
9 521 2771
0 1021 321
0 1023 627
1 1024 933
2 1025 1239
3 1027 1545
5 1028 1851
6 1030 2157
8 1031 2463
9 1033 2769
0 1533 319
0 1534 625
1 1536 932
2 1538 1237
3 1539 1544
5 1541 1850
6 1542 2156
8 1543 2462
9 1545 2768
0 2045 318
0 2047 624
1 2048 930
2 2049 1236
3 2051 1542
5 2052 1848
6 2054 2154
8 2055 2460
9 2057 2766
0 2557 316
0 2559 622
1 2560 929
2 2561 1235
4 2563 1541
5 2564 1847
6 2566 2153
8 2567 2459
9 2568 2765
0 3069 315
0 3070 621
1 3072 927
2 3073 1233
4 3075 1539
5 3076 1845
6 3078 2151
8 3079 2457
9 3080 2763
0 3581 314
0 3582 620
1 3584 926
2 3585 1232
4 3587 1538
5 3588 1844
6 3589 2150
8 3591 2456
12 3592 2762
1 4093 314
2 4094 619
1 4095 924
2 4095 1230
4 4095 1536
5 4095 1842
6 4095 2148
11 4095 2454
12 4095 2761
691 36 314
676 24 582
679 66 947
708 118 1297
736 166 1642
763 214 1985
790 259 2328
817 303 2668
844 346 2935
695 514 323
680 517 611
685 543 957
712 584 1302
738 627 1645
765 671 1987
791 714 2329
818 757 2666
845 798 2934
701 1019 352
685 1024 655
698 1040 980
721 1069 1316
745 1103 1655
770 1141 1994
795 1180 2334
821 1219 2665
847 1257 2933
702 1530 416
704 1532 703
716 1545 1015
734 1566 1340
755 1592 1672
778 1622 2007
802 1655 2345
827 1689 2664
852 1723 2932
722 2038 472
727 2043 755
736 2052 1055
751 2067 1371
769 2087 1695
789 2111 2026
811 2138 2359
835 2166 2663
859 2196 2931
746 2547 528
750 2550 807
758 2557 1100
770 2569 1407
785 2584 1725
803 2603 2050
823 2624 2379
845 2648 2661
869 2673 2929
770 3051 583
774 3054 859
780 3060 1147
790 3068 1448
803 3080 1760
819 3095 2079
837 3112 2392
857 3132 2660
880 3155 2928
794 3552 636
797 3554 911
802 3559 1196
811 3565 1492
822 3575 1798
836 3587 2112
853 3602 2391
871 3619 2659
893 3639 2927
819 4049 691
822 4051 964
825 4055 1246
833 4060 1538
843 4067 1839
855 4076 2122
870 4088 2390
888 4095 2658
907 4095 2926
1353 167 392
1340 153 608
1301 127 850
1262 191 1284
1325 303 1693
1382 403 2085
1437 498 2472
1491 588 2855
1544 673 3099
1358 585 400
1346 575 618
1313 555 880
1272 619 1299
1331 715 1702
1387 807 2092
1440 897 2476
1493 983 2858
1546 1066 3098
1366 1041 422
1354 1035 643
1314 1050 951
1293 1087 1335
1345 1160 1724
1397 1238 2108
1448 1317 2488
1500 1396 2867
1552 1473 3097
1374 1522 452
1369 1535 694
1310 1560 1042
1323 1576 1391
1367 1629 1762
1414 1691 2136
1462 1758 2511
1512 1826 2866
1562 1895 3096
1378 2053 562
1350 2060 825
1339 2050 1131
1360 2071 1462
1396 2111 1815
1437 2159 2176
1481 2213 2543
1527 2270 2865
1575 2329 3095
1378 2546 695
1376 2544 948
1376 2545 1228
1400 2566 1544
1430 2596 1879
1466 2633 2228
1506 2676 2585
1549 2723 2864
1594 2773 3094
1410 3030 812
1411 3031 1058
1423 3041 1332
1442 3057 1632
1467 3079 1953
1499 3108 2290
1534 3142 2634
1574 3181 2863
1616 3224 3093
1455 3516 927
1460 3520 1172
1469 3528 1437
1485 3540 1726
1507 3558 2034
1534 3581 2360
1567 3610 2633
1603 3643 2863
1642 3681 3092
1504 4001 1041
1507 4004 1283
1516 4010 1542
1529 4020 1822
1548 4034 2121
1572 4053 2402
1601 4076 2632
1634 4095 2862
1671 4095 3091
1983 395 555
1972 382 735
1938 349 896
1874 310 1128
1795 390 1637
1847 545 2109
1936 702 2559
2022 846 2995
2104 980 3263
1989 747 563
1977 737 743
1944 707 904
1884 674 1157
1794 747 1662
1854 900 2120
1941 1047 2566
2025 1185 3001
2108 1315 3262
2000 1144 584
1989 1136 765
1956 1113 929
1908 1086 1223
1802 1170 1703
1871 1297 2148
1954 1425 2587
2036 1550 3017
2116 1671 3262
2013 1579 622
2001 1574 805
1967 1558 974
1898 1595 1344
1826 1632 1762
1899 1730 2196
1977 1835 2623
2054 1943 3046
2131 2049 3261
2020 2037 681
2008 2034 864
1993 2061 1071
1875 2111 1485
1871 2108 1851
1937 2183 2263
2007 2268 2675
2079 2357 3068
2152 2448 3260
2053 2524 756
2041 2542 981
1961 2602 1244
1915 2577 1614
1927 2589 1961
1983 2646 2348
2045 2711 2744
2111 2783 3068
2180 2860 3259
2021 3061 947
1996 3062 1169
1975 3052 1450
1961 3041 1752
1986 3063 2084
2035 3107 2448
2090 3158 2826
2150 3217 3067
2214 3282 3259
2028 3512 1158
2025 3510 1374
2018 3505 1621
2016 3503 1897
2049 3530 2216
2091 3565 2560
2140 3607 2875
2195 3657 3066
2254 3714 3258
2073 3961 1341
2071 3960 1550
2067 3957 1783
2085 3970 2053
2114 3991 2355
2150 4020 2681
2194 4055 2874
2244 4094 3066
2298 4094 3257
2583 717 805
2572 705 948
2542 675 1073
2483 617 1173
2393 572 1416
2295 676 2008
2271 841 2537
2396 1056 3053
2513 1250 3427
2588 1003 813
2577 993 955
2547 965 1081
2489 911 1182
2402 870 1444
2297 966 2034
2279 1135 2550
2402 1340 3062
2518 1528 3427
2601 1335 832
2590 1326 976
2560 1302 1103
2503 1256 1206
2425 1221 1510
2296 1306 2099
2298 1479 2581
2417 1663 3086
2530 1835 3426
2617 1710 867
2606 1703 1011
2577 1684 1140
2519 1648 1248
2463 1615 1614
2296 1720 2187
2331 1868 2636
2442 2024 3128
2551 2175 3426
2633 2119 923
2622 2114 1068
2592 2099 1200
2537 2079 1332
2435 2142 1789
2323 2182 2269
2376 2287 2715
2478 2414 3189
2581 2541 3425
2644 2547 1001
2632 2544 1147
2601 2533 1282
2578 2588 1486
2394 2655 1980
2364 2637 2378
2431 2719 2815
2524 2819 3270
2620 2925 3425
2664 2978 1037
2661 2988 1201
2652 3022 1411
2551 3113 1721
2431 3094 2154
2417 3081 2510
2494 3153 2936
2579 3234 3271
2667 3323 3424
2705 3477 1274
2687 3493 1456
2622 3540 1675
2518 3546 1984
2489 3522 2332
2497 3528 2675
2564 3586 3072
2640 3654 3270
2722 3731 3424
2647 3982 1530
2629 3981 1715
2587 3978 1941
2568 3962 2220
2551 3948 2517
2579 3970 2850
2640 4019 3117
2708 4078 3270
2782 4094 3424
3151 1130 1142
3140 1119 1247
3112 1092 1336
3059 1041 1403
2973 957 1440
2858 911 1714
2741 1038 2392
2595 1185 2972
2758 1461 3561
3156 1351 1149
3146 1341 1254
3118 1315 1344
3065 1266 1411
2979 1186 1449
2866 1142 1741
2744 1261 2418
2603 1417 2986
2765 1682 3571
3168 1614 1168
3158 1606 1273
3130 1582 1363
3078 1537 1432
2993 1466 1472
2889 1428 1805
2749 1531 2483
2624 1705 3020
2781 1946 3591
3187 1924 1201
3176 1916 1307
3149 1896 1398
3098 1858 1469
3014 1798 1514
2927 1762 1911
2748 1856 2598
2660 2045 3080
2809 2254 3591
3208 2271 1252
3198 2265 1358
3170 2249 1451
3119 2219 1525
3034 2171 1577
2959 2167 2064
2736 2258 2739
2710 2422 3167
2850 2595 3590
3228 2647 1323
3217 2642 1431
3190 2629 1526
3137 2606 1607
3076 2606 1758
2922 2679 2286
2764 2716 2844
2773 2818 3280
2902 2958 3590
3242 3035 1423
3231 3032 1531
3203 3023 1627
3149 3006 1709
3122 3097 1937
2873 3164 2525
2809 3145 2979
2847 3219 3417
2964 3335 3590
3257 3428 1495
3248 3425 1597
3228 3424 1694
3214 3479 1875
3092 3599 2221
2887 3587 2749
2867 3559 3139
2929 3625 3475
3036 3724 3590
3324 3862 1487
3319 3873 1640
3292 3904 1884
3212 3970 2218
3007 4025 2552
2955 3982 2968
2937 3964 3320
3019 4034 3475
3116 4094 3590
3688 1629 1564
3678 1620 1632
3651 1595 1685
3602 1549 1717
3524 1476 1724
3409 1366 1697
3269 1324 2022
3134 1473 2788
2941 1627 3434
3689 1787 1575
3679 1778 1643
3656 1751 1692
3607 1707 1725
3530 1636 1733
3415 1529 1706
3278 1490 2047
3138 1629 2813
2941 1784 3454
3693 1990 1603
3683 1981 1670
3668 1949 1711
3620 1906 1744
3543 1840 1753
3429 1742 1729
3299 1707 2110
3146 1828 2877
2939 1984 3508
3699 2239 1653
3689 2232 1721
3667 2208 1770
3640 2154 1778
3564 2096 1789
3451 2010 1769
3336 1978 2215
3155 2080 2991
2950 2260 3573
3707 2528 1730
3697 2521 1798
3672 2504 1854
3658 2449 1840
3589 2395 1844
3477 2324 1829
3389 2290 2359
3150 2387 3160
2981 2592 3650
3717 2842 1839
3707 2837 1908
3683 2822 1965
3655 2785 1970
3614 2727 1920
3513 2686 1969
3406 2703 2568
3120 2770 3359
3024 2944 3752
3727 3172 1989
3718 3167 2058
3694 3154 2116
3653 3130 2152
3626 3080 2052
3576 3105 2228
3362 3183 2836
3147 3215 3485
3093 3308 3756
3738 3509 2193
3729 3505 2263
3707 3494 2321
3666 3474 2361
3625 3460 2368
3614 3574 2540
3304 3641 3122
3195 3621 3645
3186 3683 3756
3757 3849 2464
3750 3845 2530
3738 3834 2541
3723 3828 2506
3735 3909 2399
3596 4051 2810
3283 4062 3402
3261 4012 3680
3288 4066 3757
4031 2208 2073
4031 2199 2103
4031 2177 2119
4031 2135 2116
4031 2070 2090
3936 1975 2035
3790 1840 1944
3628 1809 2339
3473 1977 3195
4031 2301 2085
4031 2292 2115
4031 2270 2130
4031 2230 2128
4031 2167 2102
3938 2073 2047
3796 1938 1953
3636 1908 2363
3478 2067 3220
4031 2436 2115
4031 2428 2144
4031 2407 2160
4031 2370 2159
4031 2310 2135
3941 2220 2079
3810 2084 1975
3656 2058 2424
3489 2195 3283
4031 2618 2169
4031 2611 2199
4031 2592 2216
4031 2558 2215
4031 2504 2194
3947 2419 2135
3828 2289 2022
3691 2260 2528
3504 2371 3394
4031 2839 2254
4031 2833 2284
4031 2817 2302
4031 2787 2304
4031 2740 2285
3955 2663 2222
3826 2558 2127
3743 2508 2673
3514 2600 3561
4031 3091 2377
4031 3085 2408
4031 3071 2427
4031 3045 2430
4031 3006 2414
3965 2937 2347
3831 2856 2284
3812 2786 2856
3503 2881 3788
4031 3363 2548
4031 3358 2579
4031 3346 2599
4031 3324 2605
4031 3290 2592
3974 3230 2519
3898 3204 2582
3805 3202 3124
3451 3238 3924
4031 3649 2786
4031 3645 2817
4031 3634 2838
4031 3615 2844
4031 3586 2833
3981 3534 2758
3962 3587 2938
3752 3651 3439
3475 3678 3924
4031 3943 3145
4031 3940 3175
4031 3931 3194
4031 3914 3195
4031 3889 3180
4019 3898 3220
4030 4026 3429
3686 4094 3772
3525 4074 3925
4095 2856 2668
4095 2848 2660
4095 2827 2638
4095 2790 2599
4095 2733 2539
4095 2650 2453
4095 2534 2336
4095 2376 2179
3933 2360 2666
4095 2882 2679
4095 2874 2671
4095 2854 2649
4095 2818 2610
4095 2762 2550
4095 2680 2465
4095 2567 2349
4095 2413 2194
3941 2393 2690
4095 2947 2708
4095 2939 2700
4095 2921 2678
4095 2886 2640
4095 2832 2581
4095 2755 2497
4095 2648 2383
4095 2503 2230
3961 2474 2749
4095 3056 2762
4095 3049 2754
4095 3031 2733
4095 2999 2695
4095 2950 2638
4095 2879 2556
4095 2782 2445
4095 2651 2298
3995 2607 2851
4095 3205 2847
4095 3199 2839
4095 3183 2819
4095 3154 2783
4095 3110 2727
4095 3047 2648
4095 2961 2542
4095 2846 2401
4045 2786 2995
4095 3389 2974
4095 3384 2967
4095 3369 2947
4095 3344 2913
4095 3304 2859
4095 3249 2783
4095 3174 2682
4095 3075 2549
4095 2998 3180
4095 3599 3159
4095 3595 3152
4095 3582 3133
4095 3559 3099
4095 3525 3047
4095 3476 2974
4095 3411 2877
4095 3355 2852
4095 3234 3399
4095 3830 3436
4095 3825 3428
4095 3814 3408
4095 3794 3372
4095 3763 3319
4095 3721 3246
4095 3664 3150
4095 3668 3230
4095 3660 3732
4095 4038 3864
4095 4037 3863
4095 4037 3859
4095 4035 3854
4095 4010 3778
4095 3974 3680
4095 3930 3572
4095 4021 3822
4095 4095 4095
