Toning/Toning-SplitWarmsAndColds_CMYK.3dl
#25pt 3DLUT created by 3D LUT Creator Pro (c) Oleg Sharonov
#Copyright Oleg Sharonov
#IMAGEPROFILE 
#INPUTGAMMA 
#OUTPUTGAMMA 
0 43 86 128 171 214 256 299 341 384 427 469 512 555 597 640 682 725 768 810 853 896 938 981 1023 
0 0 0
0 0 168
0 0 339
0 0 512
0 0 685
0 0 855
0 0 1024
0 0 1192
0 0 1363
0 0 1536
0 0 1708
0 0 1879
0 0 2048
3 0 2216
3 0 2387
0 0 2559
0 0 2732
0 0 2902
0 0 3071
3 0 3240
6 0 3411
0 0 3583
0 0 3756
0 0 3926
0 0 4095
0 168 13
3 168 174
6 165 343
10 161 518
6 158 693
3 155 866
6 152 1037
19 145 1208
32 136 1381
36 129 1554
39 123 1726
42 119 1896
48 116 2064
55 113 2232
58 110 2402
58 107 2575
58 103 2746
58 100 2916
65 100 3084
71 100 3253
74 97 3423
71 94 3595
68 94 3767
68 90 3937
74 94 4095
0 339 23
0 339 192
13 334 345
13 332 521
10 330 697
10 326 871
23 320 1044
32 316 1215
42 310 1386
45 306 1559
52 302 1732
58 297 1902
68 293 2071
74 291 2239
81 287 2409
84 282 2581
84 280 2753
87 278 2922
94 276 3090
100 276 3258
103 273 3428
103 269 3600
100 269 3772
100 267 3942
107 267 4095
0 512 32
0 510 206
0 510 367
10 505 522
10 503 698
16 499 873
26 494 1046
36 490 1217
45 485 1390
52 481 1564
61 477 1737
71 472 1908
81 468 2077
94 465 2245
103 461 2415
110 457 2588
113 454 2760
119 452 2929
129 449 3097
139 448 3265
142 446 3435
145 443 3607
142 442 3779
142 440 3948
152 440 4095
0 683 39
0 682 217
0 682 381
0 682 542
10 675 697
16 671 872
26 667 1046
36 663 1218
45 659 1391
55 656 1565
65 652 1739
78 648 1911
90 644 2081
107 641 2250
116 636 2421
126 632 2594
132 629 2766
142 627 2935
155 625 3104
168 623 3272
174 620 3441
180 616 3613
180 615 3785
183 614 3954
192 613 4095
0 853 48
0 852 230
0 852 394
0 852 556
0 852 718
16 843 871
26 839 1044
36 835 1217
45 832 1391
55 829 1566
65 826 1740
78 822 1913
94 819 2083
113 815 2253
126 811 2424
139 807 2597
149 804 2770
158 802 2940
174 799 3108
189 797 3277
198 794 3446
206 791 3619
206 789 3790
212 788 3960
222 787 4095
0 1023 58
0 1023 243
0 1022 409
0 1022 570
0 1022 731
0 1022 892
26 1011 1044
36 1008 1217
45 1005 1391
55 1003 1566
65 999 1741
78 996 1913
97 992 2084
113 989 2255
129 985 2427
145 982 2600
155 979 2773
171 977 2943
186 973 3112
203 971 3281
217 969 3451
225 965 3623
228 964 3795
235 962 3964
245 961 4095
3 1193 68
0 1193 255
0 1192 422
0 1192 583
0 1191 744
0 1191 905
0 1191 1067
39 1179 1216
48 1177 1390
55 1175 1565
65 1172 1740
78 1169 1913
97 1166 2085
116 1162 2256
132 1159 2428
149 1156 2602
161 1153 2775
177 1150 2946
195 1148 3115
212 1145 3284
228 1143 3454
238 1140 3627
243 1138 3799
250 1137 3968
264 1135 4095
3 1364 74
0 1363 264
0 1363 431
0 1362 594
0 1362 756
0 1361 917
0 1361 1079
0 1361 1241
52 1348 1389
58 1346 1564
65 1345 1739
78 1342 1913
97 1338 2084
116 1335 2256
132 1332 2428
149 1329 2603
161 1327 2776
177 1325 2947
198 1322 3117
217 1319 3286
233 1317 3457
245 1314 3630
250 1312 3801
262 1311 3971
276 1309 4095
0 1535 78
0 1535 271
0 1534 439
0 1533 605
0 1533 767
0 1533 929
0 1533 1091
0 1533 1253
0 1533 1416
61 1518 1564
68 1517 1738
81 1514 1912
97 1511 2084
116 1508 2256
132 1505 2428
149 1502 2603
161 1500 2776
180 1498 2948
201 1495 3118
220 1493 3287
235 1490 3458
250 1488 3632
257 1486 3803
269 1484 3974
282 1483 4095
0 1707 78
0 1706 276
0 1706 446
0 1705 616
0 1705 778
0 1704 941
0 1704 1103
0 1704 1265
0 1704 1428
0 1704 1590
71 1688 1737
81 1686 1911
100 1683 2084
119 1680 2255
136 1677 2428
149 1675 2603
161 1673 2776
180 1671 2948
201 1668 3118
222 1666 3288
238 1663 3460
252 1661 3633
260 1660 3805
271 1658 3975
289 1656 4095
0 1877 84
0 1877 280
0 1876 452
0 1876 625
0 1875 789
0 1875 952
0 1875 1114
0 1874 1276
0 1874 1439
0 1874 1601
0 1874 1764
84 1858 1910
103 1854 2083
123 1852 2255
136 1849 2428
152 1847 2602
161 1846 2776
180 1843 2948
201 1841 3118
222 1838 3288
238 1836 3460
252 1834 3634
262 1833 3806
273 1831 3976
291 1829 4095
0 2047 87
0 2047 287
0 2046 460
0 2046 632
0 2045 798
0 2045 961
0 2044 1124
0 2044 1286
0 2044 1449
0 2044 1611
0 2044 1774
0 2044 1937
107 2026 2082
126 2023 2254
139 2021 2427
152 2019 2602
165 2018 2776
180 2016 2948
203 2013 3118
222 2011 3289
240 2009 3460
252 2007 3634
262 2006 3807
276 2004 3977
304 2003 4095
3 2217 94
3 2217 291
3 2216 464
0 2216 637
0 2215 808
0 2215 971
0 2214 1133
0 2214 1296
0 2214 1458
0 2213 1621
0 2213 1784
0 2213 1947
0 2213 2109
129 2195 2253
145 2193 2426
155 2191 2601
165 2190 2775
183 2188 2947
203 2186 3118
225 2183 3289
240 2181 3461
255 2180 3634
262 2179 3807
276 2177 3978
360 2175 4095
6 2387 97
3 2387 293
3 2387 468
0 2386 642
0 2385 817
0 2385 980
0 2385 1142
0 2384 1305
0 2384 1468
0 2384 1631
0 2384 1794
0 2384 1957
0 2384 2119
0 2384 2282
152 2364 2425
161 2363 2600
168 2362 2774
183 2360 2946
206 2357 3117
225 2355 3288
243 2353 3460
255 2352 3634
262 2351 3807
276 2349 3977
404 2347 4095
0 2559 94
0 2559 293
0 2558 468
0 2558 645
0 2557 821
0 2557 988
0 2556 1151
0 2556 1314
0 2556 1477
0 2556 1640
0 2555 1804
0 2555 1967
0 2555 2130
0 2555 2294
0 2555 2457
165 2535 2599
171 2534 2773
189 2532 2946
209 2529 3117
228 2527 3288
245 2525 3460
255 2524 3634
264 2523 3806
276 2522 3977
479 2519 4095
0 2731 87
0 2730 289
0 2730 467
0 2729 645
0 2729 823
0 2728 994
0 2728 1157
0 2728 1321
0 2727 1484
0 2727 1648
0 2727 1812
0 2727 1975
0 2727 2139
0 2726 2302
0 2726 2466
0 2727 2630
177 2705 2772
192 2704 2945
214 2701 3116
233 2699 3287
248 2697 3459
257 2696 3633
264 2695 3806
278 2694 3977
489 2690 4095
0 2901 90
0 2901 287
0 2900 467
0 2900 646
0 2899 823
0 2899 1001
0 2899 1164
0 2898 1328
0 2898 1492
0 2898 1656
0 2897 1820
0 2897 1983
0 2897 2147
0 2897 2311
0 2897 2474
0 2897 2638
0 2897 2802
195 2875 2944
217 2873 3116
235 2871 3287
250 2869 3459
260 2868 3633
267 2867 3805
278 2866 3976
513 2861 4095
0 3071 90
0 3071 287
0 3070 470
0 3070 648
0 3069 827
0 3069 1005
0 3068 1171
0 3068 1335
0 3068 1499
0 3067 1663
0 3067 1826
0 3067 1990
0 3067 2153
0 3067 2317
0 3067 2481
0 3067 2645
0 3067 2809
0 3067 2973
222 3044 3115
240 3042 3286
255 3040 3458
262 3040 3632
269 3039 3805
280 3038 3976
560 3032 4095
10 3241 94
6 3241 287
6 3240 468
3 3240 647
0 3239 827
0 3239 1007
0 3238 1178
0 3238 1342
0 3238 1506
0 3237 1669
0 3237 1833
0 3237 1997
0 3237 2161
0 3236 2324
0 3236 2488
0 3236 2652
0 3236 2816
0 3236 2980
0 3236 3144
248 3214 3285
260 3212 3458
267 3211 3631
271 3211 3804
282 3210 3976
569 3203 4095
10 3411 94
10 3411 282
6 3411 465
3 3410 645
3 3410 825
0 3409 1007
0 3409 1184
0 3409 1347
0 3408 1511
0 3408 1675
0 3408 1839
0 3407 2003
0 3407 2167
0 3407 2331
0 3407 2496
0 3407 2660
0 3407 2824
0 3407 2988
0 3407 3152
0 3407 3317
267 3383 3457
271 3383 3631
273 3382 3803
284 3381 3975
535 3375 4095
0 3583 81
0 3583 273
0 3582 458
0 3582 641
0 3582 823
0 3581 1004
0 3581 1186
0 3580 1351
0 3580 1515
0 3580 1680
0 3579 1844
0 3579 2009
0 3579 2174
0 3579 2338
0 3578 2502
0 3578 2667
0 3578 2832
0 3578 2996
0 3578 3161
0 3578 3326
0 3578 3490
276 3554 3630
278 3554 3803
289 3553 3974
577 3546 4095
0 3754 74
0 3754 262
0 3754 449
0 3754 632
0 3753 816
0 3753 1001
0 3752 1185
0 3752 1355
0 3752 1520
0 3751 1685
0 3751 1849
0 3751 2014
0 3750 2178
0 3750 2343
0 3750 2507
0 3750 2672
0 3750 2837
0 3750 3002
0 3750 3166
0 3750 3332
0 3750 3497
0 3750 3662
282 3726 3802
293 3724 3974
744 3713 4095
0 3925 68
0 3925 255
0 3925 442
0 3924 627
0 3924 811
0 3924 996
0 3923 1182
0 3922 1359
0 3922 1523
0 3922 1688
0 3921 1853
0 3921 2018
0 3921 2183
0 3921 2347
0 3921 2512
0 3920 2677
0 3920 2842
0 3920 3007
0 3920 3172
0 3920 3337
0 3920 3502
0 3920 3668
0 3920 3833
297 3896 3973
644 3887 4095
0 4095 68
0 4095 252
0 4095 437
0 4094 623
0 4094 808
0 4093 994
0 4093 1179
0 4092 1362
0 4092 1527
0 4092 1692
0 4091 1857
0 4091 2022
0 4091 2187
0 4091 2352
0 4090 2517
0 4090 2682
0 4090 2847
0 4090 3012
0 4090 3177
0 4090 3342
0 4090 3507
0 4090 3672
0 4090 3838
0 4090 4003
516 4062 4095
183 0 0
168 0 155
113 10 345
100 13 518
81 16 694
61 19 866
45 19 1036
42 19 1207
39 16 1379
39 10 1554
36 10 1724
36 10 1893
39 10 2060
42 10 2228
42 10 2398
39 10 2569
36 10 2741
36 10 2911
39 10 3079
42 10 3247
45 10 3417
39 10 3590
32 10 3762
32 10 3932
42 10 4095
186 168 0
165 171 174
132 168 352
116 168 527
94 168 705
71 168 880
68 165 1052
71 155 1225
84 142 1400
81 136 1572
81 129 1743
84 126 1911
90 123 2078
100 119 2245
103 116 2414
103 110 2585
103 107 2757
103 107 2926
110 103 3093
116 103 3261
116 103 3430
116 100 3602
110 97 3773
110 97 3943
116 97 4095
225 358 0
152 341 189
142 336 356
126 336 532
103 334 711
90 332 887
94 324 1061
94 318 1232
94 314 1403
90 310 1576
90 304 1748
97 299 1917
107 295 2084
116 293 2251
123 289 2420
126 284 2592
126 282 2762
129 280 2931
136 278 3099
145 278 3266
149 276 3436
145 273 3607
142 271 3778
142 269 3948
152 271 4095
209 510 0
136 514 198
116 514 381
119 505 533
110 504 712
100 500 887
97 496 1060
97 492 1232
94 488 1405
94 484 1578
97 479 1752
107 474 1922
119 471 2090
132 467 2258
145 462 2427
152 458 2599
155 455 2770
161 452 2939
171 451 3106
180 448 3274
186 446 3443
186 443 3614
183 442 3785
186 440 3955
195 440 4095
195 682 0
119 686 206
94 686 394
107 685 557
110 675 709
103 672 884
97 668 1058
97 664 1231
97 661 1404
97 657 1579
97 653 1753
110 649 1924
126 645 2093
142 641 2262
158 636 2432
168 632 2604
174 629 2776
183 627 2945
198 624 3112
209 622 3280
214 619 3449
220 616 3621
217 615 3792
222 614 3961
230 613 4095
177 853 0
103 856 214
74 856 406
84 855 570
97 855 731
107 843 881
100 840 1056
100 836 1229
97 833 1403
97 830 1578
97 827 1753
107 823 1925
126 819 2095
145 815 2265
165 811 2435
177 807 2608
186 804 2780
198 801 2949
212 798 3117
228 796 3285
235 793 3454
243 790 3626
243 789 3797
248 788 3966
257 786 4095
165 1024 3
97 1026 222
58 1027 417
65 1025 584
78 1025 744
90 1024 905
107 1011 1053
103 1008 1228
100 1005 1402
100 1003 1577
100 1000 1752
107 997 1925
126 993 2095
145 989 2265
165 985 2437
180 981 2610
192 979 2782
206 976 2952
222 973 3121
238 970 3289
250 968 3459
257 965 3631
262 963 3802
269 961 3971
280 960 4095
152 1194 16
87 1196 233
48 1196 428
52 1195 595
61 1194 757
74 1194 917
87 1193 1079
110 1179 1226
107 1177 1400
103 1175 1576
100 1173 1751
107 1169 1924
123 1166 2095
145 1162 2266
165 1159 2438
180 1155 2612
195 1153 2784
209 1150 2954
228 1147 3123
245 1144 3292
257 1142 3462
269 1139 3634
273 1137 3806
282 1136 3975
295 1134 4095
139 1365 26
78 1366 240
36 1366 437
36 1366 604
45 1365 769
55 1364 930
68 1364 1091
81 1363 1252
113 1348 1398
107 1346 1574
103 1344 1749
107 1341 1923
123 1338 2094
145 1335 2265
161 1332 2438
180 1329 2612
192 1326 2785
209 1324 2955
230 1321 3125
248 1318 3294
262 1316 3464
276 1313 3637
280 1312 3808
291 1310 3978
304 1308 4095
126 1536 32
65 1538 243
19 1538 443
19 1537 613
23 1536 780
36 1536 942
45 1535 1103
58 1535 1265
71 1534 1427
113 1518 1572
110 1516 1748
113 1514 1921
123 1510 2093
145 1507 2265
161 1504 2437
180 1502 2612
192 1500 2785
209 1497 2956
230 1494 3126
250 1491 3295
264 1489 3466
278 1486 3639
284 1485 3810
297 1483 3980
312 1482 4095
110 1708 36
55 1709 248
6 1709 449
6 1709 619
3 1708 791
13 1707 953
23 1707 1115
36 1706 1277
48 1706 1439
58 1705 1602
116 1688 1746
116 1685 1920
126 1682 2092
145 1679 2264
161 1677 2437
180 1674 2611
192 1673 2784
209 1670 2956
230 1667 3126
250 1665 3296
267 1662 3467
280 1660 3640
287 1659 3812
299 1657 3982
316 1655 4095
