Toning/Toning-Twist Oranges.3dl
#25pt 3DLUT created by 3D LUT Creator Pro (c) Oleg Sharonov
#Copyright Oleg Sharonov
#IMAGEPROFILE sRGB IEC61966-2.1 v.2.10
#INPUTGAMMA sRGB IEC61966-2.1 v.2.10
#OUTPUTGAMMA sRGB IEC61966-2.1 v.2.10
0 256 512 768 1023
0 0 0
54 150 613
224 475 1293
429 816 1973
633 1138 2659
605 944 464
0 1039 1019
261 1088 1835
497 1232 2438
700 1444 3046
1252 1902 960
1173 1934 1256
0 2075 2049
213 2109 2963
712 2165 3722
1904 2871 1521
1767 2909 1600
1619 2943 2387
0 3085 3174
620 3099 4095
2933 3729 2679
2922 3739 2754
2962 3749 3047
2606 3849 3573
2486 3921 4095
1093 0 237
1011 127 1017
757 501 1782
657 813 2498
782 1156 3008
1048 999 109
891 1050 1075
930 1126 1780
952 1279 2431
835 1453 3351
1487 1923 900
1384 1961 1323
939 2068 2059
1016 2103 2959
803 2182 3932
2058 2881 1488
1952 2912 1710
1844 2950 2381
800 3092 3193
1156 3101 4095
3013 3740 2691
3005 3749 2769
3019 3767 3038
2755 3850 3563
2601 3931 4095
2191 0 621
2192 0 1235
2011 423 2012
1653 959 2658
1537 1169 3596
2214 895 0
2017 1032 807
1960 1122 2017
1733 1323 2876
1606 1418 3974
2023 2015 269
2020 2013 962
1798 2107 2151
1871 2156 2860
1824 2197 4014
2434 2929 1361
2394 2948 1628
2295 2983 2500
1937 3090 3193
2061 3107 4079
3237 3780 2737
3238 3788 2811
3225 3814 3042
3154 3860 3534
2933 3958 4094
3286 0 1002
3286 0 1437
3287 0 2243
2971 736 2992
2539 1388 3567
3625 272 0
3344 706 958
3173 980 2150
2967 1254 3019
2683 1549 3890
3041 2018 160
2998 2007 782
2930 2104 1802
2862 2168 3115
2809 2262 3944
2940 3042 353
2962 3042 955
3008 3053 2033
2749 3143 3294
3021 3126 4046
3574 3863 2866
3581 3867 2960
3595 3887 3137
3596 3927 3497
3453 4012 4095
4065 0 1369
4065 0 1694
4065 0 2395
4065 0 3292
3874 987 3956
4087 751 1236
4095 769 1572
4095 795 2306
4095 821 3222
3880 1393 3960
3976 1893 949
4003 1901 1377
4052 1925 2170
4095 1946 3146
3909 2192 3979
3834 3078 177
3904 3051 189
3953 3030 1796
4055 3027 3044
3976 3120 4021
3935 4037 2472
3944 4040 2580
3974 4050 2902
4025 4068 3425
4095 4095 4095
