Toning/Toning-SoftContrast.3dl
#25pt 3DLUT created by 3D LUT Creator Pro (c) Oleg Sharonov
#Copyright Oleg Sharonov
#IMAGEPROFILE sRGB IEC61966-2.1 v.2.10
#INPUTGAMMA sRGB IEC61966-2.1 v.2.10
#OUTPUTGAMMA sRGB IEC61966-2.1 v.2.10
0 128 256 384 512 640 768 896 1023
119 195 180
174 233 319
309 320 574
473 438 814
640 548 1034
810 662 1251
982 781 1472
1154 901 1695
1327 1028 1919
130 654 188
442 615 596
522 642 705
655 655 961
788 711 1162
931 793 1363
1082 885 1566
1239 989 1776
1400 1106 1991
133 1102 199
195 1228 744
827 1001 1000
912 1016 1101
1003 1055 1229
1145 1070 1497
1278 1124 1717
1415 1201 1928
1558 1297 2138
134 1557 207
132 1715 790
695 1596 1100
1223 1401 1390
1312 1422 1499
1393 1469 1603
1505 1510 1815
1646 1545 2074
1780 1608 2310
134 2034 215
132 2169 810
132 2184 1277
1155 1992 1484
1626 1856 1817
1716 1877 1925
1800 1917 2032
1881 1974 2131
2009 2013 2406
136 2516 222
133 2625 829
133 2668 1296
782 2577 1600
1628 2401 1905
2027 2297 2232
2116 2321 2339
2202 2359 2457
2284 2414 2564
136 3001 230
133 3075 847
133 3106 1313
133 3065 1747
1283 2985 1958
2115 2810 2340
2433 2749 2655
2524 2775 2759
2616 2812 2890
136 3488 236
133 3515 865
133 3534 1328
133 3519 1759
783 3503 2085
1759 3402 2343
2654 3216 2823
2891 3187 3072
2999 3211 3148
139 3974 243
136 3974 886
133 3981 1346
133 3979 1775
133 3978 2199
2034 3838 2626
2879 3677 3040
3400 3565 3381
3465 3592 3466
558 168 175
542 176 635
572 171 1119
609 411 1102
732 538 1211
879 661 1383
1036 781 1576
1198 902 1778
1364 1031 1988
574 596 176
545 653 639
632 633 901
732 663 1083
849 724 1256
980 805 1438
1123 897 1628
1273 1002 1829
1434 1108 2057
589 1081 190
570 1151 676
880 1020 1017
952 1038 1125
1064 1048 1341
1187 1075 1566
1314 1133 1775
1446 1212 1977
1589 1300 2202
595 1568 198
584 1651 706
742 1607 1118
1257 1416 1404
1339 1438 1516
1416 1486 1620
1542 1512 1874
1674 1551 2121
1807 1610 2367
598 2058 207
591 2142 731
591 2142 1207
1169 2007 1491
1651 1868 1827
1736 1889 1935
1817 1929 2043
1897 1987 2142
2035 2015 2458
599 2540 215
596 2625 752
595 2632 1227
837 2580 1612
1631 2415 1906
2045 2306 2238
2131 2331 2347
2215 2369 2466
2295 2424 2577
599 3020 222
599 3103 771
597 3117 1246
597 3088 1692
1306 2991 1967
2113 2823 2337
2448 2756 2660
2536 2783 2766
2626 2820 2901
599 3499 227
600 3577 791
597 3570 1262
598 3532 1704
845 3507 2092
1771 3409 2348
2653 3225 2818
2907 3192 3076
3009 3217 3155
601 3974 235
599 4004 810
598 3988 1279
598 3981 1720
598 3978 2153
2006 3851 2617
2877 3685 3040
3401 3573 3381
3472 3598 3472
1038 148 154
964 152 566
1007 151 1043
1029 150 1516
1035 227 1895
1070 579 1780
1178 749 1862
1312 892 2002
1458 1031 2175
1031 539 153
969 560 564
1000 556 1023
1025 547 1488
1057 633 1712
1138 763 1769
1249 879 1884
1377 998 2037
1525 1106 2242
1047 1024 164
999 1063 596
1010 1063 1058
1095 1042 1332
1187 1053 1544
1288 1093 1733
1398 1155 1914
1520 1235 2095
1671 1298 2377
1055 1529 173
1028 1583 631
1033 1579 1102
1343 1453 1437
1408 1479 1559
1499 1504 1756
1625 1521 2016
1742 1567 2240
1877 1613 2522
1059 2040 181
1045 2091 661
1045 2090 1133
1225 2036 1519
1713 1895 1852
1789 1917 1967
1863 1957 2075
1952 2004 2239
2097 2020 2596
1062 2530 187
1054 2583 682
1053 2584 1156
1054 2572 1619
1646 2447 1915
2091 2328 2259
2172 2353 2373
2252 2393 2491
2324 2448 2612
1063 3016 194
1059 3068 701
1058 3071 1176
1058 3061 1633
1370 3006 1992
2110 2853 2335
2485 2774 2677
2571 2802 2788
2650 2840 2931
1064 3499 199
1063 3552 722
1061 3557 1194
1061 3543 1647
1061 3513 2094
1804 3424 2363
2653 3249 2812
2943 3205 3088
3034 3232 3172
1065 3975 205
1063 3992 739
1063 4010 1210
1063 3984 1662
1062 3978 2105
1920 3887 2589
2868 3707 3039
3403 3593 3382
3491 3612 3486
1530 135 137
1417 136 499
1448 136 971
1482 135 1458
1500 135 1932
1511 135 2400
1501 426 2584
1542 780 2498
1640 983 2561
1506 495 136
1426 499 499
1440 499 948
1475 498 1421
1495 497 1885
1508 496 2345
1518 706 2484
1583 923 2485
1700 1062 2622
1512 977 144
1446 987 522
1455 987 977
1479 987 1448
1497 983 1913
1522 1005 2276
1594 1104 2352
1687 1208 2463
1832 1256 2741
1521 1498 152
1480 1512 558
1479 1514 1022
1489 1514 1492
1572 1504 1789
1660 1513 2026
1754 1545 2236
1856 1597 2432
2011 1589 2852
1526 2021 160
1501 2038 589
1500 2039 1059
1506 2039 1536
1819 1940 1893
1880 1966 2017
1949 2003 2160
2079 2011 2486
2209 2016 2873
1528 2519 165
1513 2537 611
1513 2538 1083
1518 2537 1562
1707 2493 1949
2173 2366 2292
2246 2392 2416
2315 2434 2534
2376 2489 2675
1531 3006 172
1523 3025 630
1521 3027 1104
1524 3026 1576
1525 3022 2039
2124 2900 2342
2554 2806 2707
2633 2834 2827
2693 2874 2984
1532 3489 175
1529 3502 651
1527 3510 1121
1527 3509 1589
1528 3506 2049
1875 3448 2395
2668 3288 2813
3005 3229 3111
3078 3260 3203
1532 3971 181
1531 3976 668
1531 3979 1137
1531 3992 1606
1531 3977 2061
1692 3958 2524
2845 3748 3035
3408 3628 3386
3525 3638 3511
2005 125 123
1917 124 439
1891 124 900
1938 124 1397
1963 124 1886
1977 124 2363
1989 124 2848
1996 124 3325
1979 618 3320
1988 454 123
1909 451 444
1898 451 884
1930 452 1359
1957 453 1835
1973 453 2300
1986 453 2772
1995 453 3240
2026 735 3366
1984 939 129
1918 932 462
1916 933 909
1935 936 1382
1960 939 1860
1974 941 2322
1985 943 2793
1996 985 3188
2127 1005 3450
1992 1471 136
1942 1457 491
1937 1459 947
1951 1464 1427
1967 1469 1903
1980 1471 2372
1994 1479 2822
2068 1551 2947
2267 1426 3510
1997 2011 143
1968 1996 520
1963 1998 988
1968 2003 1472
1974 2007 1951
2053 2002 2257
2139 2013 2520
2228 2040 2750
2417 1951 3434
1999 2510 148
1981 2493 541
1978 2495 1011
1982 2501 1500
1986 2506 1977
2297 2422 2343
2353 2452 2476
2409 2495 2593
2559 2473 3157
2002 2999 154
1990 2981 558
1989 2984 1034
1992 2991 1516
1996 2996 1992
2187 2956 2379
2654 2852 2748
2720 2881 2877
2770 2922 3047
2003 3478 157
1999 3459 578
1997 3464 1051
1997 3471 1529
2000 3476 2003
2011 3477 2461
2724 3334 2841
3092 3265 3145
3143 3300 3249
2005 3959 162
2003 3940 592
2003 3945 1068
2004 3952 1546
2004 3958 2014
2004 3960 2474
2781 3815 3013
3416 3680 3397
3575 3676 3550
2481 114 106
2440 113 384
2375 113 832
2396 113 1334
2429 113 1834
2447 113 2327
2461 113 2818
2471 113 3310
2480 114 3805
2477 413 106
2412 407 392
2375 407 820
2389 407 1298
2423 409 1783
2443 410 2262
2458 410 2740
2470 411 3221
2478 412 3702
2466 906 111
2407 889 405
2386 890 842
2404 893 1325
2427 898 1808
2444 903 2284
2458 907 2759
2470 911 3244
2479 913 3726
2469 1444 117
2420 1413 428
2406 1419 876
2421 1425 1365
2436 1432 1849
2451 1441 2331
2463 1447 2810
2471 1453 3291
2480 1458 3779
2475 1996 123
2444 1961 455
2430 1963 914
2437 1969 1407
2447 1979 1897
2458 1989 2383
2468 1997 2864
2474 2006 3344
2600 1983 3733
2477 2507 127
2457 2466 473
2448 2468 939
2454 2476 1438
2458 2485 1926
2462 2495 2408
2541 2497 2727
2643 2494 3111
2762 2479 3539
2479 2993 133
2467 2949 487
2463 2952 962
2465 2960 1453
2469 2970 1942
2471 2982 2422
2790 2912 2801
2836 2944 2954
2878 2984 3126
2481 3471 134
2475 3421 505
2472 3426 980
2473 3436 1468
2477 3448 1953
2478 3461 2432
2760 3407 2870
3189 3319 3199
3231 3355 3314
2482 3947 139
2481 3892 522
2479 3899 997
2481 3913 1484
2481 3925 1963
2481 3938 2438
2570 3931 2925
3424 3750 3413
3642 3728 3601
2968 100 87
2969 100 330
2879 99 759
2871 99 1273
2904 99 1784
2926 99 2284
2944 100 2793
2956 100 3293
2966 100 3798
2969 375 87
2931 369 339
2870 368 753
2874 368 1246
2897 370 1734
2921 373 2221
2940 373 2716
2954 374 3206
2964 375 3696
2959 871 91
2911 850 349
2871 850 773
2886 853 1270
2904 857 1759
2924 864 2241
2941 870 2732
2955 875 3224
2965 878 3716
2959 1420 95
2917 1384 368
2888 1388 805
2903 1395 1305
2918 1403 1802
2932 1412 2287
2946 1423 2782
2957 1430 3271
2966 1437 3766
2962 1987 100
2933 1937 391
2908 1938 840
2918 1950 1344
2931 1962 1847
2940 1973 2340
2951 1987 2838
2958 1998 3326
2967 2006 3824
2964 2501 104
2945 2446 407
2929 2446 865
2935 2456 1375
2941 2468 1876
2946 2482 2366
2954 2498 2863
2962 2512 3354
2968 2524 3846
2966 2992 108
2955 2932 420
2947 2932 889
2949 2944 1394
2953 2957 1894
2955 2969 2382
2959 2985 2874
3041 2988 3237
3139 2989 3628
2967 3465 109
2962 3398 433
2957 3399 906
2959 3412 1408
2961 3426 1904
2963 3441 2390
2966 3460 2882
3301 3390 3270
3342 3423 3399
2969 3939 116
2969 3865 452
2965 3867 924
2967 3882 1424
2967 3898 1914
2967 3916 2397
2969 3936 2885
3401 3848 3417
3727 3793 3665
3458 93 78
3458 92 278
3397 92 688
3366 91 1209
3380 91 1732
3407 92 2244
3429 92 2763
3443 92 3278
3454 94 3791
3458 333 79
3456 328 287
3376 326 685
3366 326 1188
3378 327 1687
3402 329 2180
3424 331 2684
3440 332 3187
3452 334 3686
3452 834 82
3418 811 295
3366 809 703
3372 811 1208
3389 815 1712
3405 821 2197
3425 829 2699
3442 835 3203
3453 840 3703
3449 1399 86
3416 1357 310
3377 1356 733
3388 1364 1242
3403 1373 1751
3415 1381 2245
3431 1393 2748
3444 1404 3251
3454 1413 3753
3452 1982 91
3426 1921 330
3395 1924 768
3403 1936 1278
3416 1949 1796
3426 1962 2298
3438 1976 2807
3446 1990 3309
3455 2001 3814
3453 2506 94
3436 2436 343
3413 2433 792
3418 2444 1309
3428 2461 1825
3433 2477 2326
3441 2494 2833
3448 2512 3337
3456 2526 3836
3455 2995 98
3445 2921 356
3432 2918 815
3434 2930 1328
3440 2945 1843
3442 2960 2342
3446 2980 2844
3451 2999 3345
3457 3015 3841
3456 3465 99
3452 3382 366
3444 3379 832
3446 3393 1343
3448 3410 1852
3450 3427 2350
3454 3447 2851
3455 3468 3345
3535 3475 3718
3458 3938 109
3458 3847 386
3454 3844 857
3455 3860 1363
3456 3879 1866
3456 3898 2357
3458 3921 2855
3458 3945 3348
3829 3872 3743
3945 81 58
3946 81 221
3923 80 621
3865 80 1149
3865 80 1684
3886 80 2205
3912 80 2736
3928 81 3260
3941 81 3789
3946 292 58
3946 288 231
3890 286 622
3860 286 1133
3866 286 1645
3882 287 2142
3907 288 2658
3926 290 3169
3939 291 3683
3944 802 61
3924 780 236
3863 776 639
3861 777 1151
3875 781 1666
3887 786 2164
3908 794 2674
3927 800 3186
3940 806 3700
3940 1381 66
3915 1339 250
3868 1336 669
3874 1342 1184
3888 1351 1703
3900 1360 2210
3915 1372 2722
3930 1384 3234
3942 1394 3751
3940 1974 71
3921 1915 267
3884 1917 704
3888 1928 1219
3902 1941 1745
3912 1954 2261
3924 1968 2781
3933 1983 3292
3943 1997 3812
3941 2500 73
3927 2425 278
3897 2423 727
3904 2439 1250
3912 2456 1773
3919 2473 2288
3928 2491 2806
3936 2509 3317
3943 2526 3832
3944 2992 74
3935 2911 284
3917 2909 748
3919 2921 1269
3925 2937 1793
3928 2957 2304
3934 2979 2818
3939 2998 3326
3944 3017 3835
3945 3465 74
3940 3372 292
3931 3370 765
3932 3384 1284
3935 3403 1803
3937 3422 2312
3941 3446 2827
3942 3469 3330
3946 3492 3837
3946 3933 80
3946 3832 308
3941 3831 784
3942 3846 1301
3943 3867 1815
3943 3889 2319
3945 3915 2829
3946 3939 3331
3947 3965 3836
