Toning/Toning-Cinematic & Warm-BlueShadows.3dl
#25pt 3DLUT created by 3D LUT Creator Pro (c) Oleg Sharonov
#Copyright Oleg Sharonov
#IMAGEPROFILE sRGB IEC61966-2.1 v.2.10
#INPUTGAMMA sRGB IEC61966-2.1 v.2.10
#OUTPUTGAMMA sRGB IEC61966-2.1 v.2.10
0 43 86 128 171 214 256 299 341 384 427 469 512 555 597 640 682 725 768 810 853 896 938 981 1023 
152 152 273
152 152 287
155 155 304
161 161 334
171 171 367
186 186 408
206 209 448
228 238 489
252 271 538
276 308 593
295 345 655
314 384 723
332 427 794
354 464 871
354 512 955
381 558 1042
406 599 1135
406 652 1227
452 705 1322
475 751 1426
484 809 1527
552 868 1629
579 920 1742
602 977 1850
676 1038 1955
189 201 295
189 201 326
189 203 363
198 209 399
209 222 433
222 240 465
240 262 501
262 289 543
280 322 593
297 352 647
314 386 707
326 425 772
349 460 842
356 500 918
365 546 999
399 586 1085
403 631 1175
420 685 1264
468 732 1361
471 780 1462
501 838 1558
565 892 1662
576 944 1773
620 1003 1877
689 1061 1983
235 264 328
238 267 352
235 269 394
240 278 440
252 291 479
267 308 520
280 330 560
295 352 605
312 377 654
322 406 711
334 439 770
354 470 833
363 505 903
369 546 978
398 584 1057
409 624 1142
411 673 1228
455 720 1316
475 763 1412
478 815 1508
538 871 1604
575 921 1710
586 974 1816
653 1032 1915
703 1087 2024
293 347 372
295 351 388
293 354 427
291 360 479
297 372 527
310 389 576
326 408 625
336 430 677
343 454 732
358 478 788
376 505 849
379 538 916
386 572 986
411 604 1060
416 642 1139
420 687 1219
460 729 1302
479 769 1393
477 817 1483
526 868 1574
571 917 1674
577 964 1778
626 1020 1874
692 1073 1976
713 1124 2084
347 445 445
351 449 448
349 455 474
349 455 509
347 458 562
356 477 623
367 499 684
379 520 745
396 541 807
404 568 872
408 594 940
419 620 1010
431 650 1082
428 686 1158
445 724 1233
481 759 1313
486 797 1399
485 842 1484
536 888 1571
573 931 1667
575 975 1765
620 1027 1857
688 1078 1954
712 1126 2058
740 1177 2158
409 571 501
412 576 503
409 583 522
404 585 560
404 585 607
406 584 663
416 595 728
425 618 802
436 645 880
443 668 955
448 692 1031
446 721 1108
458 751 1183
488 781 1260
503 812 1341
493 849 1423
517 888 1504
565 927 1590
575 965 1683
578 1008 1775
637 1056 1862
695 1101 1956
713 1145 2056
744 1194 2150
805 1246 2242
499 727 558
501 731 558
503 736 566
496 738 613
485 731 657
470 721 707
458 717 777
472 733 857
486 749 934
472 777 1026
478 807 1115
506 832 1198
518 859 1283
510 889 1368
527 922 1449
571 954 1533
588 986 1622
576 1022 1712
607 1063 1799
673 1104 1886
703 1143 1979
718 1184 2072
761 1231 2161
827 1277 2250
874 1322 2345
597 869 594
599 872 594
601 877 595
597 884 641
593 895 706
586 902 779
571 888 841
547 862 899
521 873 992
536 899 1087
550 920 1178
523 951 1283
533 981 1377
586 1007 1465
616 1034 1556
604 1066 1650
612 1099 1739
666 1134 1826
698 1167 1919
705 1202 2012
740 1243 2099
801 1286 2184
859 1325 2274
878 1366 2368
899 1409 2459
693 1020 635
696 1023 635
699 1028 636
700 1034 658
694 1042 727
686 1050 801
674 1059 891
659 1066 988
635 1039 1061
617 1022 1133
576 1050 1246
595 1077 1351
636 1101 1453
643 1131 1560
647 1160 1659
686 1188 1753
713 1217 1850
707 1247 1949
728 1282 2040
793 1318 2125
855 1353 2214
877 1388 2306
880 1426 2398
930 1467 2483
1012 1510 2564
794 1177 676
797 1180 676
799 1184 677
803 1190 678
796 1197 744
788 1207 824
782 1219 919
770 1228 1023
748 1224 1125
713 1214 1227
689 1191 1304
694 1199 1403
676 1235 1531
704 1261 1638
753 1287 1745
758 1314 1854
744 1344 1959
792 1374 2054
864 1403 2146
897 1434 2241
889 1467 2336
915 1502 2425
995 1540 2507
1074 1577 2589
1134 1613 2673
917 1353 699
918 1355 699
920 1359 699
922 1364 700
921 1370 740
911 1376 835
899 1385 930
888 1394 1043
883 1411 1175
862 1408 1289
819 1372 1379
765 1359 1485
767 1358 1577
813 1386 1702
820 1419 1828
818 1446 1941
868 1473 2048
924 1499 2150
939 1528 2251
941 1560 2347
995 1592 2438
1075 1623 2525
1137 1655 2612
1178 1689 2699
1206 1725 2784
1043 1508 787
1044 1510 788
1047 1513 789
1051 1518 793
1057 1524 796
1038 1548 852
1028 1558 945
1017 1565 1060
1004 1572 1185
994 1585 1326
982 1598 1472
924 1543 1551
889 1511 1648
877 1526 1766
893 1546 1883
944 1579 2010
975 1605 2125
986 1633 2236
1016 1662 2336
1079 1689 2434
1148 1717 2530
1195 1746 2624
1218 1778 2715
1257 1810 2800
1332 1843 2879
1166 1655 888
1167 1656 889
1170 1659 891
1173 1663 894
1178 1668 896
1172 1687 929
1158 1714 992
1143 1733 1083
1130 1740 1209
1119 1748 1346
1107 1754 1484
1101 1760 1634
1045 1725 1742
975 1665 1809
1018 1688 1941
1031 1711 2066
1033 1741 2191
1086 1768 2303
1159 1794 2410
1214 1819 2515
1249 1846 2617
1274 1874 2714
1336 1902 2802
1422 1931 2886
1504 1960 2966
1311 1814 995
1312 1816 995
1313 1818 997
1316 1821 1000
1319 1825 1003
1320 1833 1014
1302 1859 1087
1284 1885 1153
1265 1910 1235
1251 1915 1372
1237 1921 1513
1230 1930 1661
1208 1918 1795
1168 1886 1909
1115 1834 1990
1111 1845 2110
1159 1877 2243
1222 1902 2360
1262 1927 2480
1302 1951 2591
1351 1976 2694
1426 2001 2790
1506 2026 2881
1575 2053 2967
1639 2081 3049
1446 1968 1114
1448 1970 1115
1450 1972 1116
1454 1976 1119
1458 1981 1122
1464 1987 1127
1453 2007 1178
1434 2033 1251
1414 2059 1323
1391 2088 1398
1378 2092 1537
1366 2096 1682
1359 2103 1834
1340 2091 1969
1287 2039 2063
1250 2005 2169
1274 2006 2276
1310 2038 2414
1359 2059 2540
1426 2081 2653
1500 2104 2759
1567 2127 2859
1630 2151 2954
1695 2178 3041
1760 2204 3125
1576 2118 1226
1577 2120 1227
1579 2122 1229
1582 2125 1231
1585 2129 1234
1590 2134 1239
1590 2146 1262
1574 2175 1344
1559 2202 1416
1540 2230 1489
1516 2259 1567
1502 2263 1707
1497 2267 1854
1490 2268 1999
1474 2257 2138
1421 2196 2222
1389 2164 2333
1417 2169 2452
1479 2191 2587
1549 2211 2709
1614 2232 2819
1679 2254 2922
1746 2277 3019
1814 2301 3109
1880 2325 3195
1729 2280 1355
1730 2281 1356
1731 2283 1358
1733 2285 1359
1736 2288 1362
1739 2292 1365
1744 2297 1369
1728 2319 1435
1709 2344 1513
1690 2370 1584
1670 2397 1659
1647 2426 1738
1633 2429 1878
1629 2431 2025
1630 2430 2168
1611 2410 2296
1562 2356 2387
1533 2308 2493
1590 2323 2632
1651 2340 2759
1719 2361 2874
1791 2381 2980
1860 2401 3079
1928 2423 3172
1996 2446 3259
1867 2428 1477
1869 2430 1478
1871 2431 1480
1873 2434 1482
1877 2437 1485
1881 2442 1489
1887 2448 1494
1884 2461 1528
1864 2487 1607
1845 2511 1676
1825 2536 1749
1802 2562 1825
1779 2594 1900
1772 2595 2041
1769 2591 2185
1775 2584 2330
1754 2557 2448
1708 2495 2552
1684 2447 2664
1753 2470 2804
1826 2488 2921
1898 2507 3030
1969 2526 3132
2039 2545 3228
2107 2565 3317
2003 2570 1599
2003 2571 1600
2005 2572 1601
2007 2574 1603
2010 2577 1606
2013 2581 1609
2018 2586 1613
2024 2591 1618
2009 2618 1693
1993 2645 1769
1976 2669 1839
1957 2695 1912
1936 2725 1984
1915 2754 2062
1912 2748 2205
1921 2741 2351
1923 2728 2486
1898 2682 2605
1854 2620 2709
1850 2592 2833
1924 2612 2962
1999 2630 3075
2073 2648 3179
2144 2665 3277
2212 2683 3369
2154 2717 1729
2155 2718 1729
2156 2719 1730
2158 2721 1732
2160 2723 1734
2163 2726 1737
2167 2730 1740
2171 2735 1745
2163 2749 1786
2143 2774 1863
2127 2797 1933
2110 2820 2004
2092 2847 2074
2074 2876 2146
2059 2897 2232
2058 2886 2373
2075 2878 2514
2075 2851 2650
2040 2798 2757
2005 2746 2857
2021 2735 2994
2098 2752 3113
2173 2768 3221
2246 2785 3321
2314 2801 3417
2293 2854 1854
2294 2855 1855
2295 2856 1856
2298 2858 1858
2301 2861 1860
2304 2864 1864
2309 2868 1868
2314 2873 1872
2318 2879 1882
2299 2901 1958
2280 2923 2030
2264 2943 2100
2248 2964 2170
2231 2990 2238
2215 3013 2311
2205 3027 2402
2211 3013 2538
2235 2999 2681
2228 2967 2804
2188 2920 2903
2161 2877 3006
2193 2874 3145
2270 2889 3258
2344 2904 3362
2414 2919 3460
2429 2983 1977
2430 2984 1977
2430 2985 1978
2432 2986 1980
2434 2988 1982
2437 2991 1984
2441 2994 1988
2446 2999 1992
2452 3004 1997
2444 3019 2049
2429 3041 2126
2415 3060 2193
2401 3079 2262
2387 3098 2332
2372 3119 2400
2359 3141 2470
2355 3146 2571
2373 3128 2706
2392 3109 2836
2380 3081 2945
2341 3040 3044
2326 3008 3154
2366 3007 3289
2441 3020 3400
2512 3034 3503
2576 3108 2113
2577 3109 2113
2578 3110 2114
2580 3111 2116
2581 3113 2118
2584 3115 2120
2587 3117 2123
2590 3121 2127
2595 3125 2131
2595 3131 2150
2578 3148 2227
2564 3164 2298
2552 3181 2363
2540 3198 2431
2529 3215 2499
2518 3235 2565
2510 3253 2636
2514 3249 2743
2540 3234 2870
2545 3211 2986
2519 3179 3086
2489 3149 3187
2497 3134 3307
2539 3133 3434
2607 3145 3546
2712 3221 2243
2713 3222 2244
2714 3223 2244
2716 3224 2246
2718 3225 2248
2721 3228 2250
2724 3230 2254
2729 3233 2258
2734 3237 2263
2739 3241 2268
2727 3252 2326
2712 3265 2399
2700 3280 2463
2690 3294 2527
2681 3309 2593
2672 3325 2657
2666 3342 2726
2663 3358 2794
2674 3348 2902
2703 3334 3019
2689 3311 3126
2655 3285 3224
2640 3262 3331
2666 3258 3454
2702 3256 3580
2845 3323 2373
2846 3324 2374
2847 3324 2375
2848 3325 2376
2850 3326 2378
2852 3328 2381
2855 3330 2383
2859 3333 2387
2864 3336 2392
2868 3339 2397
2868 3346 2425
2856 3359 2496
2846 3372 2564
2838 3385 2625
2831 3398 2687
2825 3412 2750
2818 3427 2813
2814 3443 2876
2811 3461 2938
2828 3447 3049
2844 3433 3164
2823 3407 3269
2797 3386 3370
2796 3376 3483
2828 3375 3610
180 158 284
183 158 304
174 165 324
174 171 349
180 180 376
192 195 414
212 217 455
233 245 496
260 278 543
280 314 600
299 349 659
318 388 727
336 431 800
358 468 876
356 514 959
384 560 1045
409 601 1137
408 654 1230
455 708 1325
478 753 1429
486 811 1529
553 870 1632
582 921 1743
604 978 1852
677 1039 1956
220 214 304
212 217 365
209 217 403
209 220 433
217 230 445
230 248 471
248 269 508
267 295 550
284 326 599
302 356 651
318 391 713
330 428 777
352 464 846
358 504 923
369 550 1004
403 588 1089
404 634 1179
423 688 1268
471 734 1363
472 782 1464
505 841 1561
568 894 1665
578 946 1776
623 1004 1879
691 1063 1984
260 287 332
260 289 358
257 291 425
250 291 470
260 299 496
271 314 525
287 336 568
299 356 612
316 381 660
326 411 715
337 442 774
358 472 837
367 509 907
370 550 982
399 587 1061
411 627 1146
414 675 1230
458 723 1319
478 765 1415
481 818 1510
541 873 1607
576 923 1713
587 975 1818
655 1034 1918
705 1088 2026
310 367 377
306 365 379
302 369 440
297 372 501
304 383 548
316 394 585
330 411 629
339 433 682
345 458 736
362 481 793
379 509 852
381 541 919
389 575 988
414 606 1063
419 644 1141
422 689 1221
462 731 1304
482 771 1395
478 819 1486
528 871 1577
573 918 1676
578 966 1780
628 1021 1876
693 1074 1977
715 1126 2086
377 471 452
376 472 455
356 464 474
352 464 518
351 467 582
362 486 640
370 503 689
383 523 749
398 543 811
408 570 877
411 597 944
422 624 1013
433 652 1086
430 689 1161
448 726 1236
484 761 1317
488 798 1403
488 843 1487
538 889 1573
575 933 1668
576 977 1767
623 1029 1859
689 1080 1956
713 1128 2060
742 1179 2160
443 600 504
448 605 505
423 594 509
412 599 565
411 595 617
409 590 678
419 602 742
428 620 807
439 648 883
446 670 958
449 694 1035
449 724 1111
461 754 1186
490 783 1263
504 815 1344
496 851 1426
520 891 1507
568 929 1593
576 967 1685
580 1010 1777
640 1058 1865
696 1103 1958
713 1147 2058
745 1196 2152
807 1248 2244
522 745 553
525 749 554
520 750 557
503 747 609
489 740 660
472 728 717
461 725 794
478 738 868
488 751 938
475 778 1029
481 809 1119
508 834 1200
520 860 1286
513 891 1371
530 924 1453
573 955 1536
590 988 1624
577 1024 1715
609 1064 1800
675 1105 1887
704 1144 1982
720 1186 2075
764 1232 2163
828 1279 2252
876 1323 2347
616 883 590
617 886 590
619 890 591
604 890 625
599 902 704
588 909 784
572 893 848
543 865 911
523 879 1004
538 900 1090
550 921 1181
525 953 1286
536 982 1380
588 1009 1468
617 1036 1558
605 1067 1652
613 1101 1741
667 1135 1828
699 1168 1921
707 1204 2014
742 1245 2100
803 1287 2186
860 1326 2275
879 1367 2369
901 1410 2460
717 1035 631
719 1038 632
723 1043 632
711 1041 639
700 1049 720
691 1057 801
679 1067 898
663 1072 999
636 1040 1069
615 1027 1144
577 1052 1250
595 1078 1353
639 1103 1456
644 1133 1563
649 1162 1661
687 1190 1755
715 1218 1851
708 1249 1951
730 1283 2042
795 1319 2127
856 1354 2215
878 1390 2308
881 1427 2400
931 1469 2485
1013 1511 2565
813 1190 670
815 1193 671
818 1197 671
822 1203 672
802 1203 731
794 1213 819
786 1225 920
773 1233 1028
751 1231 1136
711 1217 1238
691 1192 1311
695 1201 1406
678 1237 1534
706 1262 1641
755 1288 1748
759 1316 1857
746 1345 1961
794 1375 2056
865 1405 2148
898 1435 2242
891 1468 2338
917 1504 2426
997 1541 2508
1076 1578 2591
1136 1614 2674
931 1363 693
933 1365 694
935 1368 696
938 1372 697
927 1375 717
916 1382 826
903 1390 927
891 1399 1045
885 1416 1181
864 1411 1296
817 1375 1390
765 1362 1493
768 1359 1579
814 1387 1704
821 1420 1830
819 1448 1943
870 1474 2049
926 1500 2152
940 1530 2253
942 1561 2349
997 1593 2439
1076 1624 2527
1138 1656 2613
1179 1690 2700
1207 1726 2786
