Toning/Toning-SplitToning-GreenShadows.3dl
#25pt 3DLUT created by 3D LUT Creator Pro (c) Oleg Sharonov
#Copyright Oleg Sharonov
#IMAGEPROFILE sRGB IEC61966-2.1 v.2.10
#INPUTGAMMA sRGB IEC61966-2.1 v.2.10
#OUTPUTGAMMA sRGB IEC61966-2.1 v.2.10
0 43 86 128 171 214 256 299 341 384 427 469 512 555 597 640 682 725 768 810 853 896 938 981 1023 
0 0 0
16 3 84
36 6 240
55 10 403
78 13 565
97 19 726
113 29 894
142 36 1064
183 39 1230
230 36 1401
276 36 1570
306 42 1737
339 48 1902
372 58 2066
406 68 2230
437 78 2396
470 87 2561
504 100 2724
536 113 2889
566 126 3055
600 139 3219
632 155 3383
665 171 3547
697 186 3712
734 203 3874
26 161 10
39 168 87
58 168 248
78 171 408
97 177 570
116 183 734
136 189 900
168 192 1069
212 195 1236
248 198 1403
278 203 1567
310 209 1734
341 214 1899
376 222 2064
408 230 2228
440 238 2394
474 248 2557
506 255 2722
538 264 2887
569 273 3053
601 284 3217
633 295 3381
666 306 3545
698 316 3710
734 330 3872
71 326 36
78 332 110
94 332 260
110 336 416
126 337 578
139 341 744
174 343 912
203 345 1077
233 349 1243
264 352 1407
295 356 1571
324 360 1736
354 365 1902
386 370 2066
417 376 2230
448 381 2395
482 388 2558
514 394 2721
545 401 2886
575 409 3052
606 416 3216
639 423 3380
671 431 3544
703 440 3709
738 449 3871
123 493 74
126 497 149
132 500 282
145 503 433
152 505 594
177 506 756
203 508 919
228 510 1084
255 512 1249
284 516 1410
312 517 1576
339 521 1740
370 523 1904
403 527 2068
433 531 2232
462 536 2396
494 540 2561
527 545 2723
556 551 2888
586 556 3053
616 562 3217
647 568 3381
678 575 3545
709 582 3709
744 590 3871
107 670 94
119 672 165
145 672 295
168 672 445
186 673 605
209 674 768
230 675 930
255 676 1093
278 678 1256
308 680 1418
334 682 1582
363 684 1746
391 686 1910
422 689 2074
451 692 2237
479 696 2400
509 699 2563
541 703 2727
570 707 2891
597 712 3055
628 716 3219
658 721 3383
689 726 3546
719 732 3710
752 739 3871
155 839 103
168 841 177
195 841 306
206 841 457
222 842 617
243 842 778
262 843 940
282 844 1103
306 845 1266
330 847 1426
354 849 1588
379 850 1752
408 852 1915
436 855 2078
464 857 2241
493 859 2405
523 862 2568
553 865 2730
582 868 2895
610 871 3059
640 875 3223
669 880 3386
699 884 3549
729 888 3713
762 894 3873
217 1009 110
225 1010 183
243 1010 318
248 1010 471
260 1011 629
273 1011 788
291 1012 950
310 1013 1113
332 1013 1275
356 1015 1436
379 1016 1597
404 1017 1760
428 1019 1923
455 1021 2085
484 1023 2247
510 1025 2410
538 1027 2573
568 1030 2735
595 1033 2899
620 1036 3062
649 1039 3225
677 1043 3388
707 1047 3551
735 1050 3715
769 1055 3875
278 1178 110
282 1179 192
291 1179 337
293 1180 486
302 1180 641
314 1180 801
328 1181 962
345 1182 1124
363 1182 1286
384 1183 1446
406 1184 1607
428 1185 1769
451 1187 1931
475 1188 2091
500 1190 2252
526 1192 2415
556 1194 2578
583 1196 2740
609 1198 2903
636 1201 3067
663 1204 3230
691 1207 3392
719 1210 3555
748 1213 3719
779 1218 3878
336 1347 123
334 1348 214
341 1348 360
343 1348 504
347 1349 656
356 1350 814
369 1350 975
384 1350 1137
401 1351 1298
420 1351 1458
440 1352 1619
461 1352 1781
484 1353 1943
506 1355 2103
530 1356 2264
554 1358 2425
580 1360 2586
607 1362 2747
633 1364 2910
660 1365 3074
687 1368 3237
715 1370 3400
744 1372 3563
771 1375 3726
802 1379 3885
388 1516 158
386 1517 248
393 1517 383
394 1517 523
398 1518 673
401 1519 828
412 1519 988
425 1519 1150
440 1519 1311
458 1519 1471
478 1520 1632
497 1520 1794
518 1521 1956
541 1522 2115
564 1523 2276
587 1524 2437
612 1526 2597
637 1528 2758
661 1529 2920
689 1530 3084
717 1531 3248
745 1533 3411
773 1535 3573
801 1537 3736
831 1540 3894
439 1686 198
436 1686 278
442 1686 404
443 1687 542
445 1687 690
448 1688 842
455 1688 1001
467 1688 1162
481 1688 1323
497 1688 1482
514 1688 1643
532 1689 1805
552 1689 1967
573 1690 2127
595 1691 2287
617 1692 2449
643 1693 2609
666 1694 2769
693 1695 2933
719 1696 3096
747 1697 3259
775 1698 3422
803 1699 3584
831 1701 3747
861 1703 3905
489 1855 238
486 1856 310
492 1855 428
494 1855 563
494 1856 708
496 1857 859
500 1857 1013
510 1857 1174
522 1857 1335
536 1857 1494
552 1857 1655
569 1858 1817
587 1858 1979
607 1858 2139
628 1859 2299
649 1859 2460
673 1860 2620
699 1861 2782
725 1861 2946
751 1862 3109
777 1862 3272
805 1863 3434
831 1865 3595
859 1866 3758
888 1868 3916
538 2024 278
536 2025 341
541 2025 454
543 2025 585
543 2025 725
543 2026 874
546 2026 1027
552 2026 1186
563 2026 1346
577 2026 1506
591 2026 1666
605 2027 1828
623 2027 1990
642 2027 2150
661 2027 2309
682 2028 2471
707 2028 2633
732 2028 2795
757 2029 2958
783 2029 3122
809 2029 3285
835 2030 3446
862 2031 3608
888 2032 3770
917 2034 3927
591 2193 320
587 2194 377
593 2194 484
596 2194 609
595 2194 746
594 2195 893
596 2195 1044
600 2195 1201
609 2195 1360
620 2195 1519
633 2195 1680
647 2195 1842
663 2195 2003
680 2196 2163
699 2196 2323
721 2196 2487
744 2196 2648
769 2196 2810
793 2196 2973
817 2196 3136
842 2196 3299
868 2197 3461
894 2197 3622
921 2198 3784
948 2200 3940
644 2362 360
642 2363 414
646 2363 513
650 2363 633
649 2363 768
648 2363 912
648 2364 1063
650 2364 1217
657 2364 1375
668 2364 1534
680 2364 1694
693 2364 1856
707 2364 2018
725 2363 2179
744 2363 2341
765 2363 2504
787 2363 2665
810 2363 2827
832 2363 2990
856 2363 3153
881 2363 3315
906 2363 3476
931 2363 3637
957 2364 3799
984 2366 3954
697 2532 401
694 2532 449
698 2532 543
702 2532 658
702 2532 790
700 2533 931
699 2533 1080
700 2533 1233
704 2533 1389
713 2533 1546
725 2533 1707
735 2533 1868
751 2533 2032
769 2532 2194
787 2532 2356
807 2531 2519
827 2531 2680
849 2531 2841
871 2531 3005
894 2531 3167
917 2531 3330
941 2531 3491
966 2531 3651
991 2531 3813
1017 2533 3968
751 2701 443
748 2701 488
752 2701 575
756 2701 686
757 2701 814
754 2701 952
752 2702 1098
752 2702 1250
754 2702 1404
760 2703 1560
770 2702 1719
783 2702 1884
798 2701 2047
813 2701 2209
830 2701 2370
848 2700 2533
868 2700 2694
888 2699 2855
909 2699 3018
931 2699 3181
953 2699 3343
976 2699 3504
999 2699 3665
1024 2699 3826
1049 2701 3980
805 2870 485
802 2870 525
806 2870 607
809 2870 713
811 2870 838
807 2870 973
805 2871 1117
803 2871 1267
804 2871 1419
810 2871 1574
821 2871 1736
833 2870 1899
846 2870 2063
860 2869 2224
875 2869 2385
891 2869 2548
909 2868 2708
928 2868 2869
947 2868 3032
968 2867 3195
990 2867 3357
1011 2867 3518
1035 2867 3678
1058 2867 3840
1083 2868 3994
857 3039 523
854 3039 562
858 3039 639
861 3039 740
863 3039 862
860 3039 994
857 3040 1136
855 3040 1284
857 3040 1437
863 3040 1593
872 3040 1753
883 3039 1915
894 3039 2078
907 3038 2239
921 3038 2400
935 3037 2562
952 3037 2722
969 3037 2883
988 3037 3046
1006 3036 3208
1028 3036 3370
1049 3036 3531
1070 3036 3692
1093 3036 3853
1117 3037 4007
909 3208 563
906 3209 599
909 3209 671
912 3208 768
915 3208 887
913 3209 1017
909 3209 1155
909 3209 1304
912 3209 1456
917 3209 1611
924 3209 1769
933 3208 1931
943 3208 2093
955 3207 2254
967 3207 2414
981 3206 2576
995 3206 2736
1012 3206 2897
1028 3205 3060
1047 3205 3222
1067 3204 3384
1087 3204 3545
1107 3204 3705
1129 3204 3867
1152 3205 4020
961 3377 602
958 3378 635
961 3377 704
965 3377 798
967 3377 912
966 3377 1039
964 3378 1177
965 3378 1325
967 3378 1476
971 3377 1630
977 3377 1787
984 3377 1947
993 3376 2108
1003 3376 2268
1014 3376 2429
1026 3375 2590
1041 3375 2750
1056 3374 2911
1071 3374 3073
1088 3374 3236
1106 3373 3398
1126 3373 3558
1145 3373 3719
1166 3372 3880
1188 3373 4034
1015 3546 644
1012 3547 674
1016 3547 739
1018 3547 828
1021 3546 939
1022 3546 1066
1021 3546 1201
1022 3546 1347
1023 3546 1497
1028 3546 1649
1032 3546 1805
1038 3545 1964
1046 3545 2125
1055 3545 2285
1064 3544 2444
1076 3544 2606
1088 3544 2766
1102 3543 2926
1117 3543 3088
1132 3542 3250
1149 3542 3412
1167 3542 3573
1186 3541 3733
1206 3541 3894
1226 3542 4047
1070 3715 685
1067 3716 713
1070 3716 776
1074 3716 861
1076 3715 968
1077 3715 1091
1078 3715 1226
1079 3715 1370
1080 3715 1518
1084 3715 1669
1088 3715 1825
1093 3714 1983
1099 3714 2142
1107 3714 2301
1116 3713 2460
1126 3713 2621
1137 3713 2781
1150 3712 2941
1163 3712 3103
1178 3711 3265
1194 3711 3427
1211 3710 3588
1228 3710 3748
1247 3710 3909
1267 3710 4062
1123 3884 725
1119 3885 751
1123 3885 811
1126 3884 892
1128 3884 995
1131 3884 1117
1132 3884 1249
1133 3884 1391
1135 3884 1538
1138 3884 1688
1142 3883 1842
1145 3883 2000
1151 3883 2158
1159 3882 2317
1166 3882 2475
1174 3882 2636
1185 3881 2795
1197 3881 2955
1208 3880 3117
1222 3880 3279
1237 3880 3440
1252 3879 3601
1269 3879 3761
1287 3879 3922
1306 3879 4075
1183 4053 772
1185 4053 802
1189 4053 857
1192 4053 935
1194 4053 1035
1196 4052 1151
1198 4052 1282
1199 4052 1423
1201 4052 1567
1204 4052 1716
1207 4051 1869
1210 4051 2026
1215 4051 2184
1221 4050 2341
1227 4050 2500
1235 4050 2660
1244 4049 2819
1254 4049 2978
1265 4048 3140
1278 4048 3303
1292 4047 3464
1306 4047 3624
1322 4046 3784
1339 4046 3946
1357 4046 4095
42 36 36
58 39 116
78 39 273
97 39 434
116 42 595
136 45 765
155 55 924
180 58 1092
212 58 1260
255 58 1426
282 61 1594
312 68 1758
343 74 1923
372 81 2089
406 90 2251
434 97 2417
468 110 2580
500 119 2743
531 129 2908
562 142 3074
594 152 3238
626 168 3402
659 183 3565
691 195 3730
748 230 3875
68 195 42
81 201 123
97 201 280
116 201 439
136 203 600
152 209 763
174 212 929
203 214 1096
233 214 1264
262 220 1425
289 225 1590
318 230 1756
347 235 1921
379 240 2085
409 248 2249
440 255 2414
472 262 2578
505 269 2741
535 278 2906
565 284 3072
596 293 3236
629 304 3400
661 314 3563
693 322 3728
749 349 3872
94 351 52
103 354 129
113 356 282
136 356 440
152 358 603
171 362 765
195 363 931
217 365 1094
243 369 1259
271 372 1423
295 376 1588
322 379 1754
351 383 1919
383 388 2082
412 393 2246
442 398 2410
474 404 2573
504 409 2738
533 416 2903
564 422 3067
595 428 3233
627 436 3396
659 443 3560
692 451 3724
747 471 3868
129 514 78
132 517 149
142 518 293
158 520 448
177 521 609
195 522 772
214 523 933
238 526 1097
260 528 1261
284 531 1424
310 533 1589
336 537 1752
363 540 1918
393 542 2081
422 546 2245
452 551 2410
482 554 2572
513 559 2735
541 564 2902
571 570 3065
601 575 3230
632 580 3394
663 587 3557
694 593 3722
747 611 3865
132 683 90
149 685 165
168 685 304
186 685 458
201 686 617
220 687 778
238 688 941
257 690 1103
278 692 1266
304 694 1427
328 696 1591
354 697 1755
379 700 1920
408 703 2083
434 706 2246
464 710 2410
493 713 2572
521 717 2736
550 721 2901
578 725 3065
609 729 3229
639 734 3393
669 739 3556
698 744 3720
749 759 3864
174 850 100
189 852 177
206 852 314
217 852 468
233 852 628
248 852 789
267 853 950
284 855 1112
304 856 1274
326 858 1434
347 860 1597
370 862 1759
396 864 1923
423 866 2085
449 869 2247
478 871 2412
505 874 2574
533 878 2737
560 881 2901
588 885 3066
617 888 3230
647 892 3393
677 896 3556
706 901 3720
755 914 3862
222 1018 107
233 1019 186
243 1020 328
250 1020 479
262 1020 637
276 1021 798
291 1022 959
308 1022 1120
328 1023 1282
349 1024 1442
370 1026 1604
393 1027 1766
416 1029 1928
440 1031 2090
467 1033 2252
492 1036 2415
518 1039 2577
546 1041 2739
570 1044 2903
597 1047 3067
625 1051 3230
652 1055 3393
680 1059 3556
711 1062 3720
756 1074 3861
273 1187 110
278 1187 198
284 1187 345
291 1188 493
297 1188 650
312 1188 810
326 1189 970
341 1189 1132
358 1190 1292
379 1191 1451
398 1192 1613
419 1194 1775
440 1195 1936
462 1197 2096
485 1199 2257
509 1201 2419
535 1204 2581
560 1207 2743
586 1209 2907
612 1212 3070
637 1214 3233
665 1218 3396
694 1221 3559
721 1224 3723
764 1235 3862
324 1355 126
326 1355 222
332 1355 363
336 1356 510
341 1356 664
351 1356 823
365 1356 983
379 1357 1144
396 1357 1304
414 1358 1464
433 1359 1625
452 1359 1787
474 1361 1948
496 1362 2107
517 1364 2267
540 1366 2429
564 1368 2589
588 1370 2751
614 1372 2914
639 1374 3077
666 1376 3241
693 1379 3404
721 1381 3567
748 1384 3730
788 1394 3868
374 1523 161
374 1524 250
381 1524 386
383 1524 528
388 1524 681
393 1525 836
406 1525 996
419 1525 1157
434 1525 1317
452 1526 1476
470 1526 1637
489 1526 1799
508 1527 1960
530 1528 2119
551 1530 2279
573 1531 2440
597 1533 2600
620 1535 2760
644 1536 2923
670 1538 3087
696 1539 3251
725 1541 3414
751 1543 3576
778 1545 3739
816 1554 3877
420 1692 195
422 1693 276
428 1693 408
430 1693 546
433 1693 696
437 1693 850
446 1694 1008
458 1694 1169
472 1694 1329
489 1694 1488
506 1694 1649
523 1694 1810
542 1695 1971
563 1696 2131
583 1697 2290
605 1698 2452
628 1699 2611
651 1700 2772
676 1701 2935
702 1702 3099
728 1703 3262
756 1705 3424
783 1707 3586
810 1708 3749
845 1716 3886
