Toning/Toning-Coldness.3dl
#25pt 3DLUT created by 3D LUT Creator Pro (c) Oleg Sharonov
#Copyright !UNREGISTERED VERSION OF 3D LUT CREATOR!
#IMAGEPROFILE sRGB IEC61966-2.1 v.2.10
#INPUTGAMMA sRGB IEC61966-2.1 v.2.10
#OUTPUTGAMMA sRGB IEC61966-2.1 v.2.10
0 128 256 384 512 640 768 896 1023
89 89 89
85 88 603
82 88 1135
78 86 1757
74 85 2396
70 83 2951
67 83 3365
65 84 3682
64 84 3947
86 513 89
83 513 604
79 510 1136
75 505 1759
71 500 2397
67 496 2952
65 491 3365
63 487 3681
61 483 3946
83 972 90
80 972 601
76 972 1137
72 964 1761
68 955 2399
64 946 2952
62 937 3365
60 928 3680
58 918 3945
79 1525 89
76 1526 597
73 1526 1129
68 1526 1761
64 1511 2399
61 1495 2952
58 1478 3364
56 1460 3679
55 1441 3944
75 2163 88
72 2164 592
68 2165 1119
64 2166 1745
60 2166 2399
56 2143 2951
54 2118 3362
52 2092 3677
51 2063 3941
71 2776 88
68 2777 586
64 2778 1109
60 2777 1728
56 2777 2377
52 2777 2950
50 2749 3360
48 2718 3674
47 2685 3939
68 3265 87
65 3265 581
61 3264 1098
57 3263 1709
53 3262 2353
49 3261 2925
47 3261 3359
45 3233 3673
43 3202 3937
65 3635 88
62 3634 576
59 3633 1087
55 3631 1690
51 3629 2327
47 3628 2898
44 3627 3334
42 3627 3672
41 3598 3936
63 3942 89
60 3941 571
57 3940 1075
53 3938 1670
49 3936 2299
46 3934 2869
43 3933 3307
41 3933 3647
39 3933 3936
162 148 169
227 90 606
224 89 1138
219 88 1761
215 86 2399
210 85 2954
207 85 3367
203 86 3683
200 86 3948
228 429 224
226 515 606
223 512 1139
218 507 1763
213 501 2401
209 497 2954
205 493 3367
202 489 3682
199 485 3947
257 975 240
223 975 603
221 974 1140
216 966 1764
211 957 2402
207 947 2955
203 938 3366
200 929 3681
197 919 3946
234 1528 154
219 1529 599
217 1530 1132
214 1530 1765
209 1514 2403
205 1497 2954
201 1480 3365
198 1462 3680
195 1443 3945
216 2167 91
214 2168 593
212 2169 1121
209 2169 1749
206 2169 2402
202 2145 2953
198 2120 3363
195 2094 3678
192 2065 3942
211 2780 90
209 2780 588
207 2781 1110
205 2781 1731
202 2780 2379
200 2780 2952
195 2751 3362
192 2720 3675
189 2687 3940
207 3267 90
205 3267 584
203 3266 1099
200 3265 1711
197 3264 2355
195 3263 2927
195 3263 3361
191 3234 3674
187 3203 3938
204 3636 91
202 3635 580
200 3634 1089
197 3632 1692
194 3631 2329
192 3629 2900
191 3629 3336
191 3629 3673
187 3599 3937
200 3943 91
199 3942 575
196 3941 1077
194 3939 1671
190 3937 2301
188 3935 2870
187 3935 3309
187 3934 3648
187 3935 3937
347 208 252
556 91 604
555 90 1140
548 89 1763
540 87 2401
531 86 2955
523 86 3367
515 86 3683
507 87 3948
373 477 301
444 524 627
555 512 1141
547 507 1765
539 502 2403
530 497 2955
522 493 3367
514 489 3682
506 485 3947
556 788 357
555 881 739
555 975 1142
548 968 1766
539 958 2404
530 949 2956
522 939 3367
513 929 3681
505 919 3946
687 1531 470
600 1531 750
548 1532 1134
547 1532 1767
538 1516 2405
529 1500 2956
521 1482 3366
512 1463 3680
503 1443 3944
645 2170 382
561 2171 657
539 2171 1124
538 2172 1751
536 2172 2405
528 2148 2955
519 2123 3364
510 2096 3678
502 2067 3942
605 2782 296
531 2782 588
530 2783 1112
529 2782 1733
527 2782 2382
526 2782 2954
517 2754 3362
509 2723 3675
500 2689 3940
566 3268 211
522 3268 583
521 3267 1100
520 3266 1714
519 3265 2357
517 3264 2928
516 3264 3361
508 3235 3674
499 3204 3938
528 3636 130
514 3636 579
512 3634 1088
511 3633 1694
510 3631 2331
508 3629 2901
508 3629 3336
507 3629 3673
498 3599 3937
507 3943 93
505 3942 574
504 3941 1077
502 3939 1672
500 3937 2303
499 3935 2872
499 3935 3309
498 3935 3647
499 3935 3937
640 272 339
890 165 659
1031 90 1132
1031 88 1765
1016 86 2403
1001 86 2955
986 85 3367
969 86 3682
952 87 3947
591 573 387
759 577 698
1032 509 1133
1032 507 1766
1017 502 2404
1001 496 2956
985 492 3367
969 488 3681
952 485 3946
795 835 439
795 914 763
890 971 1149
1033 968 1768
1018 959 2405
1003 949 2956
986 939 3366
969 929 3680
952 919 3945
1033 1182 487
1033 1293 870
1033 1412 1289
1033 1533 1768
1019 1518 2406
1003 1502 2956
987 1484 3365
970 1465 3679
952 1445 3943
1350 2172 697
1217 2173 981
1092 2173 1296
1019 2173 1753
1018 2173 2406
1003 2150 2955
987 2125 3363
969 2098 3677
951 2069 3941
1280 2783 607
1151 2783 885
1032 2783 1184
1003 2783 1735
1003 2783 2383
1002 2783 2954
986 2755 3361
969 2724 3674
951 2691 3938
1211 3267 518
1086 3267 790
986 3267 1102
986 3266 1716
986 3265 2359
986 3264 2929
986 3264 3360
969 3235 3673
951 3204 3937
1143 3635 433
1025 3634 699
968 3634 1090
968 3632 1695
968 3630 2333
969 3629 2902
969 3628 3336
969 3628 3672
951 3599 3936
1078 3942 349
967 3941 611
950 3940 1077
950 3938 1674
950 3936 2304
950 3935 2872
951 3934 3309
951 3934 3646
952 3934 3935
1073 342 435
1369 233 738
1698 88 1122
1699 86 1748
1699 84 2402
1673 84 2954
1646 83 3365
1617 84 3680
1585 85 3944
952 698 491
1216 649 791
1532 561 1179
1701 502 1750
1702 500 2404
1675 494 2955
1647 490 3365
1617 486 3679
1586 482 3943
1152 944 535
1151 1020 841
1371 1022 1221
1703 959 1752
1704 957 2405
1678 947 2955
1649 938 3364
1619 928 3678
1587 917 3942
1415 1249 575
1414 1351 921
1412 1456 1300
1535 1528 1777
1705 1517 2405
1680 1501 2955
1652 1484 3363
1621 1465 3676
1589 1445 3941
1702 1652 613
1704 1780 999
1705 1912 1439
1705 2043 1923
1706 2173 2405
1680 2149 2954
1654 2126 3361
1623 2099 3674
1591 2070 3938
2228 2782 924
2076 2782 1228
1924 2782 1568
1773 2782 1924
1679 2782 2382
1681 2782 2953
1655 2755 3359
1624 2724 3672
1592 2691 3936
2138 3265 830
1986 3265 1119
1837 3264 1446
1690 3264 1795
1653 3263 2360
1654 3262 2928
1656 3262 3358
1626 3234 3670
1593 3204 3934
2046 3631 739
1896 3631 1016
1749 3631 1328
1620 3630 1696
1622 3628 2333
1624 3627 2901
1626 3626 3334
1628 3626 3670
1596 3597 3933
1953 3938 650
1805 3938 919
1662 3937 1214
1587 3936 1674
1588 3934 2305
1590 3932 2872
1593 3932 3307
1595 3931 3644
1597 3932 3933
1742 421 541
2023 302 835
2303 163 1192
2441 84 1730
2441 82 2379
2443 81 2952
2407 81 3362
2369 81 3677
2327 82 3941
1615 820 609
1886 735 902
2164 627 1266
2443 495 1731
2444 494 2380
2445 493 2953
2409 488 3362
2370 483 3676
2328 480 3940
1725 1111 651
1747 1182 962
2029 1107 1334
2308 1006 1801
2446 946 2381
2447 945 2953
2411 936 3361
2372 926 3675
2330 915 3939
1963 1401 682
1960 1505 1018
1963 1613 1399
2166 1593 1858
2447 1500 2382
2449 1500 2953
2413 1483 3360
2375 1464 3673
2332 1444 3937
2205 1755 710
2205 1875 1075
2207 1997 1494
2207 2118 1945
2308 2178 2422
2449 2149 2952
2415 2126 3358
2376 2099 3671
2334 2069 3935
2445 2159 737
2447 2288 1132
2447 2416 1589
2448 2543 2072
2449 2664 2540
2450 2781 2951
2414 2752 3357
2378 2724 3669
2336 2691 3933
3038 3262 1163
2916 3261 1494
2787 3261 1845
2648 3260 2195
2507 3260 2534
2413 3260 2925
2415 3260 3356
2379 3232 3667
2338 3202 3931
2956 3627 1057
2830 3627 1374
2696 3626 1716
2557 3625 2065
2414 3625 2407
2378 3624 2901
2378 3623 3331
2383 3623 3667
2341 3595 3930
2869 3933 958
2738 3933 1258
2602 3932 1589
2461 3932 1934
2333 3931 2305
2335 3929 2871
2338 3929 3305
2341 3929 3641
2343 3929 3930
2578 510 660
2762 378 949
2933 236 1295
3088 82 1710
3088 81 2354
3088 79 2926
3089 79 3360
3052 79 3674
3012 80 3938
2489 956 741
2675 838 1033
2850 706 1390
3013 564 1810
3089 488 2354
3089 487 2926
3090 488 3360
3053 483 3673
3012 477 3937
2498 1357 795
2581 1353 1115
2764 1223 1481
2935 1082 1904
3090 935 2356
3090 934 2927
3091 934 3359
3054 924 3672
3013 914 3936
2660 1639 813
2655 1750 1167
2679 1842 1568
2851 1710 1991
3014 1560 2437
3090 1481 2927
3091 1481 3358
3054 1463 3671
3014 1443 3935
2813 1957 830
2811 2076 1202
2814 2196 1627
2809 2310 2069
2935 2259 2510
3090 2124 2926
3091 2125 3356
3055 2099 3668
3014 2069 3932
2957 2298 846
2956 2419 1237
2957 2539 1682
2955 2655 2143
2958 2767 2585
3012 2800 2977
3090 2751 3354
3054 2723 3666
3015 2691 3930
3090 2645 861
3090 2761 1271
3090 2872 1737
3089 2980 2215
3089 3078 2665
3090 3170 3048
3091 3258 3354
3053 3229 3665
3015 3200 3928
3556 3587 1357
3515 3624 1767
3425 3623 2116
3330 3622 2453
3229 3621 2763
3124 3621 3036
3053 3621 3328
3054 3621 3664
3016 3592 3927
3535 3931 1305
3446 3930 1639
3353 3929 1984
3256 3928 2324
3152 3927 2643
3045 3927 2931
3015 3926 3303
3015 3926 3639
3019 3926 3927
3339 614 796
3405 464 1087
3468 312 1430
3528 159 1812
3557 80 2327
3556 79 2898
3556 78 3335
3557 78 3673
3521 79 3937
3307 1119 891
3374 958 1194
3437 801 1547
3498 643 1932
3557 482 2327
3556 482 2898
3556 482 3334
3557 484 3672
3521 478 3936
3285 1696 974
3339 1561 1302
3404 1373 1663
3467 1187 2049
3527 1009 2439
3556 924 2899
3556 923 3334
3557 923 3671
3521 913 3935
3343 1967 977
3340 2087 1373
3371 2064 1777
3435 1868 2162
3496 1665 2544
3556 1462 2899
3556 1462 3333
3556 1463 3669
3520 1443 3933
3399 2249 979
3397 2369 1384
3397 2487 1828
3401 2572 2270
3463 2391 2643
3524 2198 2981
3554 2098 3331
3555 2099 3667
3519 2070 3931
3452 2532 982
3451 2648 1394
3450 2760 1847
3449 2866 2302
3448 2966 2723
3493 2885 3057
3553 2721 3329
3554 2724 3665
3518 2692 3928
3505 2807 984
3504 2913 1403
3503 3013 1865
3502 3107 2327
3501 3195 2752
3501 3279 3108
3522 3288 3387
3553 3229 3663
3518 3199 3927
3556 3058 985
3555 3150 1413
3554 3238 1883
3553 3321 2353
3553 3402 2781
3552 3477 3136
3553 3550 3422
3553 3620 3663
3517 3590 3926
3927 3831 1499
3926 3893 1967
3890 3927 2373
3812 3926 2688
3732 3925 2965
3653 3925 3202
3571 3925 3406
3516 3925 3636
3517 3925 3925
3933 733 950
3933 562 1256
3932 396 1595
3931 236 1948
3930 80 2298
3929 79 2868
3928 78 3307
3929 78 3646
3929 79 3936
3932 1319 1065
3932 1104 1387
3931 912 1734
3930 733 2089
3930 561 2433
3929 476 2868
3928 477 3307
3929 478 3646
3929 480 3935
3930 2055 1186
3930 1803 1522
3929 1556 1876
3929 1322 2228
3929 1106 2564
3928 913 2869
3928 912 3306
3928 913 3645
3929 914 3934
3929 2375 1191
3928 2500 1643
3927 2315 2016
3927 2061 2363
3927 1807 2688
3927 1560 2977
3927 1442 3305
3927 1443 3643
3928 1444 3932
3928 2613 1175
3927 2730 1625
3926 2841 2093
3925 2796 2494
3925 2564 2806
3925 2319 3076
3925 2068 3304
3926 2069 3641
3926 2071 3930
3928 2837 1160
3927 2942 1607
3925 3041 2076
3924 3133 2527
3923 3194 2918
3923 3009 3168
3924 2801 3383
3924 2690 3639
3925 2692 3927
3928 3039 1144
3926 3132 1589
3925 3219 2059
3924 3302 2512
3923 3381 2913
3923 3456 3236
3923 3364 3458
3923 3198 3637
3924 3200 3926
3928 3219 1129
3926 3302 1573
3925 3380 2042
3924 3455 2496
3923 3529 2899
3923 3598 3225
3923 3666 3493
3924 3660 3703
3924 3590 3925
3927 3381 1114
3926 3456 1556
3925 3528 2025
3924 3597 2481
3923 3666 2886
3923 3732 3214
3923 3797 3483
3924 3861 3714
3925 3925 3925
