Toning/Toning-Stretch blues and oranges.3dl
#25pt 3DLUT created by 3D LUT Creator Pro (c) Oleg Sharonov
#Copyright Oleg Sharonov
#INPUTGAMMA sRGB IEC61966-2.1 v.2.10
#IMAGEPROFILE sRGB IEC61966-2.1 v.2.10
#OUTPUTGAMMA sRGB IEC61966-2.1 v.2.10
0 128 256 384 512 640 768 896 1023
0 0 0
0 0 512
0 0 1023
0 0 1535
0 0 2047
0 0 2559
0 0 3071
0 0 3583
0 0 4095
0 512 0
0 467 512
0 421 1023
0 376 1535
0 330 2047
0 285 2559
0 240 3071
0 194 3583
0 149 4095
0 1024 0
0 985 512
0 946 1024
0 907 1535
0 868 2047
0 829 2559
0 790 3071
0 751 3583
0 713 4095
0 1536 0
0 1503 512
0 1471 1024
0 1438 1536
0 1406 2048
0 1374 2559
0 1341 3071
0 1309 3583
0 1277 4095
0 2048 0
0 2022 512
0 1996 1024
0 1970 1536
0 1944 2047
0 1918 2559
0 1892 3071
0 1866 3583
0 1840 4095
0 2559 0
0 2540 512
0 2520 1024
0 2501 1536
0 2482 2047
0 2462 2559
0 2443 3071
0 2423 3583
0 2404 4095
0 3071 0
0 3058 512
0 3045 1024
0 3032 1536
0 3019 2047
0 3006 2559
0 2993 3071
0 2981 3583
0 2968 4095
0 3583 0
0 3577 512
0 3570 1024
0 3564 1536
0 3557 2047
0 3551 2559
0 3544 3071
0 3538 3583
0 3531 4095
0 4095 0
0 4095 512
0 4095 1024
0 4095 1536
0 4095 2047
0 4095 2559
0 4095 3071
0 4095 3583
0 4095 4095
512 0 0
456 0 448
399 0 905
332 0 1436
266 0 1969
199 0 2501
133 0 3031
66 0 3563
0 0 4095
512 448 0
456 408 448
399 366 905
332 318 1437
266 270 1969
199 222 2500
133 174 3032
66 127 3563
0 79 4095
512 941 0
456 906 448
399 870 905
332 829 1437
266 787 1969
199 746 2500
133 704 3032
66 662 3563
0 621 4095
512 1466 0
456 1437 448
399 1407 906
332 1373 1437
266 1338 1969
199 1304 2500
133 1269 3032
66 1234 3563
0 1200 4095
512 1992 0
456 1969 448
399 1945 905
332 1917 1437
266 1890 1968
199 1862 2500
133 1834 3032
66 1807 3563
0 1779 4095
512 2518 0
456 2500 448
399 2482 906
332 2462 1437
266 2441 1969
199 2420 2500
133 2400 3032
66 2379 3563
0 2358 4095
512 3044 0
456 3032 448
399 3020 906
332 3006 1437
266 2992 1968
199 2978 2500
133 2965 3032
66 2951 3563
0 2937 4095
512 3569 0
456 3563 448
399 3557 906
332 3550 1437
266 3544 1968
199 3537 2500
133 3530 3032
66 3523 3563
0 3516 4095
512 4095 0
456 4095 448
399 4095 905
332 4095 1437
266 4095 1968
199 4095 2500
133 4095 3032
66 4095 3563
0 4095 4095
1024 0 0
928 0 384
827 0 787
689 0 1338
551 0 1889
414 0 2441
276 0 2992
138 0 3544
0 0 4095
1024 384 0
928 349 384
827 312 787
689 261 1339
551 211 1890
413 160 2441
276 110 2992
138 59 3544
0 9 4095
1024 857 0
928 827 384
827 795 787
689 750 1339
551 706 1890
414 662 2441
276 618 2992
138 574 3544
0 529 4095
1024 1397 0
928 1371 384
827 1344 787
689 1308 1338
551 1271 1890
414 1234 2441
276 1197 2992
138 1161 3544
0 1124 4095
1024 1937 0
928 1916 384
827 1895 787
689 1865 1339
551 1836 1890
414 1806 2441
276 1777 2992
138 1747 3544
0 1718 4095
1024 2476 0
928 2461 384
827 2445 787
689 2423 1338
551 2401 1890
414 2378 2441
276 2356 2992
138 2334 3544
0 2312 4095
1024 3016 0
928 3006 384
827 2995 787
689 2980 1338
551 2965 1890
414 2951 2441
276 2936 2992
138 2921 3544
0 2907 4095
1024 3555 0
928 3550 384
827 3545 787
689 3537 1338
551 3530 1890
414 3523 2441
276 3515 2992
138 3508 3544
0 3501 4095
1024 4095 0
928 4095 384
827 4095 787
689 4095 1338
551 4095 1890
413 4095 2441
276 4095 2992
138 4095 3544
0 4095 4095
1535 0 0
1466 0 320
1390 0 669
1265 0 1240
1140 0 1810
1016 0 2382
892 0 2953
767 0 3524
643 0 4095
1535 320 0
1466 295 320
1389 268 669
1265 223 1239
1141 178 1811
1017 134 2382
892 89 2953
767 45 3524
643 0 4095
1535 774 0
1466 748 320
1390 719 669
1266 672 1240
1140 625 1811
1016 579 2382
892 532 2953
767 485 3524
643 438 4095
1536 1328 0
1466 1306 320
1390 1282 669
1265 1243 1240
1141 1204 1811
1016 1165 2382
892 1126 2953
767 1087 3524
642 1047 4095
1536 1881 0
1466 1864 320
1390 1844 669
1265 1813 1240
1141 1782 1811
1016 1751 2382
892 1720 2953
767 1688 3524
643 1657 4095
1536 2435 0
1466 2421 320
1390 2407 669
1265 2384 1240
1141 2360 1811
1016 2337 2382
892 2314 2953
767 2290 3524
643 2267 4095
1536 2988 0
1466 2979 320
1390 2970 669
1265 2954 1240
1141 2938 1811
1016 2923 2382
892 2907 2953
767 2891 3524
642 2876 4095
1536 3542 0
1466 3537 320
1390 3532 669
1265 3524 1240
1141 3517 1811
1016 3509 2382
892 3501 2953
767 3493 3524
644 3485 4095
1536 4095 0
1466 4095 320
1390 4095 669
1265 4095 1240
1140 4095 1811
1016 4095 2382
892 4095 2953
768 4095 3524
643 4095 4095
2048 0 0
2003 0 256
1952 0 551
1848 0 1141
1745 0 1732
1643 0 2323
1539 0 2913
1436 0 3505
1333 0 4095
2048 256 0
2003 240 256
1951 222 551
1849 185 1141
1745 148 1732
1642 111 2323
1539 74 2913
1436 37 3504
1333 0 4095
2048 691 0
2003 670 256
1951 645 551
1849 595 1141
1745 545 1732
1642 495 2323
1540 446 2914
1436 396 3504
1333 346 4095
2047 1258 0
2003 1240 256
1952 1220 550
1848 1178 1141
1745 1137 1732
1642 1096 2323
1539 1054 2913
1436 1013 3504
1333 971 4095
2047 1826 0
2003 1811 256
1951 1795 551
1848 1762 1141
1745 1728 1732
1642 1695 2323
1539 1662 2914
1436 1629 3504
1333 1596 4095
2047 2393 0
2003 2382 256
1951 2370 551
1848 2345 1141
1745 2320 1732
1642 2295 2323
1539 2270 2913
1436 2245 3504
1333 2221 4095
2047 2960 0
2003 2953 256
1951 2945 551
1848 2928 1141
1745 2912 1732
1642 2895 2323
1539 2879 2913
1436 2862 3504
1333 2845 4095
2047 3528 0
2003 3524 256
1951 3520 551
1848 3512 1141
1745 3503 1732
1642 3495 2323
1539 3487 2913
1436 3478 3504
1333 3470 4095
2047 4095 0
2003 4095 256
1952 4095 551
1849 4095 1141
1745 4095 1732
1643 4095 2323
1539 4095 2913
1436 4095 3504
1333 4095 4095
2559 0 0
2534 0 192
2503 0 432
2423 0 1043
2343 0 1653
2263 0 2264
2183 0 2874
2104 0 3485
2024 0 4095
2559 192 0
2534 183 192
2503 172 432
2423 143 1042
2343 114 1653
2263 86 2263
2183 57 2874
2103 29 3484
2024 0 4095
2559 608 0
2534 591 192
2503 570 432
2423 518 1042
2343 465 1653
2263 412 2263
2183 360 2874
2103 308 3484
2024 256 4095
2559 1189 0
2534 1175 192
2503 1158 432
2423 1114 1043
2343 1070 1653
2263 1026 2264
2183 982 2874
2104 939 3485
2024 895 4095
2559 1770 0
2534 1759 192
2503 1745 432
2423 1710 1043
2343 1675 1653
2263 1640 2263
2184 1605 2874
2104 1570 3484
2024 1535 4095
2559 2351 0
2534 2343 192
2503 2333 432
2423 2306 1043
2343 2280 1653
2263 2254 2263
2183 2228 2874
2104 2201 3484
2024 2175 4095
2559 2933 0
2534 2927 192
2503 2920 432
2423 2903 1043
2343 2885 1653
2263 2867 2263
2183 2850 2874
2104 2832 3484
2023 2815 4095
2559 3514 0
2534 3511 192
2503 3507 432
2423 3499 1043
2343 3490 1653
2263 3481 2263
2183 3472 2874
2103 3464 3484
2024 3455 4095
2559 4095 0
2534 4095 192
2503 4095 433
2423 4095 1042
2343 4095 1653
2263 4095 2264
2184 4095 2874
2104 4095 3485
2024 4095 4095
3071 0 0
3060 0 128
3044 0 314
2989 0 944
2934 0 1574
2879 0 2204
2824 0 2834
2769 0 3464
2714 0 4095
3071 128 0
3060 124 128
3044 118 314
2989 98 944
2934 79 1574
2879 59 2204
2824 39 2834
2769 20 3464
2714 0 4095
3071 524 0
3060 513 128
3044 497 314
2989 441 944
2934 386 1574
2879 330 2204
2824 274 2834
2769 219 3465
2714 163 4095
3071 1120 0
3060 1110 128
3044 1097 314
2989 1050 944
2934 1004 1574
2879 958 2204
2824 911 2835
2769 865 3465
2714 818 4095
3071 1715 0
3060 1707 128
3044 1696 314
2989 1659 944
2934 1622 1574
2879 1585 2204
2824 1548 2834
2769 1511 3465
2714 1474 4095
3071 2310 0
3060 2304 128
3044 2296 314
2989 2268 944
2934 2240 1574
2879 2212 2204
2824 2185 2834
2769 2157 3465
2714 2129 4095
3071 2905 0
3060 2901 128
3044 2896 314
2989 2877 944
2934 2858 1574
2879 2840 2204
2824 2821 2834
2769 2803 3465
2714 2784 4095
3071 3500 0
3060 3498 128
3044 3495 314
2989 3486 944
2934 3477 1574
2879 3467 2204
2824 3458 2834
2769 3449 3465
2714 3440 4095
3071 4095 0
3060 4095 128
3044 4095 314
2989 4095 944
2934 4095 1574
2879 4095 2204
2824 4095 2835
2769 4095 3465
2714 4095 4095
3583 0 0
3580 0 64
3575 0 196
3546 0 845
3518 0 1495
3490 0 2145
3461 0 2795
3433 0 3445
3404 0 4095
3583 64 0
3580 63 64
3575 61 196
3546 51 845
3518 41 1495
3490 30 2145
3461 20 2795
3433 10 3445
3404 0 4095
3583 442 0
3580 436 64
3575 424 196
3546 365 845
3518 307 1495
3490 248 2145
3461 189 2795
3433 131 3445
3404 72 4095
3583 1050 0
3580 1046 64
3574 1036 196
3546 987 845
3518 938 1495
3489 889 2145
3461 840 2795
3433 791 3445
3404 742 4095
3583 1659 0
3580 1655 64
3575 1647 196
3546 1608 845
3518 1569 1495
3490 1530 2145
3461 1491 2795
3433 1452 3445
3404 1413 4095
3583 2268 0
3580 2265 64
3575 2259 196
3546 2230 845
3518 2201 1495
3490 2171 2145
3461 2142 2795
3433 2112 3445
3404 2083 4095
3583 2877 0
3580 2875 64
3575 2871 196
3546 2852 845
3518 2832 1495
3489 2812 2145
3461 2793 2795
3433 2773 3445
3404 2754 4095
3583 3486 0
3580 3485 64
3574 3483 196
3546 3473 845
3518 3463 1495
3489 3454 2145
3461 3444 2795
3433 3434 3445
3404 3424 4095
3583 4095 0
3580 4095 64
3574 4095 198
3546 4095 846
3518 4095 1496
3490 4095 2146
3461 4095 2796
3433 4095 3445
3404 4095 4095
4095 0 0
4095 0 0
4095 0 77
4095 0 747
4095 0 1416
4094 0 2086
4095 0 2755
4094 0 3425
4095 0 4095
4095 0 0
4095 0 0
4095 0 78
4095 0 747
4095 0 1416
4095 0 2086
4095 0 2756
4095 0 3425
4095 0 4095
4095 358 0
4095 358 0
4095 352 78
4095 293 747
4095 235 1416
4095 176 2086
4095 117 2756
4095 59 3425
4095 0 4095
4095 981 0
4095 981 0
4095 975 78
4095 924 747
4095 872 1417
4095 820 2086
4095 769 2756
4095 718 3425
4095 666 4095
4095 1604 0
4095 1604 0
4095 1599 78
4095 1558 747
4095 1517 1417
4095 1475 2086
4095 1434 2756
4095 1393 3425
4095 1352 4095
4095 2227 0
4095 2227 0
4095 2223 77
4095 2192 747
4095 2161 1417
4095 2130 2086
4095 2099 2755
4095 2068 3425
4095 2037 4095
4095 2849 0
4095 2849 0
4095 2847 77
4095 2826 747
4095 2806 1416
4095 2785 2086
4095 2764 2755
4095 2744 3425
4095 2723 4095
4095 3472 0
4095 3472 0
4095 3471 77
4095 3461 747
4095 3450 1417
4095 3440 2086
4095 3430 2755
4095 3419 3425
4095 3409 4095
4095 4095 0
4095 4095 0
4095 4095 75
4095 4095 745
4095 4095 1415
4095 4095 2084
4095 4095 2754
4095 4095 3426
4095 4095 4095
