Toning/Toning-Purple.3dl
#25pt 3DLUT created by 3D LUT Creator Pro (c) Oleg Sharonov
#Copyright Oleg Sharonov
#IMAGEPROFILE sRGB IEC61966-2.1 v.2.10
#INPUTGAMMA sRGB IEC61966-2.1 v.2.10
#OUTPUTGAMMA sRGB IEC61966-2.1 v.2.10
0 256 512 768 1023
7 0 402
69 0 1080
251 0 1840
468 0 2757
674 175 3980
100 736 402
50 743 1153
231 747 1965
402 764 2968
568 794 4095
609 1816 733
514 1829 1171
136 1848 1998
328 1848 3052
485 1852 4095
1616 2833 1596
1599 2843 1728
1496 2873 2208
94 2972 3095
158 2973 4095
2922 3729 2970
2920 3738 3011
2923 3766 3144
2773 3839 3598
24 4095 4095
1063 0 400
1109 0 1147
1102 0 1906
1151 17 2807
1229 182 4031
1132 729 603
1178 749 950
1203 773 1803
1250 817 2742
1174 743 4095
1259 1813 891
1371 1804 1189
1202 1847 1928
1224 1849 2993
1145 1850 4095
1803 2849 1611
1843 2849 1755
1784 2879 2181
1146 2972 3085
1112 2974 4095
2997 3740 3022
2995 3750 3061
2993 3779 3192
2874 3847 3615
1115 4095 4095
2045 0 400
2130 0 1114
2119 0 1985
2098 0 2946
2107 158 4095
2097 761 398
2050 813 1028
2121 784 1879
2118 826 2865
2154 737 4095
2141 1820 1101
2154 1826 1326
2208 1856 1679
2210 1865 2792
2133 1850 4095
2415 2855 1811
2409 2865 1920
2443 2881 2254
2152 2973 3050
2121 2975 4095
3247 3766 3225
3236 3780 3253
3210 3817 3346
3164 3875 3667
2119 4095 4095
2986 129 398
3095 0 1056
3097 0 1960
3080 0 3054
3058 71 4095
3042 798 397
3014 849 1032
3149 692 1901
3078 793 2999
3108 726 4095
3058 1850 937
3039 1867 1281
3019 1905 1862
3083 1883 2893
3092 1848 4095
3068 2919 1984
3072 2924 2102
3087 2940 2448
3125 2979 2901
3084 2976 4095
3615 3831 3574
3616 3840 3597
3608 3873 3684
3566 3942 3837
3082 4095 4095
3945 240 396
4041 0 1024
4042 0 1951
4041 0 3052
4037 0 4095
4008 805 395
4042 760 1051
4043 762 1966
4042 763 3066
4038 768 4095
3986 1872 1132
4000 1868 1398
4042 1854 1996
4041 1854 3093
4040 1855 4095
3783 3015 2334
3813 3013 2367
3916 3003 2467
4040 2976 3112
4040 2977 4095
3925 3988 4091
3931 3995 4091
3950 4019 4092
3985 4062 4093
4039 4095 4095
