Toning/Toning-Cooler.3dl
#25pt 3DLUT created by 3D LUT Creator Pro (c) Oleg Sharonov
#Copyright Oleg Sharonov
#IMAGEPROFILE sRGB IEC61966-2.1 v.2.10
#INPUTGAMMA sRGB IEC61966-2.1 v.2.10
#OUTPUTGAMMA sRGB IEC61966-2.1 v.2.10
0 43 86 128 171 214 256 299 341 384 427 469 512 555 597 640 682 725 768 810 853 896 938 981 1023 
0 0 0
0 36 52
0 81 123
0 152 222
0 243 328
0 330 433
0 419 537
0 506 641
0 592 743
0 679 845
0 764 946
0 847 1044
0 928 1141
0 1006 1233
0 1079 1319
0 1146 1399
0 1206 1470
0 1257 1530
0 1296 1577
0 1325 1610
0 1340 1628
0 1341 1631
0 1338 1627
0 1333 1620
0 1341 1631
0 158 0
0 177 192
0 220 245
0 278 310
0 341 383
0 414 471
0 488 562
0 565 656
0 645 751
0 725 847
0 805 944
0 885 1038
0 963 1132
0 1038 1221
0 1109 1305
0 1174 1384
0 1233 1454
0 1283 1513
0 1322 1560
0 1350 1592
0 1364 1610
0 1366 1612
0 1363 1608
0 1358 1602
0 1366 1612
0 324 0
0 326 328
0 352 374
0 393 425
0 442 481
0 503 548
0 566 620
0 634 706
0 707 794
0 780 883
0 855 974
0 930 1064
0 1004 1154
0 1076 1240
0 1144 1321
0 1208 1398
0 1265 1466
0 1313 1523
0 1352 1570
0 1379 1602
0 1393 1619
0 1394 1620
0 1391 1617
0 1386 1611
0 1394 1620
0 492 0
0 492 337
0 499 509
0 527 554
0 566 604
0 613 658
0 667 721
0 726 788
0 790 858
0 856 940
0 924 1025
0 994 1109
0 1063 1193
0 1130 1275
0 1196 1354
0 1256 1427
0 1311 1493
0 1357 1549
0 1394 1593
0 1420 1623
0 1434 1641
0 1436 1643
0 1433 1639
0 1428 1633
0 1436 1643
0 657 0
0 657 337
0 657 580
0 672 690
0 702 735
0 740 783
0 784 836
0 835 895
0 890 958
0 950 1025
0 1011 1094
0 1074 1169
0 1138 1249
0 1201 1326
0 1262 1401
0 1319 1471
0 1371 1534
0 1415 1587
0 1450 1630
0 1475 1659
0 1488 1676
0 1490 1678
0 1486 1674
0 1482 1668
0 1490 1678
0 823 0
0 823 337
0 823 579
0 823 823
0 845 870
0 876 915
0 914 964
0 957 1016
0 1003 1071
0 1056 1131
0 1111 1194
0 1169 1258
0 1228 1324
0 1286 1391
0 1342 1461
0 1396 1528
0 1444 1587
0 1486 1638
0 1519 1679
0 1543 1708
0 1555 1723
0 1557 1725
0 1554 1722
0 1550 1717
0 1557 1725
0 989 0
0 988 337
0 989 580
0 988 822
0 995 1005
0 1020 1051
0 1050 1096
0 1087 1143
0 1128 1194
0 1174 1248
0 1223 1304
0 1274 1364
0 1328 1424
0 1382 1484
0 1434 1543
0 1484 1598
0 1530 1652
0 1569 1701
0 1600 1740
0 1622 1767
0 1634 1782
0 1635 1784
0 1632 1780
0 1628 1775
0 1635 1784
0 1154 0
0 1155 337
0 1154 579
0 1154 822
0 1154 1065
0 1168 1186
0 1194 1232
0 1225 1276
0 1260 1323
0 1301 1373
0 1344 1425
0 1391 1479
0 1439 1535
0 1488 1590
0 1536 1644
0 1582 1696
0 1624 1743
0 1661 1784
0 1690 1817
0 1711 1840
0 1723 1853
0 1724 1854
0 1722 1852
0 1718 1847
0 1724 1854
0 1320 0
0 1320 337
0 1320 579
0 1321 823
0 1320 1064
0 1321 1307
0 1341 1367
0 1368 1412
0 1399 1457
0 1434 1503
0 1473 1551
0 1514 1601
0 1558 1653
0 1602 1704
0 1646 1754
0 1689 1802
0 1728 1847
0 1762 1885
0 1790 1916
0 1809 1938
0 1820 1950
0 1821 1951
0 1818 1948
0 1815 1944
0 1821 1951
0 1486 0
0 1486 337
0 1486 579
0 1486 822
0 1486 1064
0 1487 1307
0 1492 1500
0 1514 1547
0 1542 1592
0 1573 1636
0 1607 1682
0 1644 1729
0 1684 1777
0 1724 1825
0 1764 1871
0 1803 1917
0 1839 1958
0 1871 1994
0 1897 2023
0 1915 2043
0 1925 2055
0 1926 2056
0 1923 2053
0 1920 2050
0 1926 2056
0 1653 0
0 1653 337
0 1653 579
0 1653 822
0 1653 1064
0 1653 1307
0 1653 1548
0 1665 1682
0 1688 1728
0 1716 1772
0 1747 1816
0 1780 1860
0 1815 1906
0 1852 1951
0 1889 1995
0 1925 2037
0 1958 2076
0 1987 2110
0 2011 2137
0 2028 2156
0 2037 2167
0 2038 2168
0 2036 2166
0 2033 2162
0 2038 2168
0 1820 0
0 1820 337
0 1820 579
0 1820 822
0 1820 1064
0 1820 1307
0 1820 1548
0 1820 1789
0 1838 1863
0 1862 1908
0 1890 1952
0 1920 1995
0 1952 2038
0 1986 2081
0 2019 2123
0 2052 2163
0 2083 2199
0 2110 2231
0 2132 2257
0 2148 2275
0 2156 2285
0 2157 2286
0 2155 2284
0 2152 2281
0 2157 2286
0 1988 0
0 1988 337
0 1988 580
0 1988 822
0 1988 1064
0 1987 1307
0 1988 1549
0 1988 1789
0 1991 1996
0 2012 2044
0 2037 2089
0 2064 2131
0 2093 2173
0 2124 2214
0 2154 2254
0 2185 2292
0 2213 2327
0 2238 2357
0 2259 2382
0 2273 2399
0 2281 2408
0 2282 2409
0 2280 2407
0 2277 2404
0 2282 2409
0 2156 0
0 2156 337
0 2156 580
0 2155 822
0 2156 1065
0 2155 1307
0 2155 1548
0 2155 1789
0 2155 2029
0 2165 2179
0 2186 2225
0 2211 2268
0 2237 2310
0 2265 2350
0 2294 2389
0 2321 2425
0 2348 2458
0 2371 2487
0 2390 2510
0 2403 2527
0 2410 2536
0 2411 2537
0 2410 2535
0 2407 2532
0 2411 2537
0 2325 0
0 2325 337
0 2325 580
0 2325 822
0 2325 1065
0 2325 1307
0 2325 1549
0 2325 1789
0 2325 2029
0 2325 2267
0 2340 2362
0 2362 2406
0 2385 2448
0 2411 2488
0 2437 2526
0 2463 2561
0 2487 2593
0 2508 2621
0 2526 2643
0 2538 2658
0 2545 2667
0 2546 2668
0 2544 2666
0 2542 2664
0 2546 2668
0 2495 0
0 2495 337
0 2495 580
0 2495 822
0 2495 1064
0 2495 1307
0 2495 1548
0 2495 1789
0 2495 2029
3 2495 2267
0 2496 2496
0 2515 2544
0 2537 2587
0 2560 2627
0 2584 2664
0 2608 2699
0 2630 2730
0 2650 2757
0 2666 2779
0 2678 2794
0 2684 2802
0 2685 2803
0 2683 2801
0 2681 2799
0 2685 2803
0 2667 0
0 2667 337
0 2667 580
0 2667 822
0 2667 1064
0 2667 1307
0 2667 1548
0 2667 1789
0 2667 2029
3 2667 2267
3 2667 2501
0 2672 2681
0 2692 2726
0 2713 2767
0 2735 2805
0 2757 2840
0 2777 2870
0 2796 2897
0 2811 2918
0 2822 2932
0 2828 2940
0 2828 2941
0 2827 2939
0 2825 2937
0 2828 2941
0 2840 0
0 2841 337
0 2840 580
0 2841 822
0 2840 1065
0 2841 1307
0 2841 1548
0 2841 1789
0 2841 2029
3 2841 2266
3 2841 2501
3 2841 2731
0 2850 2865
0 2869 2908
0 2889 2946
0 2909 2981
0 2928 3012
0 2945 3038
0 2959 3059
0 2969 3073
0 2975 3081
0 2975 3082
0 2974 3080
0 2972 3077
0 2975 3082
0 3016 0
0 3016 337
0 3016 580
0 3016 822
0 3016 1065
0 3016 1307
0 3016 1548
0 3016 1789
0 3016 2029
3 3016 2266
3 3016 2501
3 3016 2730
3 3016 2954
0 3029 3049
0 3047 3089
0 3065 3124
0 3083 3155
0 3099 3182
0 3112 3202
0 3121 3216
0 3126 3224
0 3127 3225
0 3126 3223
0 3124 3221
0 3127 3225
0 3194 0
0 3194 337
0 3194 580
0 3194 823
0 3194 1065
0 3194 1307
0 3194 1548
0 3194 1789
0 3194 2029
3 3194 2266
3 3194 2501
3 3194 2731
3 3194 2954
3 3194 3168
0 3208 3231
0 3225 3268
0 3242 3300
0 3256 3326
0 3268 3347
0 3277 3362
0 3282 3369
0 3282 3370
0 3281 3368
0 3280 3366
0 3282 3370
0 3374 0
0 3374 337
0 3374 580
0 3374 823
0 3374 1065
0 3374 1307
0 3374 1548
0 3374 1789
0 3374 2029
3 3374 2266
3 3374 2501
3 3374 2730
3 3374 2954
3 3374 3168
3 3374 3370
0 3389 3412
0 3404 3445
0 3417 3473
0 3428 3494
0 3436 3508
0 3441 3516
0 3441 3517
0 3440 3515
0 3439 3512
0 3441 3517
0 3555 0
0 3555 337
0 3555 580
0 3554 823
0 3555 1065
0 3555 1307
0 3555 1548
0 3555 1789
0 3555 2029
3 3555 2267
3 3555 2501
3 3555 2731
3 3555 2954
3 3555 3168
3 3555 3370
0 3555 3555
0 3568 3590
0 3581 3619
0 3591 3640
0 3598 3655
0 3603 3663
0 3603 3664
0 3602 3662
0 3601 3660
0 3603 3664
0 3736 0
0 3736 337
0 3736 580
0 3736 823
0 3736 1065
0 3736 1307
0 3736 1548
0 3736 1789
0 3736 2029
3 3736 2267
3 3736 2501
3 3736 2731
3 3736 2954
3 3736 3168
3 3736 3370
3 3736 3555
3 3736 3721
0 3746 3763
0 3756 3786
0 3762 3801
0 3766 3809
0 3767 3811
0 3766 3809
0 3765 3806
0 3767 3811
0 3917 0
0 3917 337
0 3917 580
0 3917 823
0 3917 1065
0 3917 1307
0 3917 1548
0 3917 1789
0 3917 2029
0 3917 2266
3 3917 2501
3 3917 2730
3 3917 2954
3 3917 3168
3 3917 3369
3 3917 3555
3 3917 3721
3 3917 3861
0 3921 3929
0 3928 3945
0 3931 3954
0 3931 3955
0 3931 3953
0 3930 3950
0 3931 3955
0 4095 0
0 4095 337
0 4095 580
0 4095 823
0 4095 1065
0 4095 1307
0 4095 1548
0 4095 1789
0 4095 2029
0 4095 2266
3 4095 2501
3 4095 2730
3 4095 2954
3 4095 3168
3 4095 3369
6 4095 3555
6 4095 3721
6 4095 3861
3 4095 3971
3 4095 4048
3 4095 4090
3 4095 4095
3 4095 4086
3 4095 4072
3 4095 4095
90 0 0
10 45 142
0 97 225
0 168 304
0 252 398
0 337 493
0 422 591
0 509 691
0 595 791
0 680 890
0 765 988
0 847 1086
0 928 1180
0 1005 1272
0 1079 1358
0 1145 1436
0 1205 1506
0 1256 1567
0 1296 1614
0 1324 1646
0 1339 1664
0 1340 1666
0 1337 1662
0 1332 1656
0 1340 1666
103 155 6
26 195 212
0 240 269
0 291 334
0 352 412
0 422 497
0 496 587
0 571 678
0 650 773
0 730 868
0 810 963
0 888 1058
0 965 1149
0 1040 1239
0 1111 1323
0 1177 1401
0 1235 1470
0 1285 1530
0 1324 1576
0 1351 1608
0 1366 1626
0 1368 1628
0 1364 1624
0 1359 1618
0 1368 1628
84 326 0
78 328 330
0 365 389
0 404 437
0 454 494
0 510 559
0 575 637
0 642 722
0 712 808
0 785 898
0 859 988
0 934 1077
0 1008 1166
0 1079 1251
0 1147 1333
0 1211 1409
0 1268 1477
0 1316 1535
0 1354 1580
0 1380 1611
0 1395 1629
0 1397 1631
0 1393 1627
0 1389 1622
0 1397 1631
84 490 0
84 490 337
32 504 514
0 536 565
0 573 613
0 620 668
0 673 728
0 732 795
0 795 868
0 861 950
0 928 1034
0 997 1119
0 1066 1202
0 1134 1285
0 1198 1363
0 1259 1435
0 1313 1501
0 1359 1556
0 1397 1601
0 1423 1632
0 1436 1649
0 1438 1650
0 1435 1647
0 1430 1641
0 1438 1650
84 656 0
84 657 337
84 656 579
0 679 698
0 708 743
0 746 792
0 790 844
0 840 902
0 895 965
0 954 1030
0 1015 1099
0 1078 1178
0 1142 1257
0 1205 1334
0 1265 1408
0 1322 1478
0 1373 1540
0 1417 1594
0 1453 1637
0 1477 1666
0 1491 1683
0 1492 1684
0 1489 1681
0 1485 1675
0 1492 1684
84 823 0
84 823 337
84 823 580
84 823 822
0 852 877
0 882 921
0 918 969
0 961 1021
0 1008 1077
0 1060 1136
0 1115 1198
0 1172 1262
0 1231 1328
0 1289 1397
0 1345 1468
0 1398 1533
0 1446 1593
0 1489 1644
0 1521 1685
0 1545 1714
0 1557 1729
0 1559 1731
0 1556 1727
0 1551 1722
0 1559 1731
84 988 0
84 988 337
84 988 579
84 989 823
3 999 1009
0 1023 1055
0 1055 1101
0 1091 1149
0 1132 1199
0 1178 1252
0 1227 1309
0 1278 1368
0 1331 1428
0 1385 1488
0 1437 1546
0 1487 1602
0 1532 1658
0 1571 1706
0 1602 1745
0 1624 1772
0 1636 1787
0 1637 1789
0 1635 1786
0 1631 1781
0 1637 1789
84 1155 0
84 1154 337
84 1155 580
84 1154 822
84 1155 1065
0 1171 1190
0 1197 1235
0 1228 1280
0 1264 1328
0 1304 1377
0 1347 1429
0 1393 1482
0 1441 1538
0 1490 1593
0 1538 1648
0 1584 1699
0 1627 1746
0 1663 1788
0 1693 1820
0 1714 1843
0 1725 1856
0 1726 1857
0 1724 1854
0 1720 1850
0 1726 1857
84 1320 0
84 1321 337
84 1320 580
84 1320 822
84 1320 1065
84 1320 1307
0 1344 1370
0 1371 1415
0 1402 1460
0 1437 1507
0 1476 1555
0 1517 1605
0 1560 1655
0 1604 1707
0 1649 1757
0 1691 1806
0 1730 1850
0 1764 1888
0 1792 1919
0 1811 1940
0 1821 1952
0 1823 1954
0 1820 1951
0 1817 1947
0 1823 1954
84 1486 0
84 1487 337
84 1486 579
84 1486 822
84 1486 1065
84 1486 1307
0 1495 1503
0 1517 1551
0 1544 1595
0 1576 1639
0 1610 1685
0 1647 1732
0 1686 1780
0 1727 1828
0 1767 1875
0 1806 1920
0 1842 1961
0 1873 1997
0 1898 2026
0 1916 2046
0 1927 2058
0 1928 2059
0 1926 2056
0 1922 2052
0 1928 2059
84 1653 0
84 1653 337
84 1653 579
84 1653 822
84 1653 1065
84 1653 1307
84 1653 1549
0 1667 1685
0 1690 1730
0 1718 1775
0 1749 1819
0 1782 1863
0 1818 1908
0 1854 1953
0 1891 1997
0 1927 2040
0 1960 2079
0 1990 2112
0 2013 2139
0 2030 2158
0 2039 2169
0 2040 2171
0 2038 2168
0 2035 2165
0 2040 2171
