Toning/Toning-Accent warms.3dl
#25pt 3DLUT created by 3D LUT Creator Pro (c) Oleg Sharonov
#Copyright Oleg Sharonov
#INPUTGAMMA sRGB IEC61966-2.1 v.2.10
#IMAGEPROFILE sRGB IEC61966-2.1 v.2.10
#OUTPUTGAMMA sRGB IEC61966-2.1 v.2.10
0 256 512 768 1023
0 0 0
0 0 1024
0 0 2048
0 0 3071
0 0 4095
0 1024 0
0 1024 1024
0 1024 2048
0 1024 3071
0 1024 4095
0 2048 0
0 2048 1024
0 2048 2048
0 2048 3071
0 2048 4095
0 3071 0
0 3071 1024
0 3071 2048
0 3071 3071
0 3071 4095
0 4095 0
0 4095 1024
0 4095 2048
0 4095 3071
0 4095 4095
1024 0 0
1023 0 787
1024 0 1889
1024 0 2992
1024 0 4095
1024 857 0
1024 857 787
1024 857 1890
1024 857 2992
1024 857 4095
1024 1937 0
1024 1937 787
1024 1937 1890
1024 1937 2992
1024 1937 4095
1024 3016 0
1024 3016 787
1024 3016 1890
1024 3016 2992
1024 3016 4095
1024 4095 0
1024 4095 787
1024 4095 1890
1024 4095 2992
1024 4095 4095
2048 0 0
2048 0 551
2048 0 1732
2048 0 2914
2047 0 4095
2048 691 0
2047 691 551
2047 691 1732
2047 691 2914
2047 691 4095
2047 1826 0
2047 1826 551
2047 1826 1732
2047 1826 2914
2047 1826 4095
2047 2960 0
2047 2960 551
2047 2960 1732
2047 2960 2913
2047 2960 4095
2047 4095 0
2048 4095 551
2048 4095 1732
2047 4095 2913
2047 4095 4095
3071 0 0
3071 0 313
3071 0 1574
3071 0 2834
3071 0 4095
3071 524 0
3071 524 313
3071 524 1574
3071 524 2834
3071 524 4095
3071 1715 0
3071 1715 313
3071 1715 1574
3071 1715 2835
3071 1715 4095
3071 2905 0
3071 2905 314
3071 2905 1574
3071 2905 2835
3071 2905 4095
3071 4095 0
3071 4095 313
3071 4095 1574
3071 4095 2835
3071 4095 4095
4095 0 0
4095 0 77
4095 0 1416
4095 0 2755
4095 0 4095
4095 358 0
4095 359 78
4095 359 1416
4095 359 2756
4095 358 4095
4095 1604 0
4095 1604 78
4095 1604 1416
4095 1604 2756
4095 1604 4095
4095 2849 0
4095 2849 77
4095 2849 1416
4095 2849 2756
4095 2849 4095
4095 4095 0
4095 4095 74
4095 4095 1415
4095 4095 2755
4095 4095 4095
