Toning/Toning-Warm-GreenShadows.3dl
#25pt 3DLUT created by 3D LUT Creator Pro (c) Oleg Sharonov
#Copyright Oleg Sharonov
#INPUTGAMMA sRGB IEC61966-2.1 v.2.10
#IMAGEPROFILE sRGB IEC61966-2.1 v.2.10
#OUTPUTGAMMA sRGB IEC61966-2.1 v.2.10
0 128 256 384 512 640 768 896 1023
251 192 70
261 200 76
271 263 397
305 297 851
358 348 1310
415 406 1767
479 473 2214
552 547 2671
633 628 3128
365 340 123
369 345 127
370 430 497
399 452 960
442 488 1410
491 533 1854
549 588 2290
616 648 2736
703 729 3157
540 557 199
545 563 202
534 661 524
552 705 996
590 730 1478
634 761 1943
684 800 2389
767 862 2798
869 947 3171
751 798 289
759 807 292
748 941 487
738 991 965
777 1020 1477
835 1057 1955
908 1106 2398
993 1162 2821
1086 1235 3211
1032 1086 393
1038 1092 395
1035 1207 550
1011 1343 917
1014 1353 1441
1070 1388 1947
1151 1440 2410
1238 1497 2846
1331 1562 3252
1354 1470 624
1359 1476 628
1368 1504 660
1339 1678 973
1330 1746 1405
1334 1754 1915
1397 1790 2408
1492 1849 2867
1589 1910 3294
1701 1869 919
1705 1874 923
1716 1886 932
1702 1988 1129
1677 2128 1438
1674 2174 1877
1679 2174 2377
1746 2208 2872
1853 2272 3327
2062 2282 1227
2066 2286 1230
2074 2296 1238
2082 2336 1307
2058 2461 1604
2033 2604 1878
2037 2607 2358
2048 2603 2861
2116 2640 3348
2440 2688 1568
2443 2691 1571
2451 2699 1578
2464 2713 1590
2453 2808 1805
2429 2923 2082
2412 3035 2381
2423 3026 2876
2434 3032 3355
538 195 71
506 207 78
409 266 453
307 298 866
359 350 1320
416 408 1772
480 474 2220
553 548 2676
634 628 3131
528 409 147
560 445 188
504 511 495
415 463 970
442 488 1417
492 534 1860
550 588 2295
617 649 2740
704 730 3160
710 634 228
736 652 235
727 782 547
648 763 1001
591 731 1488
634 762 1950
684 801 2393
767 862 2802
869 947 3174
911 874 317
920 882 320
929 1058 530
921 1102 984
824 1050 1485
837 1058 1963
909 1106 2402
993 1163 2825
1086 1235 3214
1161 1149 415
1166 1154 417
1186 1304 613
1160 1440 943
1164 1447 1454
1077 1393 1954
1152 1440 2415
1239 1497 2850
1331 1563 3255
1452 1514 644
1457 1519 648
1472 1566 707
1456 1739 1020
1444 1816 1424
1447 1824 1921
1399 1790 2413
1493 1849 2871
1590 1910 3297
1774 1902 933
1778 1907 937
1788 1918 945
1790 2039 1168
1766 2174 1471
1759 2227 1888
1764 2228 2382
1747 2208 2876
1854 2272 3330
2119 2308 1239
2122 2312 1242
2130 2321 1250
2150 2378 1344
2126 2499 1632
2101 2638 1904
2104 2648 2367
2114 2645 2867
2117 2641 3351
2485 2707 1577
2488 2710 1580
2495 2718 1587
2509 2732 1600
2508 2838 1831
2484 2950 2106
2466 3067 2395
2476 3056 2886
2487 3064 3362
936 206 75
958 191 70
858 294 416
761 320 939
637 358 1390
464 410 1796
482 476 2234
554 550 2686
635 630 3141
940 352 127
957 391 153
902 542 496
800 577 963
694 598 1397
555 578 1859
552 590 2309
618 650 2751
707 732 3167
940 731 264
951 811 358
970 947 600
927 939 1014
866 907 1457
755 839 1941
686 802 2407
769 864 2810
871 950 3181
1138 980 355
1152 1019 397
1168 1212 610
1166 1256 1029
1121 1236 1488
1033 1182 1956
911 1108 2415
995 1164 2835
1089 1237 3222
1383 1254 451
1389 1259 453
1403 1438 701
1394 1588 1005
1397 1592 1485
1346 1561 1961
1253 1504 2421
1241 1499 2860
1333 1564 3263
1642 1604 679
1646 1609 683
1659 1676 792
1667 1858 1118
1650 1947 1468
1653 1958 1939
1606 1925 2417
1525 1870 2880
1592 1912 3305
1931 1975 963
1934 1979 966
1943 1990 975
1969 2148 1258
1945 2274 1540
1934 2342 1915
1940 2339 2401
1906 2309 2884
1856 2274 3339
2247 2364 1264
2250 2367 1267
2258 2377 1275
2279 2447 1399
2276 2583 1696
2251 2714 1961
2250 2738 2392
2260 2735 2881
2240 2716 3359
2591 2755 1600
2594 2758 1603
2601 2765 1610
2613 2780 1623
2633 2910 1894
2610 3014 2163
2591 3130 2444
2599 3129 2912
2609 3137 3381
1377 223 82
1411 190 69
1381 281 317
1273 364 880
1169 411 1386
1053 426 1911
906 489 2317
714 556 2726
638 633 3157
1389 225 82
1442 190 69
1380 426 381
1297 604 912
1197 633 1416
1084 653 1908
946 691 2324
766 735 2741
711 736 3178
1394 732 350
1376 787 438
1387 887 582
1362 978 1001
1256 1002 1475
1164 1019 1909
1048 1042 2322
943 983 2777
876 953 3194
1389 1167 503
1389 1230 585
1393 1359 732
1436 1432 1103
1397 1414 1531
1352 1389 1946
1287 1352 2371
1200 1299 2811
1092 1240 3235
1602 1441 629
1607 1462 656
1622 1593 852
1648 1737 1097
1653 1758 1538
1620 1739 1979
1566 1704 2411
1495 1661 2844
1406 1610 3266
1863 1739 791
1867 1744 794
1885 1824 932
1901 1989 1223
1892 2103 1527
1895 2117 1972
1864 2090 2430
1811 2052 2875
1744 2008 3305
2152 2077 1003
2155 2080 1006
2163 2091 1014
2178 2261 1345
2179 2407 1636
2164 2494 1959
2170 2485 2435
2145 2461 2901
2097 2428 3346
2441 2451 1303
2444 2454 1306
2451 2463 1313
2468 2549 1480
2488 2708 1794
2463 2825 2049
2458 2868 2435
2469 2868 2910
2451 2851 3375
2757 2830 1636
2759 2833 1639
2766 2840 1646
2778 2853 1659
2809 3004 1986
2796 3110 2256
2777 3218 2528
2781 3230 2963
2790 3239 3419
1862 252 92
1906 202 121
1911 230 378
1829 379 738
1719 449 1344
1608 515 1842
1493 519 2396
1354 580 2835
1195 687 3192
1872 253 92
1915 202 121
1921 229 379
1832 451 742
1737 665 1367
1630 707 1865
1510 718 2404
1377 778 2802
1231 854 3166
1846 637 357
1823 701 423
1878 766 562
1817 922 866
1777 1025 1418
1668 1056 1894
1556 1079 2364
1444 1113 2764
1321 1161 3137
1836 1217 617
1830 1258 671
1829 1310 846
1875 1375 1085
1858 1454 1517
1749 1478 1973
1662 1497 2375
1571 1523 2761
1495 1515 3155
1865 1626 822
1866 1670 884
1871 1755 1023
1889 1873 1233
1938 1947 1614
1898 1928 2033
1859 1902 2431
1814 1876 2831
1758 1843 3228
2089 1916 990
2093 1922 995
2101 2014 1153
2128 2131 1369
2155 2270 1602
2160 2293 2027
2134 2267 2470
2097 2239 2887
2051 2212 3295
2361 2231 1167
2364 2235 1170
2376 2275 1236
2404 2396 1475
2424 2541 1735
2413 2655 2018
2421 2644 2483
2402 2625 2930
2368 2599 3356
2657 2567 1390
2660 2570 1393
2667 2579 1399
2694 2672 1588
2706 2819 1890
2704 2947 2162
2694 3012 2499
2705 3009 2961
2689 2997 3407
2959 2922 1687
2961 2925 1689
2967 2932 1697
2980 2965 1763
3009 3102 2078
3024 3228 2375
3004 3328 2637
3003 3360 3026
3012 3365 3475
2363 290 105
2418 215 176
2421 227 453
2412 266 773
2281 495 1198
2170 570 1797
2048 662 2263
1925 715 2762
1791 773 3224
2371 289 105
2426 215 176
2428 227 454
2420 266 774
2289 504 1197
2178 758 1807
2060 825 2273
1937 870 2765
1808 924 3208
2322 450 204
2446 341 233
2443 482 500
2368 723 854
2258 972 1241
2204 1091 1840
2094 1134 2302
1974 1169 2781
1860 1216 3190
2299 1149 671
2286 1178 739
2261 1246 875
2320 1302 1063
2290 1419 1378
2274 1495 1921
2161 1528 2366
2049 1561 2808
1956 1599 3185
2307 1672 984
2308 1699 1028
2310 1760 1129
2336 1813 1352
2383 1886 1597
2369 1966 2015
2257 1985 2462
2177 2006 2857
2099 2029 3229
2360 2093 1172
2360 2122 1220
2366 2183 1340
2380 2282 1513
2400 2416 1719
2454 2490 2100
2419 2453 2541
2384 2429 2935
2349 2409 3316
2593 2402 1358
2596 2405 1360
2605 2466 1486
2621 2562 1666
2650 2683 1872
2684 2826 2100
2696 2826 2550
2674 2806 2985
2644 2783 3390
2870 2717 1573
2873 2720 1576
2881 2735 1599
2905 2837 1797
2938 2950 2022
2964 3078 2281
2959 3177 2581
2969 3170 3036
2953 3162 3462
3151 3048 1834
3153 3051 1836
3159 3057 1842
3182 3110 1951
3230 3219 2196
3262 3343 2489
3261 3450 2768
3255 3504 3112
3262 3516 3541
2837 428 230
2927 290 274
2954 225 532
2935 297 844
2847 510 1170
2716 686 1639
2613 742 2216
2482 845 2666
2349 925 3121
2843 430 233
2933 293 277
2961 225 533
2941 297 846
2853 510 1171
2722 686 1637
2622 890 2227
2495 973 2677
2364 1044 3132
2857 436 239
2946 300 283
2977 225 536
2955 300 848
2839 732 1206
2703 1053 1661
2649 1182 2259
2530 1240 2711
2401 1297 3157
2748 1068 680
2735 1101 734
2753 1152 810
2834 1174 1064
2790 1318 1364
2723 1486 1742
2707 1564 2324
2591 1608 2765
2466 1652 3196
2789 1634 1055
2785 1651 1107
2774 1694 1221
2756 1773 1380
2829 1831 1587
2803 1946 1883
2798 2009 2416
2684 2040 2855
2567 2072 3277
2806 2139 1382
2809 2159 1415
2815 2207 1492
2825 2288 1613
2863 2360 1841
2911 2437 2088
2904 2497 2528
2795 2516 2973
2718 2537 3362
2878 2570 1545
2879 2590 1586
2883 2641 1678
2893 2722 1821
2912 2826 2011
2939 2956 2237
3001 3015 2650
2967 2991 3072
2934 2971 3459
3105 2881 1764
3107 2884 1766
3119 2930 1859
3137 3004 2017
3163 3096 2214
3200 3206 2437
3242 3333 2691
3256 3332 3140
3231 3328 3543
3359 3192 2018
3361 3194 2020
3366 3200 2025
3392 3268 2188
3431 3356 2399
3482 3460 2633
3524 3570 2906
3527 3651 3220
3529 3684 3610
3304 629 434
3383 508 477
3423 427 668
3424 439 944
3373 571 1246
3273 760 1554
3150 886 2066
3056 929 2633
2923 1040 3068
3308 631 435
3387 510 479
3428 429 670
3428 440 945
3377 572 1247
3277 760 1554
3154 887 2064
3066 1048 2645
2936 1144 3082
3319 637 439
3398 515 484
3439 435 674
3440 444 948
3389 575 1249
3283 822 1565
3147 1170 2083
3093 1302 2675
2970 1375 3112
3204 968 617
3234 972 630
3380 868 791
3379 966 1069
3329 1147 1374
3249 1363 1695
3161 1574 2142
3144 1659 2729
3027 1713 3162
3238 1563 1124
3229 1584 1165
3212 1637 1259
3203 1717 1383
3290 1755 1580
3268 1876 1867
3221 2019 2230
3227 2076 2815
3113 2116 3246
3288 2119 1451
3285 2138 1478
3280 2177 1557
3274 2237 1694
3280 2319 1874
3351 2384 2081
3331 2485 2386
3336 2539 2928
3224 2571 3362
3301 2627 1766
3305 2642 1792
3316 2680 1857
3332 2747 1960
3355 2837 2101
3400 2901 2355
3456 2966 2634
3451 3033 3065
3346 3054 3502
3375 3039 1953
3379 3055 1986
3388 3090 2068
3403 3149 2197
3430 3232 2374
3462 3333 2586
3498 3455 2836
3564 3509 3259
3522 3515 3628
3593 3342 2213
3595 3345 2215
3606 3375 2293
3625 3430 2432
3654 3502 2613
3695 3591 2826
3748 3688 3074
3807 3795 3357
3817 3854 3710
3738 866 602
3819 747 671
3866 667 838
3882 644 1073
3858 708 1345
3792 841 1633
3689 1004 1941
3577 1097 2483
3497 1130 3049
3741 868 603
3823 750 673
3870 669 839
3886 646 1074
3862 709 1346
3796 842 1633
3694 1005 1940
3580 1098 2482
3507 1228 3061
3750 873 607
3831 754 677
3879 673 843
3895 651 1077
3871 713 1348
3806 845 1635
3704 1007 1938
3580 1321 2498
3532 1449 3085
3765 881 613
3846 761 685
3894 682 850
3910 658 1082
3865 894 1386
3784 1175 1706
3691 1452 2036
3593 1690 2543
3577 1774 3132
3658 1504 1149
3652 1528 1181
3643 1582 1251
3770 1561 1354
3784 1636 1606
3753 1774 1881
3702 1943 2175
3642 2107 2621
3654 2164 3210
3729 2068 1531
3725 2083 1563
3715 2122 1637
3699 2189 1752
3691 2280 1888
3783 2327 2078
3773 2430 2372
3738 2556 2745
3758 2605 3322
3780 2619 1848
3781 2634 1869
3784 2673 1922
3780 2735 2009
3777 2804 2158
3810 2863 2388
3884 2922 2622
3867 3022 2928
3878 3075 3461
3791 3087 2184
3795 3099 2210
3804 3131 2272
3823 3182 2375
3855 3250 2512
3899 3339 2684
3948 3407 2944
4003 3466 3240
3998 3559 3621
3862 3487 2407
3866 3497 2437
3874 3523 2507
3890 3567 2622
3915 3630 2784
3949 3709 2988
3991 3803 3232
4040 3909 3515
4095 4026 3831
