Toning/Toning-Accent blues.3dl
#25pt 3DLUT created by 3D LUT Creator Pro (c) Oleg Sharonov
#Copyright Oleg Sharonov
#INPUTGAMMA sRGB IEC61966-2.1 v.2.10
#IMAGEPROFILE sRGB IEC61966-2.1 v.2.10
#OUTPUTGAMMA sRGB IEC61966-2.1 v.2.10
0 256 512 768 1023
0 0 0
0 0 1023
0 0 2047
0 0 3071
0 0 4095
0 1024 0
0 916 1024
0 809 2047
0 702 3071
0 595 4095
0 2048 0
0 1976 1024
0 1904 2047
0 1833 3071
0 1762 4095
0 3071 0
0 3035 1024
0 3000 2047
0 2964 3071
0 2928 4095
0 4095 0
0 4095 1024
0 4095 2047
0 4095 3071
0 4095 4095
1024 0 0
807 0 1023
590 0 2047
373 0 3071
156 0 4095
1024 1024 0
807 917 1024
590 809 2048
373 702 3071
156 594 4095
1024 2048 0
807 1976 1024
590 1905 2047
373 1833 3071
156 1762 4095
1024 3071 0
807 3035 1024
590 3000 2047
373 2964 3071
156 2928 4095
1024 4095 0
807 4095 1024
590 4095 2047
373 4095 3071
156 4095 4095
2048 0 0
1903 0 1024
1758 0 2048
1614 0 3071
1469 0 4094
2048 1024 0
1903 917 1024
1758 809 2047
1614 702 3071
1469 595 4095
2048 2048 0
1903 1976 1024
1758 1905 2047
1614 1833 3071
1469 1762 4095
2048 3071 0
1903 3036 1024
1758 3000 2047
1614 2964 3071
1469 2928 4095
2048 4095 0
1903 4095 1024
1758 4095 2048
1613 4095 3071
1468 4095 4095
3071 0 0
2999 0 1024
2927 0 2047
2854 0 3071
2782 0 4095
3071 1024 0
2999 916 1024
2927 809 2047
2854 702 3071
2782 594 4095
3071 2048 0
2999 1976 1024
2927 1905 2047
2854 1833 3071
2782 1762 4095
3071 3071 0
2999 3035 1024
2927 3000 2047
2854 2964 3071
2782 2928 4095
3071 4095 0
2999 4095 1024
2927 4095 2047
2854 4095 3071
2782 4095 4095
4095 0 0
4095 0 1024
4095 0 2047
4095 0 3071
4095 0 4095
4095 1024 0
4095 917 1024
4095 809 2047
4095 702 3071
4095 594 4095
4095 2048 0
4095 1976 1024
4095 1905 2047
4095 1833 3071
4095 1761 4095
4095 3071 0
4095 3035 1024
4095 3000 2047
4095 2964 3071
4095 2928 4095
4095 4095 0
4095 4095 1023
4095 4095 2047
4095 4095 3071
4095 4095 4095
