Toning/Toning-Art.3dl
#25pt 3DLUT created by 3D LUT Creator Pro (c) Oleg Sharonov
#Copyright Oleg Sharonov
#IMAGEPROFILE sRGB IEC61966-2.1 v.2.10
#INPUTGAMMA sRGB IEC61966-2.1 v.2.10
#OUTPUTGAMMA sRGB IEC61966-2.1 v.2.10
0 256 512 768 1023
99 106 94
0 106 1164
0 225 2513
961 1682 3426
1873 2686 3585
0 1166 0
0 1542 1142
0 1931 2349
998 2418 3213
1874 2918 3507
0 2514 0
0 2871 1129
187 3154 2222
1223 3238 2976
1937 3341 3334
897 3640 767
953 3672 1336
1197 3689 2186
1640 3664 2824
2133 3652 3164
1755 3995 1523
1779 3978 1764
1881 3925 2297
2109 3864 2771
2433 3817 3054
1166 0 0
1252 110 1215
1307 226 2530
1717 1755 3517
2162 2714 3585
1333 1352 0
1357 1640 1273
1359 1921 2544
1674 2414 3302
2150 2929 3498
1347 2645 0
1298 2883 1140
1360 3060 2271
1708 3185 2984
2166 3333 3321
1565 3620 829
1575 3640 1371
1668 3647 2200
1935 3636 2821
2306 3645 3153
2028 3971 1554
2041 3951 1789
2106 3902 2307
2279 3848 2771
2548 3809 3047
2514 0 0
2608 115 1270
2634 566 2527
2738 2178 3341
2784 2881 3588
2789 1783 0
2787 1938 1313
2696 2184 2652
2658 2627 3399
2749 3039 3584
2672 2904 173
2595 2998 1266
2507 3082 2371
2541 3207 3084
2689 3361 3328
2548 3610 1075
2518 3614 1504
2486 3604 2260
2545 3606 2850
2704 3636 3141
2623 3911 1673
2616 3895 1880
2618 3858 2355
2678 3822 2790
2828 3780 3041
3646 1652 889
3629 1801 1589
3585 2262 2605
3424 2756 3181
3293 3120 3421
3723 2533 969
3664 2586 1632
3502 2738 2667
3351 2975 3205
3254 3214 3425
3497 3218 1165
3430 3227 1637
3293 3247 2467
3189 3323 3087
3164 3439 3370
3267 3625 1507
3226 3620 1787
3139 3608 2380
3081 3612 2895
3101 3647 3166
3147 3854 1912
3129 3845 2075
3090 3818 2460
3079 3788 2843
3133 3768 3057
3909 2900 1791
3867 2940 2088
3764 3042 2738
3647 3184 3124
3517 3350 3320
3865 3128 1802
3823 3142 2083
3725 3181 2695
3605 3268 3130
3484 3408 3323
3749 3416 1844
3709 3419 2076
3607 3426 2595
3497 3462 3053
3401 3549 3267
3588 3667 1988
3557 3663 2158
3472 3658 2553
3375 3664 2937
3303 3693 3115
3450 3818 2243
3427 3811 2355
3365 3794 2631
3295 3771 2928
3262 3757 3050
