Toning/Toning-Film-Warm.3dl
#25pt 3DLUT created by 3D LUT Creator Pro (c) Oleg Sharonov
#Copyright Oleg Sharonov
#IMAGEPROFILE sRGB IEC61966-2.1 v.2.10
#INPUTGAMMA sRGB IEC61966-2.1 v.2.10
#OUTPUTGAMMA sRGB IEC61966-2.1 v.2.10
0 256 512 768 1023
538 430 312
608 472 650
825 612 1357
1147 847 2119
1502 1130 2749
725 1148 506
730 1161 1088
1009 1194 1837
1297 1268 2628
1633 1434 3187
1193 2222 995
1195 2227 1409
1205 2243 2238
1574 2250 2873
1876 2304 3411
1732 3084 1592
1734 3086 1871
1740 3094 2466
1752 3109 3158
2116 3107 3713
2713 3723 2739
2723 3724 2832
2757 3727 3090
2824 3733 3458
2932 3745 3835
1307 427 309
1309 423 1117
1285 587 1867
1447 859 2392
1713 1148 2920
1311 1182 477
1312 1191 1121
1425 1217 1998
1615 1328 2595
1853 1435 3317
1579 2238 1003
1583 2242 1422
1594 2256 2252
1817 2270 2898
1968 2298 3619
1979 3092 1597
1982 3094 1877
1988 3101 2473
2000 3115 3166
2175 3125 3764
2809 3726 2777
2797 3731 2840
2829 3735 3099
2891 3741 3468
2994 3753 3843
2339 422 304
2339 419 1120
2338 413 2288
2310 586 3071
2310 1088 3399
2356 1168 488
2340 1192 1122
2338 1191 2290
2338 1267 3057
2449 1323 3694
2338 2277 917
2367 2277 1254
2336 2290 2289
2408 2298 3029
2509 2271 3853
2501 3115 1618
2503 3117 1898
2507 3123 2494
2517 3135 3186
2582 3149 3797
3067 3737 2901
3061 3742 2956
3035 3759 3126
3085 3765 3496
3170 3777 3869
3125 420 302
3124 417 1122
3121 410 2290
3120 406 3223
3119 404 3991
3143 1153 463
3124 1193 1124
3121 1193 2291
3120 1194 3223
3120 1195 3991
3122 2276 998
3124 2282 1331
3117 2291 2291
3116 2292 3221
3150 2278 3966
3119 3152 1472
3135 3151 1686
3144 3153 2392
3116 3167 3222
3173 3161 3906
3405 3762 3149
3405 3766 3196
3401 3781 3317
3377 3810 3537
3437 3821 3916
3770 418 300
3768 416 1127
3764 409 2292
3762 404 3224
3761 401 3992
3762 1204 573
3767 1197 1129
3763 1197 2294
3761 1198 3225
3760 1200 3992
3728 2309 1272
3736 2305 1591
3760 2294 2294
3758 2293 3223
3757 2295 3989
3670 3182 2125
3677 3182 2281
3703 3179 2665
3756 3168 3223
3755 3169 3988
3701 3822 3548
3704 3826 3574
3712 3837 3654
3729 3857 3793
3754 3888 3988
