Toning/Toning-WarmthSplitToning.3dl
#25pt 3DLUT created by 3D LUT Creator Pro (c) Oleg Sharonov
#Copyright Oleg Sharonov
#IMAGEPROFILE sRGB IEC61966-2.1 v.2.10
#INPUTGAMMA sRGB IEC61966-2.1 v.2.10
#OUTPUTGAMMA sRGB IEC61966-2.1 v.2.10
0 128 256 384 512 640 768 896 1023
0 0 0
0 0 513
0 0 1024
0 0 1536
0 0 2048
0 0 2560
0 0 3072
0 0 3583
0 0 4095
32 485 32
16 428 578
6 398 1070
3 388 1567
3 383 2071
3 383 2577
6 384 3085
16 388 3593
39 398 4095
45 1006 45
32 947 637
19 884 1141
13 845 1630
13 827 2121
23 818 2617
39 816 3116
78 821 3618
145 835 4095
45 1525 45
39 1484 649
29 1421 1181
29 1365 1683
36 1328 2173
58 1306 2663
103 1297 3155
186 1297 3648
299 1310 4095
48 2039 48
48 2014 636
48 1967 1182
55 1914 1700
78 1870 2201
126 1839 2694
206 1820 3184
316 1814 3672
452 1822 4095
78 2550 78
81 2535 624
90 2505 1161
113 2465 1687
158 2427 2198
230 2395 2698
326 2372 3190
446 2361 3679
597 2362 4095
145 3057 145
152 3049 622
171 3032 1136
206 3007 1656
260 2981 2169
332 2956 2674
430 2936 3172
556 2923 3664
714 2920 4095
206 3566 206
214 3562 618
230 3555 1108
260 3544 1615
308 3531 2124
372 3517 2630
461 3505 3133
577 3496 3631
728 3491 4095
0 4095 0
0 4095 518
0 4094 1031
0 4094 1542
0 4094 2052
0 4094 2563
0 4094 3074
0 4095 3585
0 4095 4095
514 0 0
222 52 679
97 19 1141
81 10 1614
74 6 2103
78 13 2601
87 23 3103
110 45 3607
155 90 4095
425 570 48
217 540 674
103 451 1167
84 416 1638
81 401 2123
84 398 2617
100 403 3116
132 417 3617
195 446 4095
192 1114 74
155 1033 702
119 940 1209
100 880 1687
97 849 2167
107 835 2653
139 832 3145
198 840 3640
284 862 4095
165 1598 58
149 1549 684
129 1471 1224
119 1401 1725
126 1354 2210
152 1326 2695
206 1313 3180
291 1314 3668
404 1330 4095
155 2093 58
152 2064 658
149 2009 1210
152 1948 1731
174 1896 2230
222 1859 2720
297 1837 3206
403 1830 3690
538 1839 4095
177 2590 94
180 2573 640
189 2539 1181
212 2495 1709
252 2451 2220
314 2414 2718
404 2388 3209
523 2375 3693
677 2377 4095
240 3088 174
245 3079 637
262 3060 1153
291 3032 1673
339 3002 2187
411 2973 2691
506 2951 3187
632 2936 3675
795 2932 4095
297 3590 250
304 3586 641
320 3577 1125
349 3563 1631
394 3548 2139
461 3531 2644
551 3517 3145
670 3506 3640
830 3500 4095
155 4095 90
155 4095 557
158 4095 1053
168 4095 1559
186 4095 2068
212 4095 2577
255 4095 3085
318 4095 3593
416 4095 4095
1025 0 0
1081 6 367
504 65 1333
341 36 1781
314 32 2229
312 52 2698
332 94 3179
376 180 3665
449 297 4095
1040 477 0
1085 504 369
500 565 1324
345 478 1791
320 445 2243
320 437 2710
343 451 3189
391 488 3673
471 553 4095
877 1140 58
862 1122 599
494 1071 1310
356 957 1814
336 902 2273
341 877 2739
372 872 3214
433 888 3693
528 929 4095
508 1740 87
486 1685 734
451 1591 1292
370 1483 1821
360 1414 2298
376 1372 2769
422 1353 3242
501 1355 3716
617 1381 4095
417 2211 90
409 2175 708
396 2105 1274
388 2026 1802
396 1956 2299
430 1907 2782
493 1877 3258
592 1868 3731
731 1881 4095
411 2683 142
411 2662 680
412 2620 1229
423 2564 1762
451 2507 2273
503 2460 2768
584 2427 3252
700 2410 3728
858 2413 4095
443 3161 245
448 3150 679
460 3125 1193
484 3091 1715
525 3052 2229
588 3015 2731
682 2986 3222
810 2967 3703
981 2963 4095
493 3646 343
499 3641 695
513 3629 1167
541 3610 1670
586 3588 2176
653 3566 2679
748 3546 3175
876 3530 3663
1049 3522 4095
449 4095 297
452 4095 647
462 4095 1110
481 4095 1604
512 4095 2107
559 4095 2611
628 4095 3113
726 4095 3613
871 4095 4095
1536 0 0
1574 3 356
1461 61 1124
907 84 1939
721 90 2399
694 139 2836
701 235 3289
742 363 3750
822 522 4095
1546 475 0
1580 490 358
1448 593 1114
906 566 1934
725 510 2404
700 503 2844
710 532 3296
754 601 3756
838 710 4095
1565 973 3
1592 992 363
1426 1114 1097
904 1069 1926
736 978 2417
716 941 2862
732 938 3314
784 969 3771
880 1039 4095
1358 1683 74
1351 1673 595
1335 1654 1117
895 1604 1897
751 1498 2419
743 1441 2876
770 1417 3331
836 1423 3787
948 1466 4095
1012 2308 139
1000 2280 710
976 2223 1274
883 2143 1848
769 2043 2397
780 1978 2871
825 1940 3335
910 1930 3792
1043 1952 4095
812 2806 233
808 2783 735
800 2732 1290
797 2663 1832
800 2590 2351
833 2529 2841
898 2487 3316
1003 2466 3779
1157 2473 4095
799 3264 354
801 3250 749
807 3219 1256
820 3175 1780
850 3125 2294
902 3077 2792
985 3039 3275
1107 3015 3745
1280 3011 4095
825 3728 482
830 3721 786
842 3705 1237
865 3679 1733
906 3649 2235
969 3617 2733
1063 3588 3221
1194 3567 3698
1379 3556 4095
822 4095 522
826 4095 786
838 4095 1204
862 4095 1678
900 4095 2170
958 4095 2665
1044 4095 3158
1167 4095 3645
1349 4095 4095
2048 0 0
2075 3 351
2137 16 776
1842 123 1774
1421 192 2482
1243 278 2962
1221 401 3396
1241 558 3835
1306 752 4095
2055 475 0
2081 485 354
2138 508 777
1836 600 1769
1423 587 2481
1247 590 2965
1228 644 3400
1250 745 3839
1318 897 4095
2070 969 0
2092 981 358
2142 1010 780
1825 1109 1758
1426 1060 2480
1259 1017 2974
1246 1025 3411
1274 1078 3849
1351 1182 4095
2070 1500 23
2085 1512 396
2119 1540 826
1800 1644 1734
1425 1586 2464
1276 1516 2975
1274 1494 3418
1314 1512 3856
1405 1578 4095
1866 2198 171
1863 2194 606
1857 2186 1102
1762 2181 1699
1419 2131 2427
1297 2052 2955
1313 2012 3410
1371 2007 3852
1481 2044 4095
1588 2817 326
1582 2804 730
1570 2776 1242
1554 2730 1775
1414 2673 2373
1326 2600 2914
1365 2553 3380
1445 2534 3829
1579 2549 4095
1381 3339 492
1379 3326 822
1378 3297 1302
1378 3252 1819
1389 3199 2332
1368 3141 2856
1430 3097 3331
1534 3071 3787
1693 3072 4095
1313 3807 654
1315 3798 909
1322 3778 1329
1338 3747 1811
1368 3709 2305
1419 3669 2795
1500 3633 3273
1623 3607 3734
1805 3597 4095
1306 4095 752
1310 4095 958
1321 4095 1327
1343 4095 1775
1380 4095 2251
1439 4095 2733
1527 4095 3213
1660 4095 3682
1861 4095 4095
2560 0 0
2580 3 351
2629 23 766
2592 149 1452
2305 308 2313
2017 436 2953
1874 583 3445
1864 760 3878
1901 980 4095
2565 475 0
2585 484 352
2631 504 768
2591 575 1452
2305 642 2312
2020 693 2955
1879 778 3448
1871 911 3880
1910 1097 4095
2577 967 3
2595 977 358
2637 999 772
2589 1060 1454
2304 1094 2312
2027 1092 2958
1893 1122 3454
1890 1203 3886
1935 1343 4095
2590 1474 13
2605 1484 367
2641 1509 778
2579 1576 1454
2296 1607 2303
2034 1577 2955
1912 1569 3456
1919 1610 3888
1977 1706 4095
2558 2039 139
2566 2046 478
2586 2064 894
2558 2103 1454
2276 2143 2283
2037 2105 2935
1936 2074 3443
1960 2085 3879
2035 2146 4095
2391 2685 398
2391 2685 690
2391 2684 1120
2387 2677 1616
2247 2679 2254
2038 2645 2898
1965 2605 3411
2012 2596 3852
2112 2630 4095
2184 3280 612
2183 3274 860
2181 3262 1271
2177 3240 1754
2174 3209 2258
2042 3177 2851
2003 3138 3364
2076 3119 3809
2205 3132 4095
2015 3807 818
2016 3801 1017
2019 3787 1383
2026 3763 1834
2041 3731 2314
2057 3696 2806
2050 3662 3312
2150 3638 3760
2311 3634 4095
1915 4095 973
1918 4095 1135
1927 4095 1455
1944 4095 1869
1973 4095 2324
2021 4095 2791
2084 4095 3263
2206 4095 3714
2406 4095 4095
3072 0 0
3088 6 352
3125 45 765
3173 119 1238
3041 396 2056
2836 573 2773
2661 746 3356
2572 946 3843
2576 1178 4095
3076 475 0
3091 484 354
3128 508 768
3173 547 1240
3042 674 2058
2838 782 2775
2665 905 3358
2577 1068 3845
2582 1277 4095
3085 968 6
3099 976 362
3133 996 773
3175 1027 1244
3043 1091 2063
2844 1141 2781
2674 1209 3364
2591 1324 3849
2601 1494 4095
3096 1472 23
3108 1481 374
3138 1502 783
3176 1531 1251
3041 1577 2069
2847 1597 2785
2686 1625 3368
2611 1697 3851
2630 1825 4095
3103 1988 52
3114 1996 394
3139 2017 796
3172 2046 1261
3028 2093 2074
2842 2102 2782
2696 2106 3363
2637 2146 3844
2670 2237 4095
3053 2554 372
3058 2559 610
3071 2573 981
3087 2590 1436
3004 2619 2078
2829 2627 2771
2704 2619 3346
2666 2637 3825
2722 2698 4095
2927 3148 676
2929 3150 864
2933 3152 1206
2936 3154 1644
2937 3150 2130
2812 3152 2756
2713 3140 3320
2703 3143 3794
2788 3179 4095
2783 3712 921
2784 3711 1076
2787 3707 1384
2791 3699 1794
2798 3685 2253
2796 3669 2744
2726 3655 3292
2748 3646 3760
2870 3660 4095
2654 4095 1109
2656 4095 1241
2662 4095 1516
2673 4095 1895
2691 4095 2329
2720 4095 2786
2738 4095 3268
2793 4095 3731
2967 4095 4095
3584 0 0
3596 16 358
3625 87 773
3662 212 1241
3646 423 1860
3535 633 2565
3421 807 3177
3334 999 3713
3296 1240 4095
3587 477 0
3598 489 362
3627 523 776
3663 580 1243
3647 686 1863
3537 819 2568
3424 950 3180
3338 1114 3716
3300 1334 4095
3594 969 13
3604 979 374
3631 1002 784
3665 1039 1250
3649 1091 1871
3542 1154 2577
3431 1236 3189
3347 1358 3722
3311 1545 4095
3602 1473 45
3612 1481 393
3636 1502 798
3666 1533 1261
3650 1561 1883
3546 1586 2589
3438 1631 3199
3359 1716 3729
3328 1867 4095
3608 1987 90
3617 1995 422
3637 2014 818
3664 2042 1276
3644 2062 1898
3544 2070 2603
3443 2092 3208
3371 2149 3732
3350 2268 4095
3610 2507 155
3617 2514 458
3634 2532 845
3656 2558 1298
3632 2576 1919
3533 2579 2616
3441 2589 3213
3381 2627 3729
3376 2719 4095
3562 3048 597
3565 3053 773
3574 3063 1094
3585 3078 1513
3593 3093 1990
3514 3098 2631
3433 3101 3215
3391 3123 3722
3408 3191 4095
3479 3602 888
3481 3603 1029
3486 3607 1313
3492 3612 1702
3497 3615 2152
3491 3615 2647
3424 3614 3217
3403 3623 3714
3453 3664 4095
3385 4095 1057
3386 4095 1184
3391 4095 1450
3398 4095 1822
3407 4095 2254
3420 4095 2716
3414 4095 3216
3416 4095 3710
3522 4095 4095
4095 0 0
4095 45 374
4095 174 793
4095 339 1259
4095 503 1770
4095 541 2397
4095 492 2996
4095 337 3558
4095 0 4095
4095 482 10
4095 504 381
4095 557 797
4095 641 1262
4095 744 1773
4095 751 2401
4095 706 3000
4095 609 3561
4095 475 4095
4095 975 42
4095 987 399
4095 1019 809
4095 1071 1272
4095 1139 1781
4095 1110 2411
4095 1066 3010
4095 1010 3569
4095 965 4095
4095 1478 97
4095 1487 430
4095 1512 830
4095 1551 1288
4095 1601 1794
4095 1552 2427
4095 1506 3025
4095 1472 3581
4095 1468 4095
4095 1990 174
4095 1998 472
4095 2019 859
4095 2051 1313
4095 2091 1814
4095 2035 2447
4095 1990 3043
4095 1968 3593
4095 1984 4095
4095 2509 260
4095 2516 522
4095 2534 898
4095 2561 1345
4095 2594 1841
4095 2540 2471
4095 2500 3060
4095 2483 3604
4095 2510 4095
4095 3022 379
4095 3028 609
4095 3042 971
4095 3063 1412
4095 3087 1901
4095 3056 2497
4095 3022 3076
4095 3009 3612
4095 3037 4095
4095 3534 520
4095 3537 728
4095 3545 1084
4095 3556 1524
4095 3569 2006
4095 3577 2520
4095 3552 3084
4095 3540 3613
4095 3561 4095
4095 4095 0
4095 4095 488
4095 4095 984
4095 4095 1491
4095 4095 2006
4095 4095 2527
4095 4095 3053
4095 4095 3576
4095 4095 4095
