Toning/Toning-Purple.3dl
#25pt 3DLUT created by 3D LUT Creator Pro (c) Oleg Sharonov
#Copyright Oleg Sharonov
#IMAGEPROFILE sRGB IEC61966-2.1 v.2.10
#INPUTGAMMA sRGB IEC61966-2.1 v.2.10
#OUTPUTGAMMA sRGB IEC61966-2.1 v.2.10
0 128 256 384 512 640 768 896 1023
7 0 402
26 0 732
69 0 1080
144 0 1446
251 0 1840
359 0 2272
468 0 2757
574 89 3341
674 175 3980
34 187 403
21 191 774
64 193 1143
121 200 1527
206 215 1939
304 238 2392
398 267 2913
488 301 3532
576 338 4095
100 736 402
14 744 750
50 743 1153
121 744 1548
231 747 1965
314 753 2432
402 764 2968
486 777 3597
568 794 4095
262 1282 448
95 1291 738
120 1292 1144
97 1294 1556
199 1295 1988
304 1296 2462
408 1300 3008
474 1303 3655
540 1311 4095
609 1816 733
508 1826 861
514 1829 1171
476 1833 1568
136 1848 1998
256 1847 2481
328 1848 3052
420 1848 3705
485 1852 4095
1085 2334 1123
1061 2339 1191
1054 2344 1371
1027 2352 1662
910 2367 2047
140 2406 2499
226 2406 3077
280 2405 3749
338 2407 4095
1616 2833 1596
1611 2836 1635
1599 2843 1728
1581 2856 1880
1496 2873 2208
1273 2906 2601
94 2972 3095
128 2971 3772
158 2973 4095
2085 3338 2065
2079 3342 2086
2066 3350 2139
2044 3364 2232
2000 3384 2420
1856 3413 2797
1520 3464 3260
37 3547 3783
42 3548 4095
2922 3729 2970
2922 3732 2981
2920 3738 3011
2920 3750 3064
2923 3766 3144
2881 3793 3339
2773 3839 3598
2419 3932 3944
24 4095 4095
535 0 401
564 0 770
557 0 1117
578 0 1467
619 0 1859
672 0 2289
735 2 2775
804 92 3359
874 176 3996
580 183 462
607 194 656
622 205 1056
646 227 1431
684 258 1828
733 296 2262
790 341 2749
853 391 3337
734 226 4095
614 731 525
699 724 736
639 742 1094
655 745 1508
688 750 1931
721 759 2397
762 771 2930
806 786 3561
692 743 4095
660 1282 447
752 1274 769
609 1297 1084
650 1294 1526
683 1295 1962
726 1297 2435
767 1301 2982
801 1306 3629
669 1296 4095
849 1818 743
914 1813 910
783 1833 1133
782 1835 1541
656 1847 1981
696 1847 2466
730 1848 3034
773 1849 3687
637 1850 4095
1209 2336 1136
1242 2334 1216
1187 2346 1360
1174 2354 1642
1086 2368 2036
644 2406 2490
674 2405 3068
694 2405 3741
594 2408 4095
1643 2843 1576
1684 2837 1643
1672 2845 1736
1656 2857 1888
1586 2874 2202
1393 2906 2596
612 2972 3093
625 2971 3769
563 2974 4095
2101 3347 2054
2128 3343 2102
2114 3351 2155
2092 3366 2247
2056 3386 2414
1920 3414 2796
1613 3464 3259
581 3547 3783
557 3549 4095
2944 3732 2984
2943 3735 2996
2942 3742 3025
2940 3753 3078
2943 3769 3158
2908 3796 3343
2803 3841 3603
2465 3933 3946
576 4095 4095
1063 0 400
1116 0 753
1109 0 1147
1096 0 1513
1102 0 1906
1121 0 2324
1151 17 2807
1188 101 3394
1229 182 4031
1096 200 401
1066 229 696
1116 214 1082
1116 235 1472
1126 269 1863
1150 310 2291
1179 351 2781
1215 398 3372
1194 226 4095
1132 729 603
1143 733 776
1178 749 950
1207 753 1374
1203 773 1803
1223 792 2247
1250 817 2742
1281 843 3339
1174 743 4095
1208 1262 817
1213 1267 891
1303 1260 1081
1205 1299 1389
1198 1298 1900
1223 1301 2380
1239 1306 2929
1256 1313 3578
1162 1296 4095
1259 1813 891
1280 1814 968
1371 1804 1189
1214 1844 1450
1202 1847 1928
1204 1849 2428
1224 1849 2993
1242 1851 3651
1145 1850 4095
1471 2339 1184
1489 2338 1246
1550 2333 1413
1451 2361 1592
1410 2371 2004
1177 2405 2467
1184 2406 3047
1193 2405 3722
1126 2408 4095
1803 2849 1611
1812 2849 1653
1843 2849 1755
1826 2862 1905
1784 2879 2181
1648 2907 2580
1146 2972 3085
1147 2972 3763
1112 2974 4095
2148 3368 2032
2167 3366 2074
2231 3355 2192
2209 3370 2282
2183 3391 2412
2070 3418 2792
1821 3465 3253
1124 3547 3782
1108 3549 4095
2997 3740 3022
2996 3743 3033
2995 3750 3061
2993 3762 3113
2993 3779 3192
2973 3803 3354
2874 3847 3615
2576 3934 3950
1115 4095 4095
1562 0 400
1631 0 724
1632 0 1134
1622 0 1548
1607 0 1946
1607 0 2389
1614 0 2883
1630 102 3458
1653 195 4076
1590 227 400
1574 255 691
1677 156 1084
1622 225 1509
1613 266 1911
1615 306 2354
1625 354 2845
1644 408 3425
1674 229 4095
1615 747 399
1617 753 687
1565 792 1012
1655 769 1372
1654 774 1854
1652 802 2293
1665 827 2785
1683 853 3387
1668 740 4095
1649 1275 798
1655 1277 914
1673 1283 1117
1708 1302 1274
1796 1285 1714
1725 1318 2229
1732 1333 2752
1744 1348 3374
1654 1295 4095
1753 1793 1121
1768 1793 1180
1774 1802 1289
1857 1798 1473
1714 1859 1737
1695 1854 2362
1712 1854 2934
1718 1855 3608
1643 1850 4095
1854 2332 1345
1856 2335 1386
1871 2339 1486
1941 2334 1683
1800 2382 1922
1695 2405 2419
1679 2408 3016
1686 2407 3696
1633 2408 4095
2068 2854 1695
2068 2856 1728
2077 2860 1812
2116 2861 1970
2067 2888 2141
1976 2912 2565
1655 2972 3072
1650 2972 3755
1625 2975 4095
2333 3378 2087
2330 3381 2115
2335 3384 2184
2400 3377 2347
2373 3398 2476
2304 3424 2782
2124 3467 3243
1632 3547 3782
1622 3550 4095
3096 3752 3104
3092 3756 3109
3086 3765 3128
3084 3777 3177
3081 3794 3253
3082 3816 3371
2996 3858 3636
2757 3937 3958
1625 4095 4095
2045 0 400
2129 0 674
2130 0 1114
2131 0 1539
2119 0 1985
2104 0 2435
2098 0 2946
2100 64 3555
2107 158 4095
2067 272 399
2067 285 672
2185 114 1057
2157 165 1514
2118 237 1958
2105 290 2407
2101 344 2916
2105 391 3525
2156 188 4095
2097 761 398
2100 766 681
2050 813 1028
2204 712 1414
2121 784 1879
2124 795 2357
2118 826 2865
2123 853 3476
2154 737 4095
2113 1295 534
2113 1298 770
2100 1312 1074
2057 1350 1360
2184 1316 1693
2179 1311 2303
2161 1337 2817
2163 1354 3439
2146 1293 4095
2141 1820 1101
2145 1822 1173
2154 1826 1326
2174 1835 1531
2208 1856 1679
2293 1838 2149
2210 1865 2792
2204 1873 3460
2133 1850 4095
2260 2331 1486
2265 2332 1527
2281 2335 1625
2295 2344 1774
2362 2344 1970
2200 2412 2276
2162 2412 2971
2169 2409 3665
2126 2408 4095
2415 2855 1811
2412 2858 1842
2409 2865 1920
2408 2875 2054
2443 2881 2254
2349 2922 2529
2152 2973 3050
2138 2974 3743
2121 2975 4095
2603 3388 2162
2599 3390 2189
2594 3396 2257
2585 3407 2376
2685 3388 2637
2666 3415 2808
2508 3463 3245
2125 3548 3781
2118 3550 4095
3247 3766 3225
3244 3770 3233
3236 3780 3253
3219 3797 3285
3210 3817 3346
3209 3840 3448
3164 3875 3667
2997 3942 3970
2119 4095 4095
2517 31 399
2615 0 592
2616 0 1088
2617 0 1516
2617 0 1979
2603 0 2474
2589 0 3008
2578 44 3611
2580 113 4095
2536 327 398
2550 319 643
2676 67 1012
2660 108 1493
2633 174 1963
2602 250 2453
2589 309 2985
2580 376 3591
2636 160 4095
2570 779 397
2576 780 669
2534 833 1030
2696 681 1405
2653 728 1906
2601 790 2399
2597 809 2944
2589 845 3558
2631 733 4095
2594 1300 468
2589 1306 762
2574 1322 1090
2528 1365 1401
2700 1271 1798
2609 1336 2309
2626 1327 2907
2613 1350 3533
2624 1292 4095
2567 1849 1008
2569 1851 1096
2571 1856 1285
2540 1880 1560
2546 1901 1796
2661 1873 2161
2668 1854 2887
2643 1872 3540
2617 1849 4095
2610 2366 1519
2612 2368 1565
2618 2371 1674
2628 2378 1847
2647 2390 2059
2677 2414 2213
2693 2407 2839
2637 2406 3713
2609 2408 4095
2756 2873 1913
2757 2874 1945
2760 2879 2023
2766 2887 2156
2771 2900 2345
2806 2909 2584
2645 2973 2998
2605 2976 3763
2606 2975 4095
2928 3399 2242
2925 3401 2270
2918 3408 2339
2925 3411 2505
2963 3405 2771
2971 3421 2981
2916 3458 3281
2610 3548 3783
2604 3551 4095
3426 3791 3382
3425 3794 3390
3420 3802 3409
3410 3817 3444
3391 3841 3495
3372 3872 3568
3369 3901 3703
3264 3955 3996
2604 4095 4095
2986 129 398
3094 0 463
3095 0 1056
3096 0 1502
3097 0 1960
3096 0 2471
3080 0 3054
3068 0 3689
3058 71 4095
3004 382 398
3027 350 609
3158 14 961
3144 59 1472
3130 107 1948
3105 184 2461
3080 258 3038
3068 319 3674
3113 140 4095
3042 798 397
3050 796 660
3014 849 1032
3172 661 1392
3149 692 1901
3114 739 2425
3078 793 2999
3071 815 3647
3108 726 4095
3072 1302 539
3066 1310 791
3048 1330 1109
3010 1374 1427
3176 1252 1826
3131 1290 2370
3079 1336 2944
3086 1333 3627
3101 1290 4095
3058 1850 937
3052 1856 1045
3039 1867 1281
3026 1882 1585
3019 1905 1862
3153 1839 2313
3083 1883 2893
3107 1862 3633
3092 1848 4095
2979 2412 1549
2985 2412 1591
2996 2413 1696
2999 2421 1882
2949 2452 2163
3039 2445 2362
3096 2432 2851
3121 2397 3743
3087 2409 4095
3068 2919 1984
3069 2920 2018
3072 2924 2102
3077 2930 2246
3087 2940 2448
3100 2954 2694
3125 2979 2901
3089 2974 3769
3084 2976 4095
3240 3428 2336
3240 3429 2363
3244 3429 2480
3255 3427 2681
3273 3428 2931
3270 3448 3128
3239 3485 3340
3086 3549 3787
3083 3551 4095
3615 3831 3574
3616 3833 3580
3616 3840 3597
3614 3853 3632
3608 3873 3684
3593 3902 3751
3566 3942 3837
3528 3983 4047
3082 4095 4095
3460 203 397
3561 0 396
3572 0 1027
3572 0 1488
3573 0 1951
3573 0 2462
3572 0 3057
3556 0 3736
3547 0 4095
3478 425 397
3506 375 581
3633 0 919
3622 18 1451
3611 64 1940
3594 126 2459
3576 195 3050
3556 261 3727
3584 135 4095
3519 810 396
3526 808 667
3497 860 1038
3640 650 1387
3624 675 1903
3605 706 2431
3579 747 3027
3555 789 3704
3580 724 4095
3549 1303 617
3543 1312 830
3527 1334 1132
3496 1376 1451
3639 1245 1850
3616 1268 2393
3585 1298 2998
3554 1330 3677
3574 1288 4095
3541 1849 951
3538 1853 1075
3529 1863 1312
3517 1878 1610
3507 1902 1905
3620 1830 2370
3588 1851 2981
3554 1875 3666
3568 1848 4095
3508 2402 1448
3505 2405 1503
3494 2416 1636
3458 2441 1864
3461 2446 2186
3568 2415 2435
3571 2413 3025
3555 2421 3712
3563 2409 4095
3367 2987 2092
3375 2986 2119
3394 2985 2187
3419 2983 2315
3407 2997 2558
3383 3021 2851
3559 2978 3087
3557 2978 3764
3560 2976 4095
3520 3475 2573
3520 3475 2624
3518 3476 2744
3518 3479 2930
3520 3485 3160
3531 3501 3330
3546 3525 3504
3563 3550 3770
3559 3552 4095
3787 3894 3825
3788 3896 3831
3791 3902 3847
3796 3912 3875
3802 3928 3916
3810 3950 3972
3812 3981 4045
3789 4027 4092
3559 4095 4095
3945 240 396
4032 0 396
4041 0 1024
4042 0 1485
4042 0 1951
4042 0 2453
4041 0 3052
4040 0 3735
4037 0 4095
3964 443 396
4036 243 396
4042 229 1034
4043 230 1492
4043 231 1957
4043 236 2459
4042 233 3057
4041 234 3741
4038 246 4095
4008 805 395
4041 754 609
4042 760 1051
4043 761 1503
4043 762 1966
4043 764 2470
4042 763 3066
4040 762 3751
4038 768 4095
4024 1308 728
4027 1307 897
4035 1303 1176
4042 1304 1520
4042 1304 1981
4042 1305 2485
4041 1305 3079
4040 1305 3765
4039 1308 4095
3986 1872 1132
3990 1871 1215
4000 1868 1398
4019 1861 1664
4042 1854 1996
4042 1854 2501
4041 1854 3093
4040 1853 3779
4040 1855 4095
3922 2443 1523
3927 2442 1574
3940 2438 1698
3963 2432 1898
3998 2423 2169
4041 2411 2510
4040 2410 3107
4039 2409 3789
4040 2411 4095
3783 3015 2334
3791 3014 2343
3813 3013 2367
3852 3010 2408
3916 3003 2467
3975 2992 2722
4040 2976 3112
4038 2976 3794
4040 2977 4095
3674 3567 3139
3681 3567 3151
3697 3568 3181
3726 3569 3231
3772 3570 3301
3838 3571 3383
3937 3566 3471
4038 3551 3796
4039 3553 4095
3925 3988 4091
3927 3990 4091
3931 3995 4091
3938 4005 4092
3950 4019 4092
3965 4038 4093
3985 4062 4093
4009 4092 4094
4039 4095 4095
