Toning/Toning-OrangeAndBlue-Toned.3dl
#25pt 3DLUT created by 3D LUT Creator Pro (c) Oleg Sharonov
#Copyright Oleg Sharonov
#IMAGEPROFILE sRGB IEC61966-2.1 v.2.10
#INPUTGAMMA sRGB IEC61966-2.1 v.2.10
#OUTPUTGAMMA sRGB IEC61966-2.1 v.2.10
0 128 256 384 512 640 768 896 1023
0 0 0
55 132 250
189 383 563
330 627 901
562 910 1264
840 1203 1593
1146 1488 1876
1441 1752 2119
1722 1993 2339
297 351 287
32 467 583
58 569 1002
206 781 1268
446 1030 1560
743 1300 1822
1072 1566 2053
1390 1816 2259
1685 2046 2452
582 763 601
560 815 775
107 994 1219
32 1083 1703
230 1274 1970
601 1510 2159
983 1742 2329
1344 1965 2488
1662 2172 2647
946 1203 979
952 1230 1117
876 1359 1321
183 1567 1866
90 1662 2268
273 1802 2546
800 1999 2668
1245 2187 2788
1618 2366 2912
1379 1659 1383
1392 1677 1482
1383 1746 1681
1072 1956 1978
394 2131 2430
411 2217 2741
546 2320 2992
1029 2462 3124
1511 2611 3224
1849 2114 1792
1859 2127 1868
1871 2168 2030
1842 2271 2226
1366 2492 2567
758 2643 2915
825 2715 3165
978 2797 3384
1268 2892 3562
2312 2547 2208
2319 2555 2263
2335 2580 2385
2335 2643 2556
2293 2766 2707
1730 2968 3062
1186 3101 3349
1271 3160 3569
1418 3229 3772
2754 2949 2613
2760 2955 2654
2776 2972 2746
2786 3012 2879
2778 3087 3025
2698 3222 3153
2108 3398 3503
1632 3518 3761
1714 3573 3964
3173 3327 2997
3177 3332 3025
3189 3345 3092
3203 3372 3196
3207 3421 3320
3191 3504 3442
2951 3661 3626
2479 3804 3916
2067 3916 4095
518 0 0
186 314 337
312 493 554
464 718 891
681 979 1245
943 1256 1574
1230 1528 1861
1507 1783 2108
1775 2017 2330
422 503 45
376 523 540
440 661 787
565 855 1090
756 1090 1409
999 1345 1704
1274 1600 1965
1544 1842 2192
1806 2067 2400
646 843 607
654 872 800
383 1027 1203
356 1118 1679
553 1317 1906
831 1543 2110
1151 1767 2292
1464 1984 2461
1753 2188 2626
1000 1257 990
1014 1278 1129
986 1372 1364
448 1587 1857
419 1681 2260
601 1828 2512
998 2018 2641
1382 2202 2767
1714 2379 2896
1423 1699 1390
1437 1715 1489
1448 1769 1695
1244 1958 1952
619 2143 2425
644 2228 2735
759 2329 2987
1201 2473 3106
1623 2620 3209
1883 2143 1801
1895 2154 1876
1915 2189 2039
1897 2281 2241
1489 2496 2558
929 2650 2911
993 2720 3161
1131 2801 3381
1421 2899 3549
2337 2567 2216
2345 2575 2270
2364 2597 2392
2370 2654 2563
2335 2771 2721
1827 2971 3057
1319 3104 3346
1398 3163 3566
1535 3231 3768
2773 2964 2620
2780 2970 2660
2795 2986 2751
2809 3022 2885
2804 3094 3031
2739 3223 3157
2183 3399 3499
1737 3519 3757
1813 3575 3960
3187 3338 3002
3192 3343 3030
3204 3356 3096
3220 3380 3200
3226 3428 3325
3212 3508 3448
3000 3661 3620
2539 3805 3914
2146 3917 4095
1082 6 0
989 177 394
493 702 758
658 898 984
865 1129 1281
1109 1372 1592
1367 1618 1872
1620 1853 2118
1868 2074 2339
1067 479 3
1125 412 422
613 839 894
766 1017 1101
957 1225 1394
1184 1454 1685
1428 1686 1949
1672 1910 2182
1911 2122 2394
965 931 103
910 1069 496
842 1098 1151
952 1240 1394
1111 1421 1662
1313 1623 1915
1537 1833 2141
1766 2037 2346
1992 2232 2535
1144 1382 1010
1150 1401 1147
1178 1450 1413
893 1634 1827
896 1724 2235
1111 1887 2420
1386 2064 2569
1662 2239 2711
1926 2411 2853
1536 1794 1409
1545 1809 1507
1575 1845 1720
1553 1961 1957
1036 2170 2408
1066 2253 2721
1200 2357 2952
1550 2501 3061
1865 2643 3173
1969 2212 1821
1978 2223 1895
2003 2249 2057
2016 2315 2271
1769 2505 2532
1286 2664 2900
1340 2734 3150
1452 2813 3370
1734 2915 3516
2398 2617 2235
2406 2625 2288
2426 2644 2409
2450 2686 2582
2432 2784 2754
2041 2977 3042
1611 3111 3336
1677 3170 3557
1789 3237 3760
2820 3001 2637
2826 3006 2676
2841 3021 2766
2865 3050 2898
2868 3113 3047
2828 3229 3171
2356 3404 3489
1969 3523 3749
2030 3578 3953
3223 3367 3014
3228 3371 3042
3240 3383 3108
3260 3403 3212
3271 3446 3337
3263 3519 3463
3151 3653 3592
2678 3808 3906
2330 3919 4095
1693 26 0
1714 0 326
1330 658 891
896 1133 1219
1094 1331 1433
1323 1548 1662
1545 1761 1920
1776 1967 2156
1998 2167 2371
1750 345 0
1800 248 273
1487 725 944
984 1227 1309
1174 1413 1512
1389 1618 1737
1604 1820 1984
1825 2018 2211
2041 2211 2419
1639 916 36
1663 909 42
1755 942 986
1172 1425 1500
1347 1591 1681
1535 1769 1906
1733 1952 2132
1936 2135 2340
2138 2314 2532
1599 1366 287
1546 1499 609
1508 1665 1131
1441 1704 1769
1568 1834 1975
1722 1986 2185
1895 2147 2380
2079 2310 2560
2265 2472 2729
1733 1939 1438
1738 1952 1533
1754 1985 1743
1794 2040 2021
1556 2213 2374
1583 2291 2691
1759 2413 2852
1977 2549 2979
2196 2688 3108
2112 2321 1856
2118 2330 1928
2133 2355 2084
2169 2396 2304
2156 2507 2505
1751 2688 2878
1789 2756 3131
1870 2833 3352
2132 2945 3459
2506 2698 2267
2512 2705 2318
2527 2723 2436
2559 2754 2609
2576 2819 2793
2353 2989 3018
2003 3124 3320
2049 3183 3542
2135 3250 3746
2900 3062 2665
2905 3068 2703
2918 3082 2789
2943 3105 2919
2968 3151 3072
2951 3245 3209
2609 3413 3475
2294 3531 3735
2341 3587 3941
3284 3415 3036
3288 3419 3064
3299 3429 3129
3320 3447 3231
3344 3480 3356
3347 3542 3486
3297 3656 3596
2887 3815 3896
2598 3925 4095
2279 6 0
2325 0 142
2205 269 847
1529 1234 1446
1357 1568 1660
1549 1747 1842
1757 1935 2027
1958 2117 2229
2156 2294 2429
2359 139 0
2418 0 19
2285 401 900
1639 1285 1500
1422 1634 1722
1607 1806 1898
1809 1986 2076
2002 2163 2275
2196 2334 2471
2251 846 6
2279 833 6
2362 847 888
1994 1324 1549
1568 1782 1863
1739 1939 2025
1926 2105 2195
2106 2267 2386
2289 2427 2571
2210 1331 97
2221 1329 103
2208 1515 620
2283 1565 1632
1786 2004 2073
1941 2141 2216
2101 2283 2386
2266 2427 2562
2432 2573 2731
2198 1812 525
2160 1923 796
2132 2094 1259
2106 2235 1797
2057 2274 2329
2171 2383 2494
2301 2502 2655
2443 2630 2811
2592 2760 2963
2309 2460 1899
2313 2469 1966
2323 2490 2118
2344 2527 2335
2386 2580 2570
2212 2725 2850
2240 2792 3105
2370 2888 3256
2536 2997 3378
2656 2805 2312
2660 2811 2362
2671 2828 2475
2692 2857 2641
2730 2898 2830
2723 2997 2989
2414 3148 3301
2448 3206 3525
2509 3272 3731
3015 3146 2703
3019 3152 2739
3028 3165 2821
3048 3187 2948
3081 3220 3101
3098 3281 3255
2905 3429 3456
2649 3549 3720
2685 3603 3927
3374 3481 3069
3378 3485 3095
3386 3495 3158
3403 3512 3256
3431 3538 3380
3455 3582 3516
3440 3673 3631
3138 3829 3882
2902 3938 4095
2801 0 0
2810 0 0
2805 0 871
2502 902 1390
1870 1703 1884
1800 1970 2053
1973 2124 2206
2156 2284 2360
2337 2443 2520
2880 0 0
2892 0 0
2893 0 932
2564 964 1430
1928 1753 1931
1848 2018 2099
2017 2168 2247
2195 2323 2397
2372 2478 2556
2804 777 0
2826 762 0
2880 749 788
2705 1104 1520
2073 1865 2036
1961 2131 2206
2121 2270 2346
2290 2417 2487
2455 2562 2643
2685 1297 116
2696 1293 119
2718 1451 560
2831 1482 1549
2456 1941 2127
2138 2306 2372
2284 2432 2499
2441 2565 2628
2589 2697 2784
2745 1733 248
2750 1732 250
2766 1731 260
2711 2144 1327
2747 2179 2241
2364 2528 2583
2496 2639 2694
2628 2755 2828
2766 2870 2974
2739 2238 813
2712 2331 1046
2689 2487 1461
2680 2664 1935
2659 2745 2415
2627 2784 2824
2723 2874 2954
2832 2970 3089
2950 3074 3225
2854 2938 2305
2854 2942 2369
2852 2953 2513
2865 2978 2676
2889 3016 2862
2929 3065 3051
2796 3187 3284
2822 3244 3509
2919 3325 3655
3161 3249 2749
3163 3254 2783
3171 3265 2862
3185 3286 2984
3208 3316 3133
3245 3354 3294
3241 3443 3431
2994 3577 3708
3021 3631 3915
3491 3564 3109
3494 3568 3134
3501 3577 3194
3514 3594 3289
3536 3619 3410
3569 3651 3547
3587 3711 3682
3412 3851 3867
3211 3960 4090
3269 0 0
3280 0 0
3292 0 807
3121 590 1419
2724 1498 1910
2224 2116 2261
2208 2330 2399
2362 2465 2529
2523 2602 2666
3337 0 0
3342 0 0
3367 0 843
3160 680 1456
2774 1538 1939
2266 2155 2298
2245 2367 2433
2396 2499 2562
2554 2634 2697
3293 721 0
3312 704 0
3342 659 669
3253 871 1543
2890 1634 2010
2367 2247 2385
2334 2455 2518
2479 2580 2640
2631 2709 2769
3099 1285 158
3109 1280 165
3167 1383 462
3270 1447 1512
3073 1789 2122
2539 2390 2519
2478 2596 2652
2613 2711 2767
2757 2831 2888
3140 1720 284
3146 1719 287
3160 1715 295
3154 2124 1335
3235 2120 2184
2904 2500 2638
2668 2783 2829
2792 2886 2934
2925 2996 3045
3258 2083 430
3259 2087 431
3263 2096 434
3141 2439 1163
3189 2731 2036
3203 2721 2768
2893 3001 3038
3006 3093 3133
3121 3191 3247
3234 2646 1131
3216 2723 1330
3197 2861 1704
3192 3026 2147
3191 3180 2544
3170 3208 2943
3145 3244 3271
3230 3321 3384
3325 3407 3503
3358 3360 2693
3359 3376 2732
3358 3388 2838
3357 3401 3000
3367 3426 3168
3392 3462 3329
3430 3508 3491
3320 3620 3698
3343 3673 3905
3633 3663 3153
3635 3666 3176
3641 3674 3233
3651 3690 3325
3668 3714 3443
3692 3745 3579
3729 3784 3722
3724 3869 3846
3513 3994 4087
3711 0 0
3716 0 0
3750 0 713
3686 0 1528
3323 1306 1962
2917 2045 2349
2569 2479 2592
2582 2656 2712
2721 2776 2832
3762 0 0
3771 0 0
3788 0 702
3706 186 1550
3355 1356 1990
2963 2069 2371
2602 2510 2621
2611 2685 2740
2749 2803 2858
3732 694 23
3745 677 26
3774 587 556
3757 565 1616
3433 1476 2059
3070 2133 2426
2681 2584 2692
2683 2756 2809
2817 2869 2923
3528 1277 206
3539 1271 209
3578 1320 362
3674 1432 1484
3558 1666 2171
3233 2248 2519
2814 2705 2807
2802 2872 2921
2929 2980 3029
3500 1727 336
3505 1726 339
3518 1722 347
3553 2121 1341
3616 2130 2192
3442 2410 2647
3003 2863 2958
2964 3030 3073
3083 3130 3173
3598 2096 465
3602 2096 468
3610 2096 474
3515 2467 1267
3585 2742 2086
3630 2699 2749
3346 2995 3096
3161 3222 3257
3271 3314 3349
3748 2406 623
3749 2409 624
3751 2416 627
3604 2716 1133
3592 3060 2073
3638 3240 2696
3657 3200 3231
3385 3440 3465
3486 3523 3549
3704 3039 1473
3691 3102 1639
3677 3227 1971
3673 3377 2379
3673 3520 2754
3668 3614 3083
3651 3641 3405
3631 3677 3691
3708 3748 3794
3833 3755 3054
3834 3767 3084
3836 3795 3154
3835 3809 3285
3835 3825 3448
3843 3851 3611
3868 3889 3756
3905 3933 3905
3807 4038 4089
4091 10 3
4094 23 6
4089 48 634
4071 36 1612
3819 1120 2059
3508 1922 2404
3067 2541 2738
2903 2803 2897
2931 2960 3007
4095 123 32
4095 132 36
4095 161 623
4095 145 1662
3834 1184 2087
3536 1956 2427
3103 2562 2759
2930 2828 2921
2956 2984 3030
4078 735 113
4089 712 116
4095 635 501
4095 517 1740
3870 1336 2156
3603 2040 2483
3232 2586 2796
2995 2889 2981
3015 3043 3087
3869 1314 287
3878 1308 289
3902 1324 362
3976 1476 1511
3926 1577 2271
3714 2181 2576
3408 2654 2864
3104 2991 3079
3116 3142 3182
3781 1769 416
3784 1768 417
3793 1765 425
3846 2165 1395
3885 2188 2242
3811 2384 2715
3602 2781 2974
3258 3131 3213
3256 3279 3314
3862 2129 531
3864 2129 532
3869 2130 538
3787 2527 1385
3859 2793 2163
3874 2756 2804
3806 2957 3119
3456 3300 3375
3430 3448 3476
3986 2451 668
3988 2452 670
3992 2454 674
3850 2806 1331
3868 3123 2220
3906 3260 2797
3923 3236 3266
3778 3450 3526
3631 3644 3664
4095 2729 831
4095 2731 831
4095 2737 834
3956 3151 1593
3944 3432 2343
3963 3625 2864
3985 3689 3300
4002 3673 3689
3854 3861 3872
4095 3429 1818
4087 3484 1961
4077 3595 2260
4077 3730 2632
4082 3861 2978
4091 3975 3271
4095 4036 3554
4095 4063 3833
4095 4095 4095
