Toning/Toning-Dark & Warm.3dl
#25pt 3DLUT created by 3D LUT Creator Pro (c) Oleg Sharonov
#Copyright Oleg Sharonov
#IMAGEPROFILE sRGB IEC61966-2.1 v.2.10
#INPUTGAMMA sRGB IEC61966-2.1 v.2.10
#OUTPUTGAMMA sRGB IEC61966-2.1 v.2.10
0 43 86 128 171 214 256 299 341 384 427 469 512 555 597 640 682 725 768 810 853 896 938 981 1023 
0 1 0
7 17 0
25 27 0
58 44 29
103 64 80
146 83 148
209 108 231
284 137 317
360 167 402
450 203 491
528 236 575
594 266 650
658 299 724
715 331 797
768 366 873
816 402 951
862 441 1034
906 479 1117
949 517 1204
993 558 1295
1036 598 1387
1080 639 1481
1124 682 1577
1169 725 1673
1214 770 1771
58 126 1
68 136 33
102 142 70
136 148 119
182 159 184
234 173 253
295 193 328
367 215 405
439 238 481
512 263 556
575 287 624
634 312 693
691 340 762
743 370 833
791 403 906
835 437 983
878 473 1062
921 508 1146
964 546 1232
1007 584 1323
1049 623 1414
1093 664 1507
1136 705 1601
1181 747 1697
1226 791 1794
142 261 54
151 269 84
160 279 129
203 279 189
251 281 263
311 286 339
377 295 413
441 304 481
503 318 547
562 331 610
621 350 675
673 371 738
727 395 806
773 422 874
818 450 946
859 482 1022
901 515 1100
942 548 1182
983 583 1268
1024 619 1357
1066 656 1447
1109 695 1539
1152 735 1633
1196 777 1728
1241 820 1824
225 400 93
233 407 123
241 415 166
248 420 237
299 416 318
362 412 394
430 410 467
493 411 535
556 416 601
612 424 663
668 437 728
720 453 792
766 471 857
809 494 926
850 518 998
890 547 1073
930 575 1152
969 605 1234
1010 638 1320
1051 672 1408
1092 707 1496
1133 744 1587
1176 782 1679
1218 822 1773
1263 863 1869
303 523 117
310 529 145
317 536 186
323 541 251
327 545 340
390 540 424
462 533 501
532 531 575
600 531 646
659 534 713
712 542 780
763 552 846
807 568 914
849 586 986
888 607 1059
927 630 1136
966 656 1216
1005 683 1299
1043 711 1384
1083 743 1471
1123 775 1559
1164 809 1649
1206 846 1740
1249 883 1833
1293 923 1927
389 646 138
395 652 166
401 657 204
406 663 268
411 666 353
415 669 445
493 663 529
569 658 609
638 655 684
699 656 757
754 660 828
805 668 901
849 680 974
888 695 1049
928 712 1126
966 731 1206
1005 753 1289
1044 776 1373
1082 802 1459
1121 830 1546
1161 860 1634
1201 891 1723
1243 926 1814
1286 961 1906
1330 998 1999
489 773 160
494 779 187
499 783 226
504 787 289
508 791 370
512 795 460
516 800 555
596 794 639
670 790 720
735 789 798
793 792 876
843 798 953
887 806 1033
928 818 1114
969 832 1196
1007 847 1281
1047 866 1368
1086 886 1454
1125 909 1541
1164 934 1630
1205 961 1718
1245 990 1808
1287 1021 1899
1330 1055 1990
1374 1090 2080
595 906 185
599 910 212
603 915 253
611 918 316
615 922 393
619 926 480
622 931 573
626 936 669
705 931 754
772 930 838
831 932 922
882 937 1007
926 944 1094
969 953 1182
1012 965 1271
1052 978 1361
1092 993 1451
1132 1011 1542
1173 1031 1631
1212 1053 1721
1253 1078 1812
1295 1105 1903
1336 1133 1993
1379 1164 2082
1423 1196 2166
702 1046 216
708 1050 246
712 1053 287
715 1056 350
718 1060 425
722 1065 510
729 1070 601
733 1075 695
740 1080 791
809 1079 881
868 1081 971
920 1085 1063
966 1092 1157
1012 1100 1253
1056 1109 1349
1098 1121 1445
1140 1134 1540
1181 1150 1633
1222 1168 1726
1264 1188 1819
1305 1209 1911
1346 1233 2002
1388 1258 2090
1431 1286 2172
1474 1315 2250
809 1197 257
811 1200 288
814 1203 332
816 1206 392
822 1210 466
825 1215 548
829 1220 638
835 1225 730
841 1231 826
845 1238 925
905 1240 1022
958 1244 1122
1008 1251 1224
1054 1258 1327
1100 1266 1430
1145 1276 1531
1188 1288 1630
1231 1302 1728
1273 1317 1824
1315 1334 1918
1357 1353 2010
1399 1373 2098
1441 1395 2181
1484 1419 2259
1526 1444 2332
905 1362 310
907 1364 344
910 1367 386
913 1370 444
915 1374 515
920 1378 596
923 1384 683
928 1389 775
934 1396 871
939 1403 971
943 1409 1076
996 1414 1182
1049 1419 1291
1097 1425 1401
1145 1432 1510
1190 1440 1615
1236 1450 1718
1280 1461 1819
1323 1474 1917
1365 1488 2012
1409 1503 2103
1452 1522 2189
1494 1540 2268
1538 1561 2342
1581 1584 2411
995 1535 375
996 1537 407
1000 1540 447
1002 1542 503
1004 1546 572
1009 1550 652
1012 1556 737
1016 1561 828
1021 1567 923
1026 1574 1023
1030 1580 1129
1035 1586 1242
1087 1590 1358
1138 1595 1473
1187 1601 1585
1235 1607 1695
1281 1615 1802
1327 1625 1906
1371 1635 2006
1416 1648 2102
1460 1661 2192
1504 1676 2273
1548 1692 2349
1590 1709 2418
1633 1727 2483
1086 1710 445
1087 1711 474
1088 1713 512
1090 1716 566
1094 1719 633
1097 1723 709
1101 1728 793
1105 1734 883
1109 1739 977
1114 1745 1077
1118 1751 1185
1122 1757 1300
1125 1763 1421
1178 1767 1541
1228 1772 1658
1277 1777 1771
1326 1784 1882
1372 1791 1988
1418 1799 2089
1464 1809 2184
1509 1819 2269
1552 1830 2347
1596 1842 2418
1638 1855 2484
1680 1869 2546
1175 1884 517
1177 1885 545
1178 1887 582
1180 1890 633
1183 1893 697
1186 1897 770
1190 1901 852
1194 1906 940
1198 1911 1034
1201 1916 1135
1205 1921 1243
1209 1926 1358
1211 1931 1480
1215 1936 1603
1266 1939 1722
1316 1942 1838
1365 1947 1950
1412 1951 2057
1459 1957 2158
1505 1963 2249
1550 1970 2331
1594 1978 2406
1637 1987 2475
1680 1997 2539
1721 2007 2599
1261 2049 589
1262 2050 615
1263 2052 649
1265 2054 697
1268 2057 758
1271 2060 829
1274 2064 907
1277 2068 993
1281 2072 1086
1284 2076 1187
1287 2080 1295
1289 2083 1410
1292 2087 1530
1295 2090 1651
1297 2094 1773
1347 2096 1890
1396 2098 2004
1445 2102 2112
1493 2105 2211
1539 2109 2300
1585 2114 2381
1630 2119 2455
1673 2126 2522
1716 2133 2585
1757 2141 2644
1341 2200 657
1342 2201 681
1343 2202 713
1345 2204 758
1347 2207 815
1350 2209 883
1353 2213 959
1356 2216 1043
1358 2219 1134
1362 2223 1234
1364 2226 1341
1366 2229 1455
1368 2231 1573
1370 2234 1692
1372 2236 1812
1374 2239 1931
1424 2240 2046
1473 2242 2155
1522 2244 2254
1569 2247 2342
1616 2250 2422
1661 2254 2495
1705 2259 2562
1748 2264 2625
1789 2270 2683
1418 2339 723
1419 2339 746
1420 2341 775
1422 2342 818
1424 2344 871
1426 2347 936
1429 2349 1009
1432 2352 1091
1434 2355 1181
1437 2358 1279
1439 2360 1385
1441 2363 1498
1443 2365 1613
1444 2367 1731
1446 2369 1848
1447 2371 1966
1449 2373 2082
1499 2374 2191
1548 2375 2290
1596 2376 2379
1644 2379 2458
1690 2382 2531
1734 2385 2598
1778 2389 2661
1821 2394 2720
1494 2466 788
1495 2467 809
1496 2468 836
1497 2469 876
1499 2471 927
1501 2473 988
1504 2476 1059
1506 2478 1138
1509 2481 1227
1511 2483 1323
1513 2485 1428
1514 2487 1538
1516 2488 1652
1517 2490 1767
1519 2491 1883
1520 2493 1998
1521 2495 2113
1522 2496 2223
1572 2497 2322
1622 2498 2411
1670 2500 2490
1717 2502 2563
1762 2504 2631
1806 2507 2694
1849 2511 2753
1567 2581 851
1568 2582 870
1568 2583 896
1570 2584 932
1572 2586 981
1574 2588 1040
1576 2590 1108
1578 2592 1185
1580 2594 1272
1582 2596 1366
1584 2598 1469
1586 2599 1578
1587 2600 1689
1588 2602 1802
1590 2603 1916
1591 2604 2029
1592 2605 2142
1593 2607 2250
1594 2608 2350
1644 2609 2439
1694 2611 2519
1741 2612 2592
1787 2614 2660
1832 2617 2724
1875 2620 2784
1639 2686 912
1639 2686 930
1640 2687 954
1641 2688 989
1643 2690 1034
1644 2691 1091
1647 2693 1157
1649 2695 1232
1651 2697 1316
1653 2699 1410
1654 2700 1511
1655 2701 1617
1657 2702 1726
1658 2703 1837
1659 2704 1949
1660 2705 2060
1661 2706 2171
1662 2708 2277
1664 2709 2374
1665 2710 2463
1715 2711 2544
1763 2712 2618
1810 2714 2687
1856 2716 2750
1899 2718 2811
1709 2780 972
1709 2781 989
1710 2782 1011
1711 2783 1044
1713 2784 1088
1714 2786 1142
1716 2787 1206
1718 2789 1280
1720 2790 1362
1721 2792 1454
1722 2793 1553
1724 2794 1657
1725 2795 1763
1726 2796 1872
1727 2796 1982
1728 2797 2091
1729 2798 2200
1730 2799 2303
1732 2800 2398
1733 2801 2486
1735 2803 2567
1783 2804 2641
1831 2805 2710
1877 2806 2774
1921 2808 2836
1777 2867 1031
1778 2868 1047
1779 2869 1069
1780 2869 1100
1781 2871 1142
1782 2872 1194
1784 2873 1255
1785 2875 1327
1787 2876 1408
1788 2877 1498
1789 2878 1595
1791 2879 1696
1791 2879 1800
1792 2880 1907
1794 2881 2014
1794 2881 2121
1795 2882 2228
1796 2883 2328
1797 2884 2421
1799 2885 2507
1800 2886 2587
1802 2887 2661
1850 2888 2730
1896 2889 2795
1941 2891 2858
1843 2948 1090
1844 2948 1105
1844 2948 1125
1845 2949 1155
1846 2950 1195
1848 2951 1245
1849 2953 1305
1850 2954 1375
1852 2955 1454
1853 2956 1542
1854 2956 1636
1855 2957 1734
1856 2958 1836
1857 2958 1940
1857 2959 2045
1858 2959 2151
1859 2959 2255
1860 2960 2353
1861 2961 2443
1862 2962 2527
1863 2962 2605
1864 2963 2678
1866 2964 2748
1913 2966 2813
1958 2967 2876
1906 3022 1147
1907 3022 1161
1907 3023 1180
1908 3023 1209
1909 3024 1247
1910 3025 1295
1911 3026 1354
1912 3027 1422
1913 3028 1499
1915 3029 1584
1915 3029 1676
1916 3030 1772
1917 3030 1871
1918 3031 1972
1918 3031 2075
1919 3031 2178
1919 3032 2280
1920 3032 2375
1921 3032 2464
1922 3033 2546
1923 3034 2623
1924 3035 2694
1926 3036 2763
1927 3036 2828
1973 3038 2891
1966 3092 1202
1966 3092 1216
1967 3093 1234
1968 3093 1262
1968 3094 1299
1969 3095 1346
1970 3096 1402
1972 3097 1469
1973 3097 1543
1973 3098 1627
1974 3098 1715
1975 3099 1808
1976 3099 1905
1976 3099 2004
1977 3100 2104
1977 3100 2205
1978 3100 2304
1978 3100 2397
1979 3101 2484
1980 3102 2564
1981 3102 2639
1982 3103 2710
1983 3104 2778
1984 3104 2842
1986 3105 2905
151 2 0
175 7 0
176 27 2
192 44 42
225 61 97
270 84 172
326 107 246
391 134 330
462 170 418
529 205 503
595 238 585
650 269 658
702 300 731
756 335 807
800 370 881
843 407 961
885 445 1041
927 482 1125
968 522 1212
1011 561 1303
1053 601 1395
1096 642 1489
1139 685 1584
1183 728 1680
1228 773 1778
255 110 0
184 164 150
262 135 104
300 139 115
330 152 187
372 169 261
416 187 335
473 211 414
533 237 492
586 262 563
634 285 631
685 313 701
733 342 770
779 373 841
821 406 915
861 441 992
902 476 1072
942 512 1154
983 549 1241
1025 587 1331
1066 626 1422
1108 666 1515
1151 707 1609
1195 751 1705
1234 789 1814
335 247 36
311 269 83
324 277 150
382 268 179
418 271 258
457 279 337
499 288 412
545 298 481
587 313 549
633 330 614
678 348 680
723 371 746
767 396 813
807 424 882
845 454 955
885 485 1030
924 518 1109
963 551 1191
1003 586 1278
1043 622 1365
1083 660 1456
1125 698 1548
1168 739 1641
1210 780 1735
1249 818 1844
411 382 74
415 391 105
422 397 147
429 403 219
468 400 303
508 400 385
553 400 461
594 404 532
638 411 600
684 422 666
725 436 731
766 452 796
804 474 864
842 497 934
879 523 1007
916 550 1082
954 579 1161
991 609 1242
1029 641 1329
1068 675 1415
1108 711 1504
1149 747 1594
1190 785 1687
1233 825 1780
1271 862 1887
470 507 100
473 513 128
480 520 169
486 525 235
490 529 324
539 526 411
586 523 493
636 523 570
680 527 643
727 532 713
769 542 782
807 554 850
844 570 921
880 589 993
915 611 1067
952 633 1144
988 658 1224
1025 686 1307
1063 715 1392
1101 745 1478
1140 778 1566
1180 812 1656
1221 848 1747
1263 886 1840
1301 922 1945
541 632 123
539 639 150
545 644 190
550 650 254
554 654 339
563 657 433
613 653 520
668 651 603
719 652 681
766 655 756
808 661 831
847 670 904
883 683 979
920 697 1055
955 715 1132
992 734 1212
1028 756 1296
1064 779 1380
1102 805 1465
1139 833 1552
1178 863 1640
1218 895 1729
1258 928 1820
1300 964 1912
1338 998 2016
616 762 148
617 768 175
622 773 213
627 777 277
631 782 359
635 786 449
643 789 544
696 787 632
751 786 716
799 788 797
844 792 877
883 799 957
922 809 1038
960 821 1119
997 835 1202
1033 850 1287
1070 869 1373
1107 889 1460
1145 912 1548
1183 937 1636
1222 964 1724
1262 993 1814
1303 1024 1905
1345 1057 1996
1382 1089 2096
702 899 176
700 903 203
704 908 243
708 912 307
712 915 386
719 920 472
722 924 566
726 929 662
784 928 750
834 929 837
879 933 924
921 939 1010
961 946 1097
1001 956 1186
1039 967 1275
1078 980 1366
1116 997 1457
1154 1014 1547
1192 1034 1637
1231 1057 1727
1271 1081 1818
1311 1107 1908
1352 1136 1999
1394 1166 2087
1430 1196 2180
788 1043 212
786 1046 239
792 1050 281
795 1053 344
798 1057 420
802 1062 505
808 1066 597
811 1071 691
818 1077 787
871 1079 880
916 1082 973
960 1088 1066
1002 1094 1161
1043 1102 1256
1085 1112 1353
1124 1124 1449
1164 1137 1544
1204 1153 1639
1243 1171 1732
1283 1190 1824
1322 1212 1916
1363 1236 2007
1404 1261 2095
1446 1289 2177
1481 1315 2263
873 1197 255
874 1200 286
876 1203 329
879 1207 390
882 1210 463
887 1215 547
890 1220 636
896 1226 730
901 1232 826
906 1238 925
953 1242 1024
999 1248 1125
1044 1253 1227
1088 1260 1330
1130 1269 1433
1172 1279 1535
1212 1290 1634
1253 1305 1732
1294 1320 1828
1335 1337 1922
1375 1355 2014
1416 1376 2103
1457 1398 2186
1499 1422 2263
1533 1445 2343
956 1364 312
955 1367 343
956 1369 385
960 1372 444
963 1376 516
968 1381 597
971 1386 685
976 1392 777
981 1398 873
985 1405 972
991 1412 1078
1039 1417 1185
1086 1422 1294
1130 1427 1405
1175 1435 1513
1218 1443 1619
1260 1452 1722
1302 1464 1823
1344 1476 1921
1385 1490 2016
1427 1506 2108
1469 1524 2193
1511 1543 2272
1553 1564 2345
1587 1585 2420
