Toning/Toning-Coldness.3dl
#25pt 3DLUT created by 3D LUT Creator Pro (c) Oleg Sharonov
#Copyright !UNREGISTERED VERSION OF 3D LUT CREATOR!
#IMAGEPROFILE sRGB IEC61966-2.1 v.2.10
#INPUTGAMMA sRGB IEC61966-2.1 v.2.10
#OUTPUTGAMMA sRGB IEC61966-2.1 v.2.10
0 256 512 768 1023
89 89 89
82 88 1135
74 85 2396
67 83 3365
64 84 3947
83 972 90
76 972 1137
68 955 2399
62 937 3365
58 918 3945
75 2163 88
68 2165 1119
60 2166 2399
54 2118 3362
51 2063 3941
68 3265 87
61 3264 1098
53 3262 2353
47 3261 3359
43 3202 3937
63 3942 89
57 3940 1075
49 3936 2299
43 3933 3307
39 3933 3936
347 208 252
555 90 1140
540 87 2401
523 86 3367
507 87 3948
556 788 357
555 975 1142
539 958 2404
522 939 3367
505 919 3946
645 2170 382
539 2171 1124
536 2172 2405
519 2123 3364
502 2067 3942
566 3268 211
521 3267 1100
519 3265 2357
516 3264 3361
499 3204 3938
507 3943 93
504 3941 1077
500 3937 2303
499 3935 3309
499 3935 3937
1073 342 435
1698 88 1122
1699 84 2402
1646 83 3365
1585 85 3944
1152 944 535
1371 1022 1221
1704 957 2405
1649 938 3364
1587 917 3942
1702 1652 613
1705 1912 1439
1706 2173 2405
1654 2126 3361
1591 2070 3938
2138 3265 830
1837 3264 1446
1653 3263 2360
1656 3262 3358
1593 3204 3934
1953 3938 650
1662 3937 1214
1588 3934 2305
1593 3932 3307
1597 3932 3933
2578 510 660
2933 236 1295
3088 81 2354
3089 79 3360
3012 80 3938
2498 1357 795
2764 1223 1481
3090 935 2356
3091 934 3359
3013 914 3936
2813 1957 830
2814 2196 1627
2935 2259 2510
3091 2125 3356
3014 2069 3932
3090 2645 861
3090 2872 1737
3089 3078 2665
3091 3258 3354
3015 3200 3928
3535 3931 1305
3353 3929 1984
3152 3927 2643
3015 3926 3303
3019 3926 3927
3933 733 950
3932 396 1595
3930 80 2298
3928 78 3307
3929 79 3936
3930 2055 1186
3929 1556 1876
3929 1106 2564
3928 912 3306
3929 914 3934
3928 2613 1175
3926 2841 2093
3925 2564 2806
3925 2068 3304
3926 2071 3930
3928 3039 1144
3925 3219 2059
3923 3381 2913
3923 3364 3458
3924 3200 3926
3927 3381 1114
3925 3528 2025
3923 3666 2886
3923 3797 3483
3925 3925 3925
