Examples/2D - Darker & Moderate.3dl
#25pt 3DLUT created by 3D LUT Creator Pro (c) Oleg Sharonov
#Copyright Oleg Sharonov
0 128 256 384 512 640 768 896 1023
0 0 0
0 103 184
0 209 367
0 316 550
0 421 728
0 524 912
0 630 1095
0 734 1275
0 839 1459
0 120 0
0 198 221
0 282 366
0 375 520
0 491 713
0 611 915
0 730 1126
0 850 1336
0 970 1544
0 240 0
0 320 288
0 399 441
0 482 587
0 563 729
0 656 877
0 752 1034
0 864 1230
0 980 1426
0 358 0
0 461 321
0 516 519
0 599 662
0 679 804
0 762 947
0 847 1093
0 938 1244
0 1027 1392
0 476 0
0 592 329
0 641 575
0 714 737
0 796 880
0 877 1022
0 962 1168
0 1044 1313
0 1125 1457
0 596 0
0 720 329
0 780 615
0 836 817
0 908 953
0 991 1097
0 1074 1240
0 1158 1386
0 1239 1531
0 716 0
0 842 329
0 920 641
0 961 864
0 1029 1036
0 1109 1175
0 1190 1318
0 1275 1463
0 1357 1608
0 835 0
0 962 329
0 1053 654
0 1103 905
0 1158 1104
0 1225 1251
0 1307 1396
0 1391 1542
3 1475 1686
3 958 3
3 1082 331
0 1184 654
0 1241 936
0 1279 1148
0 1353 1342
0 1423 1472
3 1507 1619
3 1589 1762
513 0 0
492 162 286
491 270 471
493 376 651
499 479 832
504 584 1015
509 687 1195
512 794 1379
513 897 1562
448 317 0
513 513 513
499 592 680
494 693 858
495 804 1042
497 912 1228
500 1019 1412
502 1130 1599
504 1239 1784
447 437 0
476 607 442
510 689 701
501 776 862
497 874 1031
497 980 1210
500 1085 1392
500 1192 1573
501 1301 1758
445 557 0
464 724 438
492 790 684
505 872 898
499 956 1051
497 1043 1205
498 1141 1367
498 1243 1544
498 1350 1721
451 674 0
461 845 447
481 911 692
501 974 914
504 1058 1102
500 1141 1250
500 1228 1402
499 1316 1558
499 1410 1715
465 793 0
462 972 460
474 1036 710
492 1090 933
507 1165 1159
504 1245 1308
503 1328 1456
501 1414 1607
501 1499 1757
477 914 0
466 1096 473
474 1165 730
486 1221 960
501 1280 1169
510 1360 1378
508 1441 1524
505 1525 1672
504 1608 1819
486 1033 0
468 1218 484
473 1295 750
481 1351 987
495 1399 1202
506 1469 1402
511 1555 1593
508 1636 1739
507 1717 1883
494 1153 3
472 1341 495
472 1422 769
479 1482 1015
490 1533 1237
501 1591 1440
512 1669 1653
512 1751 1810
509 1830 1952
1025 0 0
983 162 286
983 329 571
980 435 752
980 538 935
980 643 1116
989 747 1298
997 852 1481
1003 957 1663
896 317 0
1026 512 512
996 676 798
983 765 968
980 865 1147
982 966 1328
986 1072 1510
991 1181 1695
994 1289 1881
895 634 0
930 830 511
1027 1027 1027
1006 1092 1184
996 1180 1353
993 1280 1533
993 1386 1715
994 1494 1899
995 1604 2086
893 753 0
905 933 467
976 1108 922
1021 1199 1210
1007 1285 1378
1001 1385 1554
998 1487 1733
997 1593 1910
997 1699 2092
892 872 0
893 1048 454
949 1211 880
992 1287 1155
1017 1374 1398
1007 1458 1559
1001 1549 1722
998 1646 1888
996 1751 2064
893 993 0
886 1166 453
936 1326 870
969 1393 1128
1004 1467 1378
1015 1554 1594
1009 1639 1751
1004 1725 1906
1001 1817 2067
894 1111 0
892 1285 457
930 1445 873
956 1511 1124
984 1573 1365
1014 1656 1613
1016 1740 1795
1010 1822 1945
1005 1909 2101
895 1227 0
898 1405 463
928 1567 882
949 1632 1133
974 1693 1370
1000 1758 1597
1026 1849 1851
1019 1927 1997
1013 2011 2148
905 1343 0
903 1526 469
925 1688 894
943 1755 1147
964 1814 1382
986 1871 1607
1010 1947 1828
1023 2036 2056
1018 2117 2203
1538 0 0
1507 162 285
1476 328 570
1475 492 855
1476 598 1038
1474 700 1217
1475 807 1400
1475 910 1585
1477 1016 1763
1442 316 0
1539 510 510
1497 674 795
1479 840 1080
1473 932 1256
1469 1027 1431
1467 1132 1613
1470 1237 1797
1476 1344 1980
1343 633 0
1408 827 509
1540 1023 1023
1507 1188 1309
1493 1264 1471
1484 1353 1645
1481 1453 1820
1481 1554 2003
1482 1661 2186
1343 951 0
1356 1146 508
1440 1341 1022
1540 1540 1540
1519 1596 1692
1505 1673 1855
1498 1768 2029
1494 1870 2208
1492 1975 2390
1343 1070 0
1342 1254 482
1403 1433 949
1485 1612 1421
1538 1711 1722
1521 1798 1893
1510 1896 2071
1504 1999 2251
1500 2103 2431
1342 1188 0
1333 1365 464
1380 1538 914
1451 1708 1358
1503 1792 1646
1536 1886 1908
1521 1971 2071
1513 2063 2241
1506 2160 2412
1342 1303 0
1327 1481 459
1364 1650 898
1428 1814 1326
1472 1889 1596
1516 1972 1866
1532 2062 2097
1522 2149 2258
1514 2235 2420
1341 1421 0
1322 1599 458
1357 1767 892
1414 1928 1313
1451 1997 1572
1489 2070 1829
1526 2155 2093
1531 2243 2292
1522 2327 2449
1342 1541 0
1319 1720 460
1355 1887 893
1403 2044 1311
1436 2113 1563
1469 2179 1812
1503 2254 2056
1535 2343 2325
1530 2426 2490
2048 0 0
2032 162 285
1965 328 570
1963 492 855
1963 655 1139
1962 760 1320
1963 864 1503
1963 969 1684
1962 1075 1866
1997 316 0
2048 510 510
2004 674 795
1974 840 1080
1962 999 1363
1957 1097 1540
1955 1198 1720
1954 1299 1900
1952 1403 2081
1788 633 0
1912 827 509
2049 1023 1023
2008 1187 1308
1985 1350 1592
1974 1435 1760
1966 1525 1932
1961 1623 2111
1961 1726 2292
1787 951 0
1819 1146 508
1925 1340 1020
2049 1539 1539
2015 1699 1822
1997 1769 1981
1986 1855 2147
1981 1949 2322
1978 2049 2501
1785 1261 0
1785 1457 508
1854 1653 1020
1950 1851 1539
2048 2048 2048
2025 2103 2197
2011 2177 2361
2001 2263 2532
1995 2359 2708
1785 1378 0
1775 1568 489
1828 1752 970
1906 1936 1450
1991 2118 1922
2044 2218 2227
2028 2308 2403
2015 2404 2584
2007 2505 2766
1785 1498 0
1769 1682 475
1809 1859 934
1876 2035 1396
1950 2205 1843
2006 2297 2140
2042 2392 2413
2028 2479 2582
2017 2569 2753
1786 1618 0
1765 1798 466
1796 1971 916
1852 2141 1364
1922 2306 1794
1970 2388 2075
2019 2475 2357
2041 2568 2602
2028 2654 2766
1786 1739 0
1762 1915 463
1786 2086 908
1837 2255 1347
1901 2415 1766
1944 2490 2035
1987 2569 2303
2030 2658 2581
2039 2747 2793
2556 0 0
2556 162 285
2482 328 570
2451 492 855
2450 655 1138
2450 818 1421
2450 921 1604
2450 1028 1784
2451 1134 1966
2556 316 0
2556 511 511
2512 674 795
2468 840 1080
2453 1000 1363
2445 1163 1646
2443 1262 1825
2441 1364 2006
2439 1465 2182
2324 633 0
2420 827 509
2557 1022 1022
2513 1186 1307
2482 1349 1591
2464 1513 1872
2456 1601 2045
2451 1697 2222
2447 1793 2398
2231 951 0
2284 1146 508
2424 1340 1020
2558 1539 1539
2518 1698 1822
2493 1862 2104
2479 1942 2267
2469 2029 2438
2462 2123 2612
2229 1261 0
2241 1457 508
2326 1653 1020
2440 1851 1538
2556 2047 2047
2524 2210 2330
2505 2274 2487
2492 2354 2655
2484 2443 2825
2229 1575 0
2218 1771 508
2275 1968 1019
2363 2165 1538
2458 2360 2046
2555 2555 2555
2533 2608 2704
2517 2677 2864
2504 2756 3028
2230 1695 0
2213 1885 496
2255 2072 982
2328 2258 1471
2411 2441 1947
2497 2625 2422
2553 2726 2736
2535 2817 2914
2520 2912 3090
2230 1814 0
2208 1999 485
2241 2180 954
2303 2359 1421
2375 2536 1880
2451 2707 2331
2511 2802 2639
2551 2900 2921
2535 2987 3089
2229 1933 3
2204 2115 477
2230 2291 934
2283 2468 1391
2347 2639 1835
2418 2804 2269
2471 2889 2561
2524 2979 2855
2550 3075 3107
3069 0 0
3069 162 286
3006 328 571
2942 492 855
2942 655 1138
2942 818 1421
2941 981 1705
2941 1087 1886
2943 1195 2071
3069 317 0
3070 513 513
3027 676 797
2980 842 1081
2949 1001 1365
2941 1165 1648
2936 1330 1934
2932 1429 2110
2932 1533 2292
2873 633 0
2938 829 512
3068 1024 1024
3023 1188 1309
2983 1351 1592
2962 1514 1873
2950 1678 2160
2943 1772 2334
2940 1869 2513
2679 951 0
2794 1147 510
2932 1341 1022
3070 1539 1539
3028 1698 1822
2995 1862 2104
2975 2029 2387
2964 2114 2556
2956 2204 2730
2676 1261 0
2704 1459 510
2805 1654 1021
2944 1851 1539
3069 2047 2047
3032 2210 2330
3006 2373 2617
2990 2447 2779
2978 2531 2945
2676 1575 0
2676 1773 511
2744 1969 1022
2846 2166 1538
2956 2361 2047
3068 2555 2555
3037 2719 2842
3015 2781 2992
3000 2854 3157
2677 1892 0
2660 2088 513
2705 2285 1024
2782 2482 1538
2874 2679 2047
2969 2872 2556
3068 3068 3068
3044 3117 3214
3027 3185 3371
2676 2011 0
2654 2204 501
2689 2394 995
2755 2583 1486
2834 2768 1969
2917 2949 2446
3006 3133 2931
3064 3238 3248
3046 3329 3427
2677 2133 3
2651 2320 493
2679 2505 971
2734 2686 1444
2803 2862 1907
2877 3037 2368
2958 3216 2827
3020 3310 3145
3064 3412 3433
3582 0 0
3582 162 286
3534 329 572
3464 492 855
3434 655 1138
3434 818 1422
3433 981 1704
3434 1148 1990
3434 1253 2174
3582 317 0
3583 513 513
3544 677 798
3495 842 1082
3447 1001 1365
3436 1165 1648
3431 1330 1934
3425 1494 2217
3424 1596 2399
3430 634 0
3461 830 512
3584 1026 1026
3538 1189 1310
3495 1352 1594
3463 1516 1875
3448 1679 2160
3439 1845 2448
3434 1941 2625
3217 951 0
3312 1147 510
3444 1342 1024
3584 1539 1539
3539 1699 1822
3499 1862 2104
3477 2028 2387
3462 2195 2674
3452 2283 2847
3124 1261 0
3169 1459 510
3311 1655 1023
3452 1851 1539
3582 2047 2047
3543 2210 2330
3511 2373 2616
3488 2538 2902
3475 2621 3067
3124 1576 0
3135 1773 511
3217 1970 1023
3332 2166 1538
3461 2361 2047
3580 2556 2556
3545 2719 2841
3516 2884 3124
3499 2953 3285
3124 1892 0
3115 2088 513
3171 2286 1025
3260 2482 1538
3362 2679 2047
3470 2871 2555
3581 3067 3067
3548 3230 3352
3528 3291 3504
3124 2209 0
3102 2406 513
3139 2605 1026
3207 2801 1539
3291 2993 2047
3383 3187 2556
3482 3383 3067
3582 3582 3582
3560 3634 3730
3124 2327 0
3099 2521 499
3127 2714 1004
3185 2903 1497
3258 3087 1985
3341 3274 2468
3429 3459 2953
3519 3645 3442
3579 3753 3763
4095 0 0
4095 162 286
4062 329 572
3987 492 855
3926 655 1138
3925 818 1422
3924 981 1705
3926 1148 1990
3926 1310 2277
4095 317 0
4095 513 513
4060 678 799
4011 843 1082
3960 1002 1365
3932 1166 1649
3925 1329 1934
3919 1494 2217
3916 1657 2503
3990 634 0
3985 830 512
4095 1026 1026
4051 1189 1310
4006 1352 1594
3963 1516 1875
3946 1679 2161
3936 1845 2447
3927 2008 2734
3763 951 0
3834 1148 512
3958 1342 1024
4095 1539 1539
4051 1699 1822
4009 1862 2104
3978 2029 2388
3961 2195 2674
3947 2358 2960
3571 1261 0
3683 1459 510
3819 1655 1023
3961 1851 1539
4095 2048 2048
4054 2211 2331
4016 2373 2617
3991 2538 2902
3971 2703 3186
3571 1576 0
3595 1773 511
3690 1970 1022
3835 2166 1538
3968 2361 2047
4093 2556 2556
4056 2720 2842
4022 2884 3125
3999 3047 3411
3571 1892 0
3571 2088 513
3638 2287 1024
3737 2483 1538
3852 2679 2047
3976 2872 2556
4094 3069 3069
4057 3231 3353
4030 3397 3638
3572 2209 0
3556 2407 514
3601 2605 1025
3679 2801 1538
3772 2994 2047
3875 3187 2556
3984 3384 3068
4094 3582 3582
4065 3749 3868
3572 2527 0
3545 2723 511
3573 2920 1024
3634 3117 1537
3711 3310 2046
3800 3503 2555
3896 3700 3069
3996 3898 3582
4095 4095 4095
