Examples/2D - Creamy Split toning.3dl
#25pt 3DLUT created by 3D LUT Creator Pro (c) Oleg Sharonov
#Copyright Oleg Sharonov
#IMAGEPROFILE 
#INPUTGAMMA 
#OUTPUTGAMMA 
0 43 86 128 171 214 256 299 341 384 427 469 512 555 597 640 682 725 768 810 853 896 938 981 1023 
0 0 0
0 0 201
0 0 386
0 0 579
0 0 774
0 0 965
0 0 1161
0 0 1358
0 0 1546
0 0 1741
0 0 1935
0 0 2133
0 0 2323
0 0 2514
0 0 2707
0 0 2895
0 0 3066
0 0 3216
0 0 3341
0 0 3467
0 0 3593
0 0 3719
0 0 3846
0 0 3971
0 0 4095
0 171 0
0 158 180
0 156 371
0 147 554
0 150 746
0 156 932
0 162 1125
0 169 1318
0 173 1504
0 176 1696
0 183 1883
0 185 2078
0 189 2268
0 189 2459
0 191 2648
0 191 2837
0 189 3013
0 186 3172
0 180 3308
0 179 3441
0 178 3573
0 175 3706
0 174 3835
0 172 3969
0 171 4095
0 340 0
0 327 178
0 310 354
0 301 534
0 298 715
0 307 904
0 320 1091
0 333 1278
0 343 1465
0 350 1652
0 359 1837
0 368 2022
0 373 2214
0 378 2404
0 380 2593
0 381 2780
0 379 2957
0 373 3123
0 364 3265
0 358 3408
0 356 3548
0 352 3687
0 347 3822
0 344 3959
0 342 4095
0 513 0
0 486 167
0 469 342
0 445 509
0 444 688
0 464 869
0 481 1054
0 504 1241
0 517 1424
0 527 1603
0 539 1787
0 550 1969
0 558 2155
0 564 2345
0 571 2531
0 572 2719
0 570 2909
0 561 3078
0 544 3232
0 536 3380
0 531 3526
0 526 3671
0 520 3811
0 516 3956
0 513 4095
0 683 0
0 661 166
0 635 332
0 612 498
0 596 660
0 620 841
0 642 1020
0 670 1204
0 690 1383
0 702 1559
0 720 1737
0 732 1916
0 742 2102
0 751 2288
0 757 2474
0 762 2662
0 761 2853
0 748 3035
0 728 3192
0 715 3350
0 708 3501
0 701 3652
0 694 3799
0 689 3948
0 684 4095
0 855 0
0 839 165
0 818 330
0 800 492
0 786 654
0 789 806
0 813 985
0 838 1165
0 860 1340
0 879 1513
0 898 1686
0 917 1861
0 930 2047
0 940 2233
0 947 2417
0 951 2605
0 949 2801
0 937 2986
0 909 3162
0 893 3322
0 883 3481
0 875 3637
0 867 3790
0 860 3944
0 855 4095
0 1025 0
0 1009 166
0 993 330
0 976 493
0 962 658
0 965 812
0 987 951
0 1012 1129
0 1042 1294
0 1061 1465
0 1090 1628
0 1112 1799
0 1121 1986
0 1133 2173
0 1136 2360
0 1140 2548
0 1138 2747
0 1122 2941
0 1092 3120
0 1072 3296
0 1061 3458
0 1050 3621
0 1041 3779
0 1033 3940
0 1026 4095
0 1197 0
0 1179 167
0 1162 332
0 1145 499
0 1131 664
0 1127 830
0 1148 971
0 1190 1094
0 1222 1256
0 1258 1412
0 1289 1569
0 1321 1728
0 1326 1917
0 1333 2107
0 1331 2298
0 1332 2489
0 1327 2693
0 1311 2891
0 1273 3086
0 1252 3263
0 1239 3438
0 1228 3603
0 1217 3768
0 1206 3933
0 1197 4095
0 1368 0
0 1348 168
0 1331 335
0 1313 504
0 1297 674
0 1290 846
0 1303 1003
0 1344 1128
0 1390 1251
0 1428 1404
0 1462 1558
0 1497 1710
0 1529 1858
0 1532 2048
0 1525 2235
0 1523 2432
0 1518 2641
0 1496 2847
0 1456 3046
0 1430 3236
0 1417 3412
0 1404 3588
0 1393 3755
0 1379 3928
0 1368 4095
0 1538 0
0 1518 169
0 1499 337
0 1482 508
0 1466 681
0 1453 861
0 1463 1023
0 1496 1169
0 1541 1295
0 1590 1417
0 1623 1571
0 1654 1724
0 1700 1851
0 1732 1995
0 1721 2179
0 1713 2372
0 1709 2587
0 1687 2798
0 1639 3009
0 1610 3203
0 1594 3389
0 1581 3567
0 1568 3744
0 1553 3920
0 1539 4095
0 1710 0
0 1690 173
0 1670 342
0 1652 514
0 1632 691
0 1613 877
0 1618 1054
0 1649 1208
0 1686 1340
0 1733 1462
0 1777 1600
0 1807 1753
0 1849 1874
0 1895 2000
0 1926 2145
0 1912 2331
0 1898 2534
0 1873 2754
0 1821 2972
0 1788 3177
0 1771 3366
0 1756 3555
0 1742 3733
0 1725 3917
0 1710 4095
0 1881 0
0 1860 174
0 1841 346
0 1823 519
0 1803 699
0 1777 889
0 1776 1071
0 1802 1244
0 1836 1384
0 1874 1506
0 1916 1644
0 1958 1786
0 1999 1907
0 2041 2026
0 2090 2155
0 2119 2302
0 2096 2495
0 2062 2703
0 2004 2932
0 1967 3144
0 1947 3343
0 1931 3534
0 1915 3723
0 1898 3909
0 1880 4095
0 2048 0
0 2030 178
0 2010 351
0 1990 526
0 1967 709
0 1935 908
0 1920 1097
0 1934 1278
0 1966 1421
0 2003 1544
0 2059 1679
0 2105 1821
0 2139 1943
0 2181 2062
0 2226 2193
0 2272 2322
0 2292 2472
0 2259 2676
0 2203 2901
0 2151 3124
0 2121 3330
0 2106 3527
0 2091 3718
0 2066 3908
0 2048 4095
0 2214 0
0 2197 178
0 2178 355
0 2158 531
0 2133 717
0 2098 920
0 2076 1118
0 2074 1307
0 2096 1456
0 2131 1580
0 2187 1716
0 2249 1855
0 2286 1977
0 2321 2099
0 2366 2230
0 2408 2361
0 2446 2493
0 2454 2653
0 2401 2875
0 2351 3095
0 2305 3312
0 2279 3515
0 2266 3711
0 2241 3903
0 2215 4094
0 2385 0
0 2365 180
0 2347 358
0 2327 537
0 2299 726
0 2258 940
0 2224 1144
0 2205 1340
0 2230 1493
0 2269 1620
0 2322 1746
0 2382 1882
0 2425 2006
0 2461 2128
0 2510 2268
0 2551 2401
0 2579 2539
0 2609 2678
0 2603 2853
0 2552 3072
0 2504 3290
0 2467 3502
0 2446 3702
0 2414 3901
0 2385 4094
0 2556 0
0 2535 183
0 2514 364
0 2494 544
0 2471 731
0 2427 948
0 2388 1158
0 2357 1360
0 2361 1528
0 2404 1659
0 2458 1785
0 2515 1911
0 2558 2035
0 2599 2159
0 2646 2300
0 2695 2437
0 2722 2577
0 2744 2722
0 2759 2875
0 2753 3051
0 2704 3268
0 2662 3482
0 2629 3691
0 2592 3894
0 2556 4094
0 2727 0
0 2703 191
0 2681 375
0 2654 566
0 2633 751
0 2607 943
0 2567 1154
0 2532 1355
0 2519 1541
0 2535 1699
0 2589 1821
0 2646 1945
0 2691 2070
0 2732 2194
0 2768 2341
0 2815 2479
0 2866 2608
0 2888 2754
0 2902 2909
0 2912 3068
0 2902 3249
0 2852 3466
0 2809 3680
0 2766 3890
3 2727 4094
0 2898 0
0 2876 189
0 2853 378
0 2828 567
0 2805 756
0 2782 946
0 2759 1136
0 2724 1339
0 2707 1524
0 2705 1699
0 2727 1853
0 2785 1972
0 2825 2100
0 2866 2228
0 2893 2379
0 2932 2522
0 2984 2651
0 3034 2782
0 3048 2938
0 3054 3100
0 3061 3264
0 3040 3452
0 2989 3670
0 2943 3883
0 2898 4094
0 3069 0
0 3051 185
0 3031 371
0 3013 553
0 2992 741
0 2976 925
0 2956 1113
0 2937 1301
0 2919 1486
0 2914 1662
0 2913 1837
0 2936 1990
0 2970 2123
0 3006 2255
0 3015 2419
0 3046 2567
0 3097 2696
0 3148 2827
0 3199 2962
0 3204 3125
0 3203 3293
0 3192 3471
0 3162 3666
0 3115 3881
0 3069 4094
0 3240 0
0 3227 181
0 3211 364
0 3195 543
0 3180 724
0 3167 907
0 3158 1084
0 3142 1269
0 3130 1451
0 3123 1626
0 3116 1804
0 3115 1979
0 3123 2140
0 3154 2275
0 3163 2437
0 3172 2601
0 3210 2740
0 3264 2869
0 3316 3003
0 3361 3143
0 3359 3312
0 3345 3490
0 3325 3675
0 3287 3879
0 3240 4094
0 3411 0
0 3402 178
0 3390 357
0 3379 532
0 3366 711
0 3358 888
0 3351 1064
0 3351 1233
0 3340 1413
0 3332 1593
0 3321 1772
0 3313 1950
0 3305 2128
0 3309 2291
0 3318 2450
0 3327 2612
0 3336 2774
0 3377 2913
0 3434 3042
0 3481 3181
0 3521 3325
0 3506 3503
0 3486 3686
0 3452 3887
0 3411 4095
0 3582 0
0 3576 175
0 3568 352
0 3559 526
0 3550 702
0 3543 878
0 3540 1052
0 3541 1220
0 3539 1391
0 3530 1571
0 3525 1746
0 3515 1926
0 3508 2099
0 3499 2276
0 3504 2442
0 3512 2603
0 3517 2769
0 3523 2934
0 3563 3076
0 3603 3219
0 3641 3365
0 3669 3515
0 3649 3698
0 3620 3890
3 3582 4095
0 3753 0
0 3749 174
0 3743 347
0 3737 520
0 3730 695
0 3726 870
0 3725 1043
0 3729 1212
0 3727 1383
0 3723 1556
0 3720 1730
0 3716 1904
0 3712 2075
0 3706 2248
0 3708 2416
0 3711 2583
0 3714 2752
0 3716 2921
0 3717 3092
0 3739 3248
0 3763 3403
0 3788 3555
0 3811 3709
0 3783 3900
0 3753 4095
0 3924 0
0 3923 172
0 3920 344
0 3917 516
0 3913 689
0 3911 861
0 3908 1035
0 3911 1205
0 3913 1374
0 3909 1547
0 3909 1719
0 3906 1892
0 3906 2059
0 3900 2230
0 3901 2400
0 3903 2570
0 3904 2740
0 3906 2909
0 3906 3080
0 3906 3251
0 3923 3411
0 3930 3578
0 3949 3734
0 3953 3902
0 3924 4095
2 4095 4
2 4095 176
2 4095 343
2 4095 515
2 4095 685
0 4095 855
0 4095 1026
2 4095 1198
0 4095 1368
0 4095 1539
0 4095 1710
3 4095 1881
0 4095 2048
0 4094 2215
0 4094 2385
0 4094 2556
0 4094 2727
0 4094 2898
0 4094 3069
6 4094 3241
3 4095 3411
3 4095 3582
3 4095 3753
6 4095 3924
3 4095 4095
168 0 0
84 0 269
81 0 455
83 0 645
88 0 840
98 0 1037
109 0 1215
122 0 1401
129 0 1589
134 0 1773
135 0 1965
136 0 2155
140 0 2342
141 0 2536
147 0 2722
147 0 2910
147 0 3076
147 0 3223
147 0 3347
147 0 3471
147 0 3596
147 0 3721
147 0 3847
147 0 3971
147 0 4095
176 165 0
85 150 256
86 150 440
88 146 623
92 153 809
101 155 994
113 165 1178
126 167 1362
133 171 1544
137 172 1728
139 179 1908
139 180 2101
143 183 2289
144 183 2479
151 185 2664
151 184 2852
151 183 3027
151 179 3182
151 174 3315
151 173 3447
151 172 3577
151 169 3708
151 168 3837
151 166 3970
151 166 4095
176 334 0
84 312 249
84 304 425
86 294 601
91 300 782
101 309 962
114 322 1142
127 334 1320
134 341 1500
139 346 1683
140 354 1861
140 362 2047
144 366 2235
145 370 2425
151 372 2609
151 373 2795
151 371 2971
151 364 3134
151 356 3275
151 350 3414
151 348 3554
151 344 3690
151 339 3825
151 337 3959
151 335 4095
178 495 0
84 472 235
83 453 406
85 437 573
90 449 749
101 463 928
114 485 1104
128 500 1281
136 510 1454
140 517 1634
142 527 1808
142 537 1990
147 543 2177
147 548 2367
154 554 2549
153 555 2738
153 553 2922
153 543 3090
153 527 3243
153 519 3388
153 515 3531
153 510 3675
153 505 3814
153 500 3957
153 497 4095
177 668 0
83 650 231
82 626 394
83 601 557
88 605 721
98 627 896
111 650 1068
126 671 1243
133 686 1413
138 697 1587
140 709 1758
141 721 1935
145 729 2122
146 737 2307
153 743 2489
153 748 2677
152 746 2864
152 734 3045
152 714 3201
152 701 3355
151 693 3505
151 686 3654
151 680 3800
151 675 3948
148 670 4095
174 844 0
83 840 229
82 815 392
83 793 550
87 791 706
97 800 863
109 822 1032
123 845 1203
131 861 1370
135 875 1539
138 893 1706
138 909 1880
143 919 2065
144 928 2250
150 935 2430
150 939 2618
150 938 2813
150 924 2995
150 897 3168
149 882 3327
149 873 3484
149 865 3638
149 857 3791
149 850 3943
149 845 4094
174 1018 0
83 1020 230
83 999 395
84 977 553
88 971 714
97 976 863
108 1004 1000
122 1024 1168
130 1049 1325
135 1065 1493
137 1088 1650
138 1107 1819
142 1114 2007
144 1125 2193
150 1129 2375
150 1133 2564
150 1130 2759
150 1113 2952
150 1084 3130
149 1065 3301
149 1054 3461
149 1043 3623
149 1035 3780
149 1026 3939
149 1019 4094
174 1195 0
83 1195 232
83 1172 397
84 1149 560
88 1139 723
97 1136 884
108 1169 1007
122 1205 1133
129 1235 1284
134 1264 1440
136 1292 1589
137 1320 1750
142 1320 1940
143 1327 2128
150 1326 2314
150 1327 2506
150 1323 2709
150 1305 2903
150 1267 3097
149 1248 3272
149 1235 3443
149 1224 3606
149 1214 3770
149 1203 3933
149 1194 4095
174 1366 0
83 1369 234
83 1344 402
85 1320 565
88 1304 739
98 1298 901
109 1323 1044
122 1362 1160
129 1403 1281
134 1437 1430
136 1465 1577
137 1500 1727
141 1523 1880
143 1525 2069
149 1520 2252
149 1517 2450
150 1512 2655
150 1489 2861
149 1450 3058
149 1425 3244
149 1412 3417
149 1399 3592
149 1388 3758
149 1375 3928
149 1364 4095
174 1537 0
83 1544 235
83 1516 404
85 1491 571
89 1475 746
98 1459 920
109 1483 1066
123 1514 1205
130 1556 1320
134 1600 1444
136 1625 1590
137 1657 1740
141 1700 1864
142 1724 2015
148 1714 2195
149 1708 2390
149 1703 2603
149 1679 2812
149 1631 3022
149 1604 3211
149 1589 3396
149 1576 3571
149 1563 3747
149 1549 3921
149 1535 4095
174 1708 0
83 1719 239
84 1690 409
85 1665 577
89 1638 760
98 1619 936
110 1636 1104
123 1667 1246
130 1698 1365
134 1743 1483
136 1779 1619
137 1809 1769
141 1849 1887
142 1894 2012
148 1919 2160
148 1904 2346
149 1892 2550
149 1864 2770
149 1813 2984
149 1781 3186
149 1765 3372
149 1750 3558
149 1737 3736
149 1720 3918
149 1705 4095
