Examples/2D - Calm blues.3dl
#25pt 3DLUT created by 3D LUT Creator Pro (c) Oleg Sharonov
#Copyright Oleg Sharonov
#IMAGEPROFILE sRGB IEC61966-2.1 v.2.10
#INPUTGAMMA sRGB IEC61966-2.1 v.2.10
#OUTPUTGAMMA sRGB IEC61966-2.1 v.2.10
0 256 512 768 1023
0 0 0
218 282 424
435 565 850
651 846 1276
870 1128 1700
288 803 0
453 887 893
588 1204 1347
733 1504 1786
883 1813 2226
573 1607 0
749 1699 908
904 1771 1785
1033 2087 2240
1167 2384 2671
859 2406 0
1029 2490 902
1190 2545 1826
1335 2622 2650
1460 2920 3079
1149 3210 3
1305 3259 898
1463 3305 1821
1622 3351 2721
1774 3459 3489
1025 0 0
954 324 487
1159 606 913
1363 888 1339
1583 1171 1762
1026 1026 0
1027 1027 1027
1189 1321 1463
1379 1601 1887
1584 1884 2308
1312 1829 0
1313 1829 1040
1479 1918 1924
1595 2238 2381
1725 2550 2824
1597 2627 0
1597 2628 1041
1772 2720 1951
1921 2790 2806
2031 3088 3237
1885 3431 0
1884 3431 1039
2044 3477 1953
2200 3525 2859
2350 3619 3642
2048 0 0
1906 324 488
1906 647 975
2109 929 1399
2313 1212 1823
2048 1026 0
2049 1026 1026
1945 1348 1514
2116 1635 1943
2303 1924 2368
2048 2048 0
2048 2048 1026
2048 2048 2048
2195 2342 2485
2371 2636 2916
2334 2845 0
2334 2845 1034
2334 2845 2067
2501 2936 2942
2601 3254 3393
2621 3652 0
2621 3652 1038
2621 3652 2077
2779 3699 2978
2930 3778 3794
3069 0 0
2962 324 488
2856 647 974
2856 970 1461
3062 1253 1886
3070 1025 0
3070 1025 1025
2929 1348 1513
2871 1670 1999
3057 1958 2426
3069 2047 0
3070 2048 1025
3069 2047 2047
2961 2366 2534
3123 2664 2968
3069 3069 0
3069 3069 1026
3069 3069 2047
3068 3068 3068
3215 3374 3511
3357 3873 3
3357 3873 1031
3357 3873 2062
3356 3872 3094
3512 3937 3945
4095 0 0
4038 324 488
3811 647 975
3811 970 1461
3811 1294 1949
4095 1025 0
4095 1026 1026
3948 1348 1514
3847 1670 2000
3811 1995 2486
4095 2048 0
4095 2048 1026
4095 2048 2048
3960 2366 2534
3887 2694 3022
4095 3069 0
4095 3069 1025
4094 3069 2047
4094 3069 3069
3988 3394 3558
4095 4095 0
4095 4095 1024
4095 4095 2046
4094 4094 3069
4095 4095 4095
