Examples/2D - Skintone.3dl
#25pt 3DLUT created by 3D LUT Creator Pro (c) Oleg Sharonov
#Copyright Oleg Sharonov
#IMAGEPROFILE 
#INPUTGAMMA 
#OUTPUTGAMMA 
0 43 86 128 171 214 256 299 341 384 427 469 512 555 597 640 682 725 768 810 853 896 938 981 1023 
0 0 0
0 0 203
0 0 390
0 0 583
0 0 777
0 0 967
0 0 1162
0 0 1361
0 0 1552
0 0 1749
0 0 1942
0 0 2138
0 0 2327
0 0 2518
0 0 2714
0 0 2903
0 0 3071
0 0 3220
0 0 3345
0 0 3471
0 0 3597
0 0 3722
0 0 3846
0 0 3971
0 0 4095
0 171 0
0 171 171
0 172 367
0 174 565
0 174 760
0 174 954
0 175 1149
0 176 1348
0 177 1530
0 178 1721
0 181 1904
0 182 2096
0 185 2281
0 185 2472
0 182 2670
0 181 2860
0 178 3029
0 177 3185
0 176 3316
0 175 3446
0 174 3575
0 174 3708
0 174 3835
0 172 3969
0 171 4095
0 340 0
0 342 171
0 340 340
0 344 538
0 347 735
0 346 935
0 348 1133
0 350 1328
0 354 1514
0 356 1695
0 361 1872
0 365 2050
0 367 2238
0 369 2426
0 366 2625
0 362 2817
0 358 2988
0 354 3146
0 352 3281
0 350 3418
0 347 3551
0 346 3687
0 346 3822
0 344 3959
0 342 4095
0 513 0
0 513 169
0 513 340
0 513 510
0 516 706
0 520 900
0 522 1096
0 525 1294
0 533 1474
0 540 1646
0 549 1819
0 556 1993
0 556 2175
0 557 2362
0 548 2577
0 544 2771
0 535 2948
0 531 3108
0 527 3250
0 525 3392
0 523 3533
0 520 3674
0 519 3814
0 516 3957
0 513 4095
0 683 0
0 684 170
0 682 340
0 681 512
0 686 676
0 692 871
0 695 1062
0 701 1258
0 711 1434
0 721 1602
0 737 1769
0 747 1937
0 747 2117
0 746 2302
0 735 2521
0 725 2729
0 716 2906
0 708 3071
0 704 3216
0 701 3364
0 699 3510
0 695 3658
0 693 3803
0 689 3951
0 684 4095
0 855 0
0 853 171
0 851 342
0 845 519
0 849 686
0 866 836
0 871 1028
0 876 1221
0 888 1392
0 904 1553
0 923 1715
0 941 1879
0 939 2058
0 937 2242
0 919 2473
0 907 2685
0 894 2868
0 886 3035
0 882 3187
0 878 3338
0 874 3491
0 868 3642
0 863 3792
0 859 3946
0 855 4095
0 1025 0
0 1023 172
0 1018 345
0 1009 524
0 1007 697
0 1023 849
0 1046 994
0 1051 1186
0 1068 1352
0 1085 1509
0 1111 1663
0 1132 1822
0 1130 1998
0 1126 2183
0 1105 2422
0 1088 2642
0 1075 2826
0 1063 3000
0 1058 3154
0 1053 3313
0 1049 3468
0 1042 3627
0 1036 3780
0 1031 3940
0 1026 4095
0 1197 0
0 1193 174
0 1187 347
0 1172 529
0 1168 704
0 1176 866
0 1198 1012
0 1227 1150
0 1245 1314
0 1271 1465
0 1296 1614
0 1324 1764
0 1321 1939
0 1315 2122
0 1288 2372
0 1268 2601
0 1254 2785
0 1243 2961
0 1235 3125
0 1228 3284
0 1222 3449
0 1216 3610
0 1210 3772
0 1203 3934
0 1197 4095
0 1368 0
0 1360 175
0 1354 350
0 1336 535
0 1325 714
0 1331 881
0 1346 1035
0 1373 1173
0 1399 1318
0 1426 1467
0 1460 1607
0 1489 1753
0 1505 1902
0 1498 2082
0 1473 2322
0 1448 2559
0 1433 2744
0 1421 2924
0 1413 3090
0 1404 3260
0 1397 3425
0 1389 3595
0 1382 3759
0 1374 3931
0 1368 4095
0 1538 0
0 1529 176
0 1520 352
0 1500 541
0 1487 723
0 1485 897
0 1497 1055
0 1519 1198
0 1544 1344
0 1568 1493
0 1604 1632
0 1640 1769
0 1664 1906
0 1678 2057
0 1654 2288
0 1630 2514
0 1613 2702
0 1599 2884
0 1590 3057
0 1582 3229
0 1572 3404
0 1564 3576
0 1555 3748
0 1547 3922
0 1539 4095
0 1710 0
0 1699 178
0 1687 355
0 1662 547
0 1645 734
0 1639 913
0 1645 1077
0 1665 1224
0 1687 1370
0 1711 1518
0 1753 1650
0 1790 1785
0 1810 1931
0 1833 2069
0 1835 2248
0 1811 2470
0 1791 2661
0 1776 2848
0 1766 3026
0 1757 3205
0 1748 3382
0 1738 3564
0 1729 3738
0 1718 3919
0 1710 4095
0 1881 0
0 1869 178
0 1856 358
0 1827 551
0 1804 741
0 1794 925
0 1796 1095
0 1811 1248
0 1831 1396
0 1854 1543
0 1895 1674
0 1941 1800
0 1960 1949
0 1977 2098
0 1990 2255
0 1993 2426
0 1971 2619
0 1954 2808
0 1942 2993
0 1932 3176
0 1924 3360
0 1913 3543
0 1902 3728
0 1891 3911
0 1880 4095
0 2048 0
0 2036 180
0 2022 361
0 1988 559
0 1961 753
0 1943 942
0 1940 1116
0 1952 1273
0 1962 1435
0 1979 1587
0 2017 1716
0 2063 1843
0 2107 1967
0 2123 2117
0 2133 2279
0 2145 2438
0 2143 2611
0 2125 2802
0 2114 2987
0 2102 3172
0 2091 3356
0 2081 3540
0 2070 3724
0 2059 3910
0 2048 4095
0 2214 0
0 2203 181
0 2189 363
0 2153 562
0 2122 760
0 2100 953
0 2089 1133
0 2096 1296
0 2104 1460
0 2110 1626
0 2144 1761
0 2186 1885
0 2228 2010
0 2270 2137
0 2279 2299
0 2288 2461
0 2295 2626
0 2295 2798
0 2284 2984
0 2272 3169
0 2259 3353
0 2247 3537
0 2236 3722
0 2226 3907
0 2214 4094
0 2385 0
0 2365 189
0 2352 371
0 2331 560
0 2300 757
0 2278 946
0 2255 1141
0 2243 1323
0 2256 1479
0 2268 1640
0 2294 1782
0 2332 1909
0 2365 2047
0 2405 2175
0 2421 2331
0 2431 2492
0 2443 2650
0 2445 2820
0 2437 3002
0 2428 3184
0 2418 3365
0 2411 3546
0 2403 3728
0 2395 3909
0 2385 4094
0 2556 0
0 2537 189
0 2518 377
0 2498 565
0 2479 753
0 2457 942
0 2435 1132
0 2411 1327
0 2406 1502
0 2424 1656
0 2449 1798
0 2480 1933
0 2509 2073
0 2541 2212
0 2558 2367
0 2574 2521
0 2588 2679
0 2595 2843
0 2588 3023
0 2583 3201
0 2576 3379
0 2572 3556
0 2568 3736
0 2563 3914
0 2556 4094
0 2727 0
0 2709 187
0 2691 374
0 2675 561
0 2657 749
0 2641 933
0 2621 1121
0 2602 1309
0 2585 1496
0 2584 1667
0 2603 1816
0 2629 1958
0 2649 2106
0 2677 2248
0 2699 2399
0 2717 2553
0 2736 2703
0 2745 2867
0 2744 3041
0 2740 3217
0 2736 3392
0 2734 3567
0 2732 3743
0 2731 3917
3 2727 4094
0 2898 0
0 2883 185
0 2866 370
0 2851 555
0 2837 740
0 2822 924
0 2808 1107
0 2790 1294
0 2779 1474
0 2765 1656
0 2774 1817
0 2793 1965
0 2810 2118
0 2829 2267
0 2849 2419
0 2870 2572
0 2889 2724
0 2902 2883
0 2902 3056
0 2901 3229
0 2899 3402
0 2898 3575
0 2898 3748
0 2898 3921
0 2898 4094
0 3069 0
0 3058 182
0 3044 366
0 3030 546
0 3017 729
0 3006 909
0 2993 1092
0 2981 1274
0 2972 1452
0 2965 1627
0 2969 1792
0 2982 1948
0 2995 2105
0 3011 2258
0 3027 2414
0 3045 2567
0 3061 2725
0 3073 2885
0 3073 3059
0 3072 3231
0 3070 3402
0 3069 3575
0 3069 3748
0 3069 3921
0 3069 4095
0 3240 0
0 3231 179
0 3221 360
0 3210 538
0 3198 717
0 3188 896
0 3179 1074
0 3168 1256
0 3166 1427
0 3162 1600
0 3164 1769
0 3173 1929
0 3179 2092
0 3192 2250
0 3205 2408
0 3219 2565
0 3233 2724
0 3243 2888
0 3243 3061
0 3243 3233
0 3241 3404
0 3240 3575
0 3240 3748
0 3240 3921
0 3240 4095
0 3411 0
0 3404 176
0 3396 353
0 3390 528
0 3380 706
0 3372 883
0 3363 1061
0 3356 1236
0 3355 1406
0 3359 1572
0 3360 1743
0 3363 1911
0 3366 2078
0 3371 2241
0 3382 2403
0 3395 2563
0 3404 2725
0 3411 2890
0 3411 3063
0 3412 3235
0 3411 3406
0 3411 3577
0 3411 3748
0 3411 3921
0 3411 4095
0 3582 0
0 3577 174
0 3571 349
0 3567 523
0 3561 698
0 3554 874
0 3547 1050
0 3541 1225
0 3541 1395
0 3545 1560
0 3547 1728
0 3549 1899
0 3549 2067
0 3551 2234
0 3558 2399
0 3568 2562
0 3576 2726
0 3582 2891
0 3582 3064
0 3582 3237
0 3582 3408
0 3582 3579
0 3582 3750
0 3582 3921
3 3582 4095
0 3753 0
0 3749 174
0 3744 347
0 3742 520
0 3738 694
0 3734 867
0 3729 1041
0 3724 1214
0 3725 1384
0 3730 1553
0 3731 1721
0 3731 1890
0 3731 2059
0 3731 2228
0 3735 2394
0 3741 2560
0 3748 2726
0 3753 2894
0 3753 3065
0 3753 3237
0 3753 3410
0 3753 3582
0 3753 3753
0 3753 3923
0 3753 4095
0 3924 0
0 3923 172
0 3920 344
0 3919 516
0 3917 689
0 3915 860
0 3913 1033
0 3910 1205
0 3909 1376
0 3912 1546
0 3913 1717
0 3913 1885
0 3913 2052
0 3912 2221
0 3913 2391
0 3916 2558
0 3919 2728
0 3923 2896
0 3924 3067
0 3924 3238
0 3924 3410
0 3924 3582
0 3924 3753
0 3924 3924
0 3924 4095
3 4095 3
3 4095 175
3 4095 342
3 4095 514
3 4095 684
0 4095 855
0 4095 1026
3 4095 1198
0 4095 1368
0 4095 1539
0 4095 1710
3 4095 1881
0 4095 2048
0 4094 2215
0 4094 2385
0 4094 2556
0 4094 2727
0 4094 2898
0 4095 3069
6 4094 3240
3 4095 3411
3 4095 3582
3 4095 3753
6 4095 3924
3 4095 4095
172 2 30
184 2 214
181 2 405
179 2 585
179 2 777
176 2 974
176 2 1161
176 2 1359
176 2 1556
176 2 1747
174 2 1946
173 2 2136
171 2 2326
171 2 2520
171 2 2712
170 2 2904
166 2 3070
166 2 3220
164 2 3344
162 2 3470
160 2 3596
158 2 3722
157 2 3846
153 2 3971
153 2 4095
176 171 27
177 168 186
182 165 379
185 165 563
183 165 757
180 165 951
179 166 1148
178 167 1346
177 168 1534
176 169 1721
174 172 1905
173 173 2097
171 175 2283
171 175 2474
171 173 2671
170 172 2861
166 169 3033
166 169 3186
164 167 3317
162 166 3447
160 165 3576
158 166 3708
157 166 3836
153 164 3969
153 164 4095
176 347 26
176 337 184
177 337 354
182 334 540
183 336 737
181 336 933
181 337 1132
180 339 1327
179 343 1514
178 345 1695
176 350 1874
175 354 2055
172 356 2240
172 358 2428
171 355 2627
170 352 2819
166 348 2989
166 344 3148
164 342 3284
162 340 3419
160 338 3553
158 337 3688
157 337 3824
153 335 3959
153 333 4095
176 508 26
175 503 181
176 502 347
178 495 508
180 498 702
180 501 897
180 505 1093
180 507 1288
180 514 1470
179 521 1646
177 530 1817
176 536 1993
173 537 2177
173 538 2364
173 529 2580
171 526 2774
167 518 2949
166 514 3110
164 510 3253
162 508 3394
160 506 3535
158 504 3675
157 503 3814
153 500 3957
153 497 4095
174 675 27
174 676 182
174 674 349
176 667 508
176 671 674
176 676 867
177 680 1060
178 684 1254
178 695 1431
178 706 1600
175 720 1767
174 730 1935
172 731 2117
172 731 2301
172 720 2520
170 711 2729
166 702 2905
165 695 3072
163 690 3216
161 687 3364
158 684 3510
157 681 3658
156 679 3803
152 676 3950
148 671 4095
171 846 27
171 851 184
171 848 353
173 836 518
173 840 683
171 857 835
172 861 1027
173 866 1218
174 879 1391
174 893 1551
172 914 1714
171 930 1878
169 928 2057
169 926 2240
169 910 2471
168 897 2683
164 885 2866
163 877 3034
161 873 3186
158 869 3337
156 865 3490
154 860 3641
153 855 3791
150 851 3945
149 847 4094
170 1020 27
170 1023 186
170 1019 357
172 1004 523
172 1002 695
170 1019 848
170 1041 994
171 1045 1185
171 1063 1351
171 1080 1509
170 1104 1662
169 1126 1821
167 1124 1999
167 1121 2183
168 1100 2421
167 1083 2642
163 1070 2825
162 1058 2999
160 1054 3154
157 1048 3312
155 1043 3467
153 1038 3626
152 1031 3780
149 1025 3939
148 1021 4094
169 1196 27
169 1197 187
169 1192 359
171 1172 529
170 1167 704
169 1175 866
169 1197 1012
169 1226 1150
169 1244 1314
169 1269 1465
168 1295 1614
167 1323 1765
165 1318 1939
165 1313 2122
166 1287 2373
165 1266 2601
162 1253 2786
161 1242 2961
159 1233 3125
156 1227 3286
154 1221 3449
152 1215 3610
152 1208 3772
148 1202 3934
147 1196 4095
169 1367 27
169 1363 189
169 1358 363
171 1337 535
170 1325 715
169 1329 881
169 1345 1035
169 1373 1173
169 1399 1318
169 1426 1467
167 1459 1607
167 1488 1754
165 1502 1902
165 1496 2082
165 1471 2322
165 1446 2559
161 1431 2745
160 1420 2925
159 1411 3091
156 1402 3261
154 1395 3426
152 1387 3596
151 1380 3760
148 1372 3930
147 1366 4095
169 1537 27
169 1531 190
169 1524 365
171 1501 541
170 1487 724
169 1484 897
169 1496 1055
169 1518 1199
169 1543 1344
169 1568 1493
167 1603 1631
167 1639 1769
165 1662 1905
164 1676 2058
165 1652 2288
164 1628 2514
161 1610 2703
160 1597 2885
159 1588 3058
156 1579 3230
154 1570 3406
152 1562 3577
151 1553 3749
148 1545 3923
147 1537 4095
169 1708 28
169 1699 191
169 1690 368
171 1662 547
170 1645 735
169 1637 913
169 1644 1077
169 1664 1224
169 1686 1369
169 1710 1518
167 1752 1650
167 1790 1785
165 1808 1931
164 1831 2069
164 1833 2249
164 1809 2471
160 1788 2662
160 1773 2849
158 1764 3027
156 1754 3205
154 1746 3383
152 1735 3564
151 1726 3738
148 1716 3920
147 1707 4095
