Examples/2D - Shape Reds.3dl
#25pt 3DLUT created by 3D LUT Creator Pro (c) Oleg Sharonov
#Copyright Oleg Sharonov
0 256 512 768 1023
0 0 0
0 0 1024
0 0 2047
0 0 3069
0 0 4095
0 1025 0
0 1026 1026
0 1025 2048
0 1025 3069
0 1026 4095
0 2048 0
0 2048 1025
0 2047 2047
0 2047 3069
0 2048 4095
0 3069 0
0 3070 1026
0 3069 2047
0 3069 3069
0 3069 4095
3 4095 3
0 4095 1026
0 4095 2048
0 4095 3069
3 4095 4095
928 64 0
928 64 1014
928 64 2025
928 64 3052
928 64 4086
1023 1026 0
1024 1027 1026
1023 1026 2047
1022 1025 3068
1022 1026 4094
1022 2048 0
1023 2049 1025
1023 2048 2047
1022 2047 3068
1022 2048 4094
1026 3070 0
1026 3071 1026
1026 3070 2048
1026 3069 3069
1026 3069 4095
1026 4095 0
1026 4095 1026
1025 4095 2047
1025 4095 3069
1026 4095 4095
1706 234 0
1707 234 1008
1706 234 2012
1706 234 3015
1705 234 4022
2048 1025 0
2049 1025 1026
2048 1025 2048
2048 1025 3069
2048 1025 4095
2048 2048 0
2048 2048 1026
2048 2048 2048
2047 2047 3069
2048 2048 4095
2047 3069 0
2048 3070 1026
2047 3069 2047
2047 3069 3069
2047 3069 4094
2048 4095 0
2048 4095 1027
2048 4095 2048
2047 4094 3069
2047 4095 4095
2547 631 0
2547 631 1031
2546 631 2071
2546 631 3082
2546 631 4095
2860 1281 0
2861 1281 1031
2860 1281 2062
2859 1281 3080
2860 1281 4095
3068 2047 0
3069 2048 1025
3068 2047 2047
3068 2047 3068
3068 2047 4094
3068 3072 0
3068 3072 1026
3068 3072 2048
3067 3071 3069
3068 3072 4095
3069 4095 3
3069 4095 1025
3069 4094 2047
3069 4094 3069
3069 4094 4094
3297 1164 0
3298 1164 1032
3297 1164 2099
3296 1164 3096
3296 1164 4095
3597 1754 0
3599 1755 1042
3598 1755 2095
3598 1755 3100
3597 1754 4095
3893 2336 0
3894 2337 1034
3893 2337 2067
3893 2336 3088
3893 2336 4095
4095 3072 0
4095 3072 1026
4094 3072 2048
4094 3072 3070
4094 3072 4095
4095 4095 0
4095 4095 1024
4095 4095 2046
4094 4094 3069
4095 4095 4095
