Examples/2D - Orange twist.3dl
#25pt 3DLUT created by 3D LUT Creator Pro (c) Oleg Sharonov
#Copyright Oleg Sharonov
#INPUTGAMMA sRGB IEC61966-2.1 v.2.10
#IMAGEPROFILE sRGB IEC61966-2.1 v.2.10
#OUTPUTGAMMA sRGB IEC61966-2.1 v.2.10
0 256 512 768 1023
0 0 0
0 0 1026
0 0 2047
0 0 3069
0 0 4095
0 1026 0
0 1026 1026
0 1026 2048
0 1026 3069
0 1026 4095
0 2048 0
0 2048 1026
0 2048 2048
0 2047 3069
0 2047 4095
0 3069 0
0 3069 1026
0 3069 2048
0 3069 3069
0 3069 4095
0 4095 0
0 4095 1026
0 4095 2048
0 4095 3069
0 4095 4095
1026 0 0
1026 0 1026
1026 0 2047
1026 0 3069
1026 0 4095
1026 1026 0
1026 1026 1026
1026 1026 2048
1026 1026 3069
1026 1026 4095
1026 2047 0
1026 2047 1026
1026 2047 2048
1026 2047 3069
1026 2047 4095
1026 3069 0
1026 3069 1026
1026 3069 2048
1026 3069 3069
1026 3069 4095
1026 4095 0
1026 4095 1026
1026 4095 2048
1026 4095 3069
1026 4095 4095
2047 0 0
2047 0 1026
2047 0 2048
2047 0 3069
2048 0 4095
2226 850 0
2226 850 1026
2226 850 2048
2226 850 3069
2226 850 4095
2047 2047 0
2047 2047 1026
2048 2047 2048
2048 2047 3069
2048 2047 4095
2045 3069 0
2045 3069 1026
2045 3069 2048
2045 3069 3069
2045 3069 4095
2047 4095 0
2047 4095 1026
2047 4095 2048
2048 4095 3069
2048 4095 4095
3069 0 0
3069 0 1026
3069 0 2048
3069 0 3069
3069 0 4095
3316 1108 0
3316 1108 1026
3316 1108 2048
3316 1108 3069
3316 1108 4095
3205 2132 0
3205 2132 1026
3205 2132 2048
3205 2132 3069
3205 2132 4095
3069 3069 0
3069 3069 1026
3069 3069 2048
3069 3069 3069
3069 3069 4095
3069 4095 0
3069 4095 1026
3069 4095 2048
3069 4095 3069
3069 4095 4095
4095 0 0
4095 0 1026
4095 0 2048
4095 0 3069
4095 0 4095
4095 1723 0
4095 1723 1026
4095 1723 2048
4095 1723 3069
4095 1723 4095
4095 2744 0
4095 2744 1026
4095 2744 2048
4095 2744 3069
4095 2744 4095
4095 3420 0
4095 3420 1026
4095 3420 2048
4095 3420 3069
4095 3420 4095
4095 4095 0
4095 4095 1026
4095 4095 2048
4095 4095 3069
4095 4095 4095
