Examples/2D - Saturate.3dl
#25pt 3DLUT created by 3D LUT Creator Pro (c) Oleg Sharonov
#Copyright Oleg Sharonov
0 128 256 384 512 640 768 896 1023
0 0 0
0 0 513
0 0 1024
0 0 1538
0 0 2047
0 0 2555
0 0 3069
0 0 3582
0 0 4095
0 513 0
0 513 513
0 459 1084
0 401 1653
0 334 2226
0 270 2798
0 206 3376
0 288 3807
0 513 4095
0 1025 0
0 1072 475
0 1026 1026
0 942 1622
0 858 2217
0 773 2809
0 688 3407
0 718 3889
0 1026 4095
0 1538 0
0 1630 434
0 1606 969
0 1539 1539
0 1455 2131
0 1370 2726
0 1287 3322
0 1296 3825
0 1539 4095
0 2048 0
0 2192 386
0 2181 906
0 2112 1479
0 2047 2047
0 1961 2640
0 1879 3237
0 1868 3761
0 2048 4095
0 2556 0
0 2748 340
0 2756 847
0 2690 1419
0 2623 1987
0 2556 2556
0 2469 3152
0 2441 3694
0 2556 4094
0 3069 0
0 3311 295
0 3336 787
0 3269 1359
0 3201 1928
0 3135 2496
0 3069 3069
0 3011 3636
0 3069 4095
0 3582 0
0 3759 353
0 3823 808
0 3773 1368
0 3721 1921
0 3673 2475
0 3625 3027
0 3582 3582
3 3582 4095
3 4095 3
3 4095 514
0 4095 1026
0 4095 1539
0 4095 2048
0 4094 2556
0 4095 3069
3 4095 3582
3 4095 4095
513 0 0
513 0 513
428 0 1110
340 0 1714
242 0 2319
146 0 2924
47 0 3535
172 0 3923
513 0 4095
513 513 0
513 513 513
429 444 1184
340 373 1857
242 298 2534
146 228 3209
47 257 3791
171 483 3953
513 513 4095
480 1074 0
482 1126 473
395 1067 1127
311 962 1831
221 848 2538
133 734 3239
42 701 3867
156 934 4037
480 1074 4095
442 1637 0
443 1741 426
366 1691 1063
286 1596 1742
201 1476 2451
121 1349 3156
39 1289 3797
142 1494 4008
442 1637 4095
400 2203 0
400 2361 379
331 2319 995
261 2211 1674
184 2094 2361
108 1960 3064
35 1873 3725
128 2042 3988
400 2203 4095
360 2765 0
360 2980 325
298 2947 929
233 2835 1609
166 2708 2285
99 2569 2977
31 2457 3653
117 2585 3970
361 2766 4095
321 3335 0
321 3585 289
265 3566 874
207 3447 1547
142 3321 2222
85 3182 2900
27 3042 3585
100 3143 3946
322 3335 4095
373 3777 0
374 3863 435
324 3899 959
265 3831 1588
201 3747 2224
137 3653 2870
47 3582 3535
154 3607 3923
374 3777 4095
514 4095 3
514 4095 514
428 4095 1111
340 4095 1715
242 4095 2320
146 4095 2925
47 4095 3535
172 4095 3925
514 4095 4095
1025 0 0
1111 0 428
1025 0 1025
895 0 1665
769 0 2301
642 0 2939
515 0 3579
559 0 4048
1025 0 4095
1042 508 0
1132 507 430
1045 452 1092
907 377 1806
775 299 2518
643 225 3229
515 286 3806
559 513 4049
1042 508 4095
1026 1026 0
1119 1071 390
1027 1027 1027
884 941 1772
748 853 2518
610 763 3262
482 775 3886
526 1043 4080
1026 1026 4095
973 1612 0
1071 1688 353
976 1688 969
831 1620 1688
696 1528 2434
561 1434 3180
444 1407 3818
484 1621 4072
973 1612 4095
919 2192 0
1016 2311 315
921 2343 899
779 2274 1622
644 2204 2346
510 2109 3076
401 2045 3741
438 2199 4064
919 2191 4095
866 2777 0
962 2945 270
869 3004 831
727 2934 1556
593 2862 2263
459 2782 2972
362 2676 3669
395 2769 4061
866 2776 4095
816 3360 0
911 3553 245
818 3644 780
678 3576 1497
546 3507 2196
414 3436 2897
323 3318 3598
353 3350 4055
816 3359 4095
834 3846 0
926 3861 407
835 3974 918
699 3947 1588
573 3916 2251
453 3876 2913
375 3778 3580
401 3803 4048
834 3846 4095
1026 4095 0
1110 4095 428
1026 4095 1026
895 4095 1665
769 4095 2301
641 4095 2940
515 4095 3580
559 4095 4048
1026 4095 4095
1538 0 0
1714 0 340
1666 0 896
1539 0 1539
1407 0 2173
1281 0 2811
1155 0 3453
1170 0 3949
1539 0 4095
1569 503 0
1754 499 341
1705 464 940
1571 391 1663
1434 313 2375
1305 240 3089
1177 208 3762
1192 495 3962
1570 503 4095
1561 1016 0
1751 1054 308
1697 1027 888
1563 930 1632
1424 828 2372
1291 725 3114
1160 657 3824
1175 929 4047
1561 1015 4095
1539 1539 0
1726 1606 279
1678 1616 827
1540 1540 1540
1395 1455 2279
1255 1368 3026
1115 1310 3749
1132 1521 4023
1539 1539 4095
1485 2118 0
1683 2200 250
1632 2254 759
1487 2190 1478
1341 2123 2192
1201 2036 2938
1061 1975 3657
1078 2119 4001
1486 2117 4095
1432 2700 0
1629 2818 215
1578 2908 694
1436 2851 1414
1289 2786 2129
1148 2722 2844
1008 2650 3565
1025 2722 3982
1432 2699 4095
1382 3286 0
1577 3429 191
1526 3559 638
1386 3504 1358
1240 3439 2068
1099 3381 2766
958 3324 3473
975 3320 3966
1382 3285 4095
1388 3791 0
1576 3788 329
1524 3939 757
1391 3911 1442
1246 3882 2113
1113 3851 2782
974 3830 3454
991 3827 3950
1389 3791 4095
1539 4095 0
1715 4095 340
1665 4095 895
1539 4095 1539
1407 4094 2172
1280 4094 2810
1155 4095 3453
1170 4095 3949
1539 4095 4095
2048 0 0
2321 0 242
2302 0 770
2174 0 1408
2048 0 2048
1920 0 2684
1792 0 3323
1775 0 3853
2047 0 4095
2098 493 0
2380 492 243
2362 473 794
2230 398 1517
2098 318 2237
1965 241 2952
1835 189 3639
1818 439 3913
2098 495 4095
2094 1009 0
2384 1034 220
2365 1032 752
2226 940 1486
2094 836 2235
1959 731 2978
1826 648 3700
1808 854 4015
2093 1009 4095
2071 1528 0
2360 1580 196
2346 1617 693
2204 1540 1400
2070 1442 2139
1936 1336 2881
1803 1249 3609
1784 1412 3977
2070 1528 4095
2048 2048 0
2334 2119 178
2321 2203 629
2180 2124 1334
2048 2048 2048
1905 1958 2788
1765 1885 3524
1746 1997 3946
2048 2048 4095
1994 2628 0
2297 2690 155
2280 2820 566
2139 2766 1270
1997 2703 1987
1853 2633 2703
1711 2552 3437
1693 2605 3913
1994 2628 4095
1942 3212 0
2243 3300 131
2225 3472 506
2086 3421 1208
1945 3357 1926
1804 3294 2641
1662 3233 3343
1643 3218 3883
1942 3212 4095
1936 3737 0
2226 3713 243
2208 3896 608
2073 3873 1277
1939 3839 1968
1802 3804 2642
1661 3776 3313
1642 3764 3854
1936 3737 4095
2048 4095 0
2319 4095 242
2302 4095 771
2172 4094 1408
2048 4095 2048
1919 4094 2683
1791 4093 3322
1773 4094 3853
2047 4095 4095
2556 0 0
2925 0 146
2940 0 642
2811 0 1281
2683 0 1920
2556 0 2556
2427 0 3195
2381 0 3754
2556 0 4094
2622 488 0
3003 484 146
3019 482 646
2888 409 1370
2754 331 2089
2621 255 2799
2490 186 3506
2442 383 3865
2622 488 4095
2625 998 0
3014 1010 132
3034 1031 612
2896 947 1340
2759 840 2091
2624 738 2832
2490 641 3565
2442 788 3973
2625 998 4095
2602 1520 0
2990 1545 118
3015 1614 558
2873 1542 1262
2735 1447 1997
2602 1346 2744
2467 1249 3482
2418 1355 3928
2601 1520 4095
2579 2038 0
2965 2080 105
2986 2199 497
2850 2127 1198
2714 2048 1913
2577 1948 2648
2442 1851 3387
2394 1918 3883
2579 2038 4095
2556 2556 0
2940 2610 94
2958 2779 436
2826 2717 1133
2692 2635 1846
2555 2555 2555
2411 2468 3297
2361 2496 3840
2556 2555 4094
2503 3142 0
2910 3166 78
2928 3379 380
2788 3341 1069
2648 3275 1783
2505 3216 2496
2360 3151 3214
2308 3122 3799
2503 3142 4095
2485 3680 0
2876 3648 146
2891 3852 457
2759 3836 1117
2623 3794 1810
2487 3757 2496
2344 3722 3176
2292 3702 3758
2485 3680 4095
2559 4094 1
2926 4095 146
2940 4095 642
2810 4094 1281
2683 4094 1919
2556 4094 2556
2426 4093 3195
2380 4093 3755
2556 4094 4094
3069 0 0
3535 0 47
3579 0 515
3453 0 1155
3323 0 1792
3195 0 2427
3069 0 3069
2984 0 3667
3069 0 4095
3152 481 0
3603 487 47
3640 490 516
3536 411 1233
3408 337 1942
3280 262 2649
3152 190 3363
3065 331 3820
3153 480 4095
3162 988 0
3626 995 41
3668 1034 483
3555 958 1191
3421 851 1938
3292 747 2677
3161 642 3422
3073 726 3934
3161 987 4095
3138 1510 0
3607 1519 38
3649 1601 440
3538 1550 1121
3398 1455 1850
3269 1353 2597
3138 1252 3338
3050 1302 3881
3138 1510 4095
3114 2029 0
3586 2042 33
3629 2171 391
3512 2137 1058
3379 2053 1774
3244 1955 2506
3113 1855 3253
3025 1878 3825
3114 2029 4095
3089 2547 0
3568 2565 29
3611 2737 343
3490 2725 995
3357 2640 1709
3220 2557 2418
3086 2457 3159
2999 2448 3770
3089 2547 4095
3069 3069 0
3549 3088 25
3594 3307 297
3466 3313 932
3333 3226 1644
3203 3148 2353
3068 3068 3068
2973 3024 3720
3069 3069 4094
3032 3630 0
3535 3582 47
3580 3760 354
3453 3809 951
3311 3758 1648
3173 3713 2337
3032 3672 3032
2938 3642 3671
3032 3630 4095
3072 4095 0
3536 4095 47
3580 4095 515
3453 4095 1154
3322 4093 1791
3195 4093 2426
3069 4094 3069
2984 4094 3667
3069 4095 4094
3582 0 0
3923 0 172
4048 0 560
3949 0 1170
3853 0 1775
3754 0 2381
3667 0 2984
3582 0 3582
3582 0 4095
3642 490 0
3931 510 172
4049 513 560
3953 437 1249
3871 358 1926
3786 280 2603
3711 210 3272
3642 281 3792
3642 491 4095
3666 993 0
3955 1036 154
4057 1069 522
3977 992 1198
3897 884 1903
3814 777 2612
3739 670 3316
3666 683 3894
3666 993 4095
3648 1512 0
3947 1567 138
4056 1634 476
3970 1577 1130
3885 1482 1818
3800 1377 2528
3723 1273 3232
3648 1266 3830
3648 1512 4095
3630 2028 0
3943 2093 124
4054 2199 425
3967 2152 1069
3881 2069 1748
3788 1971 2444
3708 1872 3148
3630 1847 3766
3630 2028 4095
3612 2546 0
3937 2620 110
4052 2762 373
3961 2732 1009
3873 2649 1687
3779 2568 2366
3692 2471 3064
3610 2430 3699
3612 2546 4095
3595 3064 0
3930 3156 91
4050 3331 324
3955 3314 948
3863 3229 1625
3770 3151 2303
3681 3073 2978
3593 3004 3641
3595 3064 4095
3582 3582 0
3923 3605 151
4048 3783 378
3949 3806 967
3853 3748 1624
3756 3692 2279
3667 3636 2931
3582 3582 3582
3582 3582 4094
3582 4095 0
3919 4095 171
4048 4095 562
3949 4095 1171
3853 4093 1775
3755 4093 2380
3667 4094 2985
3582 4094 3582
3582 4095 4095
4095 0 0
4095 0 513
4095 0 1025
4095 0 1539
4095 0 2047
4094 0 2556
4094 0 3069
4095 0 3582
4095 0 4095
4095 513 0
4095 513 513
4095 460 1085
4095 402 1654
4095 335 2227
4094 271 2799
4095 205 3376
4095 288 3807
4095 513 4095
4095 1025 0
4095 1072 475
4095 1026 1026
4095 943 1622
4095 858 2216
4095 774 2808
4095 689 3407
4095 718 3889
4095 1025 4095
4095 1539 0
4095 1631 435
4095 1605 969
4095 1539 1539
4095 1455 2130
4095 1370 2725
4095 1287 3321
4095 1296 3825
4095 1539 4095
4095 2048 0
4095 2191 386
4095 2181 906
4095 2112 1479
4095 2048 2048
4092 1961 2640
4094 1878 3237
4094 1868 3761
4095 2047 4095
4094 2556 0
4095 2748 340
4095 2756 846
4095 2689 1419
4095 2623 1987
4093 2556 2556
4092 2469 3152
4092 2441 3694
4094 2556 4094
4095 3069 0
4095 3311 295
4095 3335 786
4095 3269 1359
4095 3201 1927
4095 3135 2496
4094 3069 3069
4092 3010 3636
4094 3069 4095
4095 3582 0
4095 3759 353
4095 3823 807
4095 3773 1367
4095 3721 1921
4095 3673 2474
4095 3625 3027
4094 3582 3582
4095 3582 4095
4095 4095 0
4095 4095 511
4095 4095 1024
4095 4095 1537
4095 4095 2046
4094 4094 2555
4094 4095 3069
4095 4095 3582
4095 4095 4095
