Examples/2D - Calm blues.3dl
#25pt 3DLUT created by 3D LUT Creator Pro (c) Oleg Sharonov
#Copyright Oleg Sharonov
#IMAGEPROFILE sRGB IEC61966-2.1 v.2.10
#INPUTGAMMA sRGB IEC61966-2.1 v.2.10
#OUTPUTGAMMA sRGB IEC61966-2.1 v.2.10
0 128 256 384 512 640 768 896 1023
0 0 0
109 141 213
218 282 424
327 422 635
435 565 850
543 705 1062
651 846 1276
761 987 1487
870 1128 1700
144 402 0
226 443 446
294 600 672
366 752 891
441 906 1113
527 1054 1331
634 1197 1543
742 1338 1756
850 1477 1971
288 803 0
375 851 455
453 887 893
517 1046 1121
588 1204 1347
659 1354 1568
733 1504 1786
808 1659 2005
883 1813 2226
431 1206 0
518 1247 451
605 1288 915
683 1329 1339
745 1488 1571
812 1646 1796
883 1806 2020
953 1955 2241
1024 2105 2455
573 1607 0
656 1639 448
749 1699 908
828 1722 1370
904 1771 1785
967 1928 2011
1033 2087 2240
1098 2236 2459
1167 2384 2671
716 2006 0
796 2030 447
891 2095 906
976 2136 1367
1054 2158 1826
1123 2205 2224
1182 2354 2447
1243 2504 2667
1311 2651 2876
859 2406 0
938 2431 446
1029 2490 902
1118 2543 1363
1190 2545 1826
1265 2556 2283
1335 2622 2650
1396 2774 2866
1460 2920 3079
1003 2807 0
1082 2832 446
1167 2875 900
1249 2907 1360
1329 2924 1825
1405 2940 2284
1483 2959 2732
1553 3038 3069
1618 3191 3285
1149 3210 3
1228 3235 448
1305 3259 898
1384 3283 1357
1463 3305 1821
1542 3328 2283
1622 3351 2721
1703 3376 3155
1774 3459 3489
513 0 0
477 162 244
580 303 456
684 444 667
793 586 883
902 725 1093
1013 867 1307
1124 1008 1519
1233 1149 1731
513 513 0
513 513 513
595 660 731
692 802 943
793 941 1154
896 1080 1366
1002 1221 1577
1111 1361 1790
1217 1499 2003
657 914 0
657 914 520
742 960 963
801 1122 1192
865 1278 1415
932 1430 1636
1009 1581 1855
1114 1722 2066
1217 1861 2276
801 1316 0
801 1317 521
890 1365 978
971 1409 1414
1029 1569 1646
1090 1725 1868
1158 1880 2087
1230 2032 2310
1300 2184 2526
942 1716 0
943 1717 519
1032 1765 976
1119 1807 1435
1196 1853 1862
1252 2009 2085
1315 2167 2314
1383 2323 2537
1445 2468 2749
1085 2117 0
1086 2117 518
1173 2165 975
1262 2213 1432
1342 2243 1889
1417 2291 2303
1471 2441 2526
1531 2591 2746
1595 2738 2959
1227 2517 0
1228 2517 517
1316 2564 973
1405 2614 1431
1487 2649 1891
1557 2655 2345
1627 2707 2729
1687 2859 2948
1746 3004 3158
1373 2917 0
1373 2917 515
1462 2962 971
1544 2998 1430
1620 3020 1892
1694 3035 2348
1772 3053 2801
1844 3122 3149
1903 3273 3362
1516 3321 3
1516 3321 516
1596 3343 970
1676 3368 1428
1754 3392 1890
1830 3416 2347
1910 3439 2790
1993 3462 3224
2064 3538 3564
1025 0 0
955 162 244
954 324 487
1057 465 699
1159 606 913
1262 745 1124
1363 888 1339
1470 1028 1549
1583 1171 1762
1026 513 0
1026 513 513
974 675 757
1062 821 974
1153 961 1185
1257 1102 1398
1361 1244 1609
1468 1383 1822
1576 1522 2035
1026 1026 0
1026 1026 513
1027 1027 1027
1103 1178 1248
1189 1321 1463
1284 1463 1675
1379 1601 1887
1481 1743 2097
1584 1884 2308
1170 1429 0
1170 1429 517
1170 1429 1038
1256 1475 1478
1309 1636 1708
1369 1793 1929
1433 1951 2152
1501 2105 2376
1599 2243 2584
1312 1829 0
1313 1829 519
1313 1829 1040
1401 1874 1493
1479 1918 1924
1535 2078 2151
1595 2238 2381
1658 2394 2602
1725 2550 2824
1453 2226 0
1453 2226 518
1453 2226 1041
1541 2274 1493
1625 2314 1947
1706 2364 2372
1760 2522 2601
1815 2674 2820
1876 2822 3037
1597 2627 0
1597 2628 518
1597 2628 1041
1686 2675 1496
1772 2720 1951
1854 2752 2404
1921 2790 2806
1973 2944 3029
2031 3088 3237
1741 3029 0
1741 3030 518
1741 3030 1040
1830 3078 1497
1909 3108 1953
1986 3126 2407
2062 3142 2859
2133 3203 3225
2189 3353 3438
1885 3431 0
1884 3431 517
1884 3431 1039
1965 3454 1495
2044 3477 1953
2123 3501 2407
2200 3525 2859
2279 3549 3288
2350 3619 3642
1538 0 0
1485 162 244
1432 324 488
1432 487 731
1535 627 945
1634 766 1156
1737 909 1370
1840 1048 1581
1941 1191 1791
1539 513 0
1539 513 513
1467 675 757
1440 837 1002
1531 979 1214
1626 1123 1429
1723 1264 1641
1823 1403 1854
1926 1544 2064
1539 1026 0
1539 1026 513
1540 1026 1026
1487 1190 1271
1566 1335 1489
1650 1479 1703
1744 1619 1917
1844 1763 2127
1945 1904 2337
1539 1539 0
1540 1540 513
1540 1540 1027
1540 1540 1540
1613 1691 1762
1690 1835 1975
1780 1981 2190
1873 2120 2402
1967 2258 2609
1681 1939 0
1682 1939 515
1682 1939 1033
1682 1939 1550
1765 1985 1987
1812 2144 2214
1871 2303 2443
1934 2462 2666
2000 2621 2890
1822 2336 0
1822 2336 517
1823 2337 1037
1821 2337 1553
1909 2381 2003
1987 2428 2433
2040 2591 2665
2100 2753 2891
2159 2902 3111
1965 2738 0
1965 2739 518
1966 2739 1038
1966 2740 1559
2053 2785 2011
2136 2823 2462
2215 2871 2881
2264 3022 3102
2317 3168 3312
2109 3138 0
2110 3139 518
2110 3140 1039
2110 3140 1562
2198 3187 2014
2275 3215 2466
2351 3233 2918
2424 3287 3305
2477 3434 3514
2254 3541 0
2254 3541 518
2254 3541 1038
2254 3541 1562
2333 3566 2016
2409 3590 2469
2487 3614 2924
2568 3637 3354
2641 3698 3717
2048 0 0
2020 162 244
1906 324 488
1906 487 730
1906 647 975
2005 786 1187
2109 929 1399
2212 1068 1611
2313 1212 1823
2048 513 0
2048 513 513
1973 674 757
1925 836 1001
1905 996 1243
1999 1140 1457
2096 1282 1669
2196 1423 1884
2295 1566 2096
2048 1026 0
2049 1026 513
2049 1026 1026
1983 1188 1269
1945 1348 1514
2026 1493 1728
2116 1635 1943
2210 1780 2156
2303 1924 2368
2048 1537 0
2049 1537 513
2049 1537 1025
2049 1537 1537
1995 1696 1781
2066 1842 1994
2151 1989 2211
2241 2132 2425
2333 2275 2638
2048 2048 0
2048 2048 513
2048 2048 1026
2047 2047 1535
2048 2048 2048
2115 2196 2266
2195 2342 2485
2281 2490 2700
2371 2636 2916
2189 2445 0
2189 2445 515
2190 2446 1031
2188 2445 1541
2188 2445 2057
2272 2491 2494
2324 2655 2724
2380 2819 2952
2439 2978 3181
2334 2845 0
2334 2845 516
2334 2845 1034
2334 2845 1550
2334 2845 2067
2418 2887 2514
2501 2936 2942
2553 3102 3176
2601 3254 3393
2476 3250 0
2476 3250 517
2477 3250 1036
2477 3250 1554
2476 3250 2073
2561 3294 2523
2643 3322 2971
2717 3365 3379
2765 3515 3590
2621 3652 0
2621 3652 516
2621 3652 1038
2621 3652 1557
2621 3652 2077
2700 3675 2528
2779 3699 2978
2859 3723 3418
2930 3778 3794
2556 0 0
2556 162 244
2429 324 488
2379 486 730
2379 646 973
2379 806 1218
2482 949 1430
2585 1089 1643
2688 1233 1855
2556 513 0
2557 513 513
2482 674 756
2410 835 1000
2385 995 1242
2374 1159 1486
2471 1301 1700
2571 1442 1916
2669 1586 2127
2557 1026 0
2557 1026 513
2558 1025 1025
2487 1187 1268
2434 1347 1512
2404 1508 1754
2492 1651 1971
2586 1797 2185
2679 1942 2399
2557 1535 0
2558 1535 513
2558 1536 1026
2558 1535 1535
2494 1694 1779
2449 1855 2019
2531 2005 2239
2616 2151 2455
2704 2296 2671
2556 2045 0
2557 2045 513
2557 2045 1026
2556 2044 1533
2556 2044 2044
2501 2204 2286
2575 2353 2508
2657 2504 2726
2743 2652 2944
2556 2556 0
2556 2556 513
2556 2556 1026
2555 2555 1532
2554 2554 2042
2555 2555 2555
2625 2708 2777
2705 2860 2998
2787 3008 3217
2700 2958 0
2700 2958 514
2700 2958 1030
2700 2957 1542
2699 2957 2055
2699 2957 2569
2784 3003 3006
2836 3169 3240
2888 3333 3466
2845 3359 0
2845 3359 515
2845 3359 1033
2845 3358 1548
2844 3358 2062
2844 3358 2579
2930 3402 3028
3008 3446 3453
3051 3597 3668
2988 3763 3
2988 3763 518
2988 3763 1035
2987 3762 1551
2987 3761 2067
2986 3762 2586
3066 3787 3036
3146 3812 3484
3219 3859 3871
3069 0 0
3069 162 244
2962 324 488
2857 487 731
2856 647 974
2856 807 1218
2856 970 1461
2959 1110 1674
3062 1253 1886
3069 513 0
3070 513 513
2998 674 757
2921 837 1001
2871 996 1243
2857 1159 1486
2847 1320 1730
2946 1461 1945
3045 1605 2156
3070 1025 0
3070 1025 513
3070 1025 1025
2997 1188 1269
2929 1348 1513
2893 1508 1755
2871 1670 1999
2963 1814 2213
3057 1958 2426
3070 1539 0
3070 1539 513
3071 1539 1026
3071 1539 1539
3003 1698 1782
2946 1858 2021
2914 2021 2268
2996 2166 2481
3085 2311 2698
3069 2047 0
3069 2047 513
3070 2048 1025
3069 2048 1536
3069 2047 2047
3006 2206 2288
2961 2366 2534
3040 2517 2751
3123 2664 2968
3069 2556 0
3069 2556 513
3069 2556 1026
3067 2557 1535
3067 2556 2045
3068 2555 2555
3014 2718 2799
3088 2869 3020
3166 3019 3239
3069 3069 0
3069 3069 513
3069 3069 1026
3070 3069 1538
3069 3069 2047
3068 3068 2556
3068 3068 3068
3139 3222 3292
3215 3374 3511
3213 3471 0
3213 3471 514
3213 3471 1029
3213 3471 1544
3213 3471 2055
3212 3470 2567
3212 3470 3083
3297 3517 3519
3343 3675 3743
3357 3873 3
3357 3873 516
3357 3873 1031
3357 3873 1548
3357 3873 2062
3356 3872 2575
3356 3872 3094
3437 3897 3541
3512 3937 3945
3582 0 0
3582 162 244
3499 324 488
3384 487 731
3334 647 975
3333 807 1218
3334 970 1461
3334 1132 1705
3437 1273 1917
3582 513 0
3583 513 513
3516 674 757
3436 837 1002
3358 996 1243
3341 1159 1486
3329 1321 1730
3321 1480 1976
3421 1625 2188
3582 1026 0
3583 1026 513
3584 1026 1026
3509 1189 1270
3437 1348 1514
3384 1508 1755
3359 1670 2000
3341 1833 2242
3434 1977 2456
3582 1539 0
3583 1539 513
3584 1539 1026
3584 1539 1539
3512 1698 1782
3444 1858 2021
3407 2021 2268
3376 2181 2509
3464 2328 2727
3582 2047 0
3582 2048 513
3583 2048 1026
3582 2048 1537
3582 2047 2047
3514 2206 2289
3460 2366 2534
3424 2532 2778
3505 2679 2994
3581 2556 0
3581 2556 513
3582 2556 1026
3580 2557 1535
3580 2556 2045
3580 2556 2556
3520 2718 2799
3474 2880 3044
3551 3030 3263
3582 3069 0
3582 3069 513
3582 3069 1026
3582 3069 1539
3582 3069 2047
3581 3068 2556
3581 3068 3068
3528 3231 3314
3600 3383 3534
3582 3582 0
3582 3582 513
3582 3582 1026
3582 3582 1539
3582 3582 2047
3581 3581 2556
3581 3581 3069
3582 3582 3582
3651 3736 3804
3726 3984 0
3726 3984 510
3726 3984 1030
3726 3984 1544
3726 3984 2055
3725 3983 2566
3725 3984 3082
3726 3984 3596
3804 4015 4019
4095 0 0
4095 162 244
4038 324 488
3914 487 731
3811 647 975
3810 807 1218
3811 970 1461
3811 1132 1705
3811 1294 1949
4095 513 0
4095 513 513
4035 675 758
3954 838 1002
3871 997 1244
3825 1160 1487
3811 1320 1730
3802 1480 1976
3796 1644 2218
4095 1025 0
4095 1025 513
4095 1026 1026
4022 1189 1270
3948 1348 1514
3876 1508 1755
3847 1670 2000
3826 1832 2242
3811 1995 2486
4095 1539 0
4095 1539 514
4095 1539 1026
4095 1539 1539
4023 1698 1782
3951 1858 2021
3901 2021 2268
3866 2181 2509
3844 2345 2756
4095 2048 0
4095 2047 513
4095 2048 1026
4095 2048 1537
4095 2048 2048
4024 2207 2289
3960 2366 2534
3919 2532 2778
3887 2694 3022
4094 2556 0
4094 2556 513
4095 2556 1025
4093 2556 1535
4093 2556 2045
4093 2556 2556
4030 2718 2800
3975 2880 3045
3935 3044 3288
4095 3069 0
4095 3069 513
4095 3069 1025
4095 3069 1538
4094 3069 2047
4093 3069 2556
4094 3069 3069
4035 3231 3314
3988 3394 3558
4095 3582 0
4095 3582 514
4095 3582 1025
4095 3582 1538
4095 3582 2047
4094 3581 2556
4094 3582 3069
4094 3582 3582
4041 3744 3826
4095 4095 0
4095 4095 511
4095 4095 1024
4095 4095 1537
4095 4095 2046
4094 4094 2555
4094 4094 3069
4095 4095 3582
4095 4095 4095
