Examples/2D - Orange twist.3dl
#25pt 3DLUT created by 3D LUT Creator Pro (c) Oleg Sharonov
#Copyright Oleg Sharonov
#INPUTGAMMA sRGB IEC61966-2.1 v.2.10
#IMAGEPROFILE sRGB IEC61966-2.1 v.2.10
#OUTPUTGAMMA sRGB IEC61966-2.1 v.2.10
0 43 86 128 171 214 256 299 341 384 427 469 512 555 597 640 682 725 768 810 853 896 938 981 1023 
0 0 0
0 0 171
0 0 342
0 0 513
0 0 684
0 0 855
0 0 1026
0 0 1197
0 0 1368
0 0 1539
0 0 1710
0 0 1881
0 0 2047
0 0 2214
0 0 2385
0 0 2556
0 0 2727
0 0 2898
0 0 3069
0 0 3240
0 0 3411
0 0 3582
0 0 3753
0 0 3924
0 0 4095
0 171 0
0 171 171
0 171 342
0 171 513
0 171 684
0 171 855
0 171 1026
0 171 1197
0 171 1368
0 171 1539
0 171 1710
0 171 1881
0 171 2048
0 171 2214
0 171 2385
0 171 2556
0 171 2727
0 171 2898
0 171 3069
0 171 3240
0 171 3411
0 171 3582
0 171 3753
0 171 3924
0 171 4095
0 342 0
0 342 171
0 342 342
0 342 513
0 342 684
0 342 855
0 342 1026
0 342 1197
0 342 1368
0 342 1539
0 342 1710
0 342 1881
0 342 2048
0 342 2214
0 342 2385
0 342 2556
0 342 2727
0 342 2898
0 342 3069
0 342 3240
0 342 3411
0 342 3582
0 342 3753
0 342 3924
0 342 4095
0 513 0
0 513 171
0 513 342
0 513 513
0 513 684
0 513 855
0 513 1026
0 513 1197
0 513 1368
0 513 1539
0 513 1710
0 513 1881
0 513 2048
0 513 2214
0 513 2385
0 513 2556
0 513 2727
0 513 2898
0 513 3069
0 513 3240
0 513 3411
0 513 3582
0 513 3753
0 513 3924
0 513 4095
0 684 0
0 684 171
0 684 342
0 684 513
0 684 684
0 684 855
0 684 1026
0 684 1197
0 684 1368
0 684 1539
0 684 1710
0 684 1881
0 684 2048
0 684 2214
0 684 2385
0 684 2556
0 684 2727
0 684 2898
0 684 3069
0 684 3240
0 684 3411
0 684 3582
0 684 3753
0 684 3924
0 684 4095
0 855 0
0 855 171
0 855 342
0 855 513
0 855 684
0 855 855
0 855 1026
0 855 1197
0 855 1368
0 855 1539
0 855 1710
0 855 1881
0 855 2048
0 855 2214
0 855 2385
0 855 2556
0 855 2727
0 855 2898
0 855 3069
0 855 3240
0 855 3411
0 855 3582
0 855 3753
0 855 3924
0 855 4095
0 1026 0
0 1026 171
0 1026 342
0 1026 513
0 1026 684
0 1026 855
0 1026 1026
0 1026 1197
0 1026 1368
0 1026 1539
0 1026 1710
0 1026 1881
0 1026 2048
0 1026 2214
0 1026 2385
0 1026 2556
0 1026 2727
0 1026 2898
0 1026 3069
0 1026 3240
0 1026 3411
0 1026 3582
0 1026 3753
0 1026 3924
0 1026 4095
0 1197 0
0 1197 171
0 1197 342
0 1197 513
0 1197 684
0 1197 855
0 1197 1026
0 1197 1197
0 1197 1368
0 1197 1539
0 1197 1710
0 1197 1881
0 1197 2048
0 1197 2214
0 1197 2385
0 1197 2556
0 1197 2727
0 1197 2898
0 1197 3069
0 1197 3240
0 1197 3411
0 1197 3582
0 1197 3753
0 1197 3924
0 1197 4095
0 1368 0
0 1368 171
0 1368 342
0 1368 513
0 1368 684
0 1368 855
0 1368 1026
0 1368 1197
0 1368 1368
0 1368 1539
0 1368 1710
0 1368 1881
0 1368 2048
0 1368 2214
0 1368 2385
0 1368 2556
0 1368 2727
0 1368 2898
0 1368 3069
0 1368 3240
0 1368 3411
0 1368 3582
0 1368 3753
0 1368 3924
0 1368 4095
0 1539 0
0 1539 171
0 1539 342
0 1539 513
0 1539 684
0 1539 855
0 1539 1026
0 1539 1197
0 1539 1368
0 1539 1539
0 1539 1710
0 1539 1881
0 1539 2048
0 1539 2214
0 1539 2385
0 1539 2556
0 1539 2727
0 1539 2898
0 1539 3069
0 1539 3240
0 1539 3411
0 1539 3582
0 1539 3753
0 1539 3924
0 1539 4095
0 1710 0
0 1710 171
0 1710 342
0 1710 513
0 1710 684
0 1710 855
0 1710 1026
0 1710 1197
0 1710 1368
0 1710 1539
0 1710 1710
0 1710 1881
0 1710 2048
0 1710 2214
0 1710 2385
0 1710 2556
0 1710 2727
0 1710 2898
0 1710 3069
0 1710 3240
0 1710 3411
0 1710 3582
0 1710 3753
0 1710 3924
0 1710 4095
0 1881 0
0 1881 171
0 1881 342
0 1881 513
0 1881 684
0 1881 855
0 1881 1026
0 1881 1197
0 1881 1368
0 1881 1539
0 1881 1710
0 1881 1881
0 1881 2048
0 1881 2214
0 1881 2385
0 1881 2556
0 1881 2727
0 1881 2898
0 1881 3069
0 1881 3240
0 1881 3411
0 1881 3582
0 1881 3753
0 1881 3924
0 1881 4095
0 2048 0
0 2048 171
0 2048 342
0 2048 513
0 2048 684
0 2048 855
0 2048 1026
0 2048 1197
0 2048 1368
0 2048 1539
0 2048 1710
0 2048 1881
0 2048 2048
0 2048 2214
0 2047 2385
0 2047 2556
0 2047 2727
0 2047 2898
0 2047 3069
0 2047 3240
0 2047 3411
0 2047 3582
0 2047 3753
0 2047 3924
0 2047 4095
0 2214 0
0 2214 171
0 2214 342
0 2214 513
0 2214 684
0 2214 855
0 2214 1026
0 2214 1197
0 2214 1368
0 2214 1539
0 2214 1710
0 2214 1881
0 2214 2048
0 2214 2214
0 2214 2385
0 2214 2556
0 2214 2727
0 2214 2898
0 2214 3069
0 2214 3240
0 2214 3411
0 2214 3582
0 2214 3753
0 2214 3924
0 2214 4095
0 2385 0
0 2385 171
0 2385 342
0 2385 513
0 2385 684
0 2385 855
0 2385 1026
0 2385 1197
0 2385 1368
0 2385 1539
0 2385 1710
0 2385 1881
0 2385 2048
0 2385 2214
0 2385 2385
0 2385 2556
0 2385 2727
0 2385 2898
0 2385 3069
0 2385 3240
0 2385 3411
0 2385 3582
0 2385 3753
0 2385 3924
0 2385 4095
0 2556 0
0 2556 171
0 2556 342
0 2556 513
0 2556 684
0 2556 855
0 2556 1026
0 2556 1197
0 2556 1368
0 2556 1539
0 2556 1710
0 2556 1881
0 2556 2048
0 2556 2214
0 2556 2385
0 2556 2556
0 2556 2727
0 2556 2898
0 2556 3069
0 2556 3240
0 2556 3411
0 2556 3582
0 2556 3753
0 2556 3924
0 2556 4095
0 2727 0
0 2727 171
0 2727 342
0 2727 513
0 2727 684
0 2727 855
0 2727 1026
0 2727 1197
0 2727 1368
0 2727 1539
0 2727 1710
0 2727 1881
0 2727 2048
0 2727 2214
0 2727 2385
0 2727 2556
0 2727 2727
0 2727 2898
0 2727 3069
0 2727 3240
0 2727 3411
0 2727 3582
0 2727 3753
0 2727 3924
0 2727 4095
0 2898 0
0 2898 171
0 2898 342
0 2898 513
0 2898 684
0 2898 855
0 2898 1026
0 2898 1197
0 2898 1368
0 2898 1539
0 2898 1710
0 2898 1881
0 2898 2048
0 2898 2214
0 2898 2385
0 2898 2556
0 2898 2727
0 2898 2898
0 2898 3069
0 2898 3240
0 2898 3411
0 2898 3582
0 2898 3753
0 2898 3924
0 2898 4095
0 3069 0
0 3069 171
0 3069 342
0 3069 513
0 3069 684
0 3069 855
0 3069 1026
0 3069 1197
0 3069 1368
0 3069 1539
0 3069 1710
0 3069 1881
0 3069 2048
0 3069 2214
0 3069 2385
0 3069 2556
0 3069 2727
0 3069 2898
0 3069 3069
0 3069 3240
0 3069 3411
0 3069 3582
0 3069 3753
0 3069 3924
0 3069 4095
0 3240 0
0 3240 171
0 3240 342
0 3240 513
0 3240 684
0 3240 855
0 3240 1026
0 3240 1197
0 3240 1368
0 3240 1539
0 3240 1710
0 3240 1881
0 3240 2048
0 3240 2214
0 3240 2385
0 3240 2556
0 3240 2727
0 3240 2898
0 3240 3069
0 3240 3240
0 3240 3411
0 3240 3582
0 3240 3753
0 3240 3924
0 3240 4095
0 3411 0
0 3411 171
0 3411 342
0 3411 513
0 3411 684
0 3411 855
0 3411 1026
0 3411 1197
0 3411 1368
0 3411 1539
0 3411 1710
0 3411 1881
0 3411 2048
0 3411 2214
0 3411 2385
0 3411 2556
0 3411 2727
0 3411 2898
0 3411 3069
0 3411 3240
0 3411 3411
0 3411 3582
0 3411 3753
0 3411 3924
0 3411 4095
0 3582 0
0 3582 171
0 3582 342
0 3582 513
0 3582 684
0 3582 855
0 3582 1026
0 3582 1197
0 3582 1368
0 3582 1539
0 3582 1710
0 3582 1881
0 3582 2048
0 3582 2214
0 3582 2385
0 3582 2556
0 3582 2727
0 3582 2898
0 3582 3069
0 3582 3240
0 3582 3411
0 3582 3582
0 3582 3753
0 3582 3924
0 3582 4095
0 3753 0
0 3753 171
0 3753 342
0 3753 513
0 3753 684
0 3753 855
0 3753 1026
0 3753 1197
0 3753 1368
0 3753 1539
0 3753 1710
0 3753 1881
0 3753 2048
0 3753 2214
0 3753 2385
0 3753 2556
0 3753 2727
0 3753 2898
0 3753 3069
0 3753 3240
0 3753 3411
0 3753 3582
0 3753 3753
0 3753 3924
0 3753 4095
0 3924 0
0 3924 171
0 3924 342
0 3924 513
0 3924 684
0 3924 855
0 3924 1026
0 3924 1197
0 3924 1368
0 3924 1539
0 3924 1710
0 3924 1881
0 3924 2048
0 3924 2214
0 3924 2385
0 3924 2556
0 3924 2727
0 3924 2898
0 3924 3069
0 3924 3240
0 3924 3411
0 3924 3582
0 3924 3753
0 3924 3924
0 3924 4095
0 4095 0
0 4095 171
0 4095 342
0 4095 513
0 4095 684
0 4095 855
0 4095 1026
0 4095 1197
0 4095 1368
0 4095 1539
0 4095 1710
0 4095 1881
0 4095 2048
0 4095 2214
0 4095 2385
0 4095 2556
0 4095 2727
0 4095 2898
0 4095 3069
0 4095 3240
0 4095 3411
0 4095 3582
0 4095 3753
0 4095 3924
0 4095 4095
171 0 0
171 0 171
171 0 342
171 0 513
171 0 684
171 0 855
171 0 1026
171 0 1197
171 0 1368
171 0 1539
171 0 1710
171 0 1881
171 0 2047
171 0 2214
171 0 2385
171 0 2556
171 0 2727
171 0 2898
171 0 3069
171 0 3240
171 0 3411
171 0 3582
171 0 3753
171 0 3924
171 0 4095
173 167 0
173 167 171
173 167 342
173 167 513
173 167 684
173 167 855
173 167 1026
173 167 1197
173 167 1368
173 167 1539
173 167 1710
173 167 1881
173 167 2048
173 167 2214
173 167 2385
173 167 2556
173 167 2727
173 167 2898
173 167 3069
173 167 3240
173 167 3411
173 167 3582
173 167 3753
173 167 3924
173 167 4095
173 337 0
173 337 171
173 337 342
173 337 513
173 337 684
173 337 855
173 337 1026
173 337 1197
173 337 1368
173 337 1539
173 337 1710
173 337 1881
173 337 2048
173 337 2214
173 337 2385
173 337 2556
173 337 2727
173 337 2898
173 337 3069
173 337 3240
173 337 3411
173 337 3582
173 337 3753
173 337 3924
173 337 4095
173 504 0
173 504 171
173 504 342
173 504 513
173 504 684
173 504 855
173 504 1026
173 504 1197
173 504 1368
173 504 1539
173 504 1710
173 504 1881
173 504 2048
173 504 2214
173 504 2385
173 504 2556
173 504 2727
173 504 2898
173 504 3069
173 504 3240
173 504 3411
173 504 3582
173 504 3753
173 504 3924
173 504 4095
173 678 0
173 678 171
173 678 342
173 678 513
173 678 684
173 678 855
173 678 1026
173 678 1197
173 678 1368
173 678 1539
173 678 1710
173 678 1881
173 678 2048
173 678 2214
173 678 2385
173 678 2556
173 678 2727
173 678 2898
173 678 3069
173 678 3240
173 678 3411
173 678 3582
173 678 3753
173 678 3924
173 678 4095
171 855 0
171 855 171
171 855 342
171 855 513
171 855 684
171 855 855
171 855 1026
171 855 1197
171 855 1368
171 855 1539
171 855 1710
171 855 1881
171 855 2048
171 855 2214
171 855 2385
171 855 2556
171 855 2727
171 855 2898
171 855 3069
171 855 3240
171 855 3411
171 855 3582
171 855 3753
171 855 3924
171 855 4095
171 1026 0
171 1026 171
171 1026 342
171 1026 513
171 1026 684
171 1026 855
171 1026 1026
171 1026 1197
171 1026 1368
171 1026 1539
171 1026 1710
171 1026 1881
171 1026 2048
171 1026 2214
171 1026 2385
171 1026 2556
171 1026 2727
171 1026 2898
171 1026 3069
171 1026 3240
171 1026 3411
171 1026 3582
171 1026 3753
171 1026 3924
171 1026 4095
171 1197 0
171 1197 171
171 1197 342
171 1197 513
171 1197 684
171 1197 855
171 1197 1026
171 1197 1197
171 1197 1368
171 1197 1539
171 1197 1710
171 1197 1881
171 1197 2048
171 1197 2214
171 1197 2385
171 1197 2556
171 1197 2727
171 1197 2898
171 1197 3069
171 1197 3240
171 1197 3411
171 1197 3582
171 1197 3753
171 1197 3924
171 1197 4095
171 1368 0
171 1368 171
171 1368 342
171 1368 513
171 1368 684
171 1368 855
171 1368 1026
171 1368 1197
171 1368 1368
171 1368 1539
171 1368 1710
171 1368 1881
171 1368 2048
171 1368 2214
171 1368 2385
171 1368 2556
171 1368 2727
171 1368 2898
171 1368 3069
171 1368 3240
171 1368 3411
171 1368 3582
171 1368 3753
171 1368 3924
171 1368 4095
171 1539 0
171 1539 171
171 1539 342
171 1539 513
171 1539 684
171 1539 855
171 1539 1026
171 1539 1197
171 1539 1368
171 1539 1539
171 1539 1710
171 1539 1881
171 1539 2048
171 1539 2214
171 1539 2385
171 1539 2556
171 1539 2727
171 1539 2898
171 1539 3069
171 1539 3240
171 1539 3411
171 1539 3582
171 1539 3753
171 1539 3924
171 1539 4095
171 1710 0
171 1710 171
171 1710 342
171 1710 513
171 1710 684
171 1710 855
171 1710 1026
171 1710 1197
171 1710 1368
171 1710 1539
171 1710 1710
171 1710 1881
171 1710 2048
171 1710 2214
171 1710 2385
171 1710 2556
171 1710 2727
171 1710 2898
171 1710 3069
171 1710 3240
171 1710 3411
171 1710 3582
171 1710 3753
171 1710 3924
171 1710 4095
