Examples/2D - Darker & Moderate.3dl
#25pt 3DLUT created by 3D LUT Creator Pro (c) Oleg Sharonov
#Copyright Oleg Sharonov
0 256 512 768 1023
0 0 0
0 209 367
0 421 728
0 630 1095
0 839 1459
0 240 0
0 399 441
0 563 729
0 752 1034
0 980 1426
0 476 0
0 641 575
0 796 880
0 962 1168
0 1125 1457
0 716 0
0 920 641
0 1029 1036
0 1190 1318
0 1357 1608
3 958 3
0 1184 654
0 1279 1148
0 1423 1472
3 1589 1762
1025 0 0
983 329 571
980 538 935
989 747 1298
1003 957 1663
895 634 0
1027 1027 1027
996 1180 1353
993 1386 1715
995 1604 2086
892 872 0
949 1211 880
1017 1374 1398
1001 1549 1722
996 1751 2064
894 1111 0
930 1445 873
984 1573 1365
1016 1740 1795
1005 1909 2101
905 1343 0
925 1688 894
964 1814 1382
1010 1947 1828
1018 2117 2203
2048 0 0
1965 328 570
1963 655 1139
1963 864 1503
1962 1075 1866
1788 633 0
2049 1023 1023
1985 1350 1592
1966 1525 1932
1961 1726 2292
1785 1261 0
1854 1653 1020
2048 2048 2048
2011 2177 2361
1995 2359 2708
1785 1498 0
1809 1859 934
1950 2205 1843
2042 2392 2413
2017 2569 2753
1786 1739 0
1786 2086 908
1901 2415 1766
1987 2569 2303
2039 2747 2793
3069 0 0
3006 328 571
2942 655 1138
2941 981 1705
2943 1195 2071
2873 633 0
3068 1024 1024
2983 1351 1592
2950 1678 2160
2940 1869 2513
2676 1261 0
2805 1654 1021
3069 2047 2047
3006 2373 2617
2978 2531 2945
2677 1892 0
2705 2285 1024
2874 2679 2047
3068 3068 3068
3027 3185 3371
2677 2133 3
2679 2505 971
2803 2862 1907
2958 3216 2827
3064 3412 3433
4095 0 0
4062 329 572
3926 655 1138
3924 981 1705
3926 1310 2277
3990 634 0
4095 1026 1026
4006 1352 1594
3946 1679 2161
3927 2008 2734
3571 1261 0
3819 1655 1023
4095 2048 2048
4016 2373 2617
3971 2703 3186
3571 1892 0
3638 2287 1024
3852 2679 2047
4094 3069 3069
4030 3397 3638
3572 2527 0
3573 2920 1024
3711 3310 2046
3896 3700 3069
4095 4095 4095
