Examples/2D - Desaturate.3dl
#25pt 3DLUT created by 3D LUT Creator Pro (c) Oleg Sharonov
#Copyright Oleg Sharonov
0 128 256 384 512 640 768 896 1023
0 0 0
0 134 426
0 268 847
0 405 1274
0 539 1698
0 674 2120
0 811 2545
0 944 2968
0 1080 3394
0 313 98
0 396 448
0 510 813
0 642 1225
0 777 1667
0 919 2118
0 1054 2576
0 1179 2991
0 1307 3407
0 626 199
0 693 548
0 789 890
0 889 1242
0 989 1593
0 1107 1973
0 1233 2400
0 1361 2831
0 1491 3267
0 943 298
0 1011 665
0 1066 966
0 1160 1310
0 1249 1652
0 1344 1997
0 1434 2339
0 1537 2691
0 1654 3102
0 1254 399
0 1330 775
0 1351 1061
0 1430 1379
0 1515 1717
0 1595 2051
0 1683 2386
0 1763 2720
0 1848 3058
0 1565 496
0 1642 866
0 1653 1168
0 1698 1447
0 1771 1772
0 1849 2102
0 1923 2426
0 1995 2752
0 2072 3080
0 1878 598
0 1946 959
0 1961 1274
0 1970 1535
0 2034 1835
0 2100 2152
0 2169 2471
0 2232 2785
0 2298 3107
0 2188 695
0 2246 1046
0 2265 1369
0 2268 1641
0 2291 1892
0 2354 2206
0 2411 2514
0 2467 2820
3 2527 3133
2 2502 799
2 2549 1135
0 2573 1463
0 2562 1734
0 2557 1983
0 2603 2256
0 2653 2556
3 2702 2854
3 2751 3156
259 27 8
317 158 423
314 292 841
318 434 1283
325 576 1730
340 719 2176
358 860 2616
374 999 3050
386 1136 3484
301 324 101
512 512 512
443 525 933
410 624 1330
393 753 1728
390 905 2135
394 1063 2543
402 1218 2965
411 1354 3404
310 617 196
447 878 522
452 923 953
428 951 1324
416 1039 1694
414 1157 2074
420 1287 2459
429 1423 2859
438 1548 3281
303 958 303
408 1181 603
424 1225 972
434 1299 1370
430 1337 1718
432 1409 2050
440 1509 2393
450 1626 2773
460 1741 3176
306 1308 416
389 1473 713
412 1514 1057
425 1577 1402
437 1657 1776
445 1697 2105
458 1766 2422
469 1844 2742
479 1945 3103
317 1664 528
382 1754 829
407 1788 1158
427 1831 1463
440 1911 1807
457 1993 2160
472 2033 2468
488 2096 2783
500 2176 3119
328 1989 633
379 2034 957
405 2055 1271
428 2088 1557
443 2144 1854
460 2222 2185
480 2302 2520
496 2345 2820
511 2417 3148
335 2310 735
377 2321 1073
404 2329 1377
433 2357 1662
452 2385 1927
471 2461 2234
491 2528 2546
509 2596 2863
523 2658 3180
345 2635 841
387 2657 1176
416 2653 1477
445 2668 1757
466 2684 2023
484 2723 2289
505 2789 2598
523 2844 2901
537 2900 3210
518 54 17
627 188 440
664 324 862
687 460 1281
700 594 1702
716 738 2150
741 883 2600
765 1027 3051
786 1171 3506
593 360 113
874 484 493
895 543 947
835 647 1343
807 783 1741
798 940 2147
805 1101 2553
822 1258 2972
845 1395 3411
616 664 211
889 893 530
1024 1024 1024
961 1009 1463
925 1060 1875
907 1147 2280
905 1254 2681
885 1462 2962
896 1620 3338
638 968 306
823 1187 602
962 1424 1011
969 1453 1476
942 1452 1880
929 1503 2274
931 1579 2659
921 1711 2917
936 1839 3272
654 1267 403
786 1479 711
922 1773 1052
940 1810 1474
952 1861 1913
948 1870 2296
954 1911 2657
953 1960 2886
972 2064 3226
660 1620 514
765 1762 827
896 2093 1121
923 2134 1513
942 2186 1915
959 2247 2332
973 2259 2691
984 2232 2907
1005 2294 3205
671 1982 630
756 2050 956
881 2400 1209
913 2442 1579
940 2484 1945
960 2548 2337
985 2610 2729
1002 2512 2945
1031 2551 3240
683 2340 745
761 2351 1077
841 2484 1373
884 2531 1689
925 2578 1994
954 2646 2312
987 2720 2646
1020 2794 2988
1048 2803 3268
701 2709 862
779 2697 1183
846 2733 1499
892 2771 1796
936 2812 2081
972 2858 2364
1010 2935 2672
1043 2999 2984
1075 3068 3307
774 81 25
935 222 464
987 359 889
1044 501 1320
1089 638 1748
1125 776 2174
1157 914 2604
1194 1055 3048
1229 1202 3505
889 422 133
1175 517 517
1230 597 945
1261 688 1384
1233 827 1778
1229 983 2176
1239 1150 2587
1267 1311 3006
1304 1449 3447
920 717 228
1215 869 566
1430 991 1002
1444 1027 1478
1393 1087 1900
1370 1185 2312
1366 1301 2722
1341 1528 3019
1366 1695 3404
952 1028 326
1226 1234 624
1439 1440 1022
1536 1536 1536
1485 1516 1990
1458 1548 2422
1427 1627 2784
1411 1777 3073
1423 1943 3377
985 1342 427
1188 1522 727
1382 1794 1065
1485 1961 1520
1493 1983 2001
1473 1975 2429
1452 1997 2785
1446 2070 3060
1467 2188 3350
1018 1653 524
1164 1784 834
1343 2121 1136
1450 2340 1540
1468 2371 1991
1484 2412 2451
1475 2375 2806
1482 2371 3064
1511 2435 3336
1042 1965 625
1155 2080 965
1323 2437 1226
1404 2600 1601
1436 2645 2004
1464 2701 2417
1489 2758 2837
1509 2685 3100
1548 2694 3354
1060 2335 743
1160 2392 1090
1260 2545 1397
1355 2727 1713
1403 2786 2060
1452 2851 2405
1488 2929 2769
1531 3004 3140
1574 2962 3384
1082 2708 862
1182 2745 1198
1262 2806 1525
1341 2880 1846
1398 2941 2150
1461 3009 2455
1510 3085 2764
1559 3162 3091
1605 3236 3421
1033 111 35
1215 256 490
1317 394 915
1383 538 1355
1455 680 1796
1520 820 2227
1588 960 2666
1635 1100 3102
1682 1240 3538
1168 473 149
1447 564 549
1550 664 969
1595 772 1403
1647 883 1841
1659 1045 2246
1685 1210 2649
1721 1369 3060
1773 1507 3494
1225 768 243
1517 902 612
1797 1006 1018
1833 1063 1474
1860 1124 1938
1840 1228 2355
1839 1350 2766
1807 1598 3085
1844 1775 3481
1273 1098 348
1540 1234 679
1823 1413 1048
1969 1506 1517
1981 1533 2006
1947 1576 2448
1909 1676 2831
1885 1854 3148
1907 2044 3477
1311 1418 450
1569 1588 758
1834 1834 1088
1977 1977 1532
2048 2048 2048
2003 2028 2505
1969 2058 2904
1949 2151 3223
1962 2312 3475
1353 1740 553
1547 1870 869
1793 2169 1160
1932 2367 1560
2000 2476 2032
2012 2498 2516
1988 2472 2914
1983 2495 3231
2008 2574 3474
1394 2061 655
1548 2147 990
1769 2479 1247
1867 2647 1631
1950 2802 2049
1980 2845 2489
2003 2892 2938
2014 2842 3254
2054 2844 3481
1436 2390 761
1566 2435 1107
1691 2611 1428
1803 2804 1757
1901 2995 2114
1954 3059 2497
1997 3129 2887
2038 3198 3287
2093 3126 3515
1472 2714 864
1594 2798 1217
1694 2890 1562
1784 2983 1900
1871 3075 2227
1947 3159 2550
2015 3237 2868
2072 3327 3210
2131 3411 3551
1289 138 43
1489 289 515
1643 427 942
1723 574 1391
1807 720 1838
1889 864 2284
1976 1007 2729
2059 1150 3173
2079 1291 3616
1439 523 166
1702 621 585
1836 733 1009
1919 849 1434
1988 975 1871
2062 1101 2314
2108 1277 2733
2173 1442 3154
2213 1576 3586
1533 842 266
1792 954 660
2135 1044 1050
2206 1120 1497
2246 1197 1952
2291 1278 2411
2302 1410 2837
2274 1677 3174
2322 1855 3569
1583 1154 366
1841 1264 731
2182 1435 1095
2376 1520 1535
2406 1563 2007
2431 1611 2484
2390 1732 2888
2362 1933 3226
2391 2140 3572
1639 1495 474
1886 1615 823
2205 1826 1141
2396 1959 1557
2488 2022 2033
2501 2048 2524
2458 2103 2946
2433 2231 3298
2451 2432 3594
1690 1828 581
1922 1956 910
2228 2228 1196
2407 2405 1585
2497 2496 2047
2559 2559 2559
2516 2541 3010
2493 2583 3382
2505 2706 3631
1739 2158 686
1924 2249 1033
2203 2558 1286
2331 2709 1669
2432 2847 2082
2509 2974 2544
2527 3001 3021
2520 2973 3396
2555 3003 3647
1792 2498 796
1949 2553 1150
2111 2707 1474
2251 2886 1807
2367 3076 2168
2462 3256 2566
2509 3314 2991
2545 3371 3422
2600 3301 3670
1844 2837 904
2000 2889 1254
2126 2971 1603
2229 3088 1958
2326 3197 2302
2425 3343 2645
2504 3429 2989
2575 3521 3346
2638 3605 3703
1546 165 51
1756 320 537
1960 465 981
2064 611 1426
2168 761 1883
2266 907 2337
2369 1055 2797
2392 1203 3250
2433 1345 3701
1706 561 178
1944 678 620
2110 805 1054
2241 929 1475
2329 1065 1916
2423 1203 2363
2522 1339 2810
2545 1510 3244
2572 1646 3684
1844 912 288
2058 1018 706
2456 1099 1092
2555 1189 1537
2623 1276 1983
2685 1371 2440
2755 1466 2902
2714 1759 3274
2700 1944 3685
1902 1219 388
2141 1335 788
2523 1481 1149
2688 1562 1577
2757 1634 2026
2805 1713 2486
2856 1788 2948
2828 2022 3325
2819 2246 3693
1964 1569 497
2186 1661 879
2561 1853 1200
2731 1966 1618
2866 2040 2059
2907 2096 2525
2944 2153 2996
2917 2316 3386
2935 2550 3713
2026 1914 609
2243 2008 980
2597 2245 1266
2756 2366 1661
2892 2467 2087
2995 2538 2552
3016 2570 3038
2987 2652 3447
2998 2835 3754
2088 2261 719
2296 2352 1075
2631 2636 1327
2784 2777 1711
2908 2901 2119
3007 3004 2568
3071 3071 3071
3040 3062 3516
3053 3136 3841
2150 2609 831
2325 2666 1195
2518 2823 1531
2691 3000 1869
2836 3173 2230
2948 3331 2620
3031 3473 3063
3055 3507 3529
3092 3480 3858
2190 2958 943
2388 3014 1300
2539 3106 1662
2670 3217 2025
2787 3329 2384
2896 3480 2737
3005 3683 3099
3071 3760 3492
3125 3830 3883
1800 191 60
2027 352 558
2257 502 1017
2409 648 1464
2530 805 1933
2644 953 2392
2673 1105 2862
2726 1255 3325
2789 1400 3783
1970 602 191
2197 737 653
2392 870 1098
2565 1000 1528
2680 1144 1971
2790 1287 2420
2839 1435 2877
2872 1578 3327
2927 1716 3776
2153 979 310
2330 1085 746
2569 1193 1163
2724 1320 1598
2855 1444 2027
2952 1574 2467
3038 1710 2920
3049 1838 3363
3056 2032 3789
2222 1306 415
2450 1413 838
2671 1541 1245
2887 1649 1653
3010 1765 2089
3102 1876 2522
3193 1994 2971
3219 2108 3416
3179 2351 3810
2291 1645 522
2504 1728 929
2750 1875 1319
2963 2011 1719
3151 2115 2132
3242 2212 2571
3313 2308 3021
3366 2396 3467
3295 2670 3838
2361 2001 636
2570 2078 1034
2803 2215 1406
3018 2360 1783
3209 2495 2185
3357 2580 2601
3417 2654 3058
3470 2723 3515
3415 2963 3877
2432 2357 750
2636 2430 1138
2865 2579 1498
3069 2734 1859
3245 2875 2236
3392 2991 2635
3506 3065 3079
3538 3107 3556
3535 3247 3943
2457 2718 865
2671 2790 1245
2915 2941 1588
3123 3108 1934
3290 3270 2295
3421 3408 2674
3525 3520 3100
3583 3583 3583
3582 3600 4015
2481 3081 981
2674 3142 1346
2857 3240 1727
3024 3358 2101
3190 3485 2478
3358 3625 2834
3485 3803 3187
3567 3964 3588
3603 4010 4027
2057 218 68
2295 382 576
2549 540 1051
2750 690 1505
2887 846 1976
2926 996 2445
2979 1150 2922
3056 1304 3395
3147 1453 3865
2233 640 204
2487 784 680
2701 923 1136
2896 1060 1581
3047 1201 2022
3107 1347 2481
3136 1496 2946
3202 1645 3408
3286 1781 3863
2442 1040 330
2639 1149 777
2825 1277 1219
3008 1415 1661
3176 1549 2093
3282 1690 2532
3285 1843 2990
3337 1983 3440
3419 2115 3886
2543 1390 442
2774 1498 877
2943 1627 1310
3109 1764 1742
3271 1903 2172
3415 2040 2595
3429 2182 3040
3466 2321 3481
3546 2449 3916
2616 1715 545
2851 1828 969
3055 1967 1399
3209 2109 1826
3354 2245 2246
3503 2387 2667
3583 2524 3097
3589 2655 3528
3664 2783 3953
2691 2082 662
2925 2171 1072
3116 2288 1485
3296 2437 1905
3442 2581 2323
3598 2710 2723
3730 2846 3150
3731 2972 3575
3791 3087 3993
2708 2457 783
2930 2533 1180
3137 2649 1585
3339 2780 1991
3515 2914 2397
3679 3063 2793
3848 3165 3177
3906 3269 3613
3935 3358 4043
2737 2827 899
2942 2904 1291
3132 3014 1686
3314 3142 2085
3487 3270 2480
3680 3410 2858
3899 3544 3227
4022 3618 3623
4045 3675 4080
2777 3199 1019
2970 3269 1397
3155 3375 1786
3329 3497 2175
3493 3625 2560
3676 3769 2927
3875 3925 3272
4027 4044 3648
4095 4095 4095
