Examples/2D - Calm blues.3dl
#25pt 3DLUT created by 3D LUT Creator Pro (c) Oleg Sharonov
#Copyright Oleg Sharonov
#IMAGEPROFILE sRGB IEC61966-2.1 v.2.10
#INPUTGAMMA sRGB IEC61966-2.1 v.2.10
#OUTPUTGAMMA sRGB IEC61966-2.1 v.2.10
0 43 86 128 171 214 256 299 341 384 427 469 512 555 597 640 682 725 768 810 853 896 938 981 1023 
0 0 0
39 48 74
74 93 143
109 141 213
145 189 283
182 235 352
218 282 424
254 329 496
289 374 563
327 422 635
362 470 706
398 518 778
435 565 850
472 612 922
507 658 992
543 705 1062
580 752 1134
616 798 1205
651 846 1276
688 895 1348
725 941 1418
761 987 1487
796 1034 1558
833 1080 1630
870 1128 1700
49 134 0
77 148 149
100 200 225
123 250 300
148 303 372
177 353 443
213 400 514
248 447 586
283 493 655
320 539 726
355 586 798
391 634 869
427 681 940
464 728 1012
499 774 1081
534 821 1151
571 869 1222
608 916 1294
643 964 1366
679 1013 1437
716 1059 1507
752 1105 1576
787 1152 1649
824 1198 1721
861 1246 1790
97 265 0
127 283 152
153 294 296
174 347 373
197 399 449
221 451 522
246 504 595
269 554 667
295 605 742
321 656 817
353 704 889
387 749 959
424 797 1030
460 844 1101
495 890 1171
530 937 1241
567 985 1312
603 1033 1383
637 1081 1454
674 1130 1526
710 1176 1596
746 1222 1665
781 1269 1738
818 1315 1811
855 1363 1881
144 402 0
173 416 151
202 430 305
226 443 446
247 495 522
270 547 598
294 600 672
316 651 744
341 701 818
366 752 891
391 804 966
415 854 1039
441 906 1113
467 957 1187
492 1008 1261
527 1054 1331
564 1103 1403
600 1151 1474
634 1197 1543
670 1245 1615
707 1291 1686
742 1338 1756
777 1384 1827
813 1431 1900
850 1477 1971
191 537 0
220 549 150
251 569 303
276 576 457
301 591 595
323 645 673
344 696 748
367 748 822
390 800 896
414 850 968
439 902 1043
462 952 1115
487 1003 1188
513 1054 1262
538 1105 1336
562 1156 1411
589 1209 1486
615 1261 1560
639 1312 1633
668 1362 1705
704 1408 1775
740 1454 1847
774 1501 1918
810 1547 1990
847 1594 2060
240 670 0
267 679 149
299 701 302
326 714 456
352 722 610
378 739 745
399 793 822
419 845 898
442 896 972
466 950 1047
490 1003 1121
513 1054 1195
538 1104 1268
563 1155 1342
587 1204 1416
611 1254 1489
637 1305 1562
662 1357 1636
686 1408 1710
711 1459 1783
737 1511 1856
762 1563 1929
786 1613 2004
812 1664 2078
845 1713 2149
288 803 0
315 812 149
346 832 301
375 851 455
401 859 610
428 867 761
453 887 893
473 940 970
494 992 1047
517 1046 1121
540 1100 1196
563 1152 1270
588 1204 1347
613 1255 1421
636 1304 1495
659 1354 1568
685 1404 1640
709 1454 1712
733 1504 1786
758 1555 1860
783 1607 1933
808 1659 2005
832 1710 2078
858 1761 2153
883 1813 2226
334 937 0
361 945 149
392 963 300
421 983 453
449 996 608
476 1005 761
502 1013 913
526 1034 1042
547 1086 1118
569 1140 1195
591 1193 1269
613 1246 1344
637 1299 1422
662 1352 1498
685 1402 1572
709 1452 1644
733 1503 1716
757 1553 1788
781 1603 1862
805 1652 1936
830 1703 2010
854 1755 2082
878 1808 2155
903 1859 2228
929 1909 2301
382 1071 0
410 1079 149
439 1093 299
470 1114 452
500 1133 606
528 1142 761
554 1150 914
579 1157 1065
603 1181 1190
625 1235 1267
646 1287 1344
666 1340 1419
690 1394 1497
713 1447 1574
736 1498 1648
760 1551 1722
784 1604 1795
808 1654 1867
831 1703 1940
855 1753 2014
879 1804 2088
903 1854 2162
926 1906 2234
951 1958 2306
976 2008 2378
431 1206 0
459 1214 149
487 1225 299
518 1247 451
549 1266 605
578 1280 760
605 1288 915
631 1295 1067
658 1303 1218
683 1329 1339
703 1382 1416
723 1434 1492
745 1488 1571
768 1542 1648
789 1594 1722
812 1646 1796
836 1700 1870
860 1754 1945
883 1806 2020
906 1856 2094
930 1905 2167
953 1955 2241
976 2005 2312
1000 2056 2384
1024 2105 2455
478 1341 0
505 1348 149
532 1356 298
563 1378 450
593 1398 603
624 1418 758
651 1425 912
676 1432 1066
703 1440 1218
731 1448 1369
755 1476 1487
775 1528 1564
797 1583 1642
820 1636 1719
840 1688 1793
862 1741 1868
885 1793 1942
909 1847 2017
932 1901 2093
956 1954 2169
981 2005 2244
1005 2055 2318
1026 2102 2388
1049 2151 2458
1072 2199 2529
525 1474 0
552 1481 149
579 1489 298
608 1509 449
639 1529 603
670 1549 756
699 1562 910
724 1569 1064
750 1577 1217
778 1585 1369
804 1593 1521
827 1622 1635
849 1677 1713
871 1730 1790
891 1782 1865
913 1835 1939
936 1888 2014
959 1940 2090
982 1994 2166
1005 2047 2242
1029 2098 2316
1051 2147 2389
1073 2197 2460
1096 2245 2531
1120 2293 2602
573 1607 0
601 1615 149
627 1623 298
656 1639 448
687 1660 602
719 1681 755
749 1699 908
774 1706 1063
801 1714 1217
828 1722 1370
854 1730 1521
880 1737 1673
904 1771 1785
926 1824 1862
946 1875 1937
967 1928 2011
990 1983 2086
1012 2035 2162
1033 2087 2240
1055 2137 2313
1077 2187 2386
1098 2236 2459
1120 2288 2531
1143 2338 2603
1167 2384 2671
622 1740 0
649 1748 149
676 1756 298
704 1770 448
735 1792 601
767 1813 754
797 1832 907
824 1844 1062
851 1852 1216
878 1860 1370
904 1868 1522
929 1875 1673
957 1885 1827
980 1920 1934
1000 1970 2009
1020 2022 2084
1043 2077 2159
1063 2128 2233
1083 2176 2308
1104 2225 2383
1126 2275 2455
1147 2325 2528
1168 2377 2601
1191 2427 2670
1215 2474 2739
669 1873 0
696 1881 149
723 1890 298
750 1901 447
782 1923 600
814 1945 753
845 1965 907
874 1982 1061
901 1990 1215
928 1998 1369
953 2006 1522
978 2013 1673
1006 2022 1827
1033 2031 1981
1054 2066 2082
1073 2116 2157
1093 2166 2230
1113 2217 2303
1132 2266 2378
1152 2315 2452
1173 2365 2525
1194 2415 2598
1216 2465 2669
1239 2513 2737
1262 2562 2807
716 2006 0
743 2014 149
770 2022 298
796 2030 447
827 2053 599
860 2075 752
891 2095 906
920 2114 1060
949 2127 1214
976 2136 1367
1001 2143 1520
1026 2150 1672
1054 2158 1826
1081 2167 1979
1104 2169 2131
1123 2205 2224
1143 2255 2298
1163 2305 2373
1182 2354 2447
1202 2404 2521
1223 2454 2594
1243 2504 2667
1265 2553 2736
1287 2602 2806
1311 2651 2876
764 2139 0
791 2147 149
818 2156 298
843 2163 446
874 2184 599
906 2206 751
937 2227 904
966 2246 1058
997 2265 1212
1024 2274 1366
1049 2281 1518
1074 2288 1672
1100 2293 1825
1125 2295 1979
1148 2297 2131
1172 2299 2282
1193 2343 2365
1212 2394 2440
1232 2443 2515
1252 2494 2589
1273 2546 2662
1294 2594 2732
1315 2642 2802
1338 2691 2873
1363 2739 2944
812 2273 0
839 2281 149
866 2289 298
891 2297 446
920 2315 598
952 2338 750
983 2359 903
1013 2378 1057
1043 2398 1211
1072 2411 1364
1097 2418 1517
1120 2417 1670
1146 2419 1826
1171 2422 1980
1194 2424 2131
1219 2428 2283
1244 2433 2433
1264 2482 2508
1282 2533 2583
1302 2584 2657
1324 2636 2729
1344 2684 2798
1365 2732 2869
1387 2781 2940
1410 2829 3011
859 2406 0
886 2415 149
912 2423 298
938 2431 446
966 2445 597
998 2468 749
1029 2490 902
1059 2510 1056
1089 2529 1209
1118 2543 1363
1141 2542 1515
1164 2542 1669
1190 2545 1826
1216 2549 1980
1240 2552 2131
1265 2556 2283
1291 2560 2435
1316 2572 2575
1335 2622 2650
1355 2673 2726
1376 2724 2796
1396 2774 2866
1416 2823 2937
1438 2872 3009
1460 2920 3079
907 2539 0
934 2548 149
960 2556 298
986 2564 446
1013 2575 597
1045 2599 748
1077 2621 901
1106 2641 1055
1134 2653 1208
1162 2662 1362
1187 2666 1515
1210 2668 1669
1236 2672 1826
1262 2676 1981
1286 2679 2132
1311 2684 2283
1338 2689 2435
1364 2694 2587
1387 2712 2718
1407 2761 2791
1428 2810 2863
1449 2861 2934
1469 2911 3005
1491 2961 3077
1512 3010 3148
955 2672 0
982 2681 149
1009 2689 298
1034 2697 446
1060 2705 596
1093 2729 748
1124 2750 901
1151 2762 1054
1178 2773 1207
1206 2783 1361
1232 2790 1516
1256 2793 1669
1283 2797 1826
1309 2802 1982
1333 2807 2133
1358 2812 2284
1385 2818 2436
1411 2823 2587
1436 2829 2736
1460 2849 2857
1481 2899 2929
1501 2948 3001
1522 2999 3073
1543 3050 3145
1565 3100 3216
1003 2807 0
1030 2816 149
1056 2824 298
1082 2832 446
1108 2840 596
1138 2859 747
1167 2875 900
1194 2887 1053
1221 2897 1206
1249 2907 1360
1276 2914 1514
1302 2919 1669
1329 2924 1825
1355 2929 1981
1380 2934 2133
1405 2940 2284
1432 2946 2436
1458 2952 2588
1483 2959 2732
1508 2967 2875
1533 2988 2996
1553 3038 3069
1573 3088 3141
1594 3139 3213
1618 3191 3285
1049 2943 0
1076 2951 149
1103 2959 298
1128 2967 446
1154 2975 595
1183 2989 747
1211 3003 899
1238 3013 1052
1265 3023 1205
1292 3032 1359
1319 3039 1513
1345 3046 1667
1373 3052 1824
1400 3058 1980
1425 3063 2132
1451 3069 2285
1479 3075 2437
1506 3081 2584
1531 3089 2728
1556 3097 2872
1582 3105 3016
1606 3127 3135
1625 3177 3208
1646 3228 3281
1667 3280 3353
1098 3076 0
1125 3085 149
1151 3093 298
1177 3101 446
1203 3109 595
1230 3119 746
1258 3130 898
1284 3139 1051
1310 3148 1204
1338 3157 1358
1364 3165 1512
1390 3172 1666
1417 3179 1823
1444 3186 1978
1470 3192 2131
1496 3199 2285
1524 3206 2436
1551 3212 2580
1576 3220 2725
1603 3227 2869
1629 3235 3013
1655 3243 3157
1678 3267 3275
1699 3317 3348
1720 3368 3420
1149 3210 3
1176 3219 152
1202 3227 298
1228 3235 448
1253 3243 596
1278 3250 745
1305 3259 898
1332 3267 1051
1356 3275 1203
1384 3283 1357
1410 3290 1511
1438 3298 1665
1463 3305 1821
1490 3313 1977
1516 3321 2130
1542 3328 2283
1569 3336 2431
1596 3344 2576
1622 3351 2721
1652 3361 2867
1677 3368 3011
1703 3376 3155
1728 3384 3299
1755 3409 3417
1774 3459 3489
168 0 0
160 53 82
192 99 152
227 147 222
264 196 292
302 244 366
339 289 434
376 335 505
413 382 576
449 429 645
486 479 718
521 525 789
556 572 861
594 620 934
629 665 1002
665 712 1073
702 759 1144
738 805 1215
773 853 1287
810 902 1359
847 948 1428
883 994 1497
918 1041 1569
955 1087 1640
992 1135 1710
171 171 0
172 172 172
200 220 245
232 267 316
265 314 385
299 361 454
336 408 525
372 455 597
408 501 668
444 546 737
479 593 808
515 641 879
549 688 950
586 735 1022
621 781 1091
657 828 1162
694 877 1234
730 923 1305
765 971 1376
802 1020 1448
839 1066 1517
874 1112 1587
910 1159 1660
946 1205 1732
984 1253 1800
220 304 0
219 303 174
249 320 321
268 374 399
289 425 473
311 477 546
338 529 618
372 574 687
407 620 759
444 667 830
478 713 901
513 759 972
547 805 1041
583 852 1112
617 898 1181
653 944 1251
689 992 1322
726 1040 1394
761 1089 1465
796 1137 1536
834 1183 1607
869 1230 1676
904 1276 1749
940 1322 1822
977 1370 1891
266 438 0
266 438 174
296 454 325
323 469 470
342 521 546
363 574 623
387 627 697
409 677 768
434 727 842
459 780 917
484 832 991
513 879 1062
547 926 1133
582 972 1204
616 1018 1274
651 1064 1344
688 1112 1415
723 1159 1485
758 1205 1555
793 1252 1626
830 1298 1697
865 1345 1767
900 1391 1838
936 1438 1911
973 1484 1981
313 573 0
314 573 174
344 590 326
372 603 478
397 617 619
417 670 696
439 722 773
461 773 846
484 825 919
509 877 993
533 929 1067
556 979 1140
580 1031 1214
605 1083 1289
629 1133 1363
654 1184 1437
687 1233 1508
723 1280 1579
757 1326 1649
792 1371 1717
828 1417 1787
863 1463 1858
898 1508 1929
934 1555 2001
968 1601 2070
362 708 0
363 708 173
392 725 325
422 742 478
448 751 631
474 766 770
494 819 846
516 871 923
538 924 997
562 976 1070
585 1029 1144
607 1079 1218
630 1129 1291
655 1180 1366
678 1231 1440
702 1281 1513
727 1332 1587
752 1384 1661
776 1435 1735
801 1486 1808
828 1538 1880
863 1584 1950
897 1630 2021
933 1675 2092
969 1723 2161
410 841 0
410 841 173
440 858 325
470 875 477
497 887 630
524 897 783
550 915 919
570 967 996
591 1019 1072
614 1074 1147
636 1127 1220
659 1178 1294
681 1229 1370
705 1280 1445
728 1330 1519
751 1380 1592
776 1431 1664
800 1481 1736
824 1531 1811
848 1582 1885
873 1634 1957
898 1686 2030
922 1737 2103
948 1788 2178
974 1840 2251
457 975 0
457 975 172
487 991 324
517 1008 476
545 1024 630
571 1033 783
599 1042 934
625 1062 1068
645 1114 1143
667 1166 1220
688 1220 1294
710 1273 1370
732 1325 1446
756 1377 1521
778 1426 1594
800 1477 1667
825 1529 1740
848 1579 1812
871 1629 1886
895 1680 1961
920 1730 2035
944 1782 2107
968 1835 2179
994 1886 2253
1019 1937 2326
506 1108 0
506 1108 172
536 1123 323
566 1141 476
595 1157 630
622 1169 783
650 1180 936
677 1188 1087
701 1210 1217
722 1263 1294
743 1315 1370
763 1368 1446
785 1420 1522
808 1473 1599
830 1524 1672
852 1577 1746
876 1629 1818
899 1680 1891
922 1730 1964
945 1780 2038
970 1830 2112
993 1881 2186
1017 1933 2258
1042 1984 2330
1067 2035 2402
556 1242 0
556 1242 172
586 1257 323
616 1274 475
645 1290 629
675 1306 782
702 1316 937
729 1325 1089
756 1334 1240
781 1358 1366
800 1411 1443
820 1463 1519
840 1516 1597
862 1570 1673
883 1622 1747
905 1674 1821
928 1727 1895
952 1781 1970
974 1832 2043
997 1881 2117
1021 1932 2191
1044 1982 2265
1067 2032 2337
1092 2084 2409
1116 2133 2480
601 1376 0
601 1376 171
631 1389 322
661 1406 474
690 1423 628
719 1439 781
748 1453 935
776 1462 1089
803 1471 1240
830 1480 1391
854 1505 1514
873 1558 1591
893 1611 1669
914 1665 1745
934 1717 1819
956 1769 1893
979 1821 1968
1003 1875 2043
1026 1929 2119
1050 1981 2194
1073 2032 2269
1096 2082 2342
1118 2131 2413
1141 2179 2483
1164 2227 2554
