Examples/2D - Creamy Split toning.3dl
#25pt 3DLUT created by 3D LUT Creator Pro (c) Oleg Sharonov
#Copyright Oleg Sharonov
#IMAGEPROFILE 
#INPUTGAMMA 
#OUTPUTGAMMA 
0 256 512 768 1023
0 0 0
0 0 1161
0 0 2323
0 0 3341
0 0 4095
0 1025 0
0 987 951
0 1121 1986
0 1092 3120
0 1026 4095
0 2048 0
0 1920 1097
0 2139 1943
0 2203 2901
0 2048 4095
0 3069 0
0 2956 1113
0 2970 2123
0 3199 2962
0 3069 4094
2 4095 4
0 4095 1026
0 4095 2048
0 4094 3069
3 4095 4095
1025 0 0
726 0 1469
857 0 2453
881 0 3379
883 0 4095
1043 982 0
688 1065 1213
856 1079 2113
901 1038 3167
898 976 4081
1030 2038 0
694 2010 1384
834 2142 2015
877 2146 2974
887 2009 4092
1026 3066 0
694 2984 1403
830 2960 2205
877 3166 3004
884 3017 4093
1026 4095 0
695 4060 1298
832 4036 2164
875 4033 3126
884 4032 4095
2048 0 0
1922 0 1251
1737 0 2538
1779 0 3411
1767 0 4095
2207 867 0
1933 829 1064
1820 968 2238
1922 913 3243
1891 868 4091
2085 2021 0
1829 1869 1170
1677 2111 2058
1774 2090 3041
1778 1975 4095
2053 3065 0
1835 2850 1209
1673 2919 2257
1775 3120 3037
1770 2955 4095
2048 4095 0
1839 3995 1109
1674 3956 2246
1765 3966 3172
1766 3957 4095
3069 0 0
3038 0 1118
2925 0 2240
2955 0 3393
2785 0 4095
3250 993 0
3099 899 941
3127 967 1989
3159 993 3226
2993 881 4095
3156 2045 0
3030 1856 1055
2975 2020 1876
3035 2120 3042
2885 1932 4095
3080 3084 0
2975 2900 1078
2882 2845 2054
2968 3190 3033
2793 2963 4095
3069 4094 3
2976 4011 989
2882 3916 1985
2949 4064 3143
2786 3952 4094
4095 0 0
4095 0 967
4095 0 1937
4095 0 3135
4095 0 4095
4095 1392 0
4036 1303 864
4058 1468 1591
4095 1522 2754
4095 1392 4095
4094 2291 0
4060 2136 945
4085 2210 1753
4092 2489 2590
4094 2291 4095
4095 3193 0
4082 3053 926
4078 2921 1860
4094 3155 2793
4095 3193 4095
4095 4095 0
4094 4024 854
4093 3935 1719
4092 3961 2811
4095 4095 4095
