Examples/2D - Saturate.3dl
#25pt 3DLUT created by 3D LUT Creator Pro (c) Oleg Sharonov
#Copyright Oleg Sharonov
0 256 512 768 1023
0 0 0
0 0 1024
0 0 2047
0 0 3069
0 0 4095
0 1025 0
0 1026 1026
0 858 2217
0 688 3407
0 1026 4095
0 2048 0
0 2181 906
0 2047 2047
0 1879 3237
0 2048 4095
0 3069 0
0 3336 787
0 3201 1928
0 3069 3069
0 3069 4095
3 4095 3
0 4095 1026
0 4095 2048
0 4095 3069
3 4095 4095
1025 0 0
1025 0 1025
769 0 2301
515 0 3579
1025 0 4095
1026 1026 0
1027 1027 1027
748 853 2518
482 775 3886
1026 1026 4095
919 2192 0
921 2343 899
644 2204 2346
401 2045 3741
919 2191 4095
816 3360 0
818 3644 780
546 3507 2196
323 3318 3598
816 3359 4095
1026 4095 0
1026 4095 1026
769 4095 2301
515 4095 3580
1026 4095 4095
2048 0 0
2302 0 770
2048 0 2048
1792 0 3323
2047 0 4095
2094 1009 0
2365 1032 752
2094 836 2235
1826 648 3700
2093 1009 4095
2048 2048 0
2321 2203 629
2048 2048 2048
1765 1885 3524
2048 2048 4095
1942 3212 0
2225 3472 506
1945 3357 1926
1662 3233 3343
1942 3212 4095
2048 4095 0
2302 4095 771
2048 4095 2048
1791 4093 3322
2047 4095 4095
3069 0 0
3579 0 515
3323 0 1792
3069 0 3069
3069 0 4095
3162 988 0
3668 1034 483
3421 851 1938
3161 642 3422
3161 987 4095
3114 2029 0
3629 2171 391
3379 2053 1774
3113 1855 3253
3114 2029 4095
3069 3069 0
3594 3307 297
3333 3226 1644
3068 3068 3068
3069 3069 4094
3072 4095 0
3580 4095 515
3322 4093 1791
3069 4094 3069
3069 4095 4094
4095 0 0
4095 0 1025
4095 0 2047
4094 0 3069
4095 0 4095
4095 1025 0
4095 1026 1026
4095 858 2216
4095 689 3407
4095 1025 4095
4095 2048 0
4095 2181 906
4095 2048 2048
4094 1878 3237
4095 2047 4095
4095 3069 0
4095 3335 786
4095 3201 1927
4094 3069 3069
4094 3069 4095
4095 4095 0
4095 4095 1024
4095 4095 2046
4094 4095 3069
4095 4095 4095
