Examples/2D - Desaturate.3dl
#25pt 3DLUT created by 3D LUT Creator Pro (c) Oleg Sharonov
#Copyright Oleg Sharonov
0 256 512 768 1023
0 0 0
0 268 847
0 539 1698
0 811 2545
0 1080 3394
0 626 199
0 789 890
0 989 1593
0 1233 2400
0 1491 3267
0 1254 399
0 1351 1061
0 1515 1717
0 1683 2386
0 1848 3058
0 1878 598
0 1961 1274
0 2034 1835
0 2169 2471
0 2298 3107
2 2502 799
0 2573 1463
0 2557 1983
0 2653 2556
3 2751 3156
518 54 17
664 324 862
700 594 1702
741 883 2600
786 1171 3506
616 664 211
1024 1024 1024
925 1060 1875
905 1254 2681
896 1620 3338
654 1267 403
922 1773 1052
952 1861 1913
954 1911 2657
972 2064 3226
671 1982 630
881 2400 1209
940 2484 1945
985 2610 2729
1031 2551 3240
701 2709 862
846 2733 1499
936 2812 2081
1010 2935 2672
1075 3068 3307
1033 111 35
1317 394 915
1455 680 1796
1588 960 2666
1682 1240 3538
1225 768 243
1797 1006 1018
1860 1124 1938
1839 1350 2766
1844 1775 3481
1311 1418 450
1834 1834 1088
2048 2048 2048
1969 2058 2904
1962 2312 3475
1394 2061 655
1769 2479 1247
1950 2802 2049
2003 2892 2938
2054 2844 3481
1472 2714 864
1694 2890 1562
1871 3075 2227
2015 3237 2868
2131 3411 3551
1546 165 51
1960 465 981
2168 761 1883
2369 1055 2797
2433 1345 3701
1844 912 288
2456 1099 1092
2623 1276 1983
2755 1466 2902
2700 1944 3685
1964 1569 497
2561 1853 1200
2866 2040 2059
2944 2153 2996
2935 2550 3713
2088 2261 719
2631 2636 1327
2908 2901 2119
3071 3071 3071
3053 3136 3841
2190 2958 943
2539 3106 1662
2787 3329 2384
3005 3683 3099
3125 3830 3883
2057 218 68
2549 540 1051
2887 846 1976
2979 1150 2922
3147 1453 3865
2442 1040 330
2825 1277 1219
3176 1549 2093
3285 1843 2990
3419 2115 3886
2616 1715 545
3055 1967 1399
3354 2245 2246
3583 2524 3097
3664 2783 3953
2708 2457 783
3137 2649 1585
3515 2914 2397
3848 3165 3177
3935 3358 4043
2777 3199 1019
3155 3375 1786
3493 3625 2560
3875 3925 3272
4095 4095 4095
