Examples/2D - Orange twist.3dl
#25pt 3DLUT created by 3D LUT Creator Pro (c) Oleg Sharonov
#Copyright Oleg Sharonov
#INPUTGAMMA sRGB IEC61966-2.1 v.2.10
#IMAGEPROFILE sRGB IEC61966-2.1 v.2.10
#OUTPUTGAMMA sRGB IEC61966-2.1 v.2.10
0 128 256 384 512 640 768 896 1023
0 0 0
0 0 513
0 0 1026
0 0 1539
0 0 2047
0 0 2556
0 0 3069
0 0 3582
0 0 4095
0 513 0
0 513 513
0 513 1026
0 513 1539
0 513 2048
0 513 2556
0 513 3069
0 513 3582
0 513 4095
0 1026 0
0 1026 513
0 1026 1026
0 1026 1539
0 1026 2048
0 1026 2556
0 1026 3069
0 1026 3582
0 1026 4095
0 1539 0
0 1539 513
0 1539 1026
0 1539 1539
0 1539 2048
0 1539 2556
0 1539 3069
0 1539 3582
0 1539 4095
0 2048 0
0 2048 513
0 2048 1026
0 2048 1539
0 2048 2048
0 2047 2556
0 2047 3069
0 2047 3582
0 2047 4095
0 2556 0
0 2556 513
0 2556 1026
0 2556 1539
0 2556 2048
0 2556 2556
0 2556 3069
0 2556 3582
0 2556 4095
0 3069 0
0 3069 513
0 3069 1026
0 3069 1539
0 3069 2048
0 3069 2556
0 3069 3069
0 3069 3582
0 3069 4095
0 3582 0
0 3582 513
0 3582 1026
0 3582 1539
0 3582 2048
0 3582 2556
0 3582 3069
0 3582 3582
0 3582 4095
0 4095 0
0 4095 513
0 4095 1026
0 4095 1539
0 4095 2048
0 4095 2556
0 4095 3069
0 4095 3582
0 4095 4095
513 0 0
513 0 513
513 0 1026
513 0 1539
513 0 2047
513 0 2556
513 0 3069
513 0 3582
513 0 4095
522 487 0
522 487 513
522 487 1026
522 487 1539
522 487 2048
522 487 2556
522 487 3069
522 487 3582
522 487 4095
513 1026 0
513 1026 513
513 1026 1026
513 1026 1539
513 1026 2048
513 1026 2556
513 1026 3069
513 1026 3582
513 1026 4095
513 1539 0
513 1539 513
513 1539 1026
513 1539 1539
513 1539 2048
513 1539 2556
513 1539 3069
513 1539 3582
513 1539 4095
513 2048 0
513 2048 513
513 2048 1026
513 2047 1539
513 2047 2048
513 2047 2556
513 2047 3069
513 2047 3582
513 2047 4095
513 2556 0
513 2556 513
513 2556 1026
513 2556 1539
513 2556 2048
513 2556 2556
513 2556 3069
513 2556 3582
513 2556 4095
513 3069 0
513 3069 513
513 3069 1026
513 3069 1539
513 3069 2048
513 3069 2556
513 3069 3069
513 3069 3582
513 3069 4095
513 3582 0
513 3582 513
513 3582 1026
513 3582 1539
513 3582 2048
513 3582 2556
513 3582 3069
513 3582 3582
513 3582 4095
513 4095 0
513 4095 513
513 4095 1026
513 4095 1539
513 4095 2048
513 4095 2556
513 4095 3069
513 4095 3582
513 4095 4095
1026 0 0
1026 0 513
1026 0 1026
1026 0 1539
1026 0 2047
1026 0 2556
1026 0 3069
1026 0 3582
1026 0 4095
1047 448 0
1047 448 513
1047 448 1026
1047 448 1539
1047 448 2048
1047 448 2556
1047 448 3069
1047 448 3582
1047 448 4095
1026 1026 0
1026 1026 513
1026 1026 1026
1026 1026 1539
1026 1026 2048
1026 1026 2556
1026 1026 3069
1026 1026 3582
1026 1026 4095
1026 1539 0
1026 1539 513
1026 1539 1026
1026 1539 1539
1026 1539 2048
1026 1539 2556
1026 1539 3069
1026 1539 3582
1026 1539 4095
1026 2047 0
1026 2047 513
1026 2047 1026
1026 2047 1539
1026 2047 2048
1026 2047 2556
1026 2047 3069
1026 2047 3582
1026 2047 4095
1026 2556 0
1026 2556 513
1026 2556 1026
1026 2556 1539
1026 2556 2048
1026 2556 2556
1026 2556 3069
1026 2556 3582
1026 2556 4095
1026 3069 0
1026 3069 513
1026 3069 1026
1026 3069 1539
1026 3069 2048
1026 3069 2556
1026 3069 3069
1026 3069 3582
1026 3069 4095
1026 3582 0
1026 3582 513
1026 3582 1026
1026 3582 1539
1026 3582 2048
1026 3582 2556
1026 3582 3069
1026 3582 3582
1026 3582 4095
1026 4095 0
1026 4095 513
1026 4095 1026
1026 4095 1539
1026 4095 2048
1026 4095 2556
1026 4095 3069
1026 4095 3582
1026 4095 4095
1539 0 0
1539 0 513
1539 0 1026
1539 0 1539
1539 0 2048
1539 0 2556
1539 0 3069
1539 0 3582
1539 0 4095
1621 386 0
1621 386 513
1621 386 1026
1621 386 1539
1621 386 2048
1621 386 2556
1621 386 3069
1621 386 3582
1621 386 4095
1634 917 0
1634 917 513
1634 917 1026
1634 917 1539
1634 917 2048
1634 917 2556
1634 917 3069
1634 917 3582
1634 917 4095
1539 1538 0
1539 1538 513
1539 1538 1026
1539 1538 1539
1539 1538 2048
1539 1538 2556
1539 1538 3069
1539 1538 3582
1539 1538 4095
1539 2050 0
1539 2050 513
1539 2050 1026
1539 2050 1539
1539 2050 2048
1539 2050 2556
1539 2050 3069
1539 2050 3582
1539 2050 4095
1539 2556 0
1539 2556 513
1539 2556 1026
1539 2556 1539
1539 2556 2048
1539 2556 2556
1539 2556 3069
1539 2556 3582
1539 2556 4095
1539 3069 0
1539 3069 513
1539 3069 1026
1539 3069 1539
1539 3069 2048
1539 3069 2556
1539 3069 3069
1539 3069 3582
1539 3069 4095
1539 3582 0
1539 3582 513
1539 3582 1026
1539 3582 1539
1539 3582 2048
1539 3582 2556
1539 3582 3069
1539 3582 3582
1539 3582 4095
1539 4095 0
1539 4095 513
1539 4095 1026
1539 4095 1539
1539 4095 2048
1539 4095 2556
1539 4095 3069
1539 4095 3582
1539 4095 4095
2047 0 0
2047 0 513
2047 0 1026
2047 0 1539
2047 0 2048
2047 0 2556
2047 0 3069
2047 0 3582
2048 0 4095
2193 342 0
2193 342 513
2193 342 1026
2193 342 1539
2193 342 2048
2193 342 2556
2193 342 3069
2193 342 3582
2193 342 4095
2226 850 0
2226 850 513
2226 850 1026
2226 850 1539
2226 850 2048
2226 850 2556
2226 850 3069
2226 850 3582
2226 850 4095
2186 1437 0
2186 1437 513
2186 1437 1026
2186 1437 1539
2186 1437 2048
2186 1437 2556
2186 1437 3069
2186 1437 3582
2186 1437 4095
2047 2047 0
2047 2047 513
2047 2047 1026
2047 2047 1539
2048 2047 2048
2048 2047 2556
2048 2047 3069
2048 2047 3582
2048 2047 4095
2045 2556 0
2045 2556 513
2045 2556 1026
2045 2556 1539
2045 2556 2048
2045 2556 2556
2045 2556 3069
2045 2556 3582
2045 2556 4095
2045 3069 0
2045 3069 513
2045 3069 1026
2045 3069 1539
2045 3069 2048
2045 3069 2556
2045 3069 3069
2045 3069 3582
2045 3069 4095
2045 3582 0
2045 3582 513
2045 3582 1026
2045 3582 1539
2045 3582 2048
2045 3582 2556
2045 3582 3069
2045 3582 3582
2045 3582 4095
2047 4095 0
2047 4095 513
2047 4095 1026
2047 4095 1539
2047 4095 2048
2048 4095 2556
2048 4095 3069
2048 4095 3582
2048 4095 4095
2556 0 0
2556 0 513
2556 0 1026
2556 0 1539
2556 0 2048
2556 0 2556
2556 0 3069
2556 0 3582
2556 0 4095
2757 368 0
2757 368 513
2757 368 1026
2757 368 1539
2757 368 2048
2757 368 2556
2757 368 3069
2757 368 3582
2757 368 4095
2790 900 0
2790 900 513
2790 900 1026
2790 900 1539
2790 900 2048
2790 900 2556
2790 900 3069
2790 900 3582
2790 900 4095
2735 1469 0
2735 1469 513
2735 1469 1026
2735 1469 1539
2735 1469 2048
2735 1469 2556
2735 1469 3069
2735 1469 3582
2735 1469 4095
2650 1994 0
2650 1994 513
2650 1994 1026
2650 1994 1539
2650 1994 2048
2650 1994 2556
2650 1994 3069
2650 1994 3582
2650 1994 4095
2578 2546 0
2578 2546 513
2578 2546 1026
2578 2546 1539
2578 2546 2048
2578 2546 2556
2578 2546 3069
2578 2546 3582
2578 2546 4095
2556 3069 0
2556 3069 513
2556 3069 1026
2556 3069 1539
2556 3069 2048
2556 3069 2556
2556 3069 3069
2556 3069 3582
2556 3069 4095
2556 3582 0
2556 3582 513
2556 3582 1026
2556 3582 1539
2556 3582 2048
2556 3582 2556
2556 3582 3069
2556 3582 3582
2556 3582 4095
2556 4095 0
2556 4095 513
2556 4095 1026
2556 4095 1539
2556 4095 2048
2556 4095 2556
2556 4095 3069
2556 4095 3582
2556 4095 4095
3069 0 0
3069 0 513
3069 0 1026
3069 0 1539
3069 0 2048
3069 0 2556
3069 0 3069
3069 0 3582
3069 0 4095
3261 506 0
3261 506 513
3261 506 1026
3261 506 1539
3261 506 2048
3261 506 2556
3261 506 3069
3261 506 3582
3261 506 4095
3316 1108 0
3316 1108 513
3316 1108 1026
3316 1108 1539
3316 1108 2048
3316 1108 2556
3316 1108 3069
3316 1108 3582
3316 1108 4095
3270 1684 0
3270 1684 513
3270 1684 1026
3270 1684 1539
3270 1684 2048
3270 1684 2556
3270 1684 3069
3270 1684 3582
3270 1684 4095
3205 2132 0
3205 2132 513
3205 2132 1026
3205 2132 1539
3205 2132 2048
3205 2132 2556
3205 2132 3069
3205 2132 3582
3205 2132 4095
3138 2599 0
3138 2599 513
3138 2599 1026
3138 2599 1539
3138 2599 2048
3138 2599 2556
3138 2599 3069
3138 2599 3582
3138 2599 4095
3069 3069 0
3069 3069 513
3069 3069 1026
3069 3069 1539
3069 3069 2048
3069 3069 2556
3069 3069 3069
3069 3069 3582
3069 3069 4095
3069 3582 0
3069 3582 513
3069 3582 1026
3069 3582 1539
3069 3582 2048
3069 3582 2556
3069 3582 3069
3069 3582 3582
3069 3582 4095
3069 4095 0
3069 4095 513
3069 4095 1026
3069 4095 1539
3069 4095 2048
3069 4095 2556
3069 4095 3069
3069 4095 3582
3069 4095 4095
3582 0 0
3582 0 513
3582 0 1026
3582 0 1539
3582 0 2048
3582 0 2556
3582 0 3069
3582 0 3582
3582 0 4095
3676 708 0
3676 708 513
3676 708 1026
3676 708 1539
3676 708 2048
3676 708 2556
3676 708 3069
3676 708 3582
3676 708 4095
3730 1421 0
3730 1421 513
3730 1421 1026
3730 1421 1539
3730 1421 2048
3730 1421 2556
3730 1421 3069
3730 1421 3582
3730 1421 4095
3738 2006 0
3738 2006 513
3738 2006 1026
3738 2006 1539
3738 2006 2048
3738 2006 2556
3738 2006 3069
3738 2006 3582
3738 2006 4095
3702 2395 0
3702 2395 513
3702 2395 1026
3702 2395 1539
3702 2395 2048
3702 2395 2556
3702 2395 3069
3702 2395 3582
3702 2395 4095
3661 2793 0
3662 2793 513
3662 2793 1026
3662 2793 1539
3662 2793 2048
3662 2793 2556
3662 2793 3069
3662 2793 3582
3662 2793 4095
3620 3186 0
3620 3186 513
3620 3186 1026
3620 3186 1539
3620 3186 2048
3620 3186 2556
3620 3186 3069
3620 3186 3582
3620 3186 4095
3582 3582 0
3582 3582 513
3582 3582 1026
3582 3582 1539
3582 3582 2048
3582 3582 2556
3582 3582 3069
3582 3582 3582
3582 3582 4095
3582 4095 0
3582 4095 513
3582 4095 1026
3582 4095 1539
3582 4095 2048
3582 4095 2556
3582 4095 3069
3582 4095 3582
3582 4095 4095
4095 0 0
4095 0 513
4095 0 1026
4095 0 1539
4095 0 2048
4095 0 2556
4095 0 3069
4095 0 3582
4095 0 4095
4095 859 0
4095 859 513
4095 859 1026
4095 859 1539
4095 859 2048
4095 859 2556
4095 859 3069
4095 859 3582
4095 859 4095
4095 1723 0
4095 1723 513
4095 1723 1026
4095 1723 1539
4095 1723 2048
4095 1723 2556
4095 1723 3069
4095 1723 3582
4095 1723 4095
4095 2391 0
4095 2391 513
4095 2391 1026
4095 2391 1539
4095 2391 2048
4095 2391 2556
4095 2391 3069
4095 2391 3582
4095 2391 4095
4095 2744 0
4095 2744 513
4095 2744 1026
4095 2744 1539
4095 2744 2048
4095 2744 2556
4095 2744 3069
4095 2744 3582
4095 2744 4095
4095 3080 0
4095 3080 513
4095 3080 1026
4095 3080 1539
4095 3080 2048
4095 3080 2556
4095 3080 3069
4095 3080 3582
4095 3080 4095
4095 3420 0
4095 3420 513
4095 3420 1026
4095 3420 1539
4095 3420 2048
4095 3420 2556
4095 3420 3069
4095 3420 3582
4095 3420 4095
4095 3755 0
4095 3755 513
4095 3755 1026
4095 3755 1539
4095 3755 2048
4095 3755 2556
4095 3755 3069
4095 3755 3582
4095 3755 4095
4095 4095 0
4095 4095 513
4095 4095 1026
4095 4095 1539
4095 4095 2048
4095 4095 2556
4095 4095 3069
4095 4095 3582
4095 4095 4095
