Examples/2D - Skintone.3dl
#25pt 3DLUT created by 3D LUT Creator Pro (c) Oleg Sharonov
#Copyright Oleg Sharonov
#IMAGEPROFILE 
#INPUTGAMMA 
#OUTPUTGAMMA 
0 256 512 768 1023
0 0 0
0 0 1162
0 0 2327
0 0 3345
0 0 4095
0 1025 0
0 1046 994
0 1130 1998
0 1058 3154
0 1026 4095
0 2048 0
0 1940 1116
0 2107 1967
0 2114 2987
0 2048 4095
0 3069 0
0 2993 1092
0 2995 2105
0 3073 3059
0 3069 4095
3 4095 3
0 4095 1026
0 4095 2048
0 4095 3069
3 4095 4095
979 12 240
1092 13 1202
1080 14 2360
988 13 3357
909 11 4095
953 1032 211
1025 1009 1010
1030 1079 1999
976 1007 3148
893 978 4082
938 2117 222
1004 1944 1133
994 2096 1966
943 2088 2987
877 2018 4095
938 3120 225
1005 2995 1111
993 2976 2105
942 3037 3056
876 3018 4093
942 4095 211
1010 4095 1044
999 4076 2048
946 4049 3069
879 4030 4095
1932 20 398
2165 22 1208
2168 24 2337
2022 22 3353
1823 19 4095
2024 885 351
2181 854 1053
2246 916 2037
2136 859 3183
1898 848 4086
1864 2074 372
2001 1926 1137
2032 2085 1952
1939 2076 2990
1763 1985 4095
1863 3089 374
1994 2974 1118
2023 2972 2091
1935 3018 3056
1758 2958 4093
1867 4095 351
2001 4077 1051
2031 4072 2032
1939 4027 3068
1762 3955 4095
2906 64 493
3154 125 1156
3208 159 2151
3146 143 3327
2870 59 4095
2978 930 447
3136 1059 1002
3238 1201 1886
3199 1114 3166
2946 896 4095
2879 1987 476
3070 1927 1115
3149 2082 1887
3123 2137 3029
2859 1935 4095
2823 3056 469
3028 2972 1086
3114 2939 1986
3085 3084 3074
2790 2967 4095
2817 4095 441
3015 4056 1018
3102 4023 1910
3069 4094 3069
2780 3949 4094
3790 398 553
3950 481 1204
4084 579 1826
4095 567 3019
4095 545 4095
3795 1412 575
3912 1506 1156
4023 1668 1701
4040 1673 2819
4040 1625 4095
3780 2257 599
3914 2221 1265
4032 2302 1835
4044 2457 2801
4057 2447 4095
3774 3145 567
3922 3125 1179
4054 3072 1815
4071 3191 2853
4077 3269 4095
3767 4095 533
3931 4056 1106
4080 3946 1722
4092 3984 2805
4095 4095 4095
