Examples/2D - Skintone.3dl
#25pt 3DLUT created by 3D LUT Creator Pro (c) Oleg Sharonov
#Copyright Oleg Sharonov
#IMAGEPROFILE 
#INPUTGAMMA 
#OUTPUTGAMMA 
0 128 256 384 512 640 768 896 1023
0 0 0
0 0 583
0 0 1162
0 0 1749
0 0 2327
0 0 2903
0 0 3345
0 0 3722
0 0 4095
0 513 0
0 513 510
0 522 1096
0 540 1646
0 556 2175
0 544 2771
0 527 3250
0 520 3674
0 513 4095
0 1025 0
0 1009 524
0 1046 994
0 1085 1509
0 1130 1998
0 1088 2642
0 1058 3154
0 1042 3627
0 1026 4095
0 1538 0
0 1500 541
0 1497 1055
0 1568 1493
0 1664 1906
0 1630 2514
0 1590 3057
0 1564 3576
0 1539 4095
0 2048 0
0 1988 559
0 1940 1116
0 1979 1587
0 2107 1967
0 2145 2438
0 2114 2987
0 2081 3540
0 2048 4095
0 2556 0
0 2498 565
0 2435 1132
0 2424 1656
0 2509 2073
0 2574 2521
0 2588 3023
0 2572 3556
0 2556 4094
0 3069 0
0 3030 546
0 2993 1092
0 2965 1627
0 2995 2105
0 3045 2567
0 3073 3059
0 3069 3575
0 3069 4095
0 3582 0
0 3567 523
0 3547 1050
0 3545 1560
0 3549 2067
0 3568 2562
0 3582 3064
0 3582 3579
3 3582 4095
3 4095 3
3 4095 514
0 4095 1026
0 4095 1539
0 4095 2048
0 4094 2556
0 4095 3069
3 4095 3582
3 4095 4095
521 7 90
553 7 603
549 7 1181
533 7 1762
519 7 2332
508 7 2901
490 6 3344
471 6 3722
455 6 4095
523 489 78
534 470 513
548 473 1086
541 489 1640
529 504 2172
520 496 2768
496 482 3249
474 478 3672
457 473 4092
508 1057 81
516 996 530
513 1024 991
514 1060 1507
509 1105 1997
506 1065 2638
484 1036 3151
461 1022 3622
444 1006 4090
504 1570 82
510 1505 552
506 1494 1055
502 1565 1493
496 1660 1906
494 1624 2516
476 1582 3060
456 1555 3577
440 1530 4095
504 2061 84
510 1991 570
506 1938 1115
502 1976 1586
496 2101 1967
490 2138 2437
473 2103 2987
455 2067 3540
440 2034 4095
504 2547 88
511 2502 575
507 2432 1132
502 2418 1655
496 2503 2072
490 2566 2520
473 2576 3022
454 2555 3556
441 2537 4094
504 3064 85
511 3034 555
507 2990 1092
503 2959 1628
497 2985 2106
491 3034 2568
474 3057 3058
455 3049 3575
441 3046 4095
504 3580 81
511 3570 532
507 3544 1050
503 3540 1560
497 3538 2068
491 3556 2562
474 3563 3064
455 3559 3579
441 3556 4095
505 4095 83
513 4095 523
508 4093 1026
504 4090 1539
497 4084 2048
491 4080 2557
474 4074 3069
456 4068 3582
441 4066 4095
979 12 240
1059 13 686
1092 13 1202
1097 14 1775
1080 14 2360
1048 13 2926
988 13 3357
945 12 3725
909 11 4095
976 450 206
1031 437 603
1096 433 1108
1104 444 1637
1078 458 2171
1056 453 2763
1000 442 3243
952 437 3661
913 433 4078
953 1032 211
991 988 603
1025 1009 1010
1043 1038 1507
1030 1079 1999
1023 1039 2637
976 1007 3148
933 993 3616
893 978 4082
941 1592 217
976 1515 633
1007 1502 1071
1011 1565 1493
996 1655 1905
991 1617 2518
952 1573 3062
915 1545 3580
880 1520 4095
938 2117 222
973 1998 653
1004 1944 1133
1009 1975 1585
994 2096 1966
978 2131 2436
943 2088 2987
910 2052 3540
877 2018 4095
938 2609 232
974 2515 655
1004 2436 1152
1008 2417 1654
992 2497 2069
977 2557 2517
941 2560 3018
909 2535 3553
876 2513 4092
938 3120 225
974 3049 632
1005 2995 1111
1009 2958 1628
993 2976 2105
977 3021 2567
942 3037 3056
909 3024 3573
876 3018 4093
942 3606 215
979 3587 607
1010 3550 1068
1013 3539 1561
998 3531 2068
982 3541 2562
947 3541 3064
913 3531 3579
879 3524 4095
942 4095 211
978 4095 595
1010 4095 1044
1014 4088 1539
999 4076 2048
982 4064 2557
946 4049 3069
913 4038 3582
879 4030 4095
1442 16 345
1542 17 751
1626 17 1220
1653 17 1757
1634 18 2350
1586 17 2936
1501 17 3360
1426 17 3728
1366 16 4095
1457 393 299
1543 387 682
1657 381 1142
1689 387 1644
1665 400 2183
1650 397 2771
1543 387 3245
1451 389 3655
1380 392 4067
1438 983 303
1496 939 660
1587 945 1044
1637 965 1514
1622 1009 2015
1617 977 2652
1527 953 3157
1437 946 3615
1359 939 4076
1388 1575 312
1433 1505 694
1498 1502 1084
1521 1556 1480
1506 1653 1900
1507 1617 2518
1447 1567 3064
1382 1535 3581
1322 1508 4095
1386 2096 319
1429 1987 719
1495 1942 1148
1519 1968 1571
1503 2092 1960
1486 2129 2435
1433 2081 2988
1376 2039 3541
1321 2002 4095
1385 2610 334
1431 2512 719
1495 2431 1170
1519 2408 1641
1501 2493 2063
1485 2555 2517
1431 2550 3017
1372 2517 3551
1318 2491 4092
1386 3135 323
1432 3049 695
1498 2992 1128
1521 2948 1614
1504 2972 2100
1486 3019 2567
1432 3024 3056
1373 3001 3573
1318 2989 4093
1390 3607 310
1436 3579 667
1502 3547 1084
1525 3528 1547
1509 3527 2062
1491 3539 2563
1437 3527 3064
1378 3506 3579
1323 3491 4095
1390 4095 304
1437 4095 654
1504 4095 1060
1528 4078 1525
1511 4071 2041
1492 4063 2557
1438 4034 3069
1378 4010 3582
1323 3994 4095
1932 20 398
2022 21 800
2165 22 1208
2215 23 1730
2168 24 2337
2122 23 2920
2022 22 3353
1917 20 3728
1823 19 4095
1999 337 350
2077 340 749
2220 347 1151
2286 357 1645
2266 368 2205
2212 363 2801
2099 344 3264
1984 335 3664
1882 337 4070
2024 885 351
2064 857 698
2181 854 1053
2255 874 1515
2246 916 2037
2255 889 2678
2136 859 3183
2013 849 3637
1898 848 4086
1939 1502 363
1989 1431 739
2116 1409 1068
2174 1467 1453
2157 1567 1896
2174 1516 2562
2072 1473 3096
1950 1450 3603
1834 1439 4095
1864 2074 372
1896 1975 771
2001 1926 1137
2048 1953 1548
2032 2085 1952
2017 2129 2437
1939 2076 2990
1848 2029 3543
1763 1985 4095
1862 2584 385
1896 2500 769
1991 2416 1159
2036 2397 1619
2020 2492 2055
2007 2560 2518
1932 2546 3016
1844 2504 3551
1758 2470 4092
1863 3089 374
1896 3036 743
1994 2974 1118
2037 2938 1591
2023 2972 2091
2009 3026 2567
1935 3018 3056
1844 2981 3573
1758 2958 4093
1866 3593 357
1901 3570 713
1997 3529 1074
2040 3516 1525
2028 3527 2052
2014 3548 2562
1939 3520 3064
1849 3483 3578
1762 3456 4095
1867 4095 351
1903 4095 699
2001 4077 1051
2045 4065 1503
2031 4072 2032
2016 4073 2557
1939 4027 3068
1850 3985 3582
1762 3955 4095
2423 27 449
2501 27 846
2697 30 1173
2781 40 1648
2709 37 2269
2652 32 2892
2555 29 3347
2414 27 3724
2281 25 4095
2501 366 401
2569 374 800
2761 382 1126
2874 413 1579
2800 416 2164
2740 401 2795
2636 380 3279
2490 364 3687
2352 347 4092
2499 859 398
2529 858 736
2694 889 1024
2800 919 1451
2781 963 1991
2750 929 2665
2641 881 3187
2501 831 3634
2375 788 4074
2480 1443 414
2503 1393 781
2638 1398 1042
2713 1459 1388
2683 1557 1852
2692 1513 2534
2607 1453 3091
2482 1397 3601
2368 1354 4095
2378 2026 425
2407 1935 818
2586 1879 1109
2667 1905 1478
2632 2035 1910
2597 2085 2419
2516 2031 2997
2379 1983 3549
2247 1939 4095
2338 2551 436
2366 2489 816
2516 2416 1131
2598 2386 1559
2559 2478 2019
2526 2555 2502
2451 2550 3017
2328 2494 3551
2208 2447 4094
2339 3065 423
2367 3024 789
2519 2972 1091
2597 2931 1522
2561 2958 2050
2529 3020 2551
2454 3022 3057
2326 2967 3574
2203 2934 4093
2339 3583 404
2368 3565 757
2520 3523 1048
2596 3500 1459
2563 3515 2007
2531 3543 2544
2455 3524 3063
2328 3467 3577
2203 3423 4094
2341 4095 399
2371 4095 743
2524 4069 1025
2601 4050 1434
2568 4059 1987
2534 4067 2538
2456 4034 3068
2329 3967 3581
2203 3918 4094
2906 64 493
3032 93 817
3154 125 1156
3241 160 1548
3208 159 2151
3172 152 2791
3146 143 3327
3008 95 3719
2870 59 4095
2983 451 440
3089 517 762
3194 587 1096
3309 663 1480
3271 685 2030
3237 658 2685
3206 630 3244
3076 520 3680
2946 437 4095
2978 930 447
3061 977 737
3136 1059 1002
3237 1147 1360
3238 1201 1886
3234 1150 2579
3199 1114 3166
3076 989 3637
2946 896 4095
2927 1469 462
3015 1469 770
3100 1501 1059
3186 1585 1371
3175 1684 1830
3191 1672 2470
3162 1635 3079
3035 1511 3593
2902 1416 4095
2879 1987 476
2974 1948 802
3070 1927 1115
3167 1967 1451
3149 2082 1887
3130 2150 2395
3123 2137 3029
2994 2022 3554
2859 1935 4095
2832 2540 485
2936 2500 799
3038 2428 1128
3150 2377 1506
3127 2465 1967
3108 2560 2464
3096 2606 3054
2947 2537 3579
2803 2476 4095
2823 3056 469
2927 3029 772
3028 2972 1086
3136 2918 1459
3114 2939 1986
3095 3012 2502
3085 3084 3074
2936 3015 3587
2790 2967 4095
2817 3577 448
2918 3564 739
3016 3514 1042
3120 3471 1396
3102 3487 1933
3083 3525 2484
3072 3584 3067
2927 3510 3580
2784 3451 4095
2817 4095 441
2917 4095 725
3015 4056 1018
3119 4013 1367
3102 4023 1910
3081 4048 2473
3069 4094 3069
2924 4013 3581
2780 3949 4094
3343 211 528
3499 256 803
3587 292 1133
3630 319 1521
3631 333 2037
3624 336 2648
3615 325 3213
3610 319 3692
3471 253 4095
3403 733 493
3531 808 736
3615 860 1047
3665 902 1419
3662 956 1883
3659 934 2522
3649 905 3114
3644 893 3649
3534 801 4095
3386 1179 510
3519 1241 769
3592 1296 1041
3630 1368 1345
3646 1457 1778
3666 1424 2426
3657 1385 3036
3652 1366 3614
3527 1260 4095
3357 1650 527
3503 1668 805
3582 1689 1097
3620 1734 1406
3632 1841 1819
3639 1887 2346
3643 1843 2964
3642 1826 3579
3515 1715 4095
3338 2100 539
3479 2095 829
3561 2078 1143
3607 2083 1481
3612 2171 1894
3615 2272 2377
3618 2289 2949
3621 2270 3572
3493 2162 4095
3326 2570 538
3465 2575 809
3546 2535 1127
3592 2468 1518
3597 2536 1943
3601 2630 2433
3603 2682 3001
3606 2697 3600
3472 2611 4095
3308 3064 518
3445 3056 778
3531 3023 1082
3581 2961 1452
3587 2962 1933
3590 3030 2442
3593 3100 2992
3592 3135 3616
3453 3059 4095
3294 3574 496
3432 3562 745
3516 3511 1038
3564 3453 1388
3574 3454 1868
3577 3486 2405
3579 3538 2964
3580 3582 3579
3436 3518 4095
3292 4095 486
3433 4095 728
3522 4055 1015
3570 3982 1360
3579 3972 1846
3580 3994 2392
3581 4037 2967
3582 4094 3582
3436 4021 4095
3790 398 553
3876 439 876
3950 481 1204
4023 531 1508
4084 579 1826
4095 593 2360
4095 567 3019
4095 555 3563
4095 545 4095
3776 961 549
3836 1024 833
3898 1105 1109
3974 1177 1389
4035 1249 1668
4047 1258 2194
4047 1200 2903
4045 1183 3500
4044 1164 4095
3795 1412 575
3857 1442 884
3912 1506 1156
3971 1580 1422
4023 1668 1701
4030 1734 2131
4040 1673 2819
4040 1650 3457
4040 1625 4095
3784 1829 589
3849 1834 919
3911 1865 1212
3976 1910 1488
4026 1996 1761
4035 2081 2189
4036 2083 2767
4044 2062 3432
4049 2036 4095
3780 2257 599
3845 2241 933
3914 2221 1265
3980 2252 1543
4032 2302 1835
4042 2413 2256
4044 2457 2801
4050 2451 3451
4057 2447 4095
3781 2694 591
3852 2690 910
3918 2665 1233
3988 2629 1557
4043 2646 1867
4054 2722 2317
4057 2802 2866
4061 2827 3487
4067 2856 4095
3774 3145 567
3848 3147 871
3922 3125 1179
3996 3090 1487
4054 3072 1815
4067 3115 2296
4071 3191 2853
4072 3230 3495
4077 3269 4095
3767 3598 544
3848 3603 838
3924 3582 1134
4000 3546 1430
4062 3518 1752
4075 3525 2257
4078 3583 2828
4083 3635 3489
4086 3682 4095
3767 4095 533
3849 4095 818
3931 4056 1106
4013 3984 1397
4080 3946 1722
4090 3946 2221
4092 3984 2805
4094 4041 3453
4095 4095 4095
