Examples/2D - Shape Reds.3dl
#25pt 3DLUT created by 3D LUT Creator Pro (c) Oleg Sharonov
#Copyright Oleg Sharonov
0 128 256 384 512 640 768 896 1023
0 0 0
0 0 513
0 0 1024
0 0 1538
0 0 2047
0 0 2555
0 0 3069
0 0 3582
0 0 4095
0 513 0
0 513 513
0 513 1025
0 513 1538
0 513 2047
0 513 2555
0 513 3069
0 513 3582
0 513 4095
0 1025 0
0 1026 513
0 1026 1026
0 1026 1539
0 1025 2048
0 1025 2557
0 1025 3069
0 1025 3582
0 1026 4095
0 1538 0
0 1539 513
0 1539 1026
0 1539 1539
0 1539 2048
0 1538 2557
0 1539 3070
0 1538 3582
0 1539 4095
0 2048 0
0 2048 513
0 2048 1025
0 2048 1539
0 2047 2047
0 2047 2556
0 2047 3069
0 2047 3582
0 2048 4095
0 2556 0
0 2556 513
0 2557 1026
0 2557 1538
0 2556 2047
0 2556 2556
0 2556 3069
0 2556 3581
0 2556 4094
0 3069 0
0 3069 513
0 3070 1026
0 3070 1539
0 3069 2047
0 3069 2556
0 3069 3069
0 3069 3582
0 3069 4095
0 3582 0
0 3582 513
0 3582 1026
0 3582 1539
0 3582 2047
0 3581 2556
0 3582 3069
0 3582 3582
3 3582 4095
3 4095 3
3 4095 514
0 4095 1026
0 4095 1539
0 4095 2048
0 4094 2556
0 4095 3069
3 4095 3582
3 4095 4095
513 0 0
513 0 513
513 0 1025
513 0 1538
513 0 2047
513 0 2556
513 0 3069
513 0 3582
513 0 4095
510 513 0
511 513 512
511 513 1024
510 513 1537
510 513 2046
510 513 2555
510 513 3068
510 513 3581
510 513 4095
510 1026 0
511 1026 513
511 1026 1025
511 1026 1538
510 1026 2047
510 1025 2555
510 1025 3068
510 1025 3581
510 1025 4094
510 1539 0
510 1539 513
511 1540 1026
511 1540 1539
510 1539 2048
510 1538 2556
510 1539 3069
510 1538 3581
510 1538 4095
512 2048 0
512 2048 513
512 2048 1025
512 2048 1539
512 2048 2048
512 2047 2556
512 2047 3069
512 2048 3582
512 2048 4095
513 2556 0
513 2557 513
513 2557 1026
513 2558 1538
513 2557 2047
513 2556 2556
513 2556 3069
513 2556 3582
514 2556 4094
513 3072 0
513 3072 513
513 3073 1026
513 3073 1539
513 3072 2048
513 3071 2557
513 3072 3069
513 3072 3582
514 3072 4095
513 3583 0
513 3584 513
513 3584 1026
513 3584 1539
513 3583 2048
513 3583 2556
513 3583 3069
513 3583 3582
514 3583 4095
514 4095 3
514 4095 514
513 4095 1026
513 4095 1539
513 4095 2048
513 4094 2556
513 4095 3069
514 4095 3582
514 4095 4095
928 64 0
928 64 507
928 64 1014
928 64 1521
928 64 2025
928 64 2536
928 64 3052
928 64 3569
928 64 4086
1026 513 0
1026 513 513
1027 513 1027
1027 513 1540
1026 513 2049
1026 513 2558
1025 513 3070
1025 513 3583
1025 513 4095
1023 1026 0
1023 1026 513
1024 1027 1026
1024 1027 1539
1023 1026 2047
1023 1026 2556
1022 1025 3068
1022 1025 3581
1022 1026 4094
1023 1539 0
1024 1540 513
1024 1540 1026
1024 1540 1539
1023 1539 2047
1023 1539 2556
1023 1539 3069
1023 1539 3582
1023 1539 4095
1022 2048 0
1022 2048 513
1023 2049 1025
1023 2049 1538
1023 2048 2047
1023 2047 2555
1022 2047 3068
1022 2048 3581
1022 2048 4094
1026 2557 0
1026 2557 513
1026 2558 1026
1026 2558 1539
1026 2557 2047
1026 2556 2556
1026 2556 3069
1026 2556 3582
1026 2556 4095
1026 3070 0
1026 3070 513
1026 3071 1026
1026 3071 1539
1026 3070 2048
1026 3069 2556
1026 3069 3069
1026 3069 3582
1026 3069 4095
1026 3582 0
1026 3583 513
1026 3583 1026
1026 3584 1539
1026 3582 2048
1026 3582 2556
1026 3582 3069
1026 3582 3582
1026 3582 4095
1026 4095 0
1025 4095 513
1026 4095 1026
1026 4095 1538
1025 4095 2047
1025 4095 2556
1025 4095 3069
1025 4095 3582
1026 4095 4095
1302 150 0
1303 150 508
1303 150 1007
1303 150 1510
1302 150 2010
1302 150 2508
1302 150 3012
1302 150 3529
1302 150 4047
1492 542 0
1492 542 511
1492 542 1020
1492 542 1531
1492 542 2038
1492 542 2546
1492 542 3058
1492 542 3571
1492 542 4084
1539 1026 0
1539 1026 513
1540 1026 1026
1540 1027 1540
1539 1026 2049
1539 1026 2558
1538 1026 3071
1539 1026 3584
1539 1026 4095
1539 1539 0
1540 1540 513
1540 1540 1027
1540 1540 1540
1539 1539 2049
1539 1539 2558
1539 1539 3071
1539 1539 3584
1539 1539 4095
1539 2048 0
1539 2049 513
1539 2049 1026
1539 2049 1539
1539 2048 2048
1538 2047 2557
1539 2048 3070
1539 2048 3583
1539 2048 4095
1538 2557 0
1538 2558 513
1539 2558 1026
1539 2558 1539
1538 2557 2048
1538 2556 2556
1538 2557 3069
1538 2557 3582
1539 2556 4095
1539 3070 0
1539 3071 513
1539 3071 1026
1539 3071 1539
1539 3070 2048
1538 3069 2557
1538 3069 3069
1539 3069 3582
1539 3069 4095
1539 3582 0
1539 3583 513
1539 3584 1026
1539 3584 1539
1539 3583 2048
1538 3582 2557
1539 3582 3069
1539 3582 3582
1539 3582 4095
1539 4095 0
1539 4095 513
1538 4095 1026
1539 4095 1539
1538 4095 2047
1538 4095 2556
1539 4095 3069
1539 4095 3582
1539 4095 4095
1706 234 0
1707 234 511
1707 234 1008
1707 234 1512
1706 234 2012
1705 234 2511
1706 234 3015
1706 234 3519
1705 234 4022
1949 582 0
1949 582 511
1949 582 1020
1949 582 1528
1948 582 2034
1948 582 2540
1948 582 3051
1948 582 3562
1949 583 4074
2048 1025 0
2049 1025 513
2049 1025 1026
2049 1025 1539
2048 1025 2048
2047 1025 2556
2048 1025 3069
2048 1025 3582
2048 1025 4095
2048 1539 0
2049 1539 513
2049 1539 1026
2049 1539 1539
2048 1539 2048
2047 1538 2557
2048 1539 3070
2048 1539 3583
2048 1539 4095
2048 2048 0
2048 2048 513
2048 2048 1026
2048 2048 1539
2048 2048 2048
2047 2047 2556
2047 2047 3069
2047 2047 3582
2048 2048 4095
2047 2556 0
2047 2557 513
2047 2557 1026
2048 2557 1538
2047 2557 2047
2046 2556 2556
2047 2556 3068
2047 2556 3581
2047 2556 4094
2047 3069 0
2047 3069 513
2048 3070 1026
2048 3070 1539
2047 3069 2047
2047 3068 2556
2047 3069 3069
2047 3069 3581
2047 3069 4094
2047 3582 0
2048 3582 513
2048 3582 1026
2048 3583 1539
2047 3582 2047
2047 3581 2556
2047 3581 3069
2047 3582 3582
2047 3582 4095
2048 4095 0
2047 4095 511
2048 4095 1027
2048 4095 1539
2048 4095 2048
2047 4094 2557
2047 4094 3069
2047 4095 3582
2047 4095 4095
2141 396 0
2141 396 513
2142 396 1023
2142 396 1535
2141 396 2042
2140 396 2549
2141 396 3061
2141 396 3572
2141 396 4084
2321 738 0
2322 738 512
2322 738 1024
2322 738 1535
2321 738 2043
2320 737 2551
2320 738 3063
2321 738 3575
2321 738 4087
2500 1084 0
2500 1084 513
2500 1083 1026
2501 1084 1539
2500 1083 2047
2499 1083 2556
2499 1083 3069
2499 1084 3582
2499 1084 4095
2556 1538 0
2557 1538 513
2558 1539 1026
2558 1539 1539
2557 1538 2047
2556 1538 2556
2556 1538 3069
2556 1538 3582
2556 1538 4095
2556 2047 0
2556 2047 513
2556 2047 1026
2557 2048 1538
2556 2047 2047
2555 2046 2555
2555 2047 3068
2556 2047 3581
2556 2047 4094
2555 2556 0
2555 2556 513
2556 2556 1026
2556 2556 1538
2555 2556 2046
2554 2555 2555
2555 2555 3067
2555 2556 3580
2555 2556 4093
2556 3069 0
2556 3069 513
2556 3069 1026
2557 3069 1538
2556 3068 2047
2555 3068 2555
2556 3068 3068
2556 3068 3581
2556 3069 4093
2556 3581 0
2556 3582 513
2556 3582 1026
2557 3582 1538
2556 3581 2047
2556 3580 2556
2556 3581 3068
2556 3581 3581
2556 3582 4094
2557 4094 3
2557 4094 514
2556 4095 1026
2556 4095 1539
2556 4094 2047
2556 4093 2556
2556 4093 3069
2556 4094 3582
2557 4094 4094
2547 631 0
2547 631 513
2547 631 1031
2548 631 1557
2546 631 2071
2546 631 2576
2546 631 3082
2546 631 3589
2546 631 4095
2703 955 0
2704 955 515
2704 955 1033
2704 955 1553
2703 955 2069
2702 955 2577
2703 955 3083
2703 955 3589
2703 955 4095
2860 1281 0
2861 1281 515
2861 1281 1031
2861 1281 1548
2860 1281 2062
2859 1281 2573
2859 1281 3080
2859 1281 3587
2860 1281 4095
3012 1609 0
3013 1609 513
3014 1609 1028
3014 1609 1542
3013 1609 2052
3012 1609 2562
3012 1609 3073
3012 1609 3584
3012 1609 4095
3068 2047 0
3068 2047 513
3069 2048 1025
3069 2048 1538
3068 2047 2047
3067 2047 2555
3068 2047 3068
3068 2047 3581
3068 2047 4094
3068 2556 0
3068 2556 513
3068 2556 1026
3068 2557 1538
3067 2556 2046
3066 2555 2555
3067 2556 3067
3067 2556 3580
3068 2556 4093
3068 3072 0
3068 3072 513
3068 3072 1026
3068 3072 1539
3068 3072 2048
3067 3071 2556
3067 3071 3069
3068 3072 3582
3068 3072 4095
3069 3582 0
3069 3582 513
3069 3582 1026
3069 3582 1539
3069 3581 2047
3068 3581 2556
3069 3581 3069
3069 3581 3581
3069 3582 4094
3069 4095 3
3069 4095 514
3069 4095 1025
3069 4095 1538
3069 4094 2047
3068 4093 2556
3069 4094 3069
3069 4094 3582
3069 4094 4094
2921 900 0
2922 900 513
2922 900 1034
2923 900 1566
2921 900 2091
2921 900 2590
2921 900 3092
2921 900 3593
2921 900 4095
3073 1206 0
3074 1206 515
3074 1206 1038
3074 1206 1566
3073 1206 2093
3072 1206 2594
3072 1206 3094
3073 1206 3594
3073 1207 4095
3225 1515 0
3226 1515 517
3226 1515 1038
3227 1515 1561
3225 1515 2082
3224 1515 2593
3225 1515 3093
3225 1515 3594
3225 1515 4095
3377 1820 0
3378 1820 516
3379 1820 1034
3379 1820 1552
3378 1820 2068
3377 1820 2583
3377 1820 3086
3377 1820 3590
3377 1820 4095
3528 2123 0
3528 2123 514
3529 2123 1028
3529 2123 1543
3528 2123 2053
3527 2123 2564
3527 2123 3075
3528 2123 3585
3528 2123 4095
3581 2556 0
3581 2556 513
3582 2556 1026
3582 2557 1538
3581 2556 2047
3580 2556 2556
3581 2556 3068
3581 2556 3581
3581 2556 4094
3582 3072 0
3582 3072 513
3582 3072 1026
3582 3072 1539
3582 3072 2048
3581 3071 2557
3581 3071 3070
3581 3072 3583
3582 3072 4095
3582 3584 0
3582 3585 513
3582 3585 1026
3582 3585 1539
3582 3584 2048
3581 3584 2557
3581 3584 3070
3582 3584 3583
3582 3584 4095
3582 4095 0
3582 4095 509
3582 4095 1028
3582 4095 1539
3582 4095 2048
3582 4094 2557
3582 4094 3069
3582 4094 3582
3582 4095 4095
3297 1164 0
3298 1164 513
3298 1164 1032
3298 1164 1568
3297 1164 2099
3296 1164 2596
3296 1164 3096
3296 1164 3595
3296 1164 4095
3447 1460 0
3448 1460 515
3449 1460 1040
3449 1460 1572
3448 1460 2105
3447 1460 2604
3447 1459 3100
3447 1460 3597
3447 1460 4095
3597 1754 0
3598 1754 518
3599 1755 1042
3600 1755 1569
3598 1755 2095
3598 1754 2604
3598 1755 3100
3597 1754 3597
3597 1754 4095
3744 2046 0
3744 2046 519
3744 2046 1039
3745 2046 1561
3744 2046 2082
3743 2045 2595
3743 2045 3096
3744 2045 3595
3744 2046 4095
3893 2336 0
3893 2336 516
3894 2337 1034
3894 2337 1552
3893 2337 2067
3892 2336 2582
3893 2336 3088
3893 2336 3591
3893 2336 4095
4041 2635 0
4041 2635 514
4041 2635 1028
4041 2635 1542
4040 2635 2053
4039 2635 2563
4040 2635 3075
4040 2635 3585
4041 2635 4095
4095 3072 0
4095 3072 513
4095 3072 1026
4095 3072 1539
4094 3072 2048
4093 3072 2557
4094 3072 3070
4094 3072 3582
4094 3072 4095
4095 3585 0
4095 3585 514
4095 3585 1026
4095 3585 1539
4095 3585 2048
4094 3584 2557
4094 3584 3070
4094 3584 3583
4095 3585 4095
4095 4095 0
4095 4095 511
4095 4095 1024
4095 4095 1537
4095 4095 2046
4094 4094 2555
4094 4094 3069
4095 4095 3582
4095 4095 4095
