Examples/2D - Creamy Split toning.3dl
#25pt 3DLUT created by 3D LUT Creator Pro (c) Oleg Sharonov
#Copyright Oleg Sharonov
#IMAGEPROFILE 
#INPUTGAMMA 
#OUTPUTGAMMA 
0 128 256 384 512 640 768 896 1023
0 0 0
0 0 579
0 0 1161
0 0 1741
0 0 2323
0 0 2895
0 0 3341
0 0 3719
0 0 4095
0 513 0
0 445 509
0 481 1054
0 527 1603
0 558 2155
0 572 2719
0 544 3232
0 526 3671
0 513 4095
0 1025 0
0 976 493
0 987 951
0 1061 1465
0 1121 1986
0 1140 2548
0 1092 3120
0 1050 3621
0 1026 4095
0 1538 0
0 1482 508
0 1463 1023
0 1590 1417
0 1700 1851
0 1713 2372
0 1639 3009
0 1581 3567
0 1539 4095
0 2048 0
0 1990 526
0 1920 1097
0 2003 1544
0 2139 1943
0 2272 2322
0 2203 2901
0 2106 3527
0 2048 4095
0 2556 0
0 2494 544
0 2388 1158
0 2404 1659
0 2558 2035
0 2695 2437
0 2759 2875
0 2662 3482
0 2556 4094
0 3069 0
0 3013 553
0 2956 1113
0 2914 1662
0 2970 2123
0 3046 2567
0 3199 2962
0 3192 3471
0 3069 4094
0 3582 0
0 3559 526
0 3540 1052
0 3530 1571
0 3508 2099
0 3512 2603
0 3563 3076
0 3669 3515
3 3582 4095
2 4095 4
2 4095 515
0 4095 1026
0 4095 1539
0 4095 2048
0 4094 2556
0 4094 3069
3 4095 3582
3 4095 4095
513 0 0
252 0 803
320 0 1332
400 0 1846
414 0 2386
437 0 2936
437 0 3361
440 0 3728
440 0 4095
531 470 0
247 438 709
330 496 1208
418 507 1695
437 524 2215
459 532 2765
456 503 3255
456 487 3680
455 476 4092
520 1002 0
242 990 682
313 1026 1099
399 1071 1545
422 1100 2046
448 1116 2593
446 1063 3144
446 1025 3625
445 1002 4088
517 1532 0
246 1519 712
316 1524 1156
397 1618 1500
416 1704 1891
441 1700 2427
443 1614 3047
445 1565 3581
444 1525 4095
515 2043 0
245 2031 742
316 1960 1265
397 2039 1617
416 2143 1979
439 2272 2350
439 2173 2940
442 2085 3541
442 2030 4094
513 2554 0
246 2535 766
315 2399 1335
396 2439 1728
414 2560 2072
438 2692 2468
437 2747 2896
440 2639 3496
441 2536 4093
513 3067 0
246 3050 763
315 2969 1274
396 2918 1755
413 2963 2165
437 3048 2593
438 3182 2984
440 3171 3478
441 3045 4094
513 3582 0
246 3578 727
316 3547 1200
396 3524 1666
414 3475 2162
436 3492 2646
437 3554 3093
440 3643 3526
441 3556 4095
512 4095 4
247 4078 712
316 4069 1178
397 4079 1631
414 4063 2105
437 4070 2599
437 4066 3099
441 4068 3593
441 4066 4095
1025 0 0
803 0 671
726 0 1469
818 0 1952
857 0 2453
893 0 2977
881 0 3379
880 0 3740
883 0 4095
1060 438 0
765 373 593
734 494 1331
836 495 1785
885 492 2278
928 499 2808
917 473 3271
912 455 3686
912 445 4081
1043 982 0
748 865 560
688 1065 1213
795 1091 1629
856 1079 2113
905 1092 2639
901 1038 3167
899 997 3635
898 976 4081
1032 1526 0
757 1380 584
690 1580 1262
783 1648 1582
831 1701 1938
881 1687 2478
884 1599 3074
886 1547 3596
888 1509 4092
1030 2038 0
765 1888 603
694 2010 1384
789 2082 1695
834 2142 2015
877 2269 2377
877 2146 2974
883 2062 3557
887 2009 4092
1026 2553 0
766 2396 622
693 2419 1471
785 2479 1798
831 2559 2110
876 2685 2498
876 2735 2914
880 2609 3516
883 2510 4091
1026 3066 0
769 2904 649
694 2984 1403
785 2926 1848
830 2960 2205
874 3048 2620
877 3166 3004
880 3147 3491
884 3017 4093
1026 3582 0
769 3458 612
695 3560 1320
786 3518 1761
830 3447 2228
873 3470 2688
875 3544 3108
881 3614 3541
884 3526 4095
1026 4095 0
769 3995 595
695 4060 1298
787 4058 1725
832 4036 2164
874 4043 2642
875 4033 3126
879 4037 3608
884 4032 4095
1538 0 0
1382 0 617
1281 0 1288
1260 0 2028
1301 0 2518
1349 0 3019
1326 0 3401
1321 0 3750
1323 0 4095
1613 401 0
1366 348 554
1289 396 1174
1289 464 1854
1340 464 2341
1413 463 2856
1389 436 3294
1375 422 3691
1374 410 4073
1616 929 0
1328 843 517
1207 890 1069
1223 1073 1697
1286 1058 2175
1373 1060 2690
1369 1000 3198
1362 964 3644
1359 939 4075
1551 1523 0
1320 1392 539
1201 1400 1105
1198 1644 1638
1248 1691 2004
1326 1676 2535
1331 1578 3110
1332 1533 3612
1332 1492 4092
1549 2038 0
1331 1884 555
1221 1839 1192
1209 2090 1745
1247 2143 2052
1316 2253 2422
1320 2118 3016
1327 2046 3572
1331 1989 4092
1545 2553 0
1334 2379 573
1218 2260 1281
1202 2491 1844
1243 2561 2150
1315 2681 2531
1317 2716 2944
1321 2583 3536
1325 2487 4093
1542 3066 0
1337 2884 599
1221 2800 1256
1201 2907 1918
1242 2958 2247
1311 3050 2647
1318 3148 3027
1321 3124 3501
1324 2985 4093
1539 3582 0
1338 3441 564
1223 3403 1168
1203 3494 1832
1242 3420 2290
1307 3450 2730
1314 3533 3126
1321 3585 3554
1323 3491 4095
1539 4095 0
1339 3982 548
1225 3947 1143
1205 4038 1791
1245 4004 2224
1310 4020 2686
1314 4001 3157
1319 4004 3621
1323 3994 4095
2048 0 0
1975 0 622
1922 0 1251
1847 0 1899
1737 0 2538
1801 0 3039
1779 0 3411
1770 0 3755
1767 0 4095
2183 363 0
2049 322 569
1980 358 1161
1933 397 1776
1837 425 2392
1927 420 2903
1891 396 3325
1875 384 3710
1869 376 4083
2207 867 0
2041 804 527
1933 829 1064
1899 914 1643
1820 968 2238
1949 971 2759
1922 913 3243
1900 885 3675
1891 868 4091
2176 1439 0
2014 1372 545
1880 1368 1078
1807 1524 1537
1723 1614 2051
1855 1601 2595
1852 1508 3149
1848 1466 3638
1839 1433 4095
2085 2021 0
1945 1946 563
1829 1869 1170
1768 1998 1638
1677 2111 2058
1776 2225 2451
1774 2090 3041
1779 2026 3585
1778 1975 4095
2066 2545 0
1946 2455 580
1833 2303 1247
1766 2390 1745
1679 2528 2158
1780 2659 2543
1776 2675 2969
1776 2553 3551
1775 2466 4095
2053 3065 0
1947 2965 597
1835 2850 1209
1763 2814 1820
1673 2919 2257
1773 3036 2655
1775 3120 3037
1773 3090 3511
1770 2955 4095
2048 3582 0
1944 3512 566
1835 3446 1132
1762 3425 1722
1669 3364 2314
1762 3423 2750
1767 3510 3132
1770 3552 3558
1767 3457 4095
2048 4095 0
1947 4050 550
1839 3995 1109
1767 3989 1681
1674 3956 2246
1768 3996 2708
1765 3966 3172
1767 3971 3626
1766 3957 4095
2556 0 0
2491 0 594
2503 0 1191
2437 0 1788
2333 0 2394
2316 0 3065
2275 0 3424
2237 0 3761
2208 0 4094
2734 388 0
2642 332 545
2610 356 1116
2585 379 1695
2503 393 2281
2486 404 2955
2433 376 3361
2388 362 3731
2353 349 4092
2748 887 0
2623 817 506
2547 819 1017
2533 871 1565
2506 907 2129
2522 944 2809
2463 880 3274
2417 846 3693
2382 822 4095
2711 1439 0
2596 1360 522
2514 1336 1034
2460 1453 1453
2428 1524 1948
2476 1553 2659
2443 1449 3193
2399 1399 3653
2366 1360 4095
2643 1995 0
2546 1914 538
2469 1834 1114
2411 1924 1553
2352 2041 1964
2368 2187 2500
2343 2030 3089
2319 1967 3612
2291 1913 4095
2589 2538 0
2506 2450 553
2434 2307 1187
2369 2334 1668
2317 2472 2061
2334 2663 2569
2306 2650 3001
2277 2513 3574
2249 2424 4095
2562 3069 0
2485 2980 568
2410 2879 1149
2339 2799 1724
2278 2879 2154
2299 3061 2683
2279 3123 3057
2245 3072 3525
2216 2932 4095
2559 3581 0
2485 3523 540
2412 3462 1080
2342 3409 1623
2275 3347 2188
2288 3455 2774
2270 3517 3150
2243 3535 3568
2213 3425 4095
2556 4094 3
2486 4056 527
2414 4008 1055
2345 3972 1585
2277 3940 2119
2292 4029 2732
2264 3977 3190
2236 3954 3634
2208 3921 4094
3069 0 0
3023 0 553
3038 0 1118
2996 0 1673
2925 0 2240
2915 0 2893
2955 0 3393
2870 0 3745
2785 0 4095
3238 502 0
3168 424 491
3158 432 1035
3161 451 1581
3118 457 2124
3112 478 2762
3142 479 3312
3065 429 3713
2979 400 4095
3250 993 0
3167 922 474
3099 899 941
3114 937 1460
3127 967 1989
3134 1010 2610
3159 993 3226
3079 925 3669
2993 881 4095
3206 1521 0
3123 1439 490
3065 1388 990
3027 1482 1372
3015 1567 1806
3058 1594 2446
3105 1553 3131
3026 1470 3627
2940 1406 4095
3156 2045 0
3087 1959 504
3030 1856 1055
3005 1916 1487
2975 2020 1876
2985 2198 2317
3035 2120 3042
2968 2012 3583
2885 1932 4095
3110 2570 0
3050 2479 519
3000 2340 1116
2957 2318 1598
2931 2443 1966
2948 2623 2428
2993 2749 2954
2914 2571 3550
2830 2449 4095
3080 3084 0
3027 2997 530
2975 2900 1078
2921 2802 1621
2882 2845 2054
2900 2989 2546
2968 3190 3033
2881 3130 3503
2793 2963 4095
3076 3591 0
3026 3533 503
2976 3471 1016
2924 3413 1518
2878 3341 2048
2888 3398 2614
2952 3571 3129
2879 3586 3549
2789 3453 4095
3069 4094 3
3023 4056 491
2976 4011 989
2927 3963 1482
2882 3916 1985
2893 3975 2562
2949 4064 3143
2869 4006 3614
2786 3952 4094
3582 0 0
3561 0 516
3553 0 1043
3538 0 1563
3515 0 2088
3510 0 2704
3529 0 3267
3563 0 3705
3442 0 4095
3677 673 0
3627 596 446
3606 592 929
3636 637 1431
3626 658 1919
3628 690 2510
3641 693 3117
3664 680 3641
3568 615 4095
3692 1186 0
3639 1126 450
3587 1088 903
3590 1171 1313
3614 1228 1764
3641 1251 2360
3657 1238 3010
3679 1206 3597
3580 1123 4095
3667 1675 0
3615 1605 464
3576 1538 957
3570 1617 1347
3570 1706 1740
3580 1792 2215
3626 1758 2903
3653 1708 3553
3550 1612 4095
3645 2158 0
3603 2083 478
3566 1980 1005
3565 2001 1457
3569 2115 1825
3566 2261 2239
3590 2291 2817
3628 2206 3522
3520 2098 4095
3619 2645 0
3587 2558 498
3558 2439 1044
3536 2366 1552
3535 2488 1899
3549 2647 2328
3574 2777 2838
3603 2738 3487
3490 2584 4095
3600 3130 0
3573 3053 495
3544 2965 1004
3517 2870 1519
3502 2864 1968
3510 2974 2429
3555 3172 2905
3586 3226 3499
3465 3068 4095
3594 3613 0
3570 3563 470
3542 3501 950
3515 3453 1418
3493 3382 1910
3498 3393 2463
3529 3498 3005
3584 3677 3519
3457 3549 4095
3582 4095 0
3562 4061 454
3537 4016 925
3514 3972 1386
3493 3923 1854
3497 3939 2398
3525 4001 2975
3562 4075 3562
3444 4027 4095
4095 0 0
4095 0 482
4095 0 967
4095 0 1454
4095 0 1937
4095 0 2510
4095 0 3135
4095 0 3621
4095 0 4095
4095 850 0
4067 802 411
4029 782 818
4078 837 1273
4095 876 1707
4095 914 2252
4095 924 2898
4095 869 3521
4095 850 4095
4095 1392 0
4062 1342 425
4036 1303 864
4031 1383 1217
4058 1468 1591
4093 1527 2081
4095 1522 2754
4095 1429 3462
4095 1392 4095
4095 1843 0
4066 1785 439
4045 1715 906
4072 1763 1329
4074 1860 1664
4076 1980 2045
4095 2003 2640
4095 1886 3413
4095 1843 4095
4094 2291 0
4074 2229 452
4060 2136 945
4077 2106 1422
4085 2210 1753
4089 2344 2144
4092 2489 2590
4090 2351 3383
4094 2291 4095
4094 2740 0
4084 2660 475
4073 2569 960
4071 2463 1479
4079 2541 1828
4086 2681 2216
4095 2836 2701
4095 2860 3335
4094 2740 4095
4095 3193 0
4088 3127 460
4082 3053 926
4077 2971 1406
4078 2921 1860
4080 3014 2284
4094 3155 2793
4095 3271 3376
4095 3193 4095
4095 3645 0
4092 3601 439
4087 3546 881
4085 3506 1315
4082 3444 1768
4081 3411 2303
4080 3473 2864
4095 3663 3425
4095 3645 4095
4095 4095 0
4095 4064 426
4094 4024 854
4094 3982 1287
4093 3935 1719
4091 3922 2227
4092 3961 2811
4095 4036 3451
4095 4095 4095
