Examples/2D - Saturate.3dl
#25pt 3DLUT created by 3D LUT Creator Pro (c) Oleg Sharonov
#Copyright Oleg Sharonov
0 43 86 128 171 214 256 299 341 384 427 469 512 555 597 640 682 725 768 810 853 896 938 981 1023 
0 0 0
0 0 178
0 0 342
0 0 513
0 0 684
0 0 852
0 0 1024
0 0 1198
0 0 1365
0 0 1538
0 0 1708
0 0 1881
0 0 2047
0 0 2214
0 0 2385
0 0 2555
0 0 2729
0 0 2898
0 0 3069
0 0 3241
0 0 3411
0 0 3582
0 0 3753
0 0 3924
0 0 4095
0 171 0
0 171 171
0 171 342
0 171 514
0 164 693
0 149 879
0 147 1052
0 145 1228
0 132 1406
0 125 1585
0 118 1763
0 116 1937
0 101 2117
0 99 2286
0 87 2470
0 85 2643
0 78 2820
0 70 2999
0 58 3183
0 69 3344
0 78 3505
0 142 3611
0 171 3753
0 171 3924
0 171 4095
0 340 0
0 342 171
0 340 340
0 342 512
0 335 690
0 313 888
0 295 1078
0 291 1251
0 276 1437
0 256 1627
0 242 1811
0 233 1989
0 217 2174
0 200 2357
0 186 2543
0 171 2728
0 162 2907
0 148 3091
0 128 3282
0 126 3456
0 146 3606
0 219 3704
0 313 3782
0 342 3924
0 342 4095
0 513 0
0 513 171
0 513 342
0 513 513
0 506 691
0 484 886
0 459 1084
0 437 1277
0 422 1464
0 401 1653
0 373 1853
0 357 2039
0 334 2226
0 316 2411
0 287 2610
0 270 2798
0 249 2992
0 233 3178
0 206 3376
0 196 3557
0 204 3720
0 288 3807
0 390 3875
0 484 3953
0 513 4095
0 683 0
0 691 166
0 690 337
0 690 508
0 684 684
0 662 880
0 637 1077
0 609 1277
0 582 1474
0 559 1667
0 532 1867
0 502 2065
0 477 2256
0 453 2445
0 424 2644
0 395 2844
0 373 3039
0 348 3234
0 319 3433
0 303 3621
0 303 3792
0 375 3891
0 488 3949
0 591 4017
0 684 4095
0 855 0
0 875 156
0 881 322
0 881 493
0 875 669
0 854 854
0 831 1052
0 804 1253
0 774 1450
0 748 1647
0 720 1845
0 692 2046
0 665 2241
0 640 2432
0 611 2630
0 582 2829
0 553 3030
0 528 3225
0 499 3425
0 481 3615
0 474 3792
0 538 3899
0 639 3969
0 752 4027
0 855 4095
0 1025 0
0 1047 154
0 1066 309
0 1072 475
0 1066 651
0 1047 837
0 1026 1026
0 1000 1226
0 972 1425
0 942 1622
0 915 1822
0 886 2021
0 858 2217
0 831 2412
0 802 2610
0 773 2809
0 745 3009
0 716 3207
0 688 3407
0 670 3597
0 662 3776
0 718 3889
0 811 3967
0 913 4037
0 1026 4095
0 1197 0
0 1219 151
0 1240 304
0 1258 460
0 1258 631
0 1240 818
0 1220 1006
0 1197 1197
0 1169 1396
0 1141 1593
0 1113 1793
0 1086 1993
0 1057 2188
0 1029 2384
0 1000 2584
0 971 2782
0 942 2982
0 915 3181
0 888 3379
0 870 3567
0 861 3747
0 917 3863
0 1003 3947
0 1096 4025
0 1197 4095
0 1368 0
0 1399 143
0 1422 294
0 1442 448
0 1449 612
0 1433 799
0 1413 987
0 1390 1177
0 1368 1368
0 1340 1566
0 1311 1764
0 1284 1964
0 1257 2160
0 1228 2355
0 1199 2555
0 1170 2755
0 1141 2955
0 1113 3153
0 1087 3350
0 1066 3542
0 1056 3722
0 1104 3846
0 1188 3933
0 1274 4017
0 1367 4095
0 1538 0
0 1576 138
0 1608 281
0 1630 434
0 1640 597
0 1625 782
0 1606 969
0 1583 1157
0 1562 1348
0 1539 1539
0 1510 1737
0 1481 1935
0 1455 2131
0 1427 2326
0 1399 2526
0 1370 2726
0 1341 2925
0 1313 3125
0 1287 3322
0 1266 3513
0 1250 3699
0 1296 3825
0 1368 3924
0 1452 4010
0 1539 4095
0 1710 0
0 1753 133
0 1791 270
0 1822 414
0 1833 576
0 1818 761
0 1798 949
0 1775 1138
0 1755 1328
0 1733 1519
0 1710 1710
0 1681 1908
0 1653 2102
0 1626 2297
0 1597 2497
0 1569 2697
0 1541 2896
0 1512 3096
0 1485 3293
0 1465 3484
0 1450 3671
0 1484 3808
0 1553 3909
0 1625 4008
0 1709 4095
0 1881 0
0 1925 131
0 1968 264
0 2006 401
0 2026 555
0 2011 739
0 1991 927
0 1967 1117
0 1945 1308
0 1925 1499
0 1903 1691
0 1881 1881
0 1852 2075
0 1823 2268
0 1794 2468
0 1766 2668
0 1739 2867
0 1712 3067
0 1683 3264
0 1662 3455
0 1649 3642
0 1683 3779
0 1739 3895
0 1808 3996
0 1880 4095
0 2048 0
0 2102 123
0 2147 254
0 2192 386
0 2214 538
0 2199 719
0 2181 906
0 2158 1097
0 2133 1288
0 2112 1479
0 2092 1670
0 2070 1861
0 2047 2047
0 2018 2241
0 1990 2440
0 1961 2640
0 1933 2839
0 1906 3038
0 1879 3237
0 1854 3430
0 1839 3617
0 1868 3761
0 1922 3878
0 1978 3994
0 2048 4095
0 2214 0
0 2271 122
0 2325 244
0 2372 375
0 2400 522
0 2388 701
0 2370 886
0 2348 1077
0 2325 1268
0 2300 1459
0 2279 1650
0 2259 1840
0 2236 2027
0 2214 2214
0 2185 2413
0 2156 2613
0 2128 2811
0 2099 3009
0 2073 3208
0 2050 3402
0 2030 3591
0 2056 3737
0 2105 3861
0 2159 3979
0 2214 4094
0 2385 0
0 2452 111
0 2508 232
0 2563 353
0 2592 500
0 2580 681
0 2563 866
0 2541 1057
0 2519 1248
0 2496 1439
0 2473 1630
0 2452 1820
0 2430 2007
0 2407 2194
0 2385 2385
0 2356 2585
0 2327 2784
0 2298 2982
0 2270 3180
0 2248 3374
0 2230 3562
0 2243 3721
0 2284 3853
0 2331 3977
0 2385 4094
0 2556 0
0 2625 110
0 2692 221
0 2748 340
0 2783 479
0 2772 660
0 2756 847
0 2734 1037
0 2712 1228
0 2690 1419
0 2668 1610
0 2645 1801
0 2623 1987
0 2600 2174
0 2578 2365
0 2556 2556
0 2527 2756
0 2498 2955
0 2469 3152
0 2445 3347
0 2427 3535
0 2441 3694
0 2470 3838
0 2509 3970
0 2556 4094
0 2727 0
0 2803 105
0 2872 214
0 2938 325
0 2975 463
0 2966 640
0 2950 827
0 2927 1017
0 2905 1208
0 2883 1399
0 2861 1590
0 2839 1781
0 2816 1967
0 2793 2154
0 2771 2345
0 2749 2536
0 2727 2727
0 2698 2926
0 2669 3123
0 2643 3320
0 2621 3513
0 2632 3673
0 2659 3818
0 2687 3962
2 2729 4095
0 2898 0
0 2979 100
0 3054 204
0 3122 313
0 3166 445
0 3157 623
0 3142 806
0 3120 998
0 3098 1188
0 3076 1379
0 3053 1570
0 3031 1761
0 3009 1948
0 2986 2134
0 2964 2325
0 2942 2516
0 2920 2707
0 2898 2898
0 2869 3095
0 2842 3291
0 2818 3486
0 2818 3657
0 2843 3804
0 2869 3950
0 2898 4095
0 3069 0
0 3158 91
0 3238 190
0 3311 295
0 3357 425
0 3350 603
0 3336 787
0 3314 978
0 3291 1168
0 3269 1359
0 3245 1550
0 3222 1741
0 3201 1928
0 3179 2114
0 3157 2305
0 3135 2496
0 3113 2687
0 3091 2878
0 3069 3069
0 3043 3264
0 3018 3458
0 3011 3636
0 3018 3800
0 3043 3948
0 3069 4095
0 3240 0
0 3321 98
0 3410 189
0 3489 288
0 3539 414
0 3534 590
0 3520 774
0 3498 965
0 3479 1154
0 3456 1345
0 3432 1536
0 3408 1727
0 3389 1911
0 3368 2098
0 3347 2289
0 3325 2479
0 3304 2668
0 3282 2859
0 3260 3050
0 3240 3240
0 3216 3433
0 3208 3611
0 3208 3782
0 3216 3946
0 3240 4095
0 3411 0
0 3484 105
0 3565 202
0 3654 293
0 3710 414
0 3710 585
0 3698 767
0 3676 958
0 3656 1147
0 3638 1336
0 3614 1527
0 3590 1718
0 3571 1901
0 3552 2085
0 3532 2276
0 3512 2465
0 3492 2652
0 3470 2841
0 3448 3032
0 3429 3222
0 3411 3411
0 3403 3589
0 3403 3760
0 3403 3931
0 3411 4095
0 3582 0
0 3605 150
0 3678 255
0 3759 353
0 3825 465
0 3831 631
0 3823 808
0 3803 997
0 3790 1180
0 3773 1368
0 3759 1552
0 3735 1743
0 3721 1921
0 3704 2102
0 3692 2285
0 3673 2475
0 3655 2660
0 3642 2842
0 3625 3027
0 3605 3217
0 3588 3405
0 3582 3582
0 3582 3753
0 3582 3924
3 3582 4095
0 3753 0
0 3753 171
0 3776 321
0 3849 425
0 3907 545
0 3923 702
0 3921 875
0 3906 1059
0 3895 1240
0 3888 1417
0 3876 1600
0 3864 1783
0 3852 1959
0 3839 2136
0 3833 2313
0 3822 2495
0 3807 2679
0 3795 2859
0 3790 3033
0 3776 3217
0 3758 3405
0 3753 3582
0 3753 3753
0 3753 3924
0 3753 4095
0 3924 0
0 3924 171
0 3924 342
0 3947 492
0 3997 618
0 4004 782
0 4013 946
0 4003 1125
0 3997 1301
0 3992 1477
0 3991 1650
0 3980 1831
0 3979 1999
0 3967 2174
0 3966 2346
0 3961 2523
0 3955 2699
0 3946 2878
0 3943 3050
0 3941 3222
0 3929 3405
0 3924 3582
0 3924 3753
0 3924 3924
0 3924 4095
3 4095 3
3 4095 174
3 4095 342
3 4095 514
3 4095 685
0 4095 855
0 4095 1026
2 4095 1198
0 4095 1368
0 4095 1539
0 4095 1710
2 4095 1882
0 4095 2048
0 4094 2214
0 4094 2385
0 4094 2556
0 4094 2727
0 4095 2898
0 4095 3069
1 4095 3246
1 4095 3414
3 4095 3582
3 4095 3753
6 4095 3924
3 4095 4095
168 0 0
171 0 171
168 0 338
168 0 510
161 0 692
136 0 894
133 0 1062
129 0 1238
111 0 1430
100 0 1608
90 0 1795
87 0 1966
66 0 2150
63 0 2325
42 0 2513
39 0 2690
29 0 2870
18 0 3051
0 0 3240
16 0 3396
29 0 3553
127 0 3626
171 0 3753
171 0 3924
171 0 4095
171 171 0
172 172 172
171 171 342
171 171 513
161 163 704
136 149 913
133 146 1091
129 145 1268
111 125 1477
100 123 1657
90 116 1847
87 109 2029
66 100 2222
63 91 2402
42 87 2598
39 78 2781
29 74 2968
18 58 3165
0 69 3343
16 78 3490
29 127 3598
127 166 3631
171 171 3753
171 171 3924
171 171 4095
171 342 0
171 340 171
171 342 342
171 342 514
160 334 706
136 308 928
133 294 1118
129 290 1294
111 269 1503
100 247 1706
90 238 1898
87 224 2086
66 207 2287
63 190 2475
42 176 2681
39 164 2867
29 151 3060
18 130 3264
0 126 3457
15 144 3593
29 205 3692
128 244 3724
171 313 3782
171 342 3923
171 342 4095
171 513 0
171 513 171
171 513 342
171 513 513
161 505 704
136 479 929
133 453 1131
129 436 1320
111 414 1532
100 390 1736
90 362 1948
87 346 2134
66 322 2343
63 297 2540
42 275 2753
39 253 2949
29 237 3145
18 208 3356
0 196 3558
16 202 3707
29 269 3797
127 317 3822
171 390 3875
171 484 3953
171 513 4095
167 689 0
167 697 166
167 697 337
167 697 508
157 689 696
132 665 921
129 638 1123
125 608 1327
107 581 1543
96 556 1750
86 525 1964
83 496 2165
62 470 2376
59 442 2574
39 408 2797
36 383 2995
27 357 3201
16 325 3415
0 303 3622
14 305 3777
27 358 3882
123 409 3907
167 493 3949
167 597 4017
164 689 4095
158 875 0
158 895 156
158 903 321
158 904 493
148 895 681
125 868 896
122 841 1099
119 814 1303
103 779 1522
92 750 1730
83 718 1945
80 690 2147
61 657 2362
58 628 2559
39 594 2780
36 564 2984
27 536 3193
17 504 3404
0 481 3614
14 476 3777
27 526 3886
117 578 3919
158 657 3972
158 770 4029
158 875 4095
156 1048 0
156 1069 153
156 1089 309
156 1097 474
146 1089 662
123 1064 876
120 1041 1071
117 1012 1275
101 979 1494
90 947 1706
81 916 1920
78 885 2122
59 853 2339
56 823 2540
38 788 2761
35 758 2964
26 726 3175
16 694 3386
0 670 3597
14 664 3760
26 707 3876
115 762 3908
156 837 3965
156 934 4037
156 1048 4095
154 1222 0
154 1244 151
154 1265 304
154 1283 460
144 1283 643
122 1258 856
119 1236 1049
116 1212 1246
100 1177 1464
90 1145 1676
81 1115 1890
78 1086 2093
59 1050 2310
56 1020 2511
38 985 2734
35 955 2937
26 924 3149
16 894 3358
0 870 3568
14 865 3731
26 908 3848
114 960 3882
154 1031 3945
154 1124 4022
154 1222 4095
147 1402 0
147 1437 140
147 1460 292
147 1481 446
137 1485 624
115 1461 837
112 1440 1029
109 1416 1224
93 1387 1437
83 1354 1648
75 1322 1861
72 1295 2065
55 1256 2281
52 1226 2482
35 1188 2706
33 1158 2910
24 1125 3120
15 1094 3331
0 1066 3543
13 1061 3706
24 1098 3829
108 1155 3868
147 1225 3932
147 1308 4017
147 1402 4095
142 1579 0
142 1617 138
143 1653 278
143 1675 431
134 1681 608
113 1657 820
110 1636 1011
107 1612 1204
93 1583 1415
83 1554 1621
75 1521 1833
72 1492 2035
55 1456 2252
52 1426 2453
35 1388 2677
33 1358 2880
24 1325 3091
15 1294 3302
0 1266 3514
13 1256 3683
24 1292 3808
106 1349 3847
142 1413 3921
142 1495 4009
142 1579 4095
137 1757 0
137 1801 131
137 1840 269
137 1876 408
128 1883 585
108 1858 797
105 1835 990
102 1811 1184
88 1783 1395
79 1755 1599
71 1727 1805
69 1697 2007
53 1658 2223
50 1627 2424
33 1589 2648
31 1560 2851
23 1526 3062
14 1493 3272
0 1465 3485
12 1457 3654
23 1485 3788
101 1541 3833
137 1605 3907
137 1676 4006
137 1757 4095
