Examples/2D - Shape Reds.3dl
#25pt 3DLUT created by 3D LUT Creator Pro (c) Oleg Sharonov
#Copyright Oleg Sharonov
0 43 86 128 171 214 256 299 341 384 427 469 512 555 597 640 682 725 768 810 853 896 938 981 1023 
0 0 0
0 0 178
0 0 342
0 0 513
0 0 684
0 0 852
0 0 1024
0 0 1198
0 0 1365
0 0 1538
0 0 1708
0 0 1881
0 0 2047
0 0 2214
0 0 2385
0 0 2555
0 0 2729
0 0 2898
0 0 3069
0 0 3241
0 0 3411
0 0 3582
0 0 3753
0 0 3924
0 0 4095
0 171 0
0 171 171
0 171 342
0 171 514
0 171 685
0 171 854
0 171 1025
0 171 1199
0 171 1366
0 171 1538
0 171 1709
0 171 1881
0 171 2047
0 171 2214
0 171 2385
0 171 2556
0 171 2727
0 171 2898
0 171 3069
0 171 3241
0 171 3412
0 171 3582
0 171 3753
0 171 3924
0 171 4095
0 340 0
0 342 171
0 340 340
0 342 512
0 342 683
0 342 856
0 342 1027
0 342 1196
0 342 1369
0 342 1540
0 342 1711
0 342 1880
0 342 2049
0 342 2216
0 342 2386
0 342 2557
0 342 2728
0 342 2897
0 342 3068
0 342 3240
0 342 3411
0 342 3582
0 342 3753
0 342 3924
0 342 4095
0 513 0
0 513 171
0 513 342
0 513 513
0 513 684
0 513 854
0 513 1025
0 513 1197
0 513 1369
0 513 1538
0 513 1711
0 513 1881
0 513 2047
0 513 2214
0 513 2384
0 513 2555
0 513 2728
0 513 2898
0 513 3069
0 513 3240
0 513 3411
0 513 3582
0 513 3753
0 513 3924
0 513 4095
0 683 0
0 684 171
0 684 342
0 684 513
0 684 684
0 685 856
0 684 1026
0 685 1197
0 685 1368
0 684 1538
0 684 1711
0 683 1881
0 683 2047
0 683 2214
0 683 2385
0 683 2556
0 684 2728
0 683 2898
0 683 3069
0 684 3240
0 684 3411
0 684 3582
0 684 3753
0 684 3924
0 684 4095
0 855 0
0 855 171
0 855 342
0 855 513
0 855 685
0 854 854
0 855 1026
0 855 1197
0 854 1368
0 855 1539
0 854 1710
0 855 1881
0 855 2048
0 855 2215
0 855 2386
0 855 2556
0 855 2728
0 855 2898
0 855 3069
0 855 3241
0 855 3411
0 855 3582
0 855 3753
0 855 3924
0 855 4095
0 1025 0
0 1026 171
0 1026 342
0 1026 513
0 1026 685
0 1026 854
0 1026 1026
0 1026 1197
0 1026 1368
0 1026 1539
0 1026 1711
0 1026 1881
0 1025 2048
0 1025 2215
0 1025 2386
0 1025 2557
0 1026 2728
0 1025 2898
0 1025 3069
0 1026 3241
0 1026 3411
0 1025 3582
0 1025 3753
0 1026 3924
0 1026 4095
0 1197 0
0 1197 171
0 1197 342
0 1197 513
0 1197 685
0 1197 855
0 1197 1026
0 1197 1197
0 1197 1368
0 1197 1539
0 1197 1710
0 1197 1881
0 1197 2048
0 1197 2215
0 1197 2386
0 1197 2557
0 1196 2728
0 1197 2899
0 1197 3070
0 1196 3240
0 1197 3412
0 1197 3583
0 1197 3754
0 1197 3924
0 1197 4095
0 1368 0
0 1368 171
0 1368 342
0 1368 513
0 1368 684
0 1368 855
0 1368 1026
0 1368 1197
0 1368 1368
0 1368 1539
0 1368 1710
0 1368 1881
0 1368 2048
0 1368 2216
0 1368 2386
0 1368 2558
0 1367 2728
0 1367 2899
0 1367 3069
0 1367 3241
0 1368 3411
0 1368 3582
0 1368 3753
0 1368 3924
0 1368 4095
0 1538 0
0 1538 171
0 1538 342
0 1539 513
0 1539 684
0 1539 855
0 1539 1026
0 1539 1197
0 1539 1368
0 1539 1539
0 1539 1710
0 1539 1881
0 1539 2048
0 1538 2215
0 1538 2386
0 1538 2557
0 1539 2728
0 1539 2899
0 1539 3070
0 1539 3241
0 1538 3411
0 1538 3582
0 1538 3753
0 1539 3924
0 1539 4095
0 1710 0
0 1710 171
0 1710 342
0 1710 513
0 1710 684
0 1710 855
0 1710 1026
0 1710 1197
0 1710 1368
0 1710 1539
0 1710 1710
0 1710 1881
0 1710 2048
0 1709 2215
0 1710 2386
0 1710 2557
0 1709 2728
0 1710 2899
0 1710 3070
0 1709 3241
0 1709 3411
0 1710 3583
0 1710 3753
0 1710 3924
0 1710 4095
0 1881 0
0 1880 171
0 1881 342
0 1881 513
0 1881 684
0 1881 855
0 1881 1026
0 1881 1197
0 1881 1368
0 1881 1539
0 1881 1710
0 1881 1881
0 1881 2048
0 1880 2215
0 1880 2386
0 1880 2557
0 1880 2728
0 1880 2899
0 1880 3070
0 1880 3240
0 1880 3411
0 1880 3582
0 1880 3753
0 1880 3924
0 1880 4095
0 2048 0
0 2048 171
0 2048 342
0 2048 513
0 2048 684
0 2048 855
0 2048 1025
0 2048 1197
0 2048 1368
0 2048 1539
0 2048 1710
0 2048 1881
0 2047 2047
0 2047 2214
0 2047 2385
0 2047 2556
0 2047 2727
0 2047 2898
0 2047 3069
0 2047 3240
0 2047 3411
0 2047 3582
0 2047 3753
0 2048 3924
0 2048 4095
0 2214 0
0 2215 171
0 2214 342
0 2214 513
0 2215 684
0 2215 855
0 2215 1025
0 2215 1197
0 2215 1367
0 2215 1538
0 2215 1709
0 2215 1880
0 2214 2047
0 2214 2214
0 2214 2384
0 2214 2555
0 2214 2727
0 2214 2897
0 2214 3068
0 2214 3239
0 2214 3410
0 2214 3581
0 2214 3752
0 2215 3923
0 2214 4094
0 2385 0
0 2385 171
0 2385 342
0 2385 513
0 2385 684
0 2386 855
0 2386 1026
0 2386 1197
0 2386 1367
0 2386 1538
0 2386 1710
0 2386 1880
0 2385 2047
0 2385 2214
0 2385 2385
0 2385 2556
0 2385 2727
0 2385 2898
0 2385 3069
0 2385 3239
0 2385 3410
0 2385 3581
0 2385 3752
0 2385 3923
0 2385 4094
0 2556 0
0 2557 171
0 2556 342
0 2556 513
0 2557 684
0 2557 855
0 2557 1026
0 2557 1197
0 2557 1367
0 2557 1538
0 2557 1709
0 2557 1880
0 2556 2047
0 2556 2214
0 2556 2385
0 2556 2556
0 2556 2727
0 2556 2898
0 2556 3069
0 2556 3240
0 2556 3410
0 2556 3581
0 2556 3752
0 2556 3923
0 2556 4094
0 2727 0
0 2727 171
0 2727 342
0 2727 513
0 2728 684
0 2728 855
0 2728 1026
0 2728 1196
0 2728 1367
0 2728 1539
0 2728 1709
0 2728 1880
0 2727 2047
0 2727 2214
0 2727 2385
0 2727 2556
0 2727 2727
0 2727 2898
0 2727 3069
0 2727 3240
0 2727 3411
0 2727 3582
0 2727 3753
0 2727 3923
3 2727 4094
0 2898 0
0 2898 171
0 2898 342
0 2898 513
0 2898 684
0 2899 855
0 2899 1025
0 2899 1197
0 2899 1367
0 2899 1539
0 2899 1710
0 2899 1880
0 2898 2047
0 2897 2214
0 2897 2385
0 2898 2556
0 2898 2727
0 2898 2898
0 2898 3069
0 2898 3240
0 2898 3411
0 2898 3582
0 2898 3753
0 2898 3923
0 2898 4094
0 3069 0
0 3069 171
0 3069 342
0 3069 513
0 3069 684
0 3070 855
0 3070 1026
0 3070 1197
0 3070 1367
0 3070 1539
0 3070 1709
0 3070 1880
0 3069 2047
0 3068 2214
0 3068 2385
0 3069 2556
0 3069 2727
0 3069 2898
0 3069 3069
0 3069 3240
0 3069 3411
0 3069 3582
0 3069 3753
0 3069 3924
0 3069 4095
0 3240 0
0 3240 171
0 3240 342
0 3240 513
0 3240 684
0 3241 855
0 3241 1026
0 3241 1197
0 3241 1367
0 3241 1539
0 3241 1709
0 3240 1880
0 3240 2047
0 3239 2214
0 3240 2385
0 3240 2556
0 3240 2727
0 3240 2898
0 3240 3069
0 3240 3240
0 3240 3411
0 3240 3582
0 3240 3753
0 3240 3923
0 3240 4095
0 3411 0
0 3411 171
0 3411 342
0 3411 513
0 3411 684
0 3411 855
0 3411 1026
0 3411 1197
0 3411 1368
0 3411 1539
0 3411 1710
0 3411 1880
0 3411 2047
0 3410 2214
0 3410 2385
0 3410 2556
0 3411 2727
0 3411 2898
0 3411 3069
0 3411 3240
0 3411 3411
0 3411 3582
0 3411 3753
0 3411 3924
0 3411 4095
0 3582 0
0 3582 171
0 3582 342
0 3582 513
0 3582 684
0 3582 855
0 3582 1026
0 3582 1197
0 3582 1368
0 3582 1539
0 3582 1710
0 3582 1881
0 3582 2047
0 3581 2214
0 3581 2385
0 3581 2556
0 3581 2727
0 3582 2898
0 3582 3069
0 3582 3240
0 3582 3411
0 3582 3582
0 3582 3753
0 3582 3924
3 3582 4095
0 3753 0
0 3753 171
0 3753 342
0 3753 513
0 3753 684
0 3753 855
0 3753 1026
0 3753 1197
0 3753 1368
0 3753 1539
0 3753 1710
0 3753 1880
0 3753 2047
0 3752 2214
0 3752 2385
0 3752 2556
0 3753 2727
0 3753 2898
0 3753 3069
0 3753 3240
0 3753 3411
0 3753 3582
0 3753 3753
0 3753 3924
0 3753 4095
0 3924 0
0 3924 171
0 3924 342
0 3924 513
0 3924 684
0 3924 855
0 3924 1026
0 3924 1197
0 3924 1368
0 3924 1539
0 3924 1710
0 3924 1881
0 3924 2048
0 3923 2214
0 3923 2385
0 3923 2556
0 3923 2727
0 3923 2898
0 3924 3069
0 3924 3240
0 3924 3411
0 3924 3582
0 3924 3753
0 3924 3924
0 3924 4095
3 4095 3
3 4095 174
3 4095 342
3 4095 514
3 4095 684
0 4095 855
0 4095 1026
3 4095 1198
0 4095 1368
0 4095 1539
0 4095 1710
3 4095 1881
0 4095 2048
0 4094 2215
0 4094 2385
0 4094 2556
0 4094 2727
0 4094 2898
0 4095 3069
6 4095 3240
3 4095 3411
3 4095 3582
3 4095 3753
6 4095 3924
3 4095 4095
168 0 0
171 0 171
168 0 338
168 0 510
171 0 681
171 0 859
171 0 1023
171 0 1196
171 0 1369
171 0 1536
171 0 1712
171 0 1880
171 0 2046
171 0 2216
171 0 2384
171 0 2558
171 0 2728
171 0 2897
171 0 3068
171 0 3240
171 0 3411
171 0 3582
171 0 3753
171 0 3924
171 0 4095
171 171 0
172 172 172
171 171 342
171 171 513
171 171 684
171 171 853
171 171 1025
171 171 1197
171 171 1370
171 171 1538
171 171 1708
171 171 1880
171 171 2047
171 171 2213
171 171 2384
171 171 2555
171 171 2728
171 171 2898
171 171 3069
171 171 3241
171 171 3411
171 171 3582
171 171 3753
171 171 3924
171 171 4095
171 342 0
171 340 171
171 342 342
171 342 514
171 342 686
171 342 855
171 342 1027
171 342 1196
171 342 1368
171 342 1539
171 342 1710
171 342 1882
171 342 2048
171 342 2215
171 342 2386
171 342 2557
171 342 2727
171 342 2899
171 342 3070
171 342 3240
171 342 3412
171 342 3583
171 342 3754
171 342 3923
171 342 4095
171 513 0
171 513 171
171 513 342
171 513 513
171 513 684
171 513 856
171 514 1027
171 513 1197
171 513 1368
171 513 1540
171 513 1711
171 513 1880
171 513 2049
171 513 2216
171 513 2386
171 513 2557
171 513 2728
171 513 2898
171 513 3070
171 513 3240
171 513 3411
171 513 3582
171 513 3753
171 513 3924
171 513 4095
171 683 0
171 684 171
171 684 342
171 684 513
171 684 684
171 685 855
171 685 1027
171 684 1197
171 685 1369
171 685 1540
171 685 1710
171 684 1880
171 684 2049
171 684 2216
171 684 2386
171 684 2557
171 684 2728
171 684 2899
171 684 3070
171 684 3240
171 683 3411
171 683 3582
171 683 3753
171 684 3924
168 683 4095
171 855 0
171 855 171
171 854 342
171 855 513
171 855 684
171 855 855
171 855 1026
171 855 1197
171 855 1369
171 855 1539
171 855 1711
171 855 1881
171 854 2048
171 854 2214
171 855 2385
171 854 2556
171 855 2728
171 855 2898
171 855 3069
171 855 3241
171 855 3411
171 855 3582
171 855 3753
171 855 3924
171 855 4095
171 1025 0
171 1026 171
171 1026 342
171 1026 513
171 1026 684
171 1027 855
171 1027 1027
171 1026 1197
171 1027 1368
171 1027 1540
171 1027 1711
171 1026 1881
171 1026 2049
171 1026 2216
171 1026 2387
171 1026 2557
171 1026 2728
171 1025 2898
171 1026 3070
171 1025 3241
171 1025 3411
171 1025 3582
171 1025 3753
171 1025 3924
171 1025 4095
171 1197 0
171 1197 171
171 1197 342
171 1198 513
171 1198 685
171 1197 855
171 1197 1026
171 1198 1198
171 1197 1368
171 1197 1539
171 1197 1710
171 1198 1881
171 1197 2048
171 1196 2215
171 1196 2386
171 1196 2557
171 1197 2729
171 1197 2899
171 1197 3070
171 1197 3241
171 1197 3412
171 1197 3582
171 1197 3753
171 1197 3924
171 1197 4095
171 1368 0
171 1368 171
171 1368 342
171 1368 513
171 1369 685
171 1368 855
171 1368 1027
171 1368 1197
171 1368 1368
171 1368 1539
171 1368 1711
171 1369 1882
171 1368 2048
171 1367 2215
171 1367 2386
171 1367 2558
171 1367 2728
171 1368 2899
171 1367 3070
171 1367 3241
171 1368 3411
171 1368 3583
171 1368 3754
171 1368 3924
171 1368 4095
171 1539 0
171 1539 171
171 1539 342
171 1539 513
171 1539 685
171 1539 855
171 1539 1027
171 1539 1198
171 1539 1368
171 1539 1539
171 1539 1710
171 1539 1881
171 1539 2048
171 1538 2215
171 1538 2386
171 1538 2557
171 1539 2728
171 1539 2899
171 1539 3070
171 1538 3241
171 1539 3412
171 1539 3583
171 1539 3754
171 1539 3924
171 1539 4095
171 1710 0
171 1710 171
171 1710 342
171 1710 513
171 1710 685
171 1710 855
171 1711 1027
171 1711 1198
171 1710 1368
171 1710 1539
171 1710 1710
171 1711 1881
171 1710 2048
171 1709 2215
171 1710 2386
171 1709 2557
171 1709 2728
171 1710 2899
171 1710 3070
171 1709 3241
171 1710 3412
171 1710 3583
171 1710 3754
171 1710 3924
171 1710 4095
