Examples/2D - Darker & Moderate.3dl
#25pt 3DLUT created by 3D LUT Creator Pro (c) Oleg Sharonov
#Copyright Oleg Sharonov
0 43 86 128 171 214 256 299 341 384 427 469 512 555 597 640 682 725 768 810 853 896 938 981 1023 
0 0 0
0 35 63
0 68 122
0 103 184
0 139 245
0 173 305
0 209 367
0 246 430
0 281 490
0 316 550
0 351 610
0 387 670
0 421 728
0 454 788
0 489 850
0 524 912
0 560 973
0 595 1034
0 630 1095
0 665 1155
0 698 1214
0 734 1275
0 770 1337
0 806 1398
0 839 1459
0 40 0
0 66 73
0 93 121
0 124 174
0 163 240
0 202 307
0 243 378
0 285 450
0 324 519
0 360 579
0 395 638
0 431 698
0 465 757
0 499 817
0 533 879
0 568 940
0 603 1001
0 639 1062
0 674 1123
0 708 1184
0 742 1243
0 778 1304
0 814 1366
0 849 1427
0 883 1488
0 80 0
0 107 95
0 131 146
0 159 195
0 187 244
0 218 295
0 250 348
0 289 413
0 328 480
0 368 547
0 408 615
0 447 682
0 488 749
0 528 818
0 569 891
0 609 963
0 647 1030
0 682 1090
0 717 1151
0 751 1212
0 785 1271
0 821 1332
0 857 1394
0 892 1455
0 926 1516
0 120 0
0 153 107
0 171 173
0 198 221
0 226 269
0 254 317
0 282 366
0 314 417
0 344 468
0 375 520
0 414 586
0 452 650
0 491 713
0 530 778
0 571 846
0 611 915
0 650 985
0 689 1055
0 730 1126
0 770 1196
0 809 1265
0 850 1336
0 892 1408
0 933 1480
0 970 1544
0 160 0
0 198 109
0 213 191
0 237 246
0 265 294
0 293 343
0 321 391
0 350 440
0 377 489
0 407 539
0 437 589
0 467 638
0 499 690
0 537 752
0 577 817
0 617 884
0 656 951
0 694 1018
0 734 1087
0 773 1155
0 812 1222
0 851 1290
0 891 1360
0 932 1430
0 973 1500
0 201 0
0 242 109
0 260 204
0 279 272
0 304 320
0 332 367
0 360 416
0 389 466
0 416 514
0 443 562
0 470 610
0 501 660
0 531 708
0 561 756
0 592 806
0 625 860
0 664 925
0 703 990
0 742 1057
0 780 1124
0 818 1190
0 856 1257
0 895 1324
0 935 1391
0 975 1458
0 240 0
0 282 109
0 306 213
0 320 288
0 344 347
0 371 392
0 399 441
0 428 491
0 455 539
0 482 587
0 509 635
0 536 683
0 563 729
0 594 777
0 625 827
0 656 877
0 687 927
0 717 977
0 752 1034
0 789 1099
0 827 1164
0 864 1230
0 903 1296
0 941 1360
0 980 1426
0 279 0
0 322 109
0 352 218
0 368 302
0 387 370
0 409 418
0 437 466
0 466 516
0 494 564
0 521 612
0 548 660
0 575 708
0 601 754
0 629 801
0 657 849
0 689 899
0 720 949
0 751 999
0 782 1050
0 812 1100
0 841 1150
0 875 1208
0 913 1273
0 950 1336
0 987 1400
0 318 0
0 361 109
0 395 218
0 414 312
0 428 384
0 452 448
0 476 492
0 504 541
0 532 589
0 560 637
0 587 685
0 614 733
0 640 779
0 667 826
0 696 874
0 724 922
0 752 970
0 783 1021
0 815 1072
0 845 1122
0 875 1172
0 905 1222
0 934 1273
0 963 1321
0 997 1379
0 358 0
0 400 109
0 439 218
0 461 321
0 475 398
0 493 465
0 516 519
0 543 566
0 571 614
0 599 662
0 626 710
0 653 758
0 679 804
0 705 851
0 734 899
0 762 947
0 790 995
0 818 1044
0 847 1093
0 878 1143
0 908 1193
0 938 1244
0 968 1295
0 998 1344
0 1027 1392
0 397 0
0 440 109
0 482 218
0 507 328
0 522 410
0 534 480
0 559 545
0 581 591
0 609 639
0 637 687
0 665 736
0 692 783
0 718 829
0 744 876
0 772 924
0 801 972
0 828 1020
0 857 1069
0 885 1118
0 913 1166
0 939 1214
0 970 1266
0 1001 1316
0 1031 1365
0 1060 1414
0 437 0
0 479 109
0 521 218
0 550 329
0 568 421
0 582 494
0 600 561
0 624 624
0 647 664
0 675 712
0 703 761
0 731 808
0 757 854
0 783 901
0 811 949
0 839 997
0 867 1045
0 895 1094
0 924 1143
0 951 1191
0 978 1239
0 1005 1288
0 1032 1337
0 1063 1386
0 1093 1436
0 476 0
0 517 109
0 559 218
0 592 329
0 614 429
0 628 507
0 641 575
0 666 643
0 688 693
0 714 737
0 741 785
0 769 834
0 796 880
0 822 926
0 850 974
0 877 1022
0 905 1070
0 933 1119
0 962 1168
0 990 1216
0 1017 1264
0 1044 1313
0 1072 1362
0 1098 1410
0 1125 1457
0 515 0
0 556 109
0 597 218
0 633 329
0 658 436
0 674 517
0 688 590
0 707 658
0 731 722
0 751 762
0 779 810
0 807 858
0 834 905
0 861 951
0 888 999
0 916 1047
0 943 1095
0 971 1143
0 999 1192
0 1028 1241
0 1055 1289
0 1082 1338
0 1110 1387
0 1137 1435
0 1164 1482
0 555 0
0 596 109
0 637 218
0 676 329
0 701 440
0 719 527
0 733 603
0 747 672
0 771 738
0 794 796
0 816 834
0 844 882
0 871 929
0 898 976
0 926 1024
0 953 1072
0 980 1119
0 1008 1167
0 1036 1216
0 1065 1265
0 1092 1313
0 1120 1362
0 1147 1411
0 1174 1459
0 1201 1507
0 596 0
0 637 109
0 678 218
0 720 329
0 744 440
0 765 535
0 780 615
0 793 687
0 812 754
0 836 817
0 856 863
0 881 906
0 908 953
0 936 1001
0 964 1049
0 991 1097
0 1018 1144
0 1045 1191
0 1074 1240
0 1102 1289
0 1130 1337
0 1158 1386
0 1185 1435
0 1212 1483
0 1239 1531
0 636 0
0 678 109
0 719 218
0 761 329
0 788 439
0 810 542
0 826 625
0 840 700
0 852 768
0 877 834
0 900 896
0 920 932
0 947 979
0 974 1026
0 1003 1075
0 1030 1123
0 1057 1170
0 1084 1217
0 1112 1265
0 1140 1314
0 1168 1362
0 1197 1411
0 1224 1460
0 1251 1508
3 1280 1557
0 676 0
0 719 109
0 760 218
0 802 329
0 832 438
0 856 547
0 873 633
0 888 713
0 901 783
0 919 849
0 943 914
0 964 968
0 985 1004
0 1013 1051
0 1041 1100
0 1069 1149
0 1096 1196
0 1123 1243
0 1151 1291
0 1179 1339
0 1207 1387
0 1235 1436
0 1264 1485
0 1290 1534
0 1317 1582
0 716 0
0 758 109
0 800 218
0 842 329
0 876 438
0 899 546
0 920 641
0 936 723
0 949 797
0 961 864
0 985 930
0 1009 993
0 1029 1036
0 1052 1077
0 1081 1126
0 1109 1175
0 1136 1223
0 1163 1270
0 1190 1318
0 1219 1366
0 1246 1415
0 1275 1463
0 1303 1512
0 1330 1560
0 1357 1608
0 755 0
0 797 109
0 840 218
0 882 329
0 920 438
0 942 545
0 965 648
0 982 733
0 997 809
0 1009 879
0 1028 945
0 1052 1010
0 1074 1070
0 1093 1104
0 1121 1152
0 1149 1201
0 1175 1249
0 1202 1297
0 1230 1345
0 1258 1393
0 1286 1441
0 1315 1490
0 1343 1539
0 1370 1586
0 1397 1634
0 795 0
0 837 109
0 879 218
0 922 329
0 964 438
0 986 545
0 1010 654
0 1027 741
0 1043 820
0 1056 893
0 1068 959
0 1093 1026
0 1116 1088
0 1137 1140
0 1159 1177
0 1187 1226
0 1214 1274
0 1241 1322
0 1268 1371
0 1296 1419
0 1324 1467
0 1353 1516
0 1381 1565
0 1408 1612
0 1435 1659
0 835 0
0 876 109
0 918 218
0 962 329
0 1004 438
0 1030 545
0 1053 654
0 1073 748
0 1089 830
0 1103 905
0 1116 974
0 1134 1041
0 1158 1104
0 1180 1165
0 1201 1210
0 1225 1251
0 1252 1299
0 1279 1348
0 1307 1396
0 1335 1445
0 1363 1493
0 1391 1542
0 1420 1591
0 1446 1638
3 1475 1686
0 875 0
0 916 109
0 958 218
0 1001 329
0 1044 438
0 1074 545
0 1097 654
0 1118 755
0 1135 839
0 1150 916
0 1163 988
0 1175 1054
0 1199 1120
0 1222 1182
0 1246 1244
0 1265 1278
0 1290 1324
0 1317 1373
0 1345 1422
0 1373 1471
0 1401 1519
0 1429 1567
0 1458 1616
0 1485 1664
0 1512 1711
0 915 0
0 956 109
0 997 218
0 1040 329
0 1083 438
0 1118 545
0 1140 654
0 1163 761
0 1180 847
0 1195 926
0 1209 1001
0 1221 1070
0 1239 1135
0 1263 1199
0 1287 1263
0 1309 1314
0 1329 1349
0 1356 1398
0 1384 1447
0 1411 1496
0 1439 1544
0 1468 1593
0 1496 1642
0 1523 1689
0 1550 1736
3 958 3
3 999 112
3 1039 219
3 1082 331
3 1124 439
0 1161 545
0 1184 654
3 1210 766
0 1225 854
0 1241 936
0 1255 1012
3 1269 1084
0 1279 1148
0 1303 1214
0 1329 1280
0 1353 1342
0 1373 1383
0 1395 1423
0 1423 1472
6 1453 1523
3 1479 1570
3 1507 1619
3 1536 1668
6 1564 1716
3 1589 1762
168 0 0
164 53 96
161 86 155
162 122 217
168 158 279
169 195 342
170 229 401
171 265 463
171 301 526
171 336 584
171 372 645
171 407 703
171 440 763
171 474 824
171 508 884
171 545 947
171 580 1008
171 615 1067
171 649 1127
171 684 1188
171 718 1248
171 754 1309
171 789 1371
171 825 1433
171 859 1494
150 107 0
172 172 172
167 196 226
166 231 288
166 268 350
167 305 412
167 341 474
168 377 537
169 415 600
169 451 660
169 487 719
170 523 779
170 558 839
171 592 898
171 626 960
171 661 1022
171 696 1083
171 730 1143
171 765 1203
171 799 1264
171 834 1324
171 869 1385
171 905 1447
171 941 1509
171 975 1570
150 147 0
159 202 148
171 230 234
168 259 289
167 293 347
167 328 406
167 364 467
167 399 527
168 435 590
168 472 652
169 508 713
169 545 774
169 581 835
170 618 897
170 655 961
170 691 1025
171 726 1089
171 763 1153
171 799 1216
171 835 1279
171 872 1343
171 909 1407
171 947 1472
171 984 1537
171 1018 1598
150 187 0
156 242 146
166 263 228
170 291 300
169 320 352
168 350 405
168 382 458
167 416 517
168 452 578
168 487 640
168 523 700
168 560 760
169 596 820
169 633 882
169 671 946
170 709 1010
170 745 1074
170 781 1137
170 818 1202
171 855 1266
171 891 1330
171 929 1394
171 967 1460
171 1006 1527
171 1043 1593
151 226 0
155 284 150
162 304 230
169 326 306
170 354 369
169 383 419
168 412 470
168 441 521
168 473 575
168 504 629
168 538 688
168 574 747
168 611 806
168 647 866
169 685 929
169 723 993
169 759 1056
170 796 1120
170 832 1184
170 869 1248
170 906 1311
170 942 1374
171 981 1440
171 1020 1506
168 1057 1570
156 266 0
155 326 154
160 346 237
166 365 312
171 391 388
170 418 439
169 446 488
168 475 538
168 504 590
168 532 641
168 563 693
168 594 744
168 625 795
168 661 853
168 698 915
169 736 977
169 773 1040
169 809 1102
169 846 1165
169 883 1230
170 919 1293
170 956 1355
170 993 1419
170 1032 1485
170 1070 1550
159 305 0
156 367 159
159 390 244
163 408 321
168 428 391
171 455 461
170 482 509
169 510 558
169 540 609
168 568 659
168 595 709
168 623 759
168 654 809
168 685 858
168 717 910
168 750 965
168 787 1026
169 823 1087
169 860 1149
169 896 1213
169 932 1276
169 969 1337
170 1005 1400
170 1043 1464
170 1081 1529
162 345 0
157 408 162
159 433 251
162 453 331
167 469 402
170 492 469
171 520 532
170 547 581
169 576 630
169 604 680
168 632 729
168 659 778
168 686 826
168 714 874
168 747 925
168 779 978
168 810 1030
168 842 1081
169 874 1136
169 911 1198
169 946 1261
169 982 1322
169 1019 1384
169 1056 1446
169 1093 1510
165 384 0
157 448 166
158 476 257
161 497 340
165 514 414
168 533 481
171 557 552
171 585 604
170 613 653
169 641 702
169 669 751
168 696 800
168 723 847
168 750 894
168 779 944
168 809 994
168 840 1046
168 872 1097
168 903 1149
168 934 1201
169 964 1253
169 997 1309
169 1033 1370
169 1069 1431
169 1106 1493
167 424 0
158 489 169
159 518 263
161 541 348
164 559 425
167 574 494
170 596 560
171 623 628
171 651 677
170 679 725
169 706 774
169 734 822
168 760 869
168 787 916
168 815 965
168 844 1015
168 873 1065
168 902 1114
168 933 1166
168 964 1218
168 995 1270
169 1025 1321
169 1056 1372
169 1086 1423
169 1119 1479
169 464 0
159 529 171
159 561 267
160 585 356
162 604 436
166 619 507
168 638 574
170 661 638
171 689 701
170 717 749
170 744 797
169 772 846
169 798 892
169 824 939
168 852 988
168 881 1037
168 909 1086
168 938 1136
168 967 1185
168 995 1236
168 1026 1288
168 1057 1339
169 1087 1391
169 1118 1442
169 1149 1492
