Examples/AB - No greens.3dl
#25pt 3DLUT created by 3D LUT Creator Pro (c) Oleg Sharonov
#Copyright Oleg Sharonov
#IMAGEPROFILE 
#INPUTGAMMA 
#OUTPUTGAMMA 
0 128 256 384 512 640 768 896 1023
0 0 0
0 0 512
0 0 1022
0 0 1534
0 0 2046
0 0 2558
0 0 3071
0 0 3583
0 0 4095
356 440 322
365 448 569
324 448 1087
233 474 1557
36 506 2048
0 512 2559
0 512 3071
0 512 3583
0 512 4095
761 902 703
711 912 916
775 916 1120
749 907 1670
686 922 2143
597 947 2611
458 979 3090
168 1013 3586
0 1024 4095
1165 1364 1083
1131 1370 1232
1127 1375 1472
1185 1384 1673
1169 1370 2244
1115 1379 2730
1046 1397 3198
958 1421 3665
840 1451 4095
1570 1826 1464
1541 1831 1575
1486 1842 1804
1538 1839 2025
1595 1852 2224
1588 1834 2811
1538 1838 3311
1478 1851 3786
1459 1886 4095
1974 2288 1844
1936 2295 1939
1910 2300 2118
1882 2307 2370
1949 2306 2578
2005 2320 2775
2004 2299 3376
1960 2300 3888
2002 2334 4095
2378 2750 2225
2324 2760 2323
2326 2760 2446
2265 2771 2692
2297 2770 2926
2359 2773 3130
2415 2788 3327
2420 2764 3938
2515 2788 4095
2782 3212 2605
2719 3223 2706
2734 3221 2795
2689 3230 3005
2633 3242 3265
2710 3234 3480
2769 3240 3682
2825 3255 3879
2993 3243 4095
3187 3674 2985
3117 3686 3087
3132 3684 3154
3107 3689 3328
3044 3701 3579
3052 3703 3823
3122 3699 4033
3277 3695 4095
3445 3707 4095
512 0 0
512 0 512
512 0 1023
512 0 1534
512 0 2046
512 0 2558
512 3 3070
512 3 3582
513 3 4094
609 475 103
512 512 512
512 512 1023
512 512 1535
512 512 2047
512 512 2559
512 512 3071
512 512 3583
512 512 4095
921 917 579
838 940 798
859 948 1086
835 946 1614
779 962 2095
699 985 2578
577 1013 3074
510 1023 3584
510 1023 4095
1299 1368 969
1213 1388 1143
1170 1398 1447
1240 1404 1649
1224 1394 2208
1173 1404 2694
1108 1422 3167
1025 1446 3641
913 1474 4095
1695 1824 1348
1603 1843 1506
1543 1854 1760
1573 1854 2011
1633 1866 2207
1627 1850 2787
1579 1855 3285
1520 1869 3761
1489 1900 4095
2092 2283 1729
2000 2301 1876
1953 2310 2075
1902 2320 2352
1977 2317 2567
2034 2330 2763
2034 2311 3358
1990 2312 3868
2019 2344 4095
2491 2743 2111
2399 2760 2250
2357 2768 2415
2300 2779 2665
2317 2779 2915
2382 2781 3121
2438 2796 3317
2443 2773 3924
2529 2796 4095
2891 3204 2493
2799 3220 2626
2752 3229 2770
2717 3236 2978
2645 3251 3252
2727 3242 3472
2788 3247 3675
2844 3262 3870
3005 3250 4095
3291 3665 2876
3201 3681 3003
3139 3692 3141
3130 3694 3304
3067 3706 3561
3064 3709 3814
3136 3705 4027
3282 3702 4095
3457 3712 4095
1023 0 0
1023 0 512
1023 0 1023
1023 0 1534
1023 0 2046
1023 3 2558
1023 3 3070
1023 3 3582
1024 3 4093
1023 512 0
1023 512 512
1025 512 1024
1024 512 1536
1024 512 2048
1024 512 2560
1023 512 3070
1023 513 3582
1023 513 4094
1188 961 316
1132 981 655
1024 1024 1024
1024 1024 1535
1024 1024 2048
1024 1024 2561
1023 1023 3072
1023 1023 3583
1023 1023 4095
1501 1393 838
1462 1408 977
1335 1446 1290
1361 1452 1600
1344 1451 2130
1298 1464 2618
1240 1482 3105
1165 1503 3597
1063 1528 4095
1816 1849 1279
1802 1856 1351
1688 1885 1611
1652 1893 1970
1725 1900 2169
1717 1890 2729
1673 1898 3223
1618 1913 3704
1554 1933 4095
2206 2298 1651
2189 2304 1712
2063 2334 1956
1985 2348 2287
2042 2344 2541
2106 2356 2733
2104 2340 3314
2063 2344 3820
2075 2373 4095
2599 2752 2029
2581 2758 2083
2449 2786 2314
2385 2798 2589
2360 2804 2886
2435 2803 3101
2495 2816 3292
2500 2796 3890
2562 2818 4095
2995 3209 2408
2975 3214 2458
2841 3242 2678
2786 3252 2909
2713 3266 3206
2767 3261 3452
2833 3264 3658
2891 3279 3850
3038 3269 4095
3391 3667 2790
3371 3672 2835
3236 3699 3046
3184 3709 3249
3126 3719 3512
3092 3727 3791
3172 3721 4011
3312 3717 4095
3484 3728 4095
1535 0 0
1535 0 512
1535 0 1023
1535 0 1535
1535 0 2047
1535 3 2558
1535 3 3070
1535 3 3582
1535 6 4094
1535 512 0
1536 512 512
1535 512 1023
1535 512 1535
1535 512 2047
1536 512 2560
1535 512 3070
1535 513 3582
1535 513 4094
1535 1023 0
1536 1023 512
1535 1024 1024
1536 1024 1536
1535 1023 2047
1536 1023 2560
1535 1023 3071
1535 1023 3583
1535 1024 4095
1768 1447 537
1731 1460 798
1650 1489 1173
1536 1536 1536
1536 1536 2047
1536 1536 2558
1536 1536 3072
1535 1535 3585
1535 1535 4095
2078 1875 1081
2054 1884 1196
1991 1907 1428
1836 1955 1791
1866 1960 2112
1854 1959 2641
1814 1970 3134
1766 1985 3624
1706 2003 4095
2394 2324 1534
2369 2333 1604
2308 2353 1777
2178 2388 2094
2144 2395 2489
2222 2402 2685
2218 2392 3244
2179 2400 3743
2164 2423 4095
2723 2780 1962
2714 2784 2005
2688 2795 2118
2539 2831 2425
2448 2847 2809
2526 2841 3065
2592 2853 3252
2595 2837 3833
2631 2857 4095
3112 3229 2334
3103 3233 2372
3073 3243 2473
2914 3279 2770
2837 3293 3104
2832 3296 3413
2910 3295 3628
2973 3309 3816
3090 3301 4095
3505 3682 2711
3495 3685 2745
3463 3695 2838
3296 3731 3124
3230 3743 3411
3147 3759 3740
3231 3749 3983
3351 3746 4095
3529 3754 4095
2048 0 0
2048 0 513
2048 0 1024
2048 0 1536
2048 0 2048
2048 0 2559
2048 3 3071
2048 3 3583
2047 3 4093
2048 512 0
2048 512 512
2048 512 1024
2048 512 1536
2048 512 2048
2048 512 2559
2048 513 3071
2048 513 3583
2048 513 4094
2048 1024 0
2048 1024 512
2047 1024 1024
2048 1023 1536
2048 1023 2048
2048 1023 2560
2048 1023 3072
2048 1024 3583
2048 1024 4095
2048 1536 0
2048 1536 512
2048 1536 1023
2047 1536 1536
2047 1536 2047
2047 1536 2558
2048 1536 3071
2048 1535 3584
2048 1535 4095
2347 1933 759
2321 1942 961
2259 1964 1307
2164 1999 1689
2048 2048 2048
2048 2048 2559
2048 2048 3070
2048 2048 3582
2047 2047 4095
2655 2359 1318
2638 2365 1415
2594 2382 1622
2516 2411 1908
2340 2465 2297
2374 2470 2625
2365 2469 3153
2329 2479 3647
2286 2492 4095
2973 2801 1790
2956 2807 1851
2912 2823 1994
2817 2854 2230
2674 2894 2587
2644 2900 3006
2725 2907 3199
2723 2898 3756
2723 2914 4095
3285 3257 2222
3266 3264 2266
3223 3277 2397
3190 3291 2552
3025 3332 2904
2923 3351 3327
3017 3342 3585
3085 3354 3769
3170 3348 4095
3629 3711 2645
3623 3714 2674
3607 3721 2751
3569 3735 2893
3390 3776 3239
3303 3792 3618
3315 3792 3937
3419 3788 4095
3592 3795 4095
2559 0 0
2559 0 513
2559 0 1024
2559 0 1536
2559 0 2047
2559 0 2559
2559 3 3071
2559 3 3582
2559 6 4094
2559 513 0
2559 512 512
2559 512 1024
2559 512 1536
2560 512 2048
2559 512 2559
2559 512 3071
2559 513 3582
2559 513 4094
2559 1024 0
2559 1024 512
2560 1023 1023
2560 1023 1536
2560 1023 2048
2560 1023 2559
2560 1023 3071
2559 1023 3583
2559 1024 4095
2559 1536 0
2559 1536 512
2560 1536 1023
2559 1536 1536
2560 1536 2048
2560 1536 2559
2560 1535 3072
2560 1535 3584
2559 1535 4095
2611 2025 206
2593 2033 571
2559 2048 1023
2559 2048 1536
2559 2048 2048
2559 2048 2559
2559 2048 3070
2559 2048 3581
2559 2047 4095
2926 2420 981
2906 2426 1142
2858 2443 1449
2780 2471 1825
2677 2510 2205
2559 2559 2559
2559 2559 3071
2560 2560 3582
2560 2560 4094
3233 2843 1552
3219 2848 1634
3185 2861 1819
3125 2883 2087
3035 2917 2400
2848 2976 2804
2884 2980 3137
2877 2979 3665
2851 2991 4095
3550 3281 2039
3538 3286 2093
3506 3297 2221
3447 3319 2422
3336 3357 2692
3174 3402 3084
3148 3407 3521
3229 3414 3712
3275 3413 4095
3866 3731 2487
3853 3736 2526
3819 3748 2622
3748 3771 2794
3694 3791 3006
3517 3836 3391
3408 3857 3844
3514 3845 4095
3687 3848 4095
3071 3 3
3071 3 513
3071 3 1024
3071 0 1536
3071 0 2048
3071 0 2559
3071 0 3071
3071 3 3583
3071 3 4094
3071 513 3
3071 512 512
3071 512 1024
3071 512 1536
3071 512 2048
3071 510 2559
3071 512 3071
3071 513 3583
3071 513 4094
3071 1024 3
3071 1024 512
3071 1023 1023
3071 1023 1536
3071 1023 2048
3071 1023 2559
3071 1023 3071
3071 1023 3583
3071 1024 4095
3071 1536 0
3071 1536 512
3071 1536 1023
3071 1536 1536
3072 1535 2048
3072 1535 2560
3072 1535 3072
3072 1535 3584
3071 1535 4095
3071 2048 0
3071 2048 512
3071 2047 1023
3071 2047 1535
3070 2048 2048
3071 2048 2559
3071 2048 3070
3072 2048 3582
3072 2047 4095
3192 2508 478
3177 2514 729
3141 2529 1119
3079 2556 1545
3071 2559 2048
3071 2560 2560
3071 2560 3071
3071 2560 3582
3071 2560 4093
3505 2906 1203
3490 2911 1334
3451 2924 1604
3385 2947 1960
3297 2980 2344
3190 3021 2719
3071 3071 3071
3071 3071 3583
3071 3071 4094
3811 3328 1782
3800 3332 1854
3771 3342 2020
3722 3361 2269
3652 3387 2572
3553 3425 2900
3357 3487 3312
3395 3491 3649
3401 3493 4095
4095 3763 2282
4095 3767 2330
4092 3776 2446
4047 3793 2633
3976 3819 2876
3855 3861 3159
3676 3911 3586
3652 3915 4036
3797 3917 4095
3583 3 3
3583 3 513
3583 3 1025
3583 3 1536
3583 0 2048
3583 0 2560
3583 0 3071
3583 0 3583
3583 3 4094
3583 513 3
3583 513 513
3583 513 1024
3583 512 1536
3583 512 2048
3583 510 2560
3583 510 3071
3583 512 3583
3583 513 4095
3583 1025 3
3583 1024 513
3583 1023 1023
3583 1023 1536
3583 1023 2048
3584 1023 2560
3584 1023 3072
3583 1023 3583
3583 1024 4095
3583 1536 3
3583 1536 512
3583 1536 1023
3584 1535 1535
3584 1535 2048
3584 1535 2560
3584 1535 3072
3584 1535 3583
3583 1535 4095
3583 2048 0
3583 2048 512
3583 2048 1023
3583 2047 1535
3582 2048 2048
3583 2047 2560
3584 2047 3072
3584 2047 3583
3584 2047 4095
3583 2559 0
3583 2559 510
3583 2559 1023
3583 2559 1535
3583 2560 2048
3582 2560 2560
3583 2560 3071
3583 2560 3582
3583 2559 4094
3773 2991 720
3761 2996 909
3730 3009 1249
3678 3031 1654
3604 3062 2074
3583 3071 2560
3583 3071 3071
3583 3071 3583
3583 3071 4094
4085 3392 1425
4072 3396 1534
4039 3407 1771
3984 3426 2102
3908 3454 2477
3813 3489 2861
3702 3533 3232
3583 3583 3583
3583 3583 4095
4095 3835 3125
4095 3837 3126
4095 3844 3163
4095 3854 3154
4095 3871 3196
4095 3896 3263
4069 3934 3403
3867 3998 3821
3928 4000 4095
4094 3 3
4094 6 514
4094 3 1025
4094 3 1536
4095 0 2048
4095 0 2559
4095 0 3071
4095 0 3583
4095 0 4095
4094 514 6
4094 513 513
4095 513 1025
4095 513 1536
4095 512 2048
4095 512 2560
4095 510 3071
4095 510 3583
4095 512 4095
4094 1025 3
4094 1025 513
4095 1024 1024
4095 1024 1536
4095 1023 2048
4095 1023 2560
4095 1023 3072
4095 1023 3583
4095 1023 4095
4095 1536 3
4095 1536 513
4095 1536 1024
4095 1535 1535
4095 1535 2048
4095 1535 2560
4095 1535 3072
4095 1535 3584
4095 1535 4095
4095 2048 0
4095 2048 512
4095 2048 1023
4095 2048 1535
4095 2048 2048
4095 2047 2559
4095 2047 3072
4095 2047 3583
4095 2047 4095
4095 2559 0
4095 2559 512
4095 2559 1023
4095 2559 1535
4095 2559 2047
4093 2560 2560
4095 2559 3072
4095 2559 3583
4095 2559 4094
4095 3071 0
4095 3071 510
4095 3071 1023
4095 3071 1535
4095 3071 2047
4094 3072 2560
4094 3072 3072
4095 3071 3583
4095 3072 4094
4095 3506 2107
4095 3508 2109
4095 3514 2162
4095 3529 2316
4095 3545 2407
4095 3570 2597
4095 3583 3072
4095 3583 3583
4095 3583 4095
4095 3945 3635
4095 3947 3636
4095 3953 3664
4095 3963 3694
4095 3977 3729
4095 3997 3788
4095 4024 3872
4095 4055 3958
4095 4095 4095
