Examples/AB - No yellow.3dl
#25pt 3DLUT created by 3D LUT Creator Pro (c) Oleg Sharonov
#Copyright Oleg Sharonov
#IMAGEPROFILE sRGB IEC61966-2.1 v.2.10
#INPUTGAMMA sRGB IEC61966-2.1 v.2.10
#OUTPUTGAMMA sRGB IEC61966-2.1 v.2.10
0 256 512 768 1023
0 0 0
0 0 1022
3 0 2046
3 0 3070
10 0 4094
0 1023 0
0 1023 1023
0 1023 2047
0 1023 3072
3 1023 4095
3 2048 0
0 2047 1023
0 2047 2047
0 2048 3071
0 2048 4095
3 3071 0
0 3071 1023
0 3071 2048
0 3071 3071
0 3071 4095
10 4095 0
0 4095 1023
0 4095 2047
0 4095 3072
3 4095 4095
1023 0 0
1023 0 1023
1023 0 2046
1025 0 3070
1026 0 4094
992 1027 267
1024 1024 1024
1024 1024 2048
1025 1023 3071
1025 1023 4095
1024 2047 0
1023 2047 1023
1024 2048 2048
1023 2048 3071
1024 2047 4095
1025 3071 0
1025 3071 1023
1023 3071 2048
1027 3071 3071
1022 3071 4095
1026 4095 0
1023 4095 1022
1023 4095 2047
1023 4095 3072
1024 4095 4095
2048 0 0
2048 0 1023
2048 0 2048
2048 0 3072
2048 0 4094
1908 1083 778
2047 1024 1024
2048 1024 2048
2047 1025 3070
2048 1023 4095
1990 2054 669
1989 2053 1250
2048 2048 2048
2048 2048 3071
2048 2048 4095
2048 3071 0
2048 3071 1025
2048 3071 2048
2047 3071 3071
2047 3071 4095
2048 4095 0
2048 4095 1023
2048 4095 2048
2047 4095 3071
2047 4095 4095
3071 0 0
3071 0 1023
3071 0 2047
3071 0 3071
3071 0 4095
2990 1082 784
3069 1025 1025
3071 1023 2047
3071 1023 3071
3071 1023 4095
2756 2141 1530
2762 2144 1753
3072 2047 2047
3071 2048 3071
3071 2048 4095
2987 3081 1071
2988 3080 1484
2986 3079 2304
3071 3071 3071
3071 3071 4095
3076 4092 411
3071 4095 1023
3071 4095 2047
3071 4095 3071
3071 4095 4095
4095 0 0
4095 0 1023
4095 0 2047
4095 0 3071
4095 3 4095
4039 1083 788
4095 1024 1024
4095 1024 2047
4095 1024 3071
4095 1024 4095
3857 2154 1602
3915 2130 1725
4095 2048 2048
4095 2048 3071
4095 2048 4095
3698 3159 2290
3714 3159 2386
3768 3159 2675
4095 3071 3071
4095 3071 4095
3971 4020 3288
3978 4023 3335
3998 4036 3481
4036 4059 3738
4095 4095 4095
