Examples/AB - No greens 2.3dl
#25pt 3DLUT created by 3D LUT Creator Pro (c) Oleg Sharonov
#Copyright Oleg Sharonov
#IMAGEPROFILE 
#INPUTGAMMA 
#OUTPUTGAMMA 
0 43 86 128 171 214 256 299 341 384 427 469 512 555 597 640 682 725 768 810 853 896 938 981 1023 
0 0 0
0 0 174
0 0 341
0 0 512
0 0 683
0 0 852
0 0 1023
0 0 1195
0 0 1365
0 0 1536
0 0 1706
0 0 1877
0 0 2048
0 0 2218
0 0 2389
0 0 2559
0 0 2730
0 0 2900
0 0 3071
0 0 3242
0 0 3412
0 0 3583
0 0 3754
0 0 3924
0 0 4095
48 78 45
68 126 149
65 142 320
61 155 493
52 168 668
36 174 844
3 171 1023
0 171 1195
0 171 1365
0 171 1536
0 171 1706
0 171 1877
0 171 2048
0 171 2218
0 171 2389
0 171 2559
0 171 2730
0 171 2900
0 171 3071
0 171 3242
0 171 3412
0 171 3583
0 171 3754
0 168 3924
0 171 4095
116 177 110
129 238 195
165 271 308
158 291 479
161 310 649
152 322 824
132 334 1000
107 341 1177
65 343 1355
13 341 1534
0 341 1707
0 341 1877
0 341 2048
0 341 2218
0 341 2389
0 341 2559
0 341 2730
0 341 2900
0 341 3071
0 341 3242
0 341 3412
0 341 3583
0 341 3754
0 341 3924
0 341 4095
214 295 206
228 336 278
245 384 352
287 420 465
278 442 639
284 461 805
278 477 980
264 490 1156
245 501 1332
217 509 1510
174 514 1687
113 516 1865
36 513 2044
0 512 2218
0 512 2389
0 512 2559
0 512 2730
0 512 2900
0 512 3071
0 512 3242
0 512 3412
0 512 3583
0 512 3754
0 512 3924
0 512 4095
316 414 308
339 433 363
336 492 420
365 531 512
408 570 625
398 591 798
399 612 966
403 630 1136
391 645 1312
377 657 1489
360 668 1665
332 676 1842
297 683 2019
245 686 2198
171 687 2376
68 685 2555
0 683 2730
0 682 2900
0 682 3071
0 683 3242
0 682 3412
0 682 3583
0 682 3754
0 682 3924
0 682 4095
419 533 409
439 548 454
442 585 506
454 645 564
484 679 670
527 719 783
517 741 957
516 761 1127
523 783 1293
516 798 1469
505 811 1645
492 823 1821
472 835 1998
446 843 2175
414 850 2352
370 855 2530
312 858 2708
233 859 2886
110 856 3065
0 853 3242
0 853 3412
0 853 3583
0 853 3754
0 852 3924
0 853 4095
522 652 510
537 664 547
554 681 594
542 746 649
571 798 715
603 827 829
647 868 943
635 891 1117
633 911 1286
640 932 1454
639 950 1625
629 965 1802
617 978 1978
602 990 2154
582 1000 2331
558 1009 2508
527 1017 2686
489 1023 2863
440 1027 3041
377 1029 3219
295 1030 3397
171 1028 3575
0 1024 3754
0 1024 3924
0 1023 4095
624 771 612
635 783 642
655 795 681
656 836 735
661 899 790
688 942 877
723 977 988
766 1017 1102
754 1040 1276
751 1061 1447
754 1081 1615
762 1102 1782
751 1117 1959
741 1131 2135
727 1143 2312
712 1155 2488
691 1165 2665
667 1174 2842
639 1182 3019
603 1189 3197
560 1194 3374
508 1198 3552
443 1200 3729
358 1201 3907
233 1200 4086
726 891 713
735 901 739
753 911 772
767 933 823
755 998 877
779 1053 935
805 1089 1037
841 1126 1147
885 1167 1262
873 1190 1436
867 1210 1608
868 1230 1777
874 1251 1944
873 1269 2117
862 1283 2293
849 1296 2470
835 1307 2647
817 1318 2824
796 1328 3001
771 1337 3178
744 1346 3355
710 1353 3532
671 1359 3709
626 1364 3886
572 1368 4063
828 1010 813
834 1020 838
851 1028 865
872 1043 909
868 1089 963
865 1154 1020
894 1208 1084
922 1238 1196
959 1275 1307
1004 1316 1422
990 1339 1596
984 1359 1769
983 1379 1939
986 1399 2107
992 1420 2274
981 1434 2452
968 1447 2629
953 1459 2807
937 1470 2984
917 1480 3161
895 1489 3338
870 1498 3515
842 1506 3692
809 1514 3869
772 1520 4046
931 1129 914
933 1138 937
949 1147 960
969 1159 998
980 1185 1052
967 1250 1105
983 1310 1161
1010 1360 1238
1039 1386 1355
1078 1424 1466
1122 1465 1582
1108 1489 1757
1099 1509 1930
1096 1528 2101
1098 1548 2270
1102 1568 2438
1098 1585 2612
1084 1597 2790
1068 1608 2968
1051 1620 3146
1031 1629 3323
1009 1638 3501
984 1647 3679
957 1655 3856
927 1662 4033
1032 1250 1014
1034 1257 1036
1047 1266 1056
1066 1276 1090
1087 1293 1137
1080 1342 1192
1068 1412 1248
1100 1465 1306
1123 1503 1403
1156 1535 1515
1195 1574 1627
1239 1615 1742
1224 1638 1918
1214 1658 2093
1208 1677 2265
1207 1695 2436
1208 1714 2605
1211 1733 2774
1196 1746 2953
1178 1756 3132
1159 1766 3311
1137 1776 3489
1113 1784 3668
1087 1791 3846
1076 1807 4018
1134 1370 1114
1134 1377 1135
1145 1385 1153
1164 1394 1183
1184 1408 1225
1192 1439 1281
1178 1504 1334
1184 1566 1390
1214 1620 1454
1238 1650 1564
1272 1685 1675
1311 1724 1788
1356 1765 1903
1339 1787 2080
1326 1807 2256
1318 1825 2430
1313 1842 2602
1312 1861 2773
1313 1879 2942
1303 1893 3118
1282 1902 3299
1259 1911 3479
1234 1918 3660
1205 1925 3840
1223 1954 4000
1236 1491 1214
1235 1497 1234
1244 1505 1251
1261 1514 1277
1281 1525 1316
1301 1544 1365
1290 1597 1421
1274 1668 1477
1301 1723 1532
1326 1775 1607
1352 1800 1725
1386 1835 1835
1426 1874 1949
1471 1914 2066
1452 1937 2244
1436 1956 2422
1424 1973 2597
1415 1989 2771
1410 2005 2944
1407 2022 3116
1404 2038 3287
1378 2045 3470
1349 2052 3653
1318 2057 3835
1364 2099 3982
1337 1612 1313
1335 1618 1333
1343 1625 1348
1358 1634 1372
1377 1644 1407
1398 1659 1452
1400 1694 1509
1386 1759 1562
1383 1826 1619
1414 1879 1678
1436 1927 1764
1464 1950 1886
1499 1985 1997
1539 2024 2112
1584 2064 2229
1562 2085 2409
1542 2104 2589
1526 2119 2767
1512 2134 2944
1501 2148 3120
1493 2163 3293
1486 2177 3466
1463 2185 3647
1426 2188 3833
1506 2242 3961
1437 1734 1412
1435 1739 1431
1441 1747 1446
1455 1755 1466
1474 1764 1499
1494 1778 1540
1511 1798 1593
1497 1854 1649
1479 1925 1705
1495 1984 1761
1523 2038 1827
1545 2071 1933
1574 2100 2048
1609 2136 2161
1649 2174 2276
1694 2214 2393
1668 2235 2576
1644 2251 2759
1622 2265 2941
1601 2278 3121
1583 2289 3300
1566 2300 3478
1551 2311 3654
1532 2321 3831
1648 2384 3940
1538 1858 1510
1534 1862 1528
1539 1869 1543
1552 1878 1562
1569 1886 1591
1589 1898 1630
1609 1914 1678
1606 1953 1737
1589 2019 1791
1575 2090 1849
1605 2144 1904
1629 2196 1979
1650 2221 2098
1680 2252 2212
1716 2288 2326
1756 2325 2442
1801 2365 2560
1769 2384 2747
1738 2399 2934
1708 2410 3120
1679 2420 3305
1650 2427 3489
1621 2434 3672
1605 2445 3846
1782 2523 3920
1637 1983 1607
1633 1987 1625
1637 1993 1639
1647 2001 1656
1664 2010 1683
1683 2019 1719
1703 2034 1765
1714 2057 1823
1698 2116 1878
1676 2188 1934
1681 2251 1991
1710 2305 2051
1730 2355 2136
1752 2373 2264
1782 2405 2378
1817 2440 2493
1857 2477 2611
1902 2515 2730
1863 2533 2921
1823 2545 3114
1781 2553 3306
1739 2558 3498
1695 2561 3689
1729 2589 3834
1916 2658 3901
1735 2109 1702
1730 2113 1720
1733 2119 1734
1742 2127 1751
1758 2135 1774
1776 2144 1809
1796 2157 1851
1814 2175 1903
1804 2217 1965
1783 2285 2020
1757 2362 2078
1784 2416 2133
1808 2470 2202
1825 2513 2299
1847 2528 2431
1877 2560 2547
1911 2594 2665
1951 2629 2783
1995 2667 2903
1946 2681 3102
1893 2690 3302
1835 2694 3503
1772 2693 3704
1860 2730 3820
2043 2793 3884
1832 2239 1795
1826 2243 1814
1828 2248 1827
1836 2255 1844
1850 2264 1865
1868 2271 1898
1887 2283 1938
1906 2298 1987
1909 2324 2050
1888 2386 2106
1860 2460 2163
1851 2529 2221
1878 2585 2279
1896 2637 2358
1910 2662 2478
1933 2685 2602
1962 2716 2721
1995 2749 2841
2034 2783 2962
2078 2819 3083
2013 2830 3291
1939 2833 3502
1855 2830 3716
1989 2869 3808
2170 2924 3868
1927 2372 1886
1920 2375 1904
1921 2380 1918
1927 2387 1934
1940 2396 1954
1957 2403 1984
1975 2413 2023
1994 2426 2070
2009 2445 2126
1989 2492 2192
1960 2563 2248
1926 2643 2308
1939 2703 2363
1960 2757 2429
1972 2807 2519
1984 2821 2655
2005 2846 2780
2032 2875 2902
2063 2906 3024
2100 2938 3148
2142 2972 3272
2053 2977 3494
1946 2973 3722
2110 3007 3798
2291 3055 3856
2020 2509 1972
2011 2512 1992
2011 2517 2005
2016 2524 2022
2027 2532 2041
2043 2540 2068
2061 2548 2106
2079 2560 2151
2095 2575 2205
2088 2606 2274
2056 2672 2333
2018 2750 2393
1988 2828 2452
2010 2884 2509
2023 2937 2587
2028 2981 2689
2037 2987 2838
2054 3011 2966
2077 3038 3093
2105 3066 3220
2138 3096 3347
2179 3126 3474
2046 3124 3718
2229 3144 3790
2415 3182 3844
2108 2653 2054
2098 2656 2074
2097 2661 2088
2100 2667 2105
2110 2675 2124
2126 2683 2149
2143 2689 2186
2159 2700 2230
2175 2714 2282
2183 2734 2344
2147 2788 2417
2103 2864 2477
2052 2949 2539
2043 3020 2595
2055 3075 2663
2056 3126 2753
2052 3160 2874
2055 3160 3033
2064 3182 3167
2079 3206 3301
2099 3231 3435
2126 3256 3568
2161 3283 3700
2333 3285 3786
2534 3309 3836
2192 2806 2127
2180 2809 2149
2177 2814 2163
2179 2820 2180
2187 2827 2200
2201 2835 2224
2217 2842 2259
2232 2850 2303
2247 2863 2355
2257 2879 2416
2230 2915 2497
2179 2988 2561
2117 3074 2625
2052 3168 2685
2058 3227 2745
2055 3281 2828
2036 3329 2935
2015 3337 3094
2004 3345 3250
1997 3363 3395
1993 3382 3540
2037 3402 3665
2227 3414 3730
2419 3430 3788
2647 3436 3832
2268 2972 2187
2252 2976 2212
2248 2980 2228
2247 2986 2245
2253 2994 2266
2266 3001 2289
2281 3008 2322
2295 3015 2367
2307 3026 2419
2315 3041 2481
2308 3064 2556
2238 3128 2641
2160 3214 2709
2069 3313 2774
2014 3401 2832
1992 3460 2912
1956 3514 3014
1900 3556 3147
1842 3544 3341
1792 3551 3510
1982 3541 3591
2216 3522 3658
2403 3526 3721
2586 3539 3778
2754 3564 3832
171 0 0
171 0 171
171 0 341
171 0 512
171 0 682
171 0 853
171 0 1023
171 0 1194
171 0 1365
171 0 1535
171 0 1707
171 0 1877
171 0 2048
171 0 2218
171 0 2389
171 0 2559
171 0 2730
171 0 2900
171 0 3071
171 0 3242
171 0 3412
171 0 3583
171 0 3754
171 0 3924
174 3 4095
165 139 39
171 171 171
171 171 341
171 171 512
171 171 682
171 171 852
171 171 1023
171 171 1194
171 171 1365
171 171 1535
171 171 1706
171 171 1877
171 171 2047
171 171 2218
171 171 2389
171 171 2559
171 171 2730
171 171 2900
171 171 3071
171 171 3242
171 171 3412
171 171 3583
171 171 3754
171 171 3924
171 171 4095
214 238 107
225 264 222
250 302 322
248 318 490
243 328 664
230 337 838
212 341 1015
180 341 1193
171 341 1365
171 341 1536
171 341 1706
171 341 1877
171 341 2048
171 341 2218
171 341 2389
171 341 2559
171 341 2730
171 341 2901
171 341 3071
171 341 3242
168 339 3413
168 339 3583
168 339 3754
171 339 3924
171 339 4095
282 345 206
297 365 291
308 412 367
347 442 478
341 461 648
341 477 816
336 490 990
322 500 1166
304 508 1342
278 513 1519
238 514 1697
180 512 1876
171 512 2048
171 512 2218
171 512 2389
171 512 2559
171 512 2730
171 512 2900
171 512 3071
171 512 3242
171 512 3412
171 512 3583
171 512 3754
171 512 3924
171 510 4095
369 452 308
381 470 372
391 501 442
409 552 523
452 586 634
445 606 805
448 625 973
445 641 1145
436 654 1320
422 664 1496
404 673 1673
379 681 1849
345 685 2027
297 687 2205
230 685 2383
171 683 2559
171 683 2730
171 683 2900
171 683 3071
171 682 3242
171 682 3412
171 682 3583
171 683 3754
171 682 3924
171 682 4095
462 564 408
471 578 461
493 594 518
489 659 582
520 695 680
563 732 792
553 753 963
554 772 1132
558 792 1300
551 806 1475
540 818 1651
526 829 1827
508 838 2003
484 846 2181
451 852 2358
409 856 2536
356 858 2714
284 857 2892
174 854 3071
171 853 3242
171 853 3412
171 853 3583
171 853 3754
171 853 3924
171 852 4095
558 678 508
564 690 553
584 703 601
583 751 662
601 811 725
632 840 837
676 879 949
666 901 1122
664 920 1291
670 940 1458
667 957 1631
657 971 1807
646 983 1983
631 994 2159
613 1004 2336
588 1013 2513
558 1019 2690
522 1025 2867
475 1028 3045
416 1030 3223
339 1028 3401
228 1026 3580
174 1024 3754
171 1024 3924
171 1024 4095
656 793 607
660 802 648
676 815 688
691 841 746
683 909 804
713 958 880
746 987 995
791 1027 1107
780 1049 1281
777 1068 1451
780 1088 1619
785 1109 1787
775 1123 1963
765 1136 2139
752 1148 2316
736 1159 2492
716 1169 2669
694 1177 2846
665 1185 3023
630 1191 3200
588 1195 3378
538 1199 3555
477 1201 3733
396 1200 3911
280 1198 4090
754 909 707
757 918 743
770 930 777
793 945 827
784 1001 887
799 1063 944
825 1099 1043
862 1134 1153
906 1174 1267
894 1197 1440
889 1217 1611
891 1237 1780
896 1257 1947
893 1274 2120
883 1287 2297
871 1300 2473
855 1312 2650
838 1322 2827
819 1331 3004
794 1341 3181
767 1348 3357
735 1355 3535
696 1360 3712
654 1366 3888
600 1369 4066
854 1027 807
855 1034 840
865 1046 871
888 1058 914
894 1092 972
882 1163 1029
913 1216 1091
940 1246 1201
977 1283 1312
1023 1323 1426
1010 1346 1600
1003 1366 1771
1003 1385 1941
1006 1405 2110
1010 1425 2278
999 1438 2455
986 1451 2632
973 1463 2809
956 1474 2986
937 1484 3163
916 1493 3340
891 1501 3517
862 1509 3694
831 1516 3871
796 1523 4048
954 1144 908
954 1150 937
961 1161 966
982 1173 1003
1003 1192 1055
990 1252 1113
998 1316 1170
1025 1368 1244
1055 1393 1360
1094 1431 1471
1138 1472 1585
1125 1495 1760
1116 1514 1933
1114 1534 2104
1115 1553 2273
1120 1573 2441
1114 1588 2615
1101 1601 2793
1086 1612 2970
1068 1623 3148
1049 1633 3326
1028 1642 3503
1003 1650 3681
977 1658 3858
947 1665 4035
