Examples/AB - Cleaner cyan.3dl
#25pt 3DLUT created by 3D LUT Creator Pro (c) Oleg Sharonov
#Copyright Oleg Sharonov
#IMAGEPROFILE 
#INPUTGAMMA 
#OUTPUTGAMMA 
0 256 512 768 1023
0 0 0
0 0 1022
3 3 2043
87 58 3029
420 318 3912
6 1023 3
6 1023 1023
71 1023 2029
245 1031 3012
528 1063 3941
248 2039 177
273 2038 1060
297 2040 2040
634 2038 2964
980 2053 3813
717 3046 578
655 3051 1147
730 3047 2100
787 3049 3049
1154 3046 3917
1402 4029 1274
1466 4023 1645
1704 3998 2436
1720 4007 3186
1973 3998 3996
1023 0 0
1023 0 1023
1023 6 2043
1031 78 3027
1094 345 3913
1023 1023 0
1024 1024 1024
1036 1027 2020
1073 1045 2974
1099 1017 4066
1053 2043 103
1118 2032 1093
1138 2033 2033
1224 2041 2937
1201 2045 4004
1220 3051 508
1321 3038 1241
1337 3038 2130
1365 3043 3042
1351 3059 3972
1657 4036 1219
1690 4032 1595
1878 4009 2406
1939 4011 3192
2152 4003 4002
2048 0 0
2048 0 1024
2048 0 2048
2045 42 3056
2040 360 3954
2048 1024 0
2048 1024 1024
2048 1024 2048
2047 1038 3035
2088 1010 4070
2048 2048 6
2051 2046 1036
2048 2048 2048
2134 2056 2857
2117 2041 4035
2074 3065 257
2104 3058 1133
2348 2998 2265
2404 3007 3003
2166 3066 3982
2273 4056 1033
2290 4053 1463
2353 4043 2302
2497 4022 3211
2627 4019 4018
3071 0 0
3071 0 1024
3071 0 2047
3071 0 3071
3071 3 4095
3071 1024 0
3071 1023 1023
3071 1023 2048
3071 1023 3071
3072 1023 4095
3071 2048 0
3071 2048 1023
3070 2048 2048
3071 2048 3071
3090 2041 4082
3072 3071 32
3075 3070 1045
3085 3064 2093
3071 3071 3071
3106 3068 4045
3099 4084 773
3102 4083 1290
3125 4079 2166
3189 4063 3168
3307 4049 4048
4095 3 3
4094 3 1024
4094 3 2048
4095 0 3071
4095 0 4095
4094 1024 3
4095 1024 1024
4095 1024 2048
4095 1024 3071
4095 1023 4095
4094 2048 3
4095 2048 1024
4095 2048 2048
4095 2047 3071
4095 2048 4095
4095 3071 0
4095 3071 1023
4095 3071 2047
4095 3071 3071
4095 3071 4095
4093 4091 729
4093 4091 1251
4093 4092 2137
4094 4093 3104
4095 4095 4095
