Examples/AB - No yellow.3dl
#25pt 3DLUT created by 3D LUT Creator Pro (c) Oleg Sharonov
#Copyright Oleg Sharonov
#IMAGEPROFILE sRGB IEC61966-2.1 v.2.10
#INPUTGAMMA sRGB IEC61966-2.1 v.2.10
#OUTPUTGAMMA sRGB IEC61966-2.1 v.2.10
0 43 86 128 171 214 256 299 341 384 427 469 512 555 597 640 682 725 768 810 853 896 938 981 1023 
0 0 0
0 0 177
0 0 341
0 0 512
0 0 683
0 0 849
0 0 1022
0 0 1195
0 0 1362
0 0 1534
0 0 1704
0 0 1877
3 0 2046
3 0 2217
3 0 2388
3 0 2558
3 0 2731
3 0 2900
3 0 3070
6 0 3242
6 0 3412
6 0 3582
6 0 3753
6 0 3924
10 0 4094
0 171 0
0 171 171
0 171 341
0 171 513
0 171 684
0 171 852
0 171 1024
0 171 1197
0 171 1364
0 171 1536
0 171 1707
0 171 1879
0 168 2049
0 168 2219
0 168 2390
0 168 2561
0 168 2731
0 168 2903
0 168 3073
0 168 3245
0 165 3415
0 165 3586
0 165 3757
0 165 3927
6 171 4095
0 339 0
0 341 171
0 339 339
0 341 510
0 341 681
0 341 854
0 341 1025
0 341 1194
0 341 1366
0 341 1537
0 341 1708
0 341 1877
0 341 2050
0 341 2220
0 341 2391
0 339 2562
0 339 2732
0 339 2901
0 339 3072
0 339 3244
0 337 3414
0 337 3585
0 337 3755
0 337 3926
6 339 4095
0 512 0
0 512 171
0 512 341
0 512 512
0 512 682
0 512 852
0 512 1023
0 512 1195
0 512 1366
0 512 1535
0 512 1708
0 512 1877
0 512 2047
0 512 2218
0 512 2389
0 510 2560
0 512 2732
0 510 2902
0 510 3072
0 510 3244
0 510 3414
0 510 3585
0 509 3756
0 509 3926
6 510 4095
0 682 0
0 683 171
0 682 341
0 682 512
0 682 682
0 683 853
0 682 1023
0 683 1194
0 683 1365
0 682 1535
0 683 1707
0 682 1877
0 682 2047
0 682 2218
0 682 2389
0 682 2559
0 682 2731
0 682 2901
0 682 3072
0 682 3243
0 682 3414
0 681 3584
0 681 3755
0 681 3926
6 682 4095
0 853 0
0 853 171
0 853 341
0 853 512
0 853 683
0 852 852
0 853 1023
0 853 1195
0 852 1364
0 853 1535
0 852 1706
0 853 1877
0 853 2048
0 852 2218
0 853 2389
0 852 2560
0 853 2731
0 852 2901
0 852 3072
0 852 3243
0 852 3414
0 852 3584
0 852 3755
0 852 3926
6 852 4095
0 1023 0
0 1024 171
0 1023 341
0 1023 512
0 1023 683
0 1023 853
0 1023 1023
0 1024 1194
0 1024 1365
0 1023 1535
0 1024 1707
0 1023 1877
0 1023 2047
0 1023 2218
0 1023 2389
0 1023 2559
0 1024 2731
0 1023 2901
0 1023 3072
0 1023 3243
0 1023 3413
0 1023 3584
0 1023 3755
0 1023 3926
3 1023 4095
0 1195 0
0 1195 171
0 1195 341
0 1195 512
0 1195 683
0 1195 853
0 1195 1024
0 1195 1195
0 1194 1365
0 1195 1535
0 1195 1706
0 1195 1877
0 1195 2048
0 1195 2218
0 1195 2389
0 1195 2560
0 1194 2730
0 1195 2901
0 1194 3072
0 1194 3242
0 1194 3413
0 1194 3584
0 1194 3755
0 1194 3926
6 1195 4095
0 1365 0
0 1365 171
0 1365 341
0 1365 512
0 1365 683
0 1365 853
0 1365 1024
0 1365 1195
0 1365 1365
0 1365 1536
0 1365 1706
0 1365 1876
0 1365 2048
0 1365 2218
0 1365 2389
0 1365 2560
0 1365 2730
0 1365 2900
0 1365 3071
0 1365 3242
0 1365 3413
0 1364 3583
0 1364 3754
0 1364 3925
3 1365 4095
0 1535 0
0 1535 171
0 1535 341
0 1535 512
0 1535 682
0 1536 853
0 1536 1024
0 1535 1195
0 1536 1365
0 1536 1536
0 1536 1706
0 1535 1876
0 1536 2047
0 1536 2218
0 1536 2389
0 1536 2559
0 1536 2730
0 1536 2901
0 1536 3072
0 1535 3242
0 1535 3412
0 1535 3583
0 1535 3754
0 1535 3925
3 1535 4095
0 1707 0
0 1706 171
0 1707 341
0 1706 512
0 1706 682
0 1707 853
0 1707 1024
0 1706 1195
0 1706 1365
0 1707 1536
0 1707 1707
0 1706 1877
0 1707 2047
0 1707 2218
0 1707 2389
0 1707 2559
0 1707 2730
0 1707 2901
0 1707 3071
0 1706 3242
0 1706 3412
0 1707 3584
0 1706 3754
0 1706 3925
0 1706 4095
0 1877 0
0 1877 168
0 1877 341
0 1877 512
0 1877 682
0 1877 853
0 1877 1024
0 1877 1195
0 1877 1365
0 1877 1536
0 1877 1707
0 1877 1877
0 1877 2048
0 1877 2218
0 1877 2388
0 1877 2559
0 1877 2730
0 1877 2900
0 1877 3071
0 1877 3242
0 1877 3412
0 1877 3583
0 1877 3754
0 1877 3924
0 1877 4095
3 2048 0
0 2048 168
0 2048 339
0 2048 512
0 2048 682
0 2047 853
0 2047 1023
0 2048 1195
0 2048 1365
0 2047 1536
0 2047 1707
0 2048 1877
0 2047 2047
0 2047 2218
0 2048 2388
0 2048 2559
0 2048 2730
0 2048 2900
0 2048 3071
0 2048 3242
0 2048 3412
0 2048 3583
0 2048 3754
0 2048 3924
0 2048 4095
3 2218 0
0 2218 168
0 2218 339
0 2218 512
0 2218 682
0 2218 853
0 2218 1023
0 2218 1195
0 2218 1365
0 2218 1536
0 2218 1707
0 2218 1877
0 2218 2048
0 2218 2218
0 2218 2389
0 2218 2559
0 2218 2730
0 2218 2900
0 2218 3071
0 2218 3242
0 2218 3412
0 2218 3583
0 2218 3754
0 2218 3924
0 2218 4095
3 2389 0
0 2389 168
0 2389 339
0 2389 512
0 2389 682
0 2389 852
0 2389 1023
0 2389 1194
0 2389 1365
0 2389 1536
0 2389 1707
0 2389 1877
0 2389 2048
0 2389 2218
0 2389 2389
0 2389 2559
0 2389 2730
0 2389 2900
0 2389 3071
0 2389 3242
0 2389 3412
0 2389 3583
0 2389 3753
0 2389 3924
0 2389 4095
3 2559 0
0 2560 168
0 2559 339
0 2559 510
0 2559 682
0 2559 852
0 2559 1023
0 2560 1194
0 2559 1365
0 2559 1536
0 2559 1707
0 2559 1877
0 2559 2048
0 2559 2218
0 2559 2389
0 2559 2559
0 2559 2730
0 2559 2900
0 2559 3071
0 2560 3242
0 2560 3412
0 2560 3583
0 2560 3754
0 2560 3924
0 2560 4095
3 2730 0
0 2730 168
0 2730 339
0 2730 510
0 2730 682
0 2730 852
0 2730 1023
0 2730 1194
0 2730 1365
0 2730 1536
0 2730 1707
0 2730 1877
0 2730 2048
0 2730 2219
0 2730 2389
0 2730 2560
0 2730 2730
0 2730 2900
0 2730 3071
0 2730 3241
0 2730 3412
0 2730 3583
0 2730 3754
0 2730 3924
0 2730 4095
3 2900 0
0 2900 168
0 2900 339
0 2900 510
0 2900 682
0 2901 852
0 2900 1023
0 2900 1194
0 2901 1365
0 2900 1536
0 2901 1707
0 2900 1877
0 2900 2048
0 2901 2219
0 2900 2389
0 2901 2560
0 2901 2730
0 2900 2900
0 2900 3071
0 2900 3242
0 2900 3412
0 2901 3582
0 2901 3753
0 2901 3924
0 2900 4095
3 3071 0
0 3071 168
0 3071 339
0 3071 510
0 3071 682
0 3071 852
0 3071 1023
0 3071 1194
0 3071 1365
0 3071 1536
0 3071 1707
0 3071 1877
0 3071 2048
0 3071 2219
0 3071 2389
0 3071 2560
0 3071 2730
0 3071 2901
0 3071 3071
0 3071 3242
0 3071 3412
0 3071 3583
0 3071 3753
0 3071 3924
0 3071 4095
6 3242 0
0 3242 165
0 3242 339
0 3242 510
0 3242 681
0 3242 852
0 3242 1023
0 3242 1194
0 3242 1365
0 3242 1535
0 3242 1706
0 3242 1877
0 3242 2048
0 3242 2219
0 3242 2389
0 3242 2560
0 3242 2731
0 3242 2901
0 3242 3071
0 3242 3242
0 3242 3412
0 3242 3583
0 3242 3754
0 3242 3923
0 3242 4094
6 3412 0
0 3412 165
0 3412 337
0 3412 510
0 3412 681
0 3412 852
0 3412 1023
0 3412 1194
0 3412 1364
0 3412 1535
0 3412 1706
0 3412 1877
0 3412 2048
0 3412 2219
0 3412 2389
0 3412 2560
0 3412 2731
0 3412 2901
0 3412 3071
0 3412 3242
0 3412 3412
0 3412 3583
0 3412 3754
0 3412 3924
0 3412 4094
6 3583 0
0 3583 165
0 3583 337
0 3583 509
0 3583 681
0 3583 852
0 3583 1023
0 3583 1194
0 3583 1364
0 3583 1535
0 3583 1706
0 3583 1877
0 3583 2048
0 3583 2218
0 3583 2389
0 3583 2560
0 3583 2731
0 3583 2901
0 3583 3072
0 3583 3242
0 3583 3413
0 3583 3583
0 3583 3754
0 3583 3924
0 3583 4095
6 3754 0
0 3754 165
0 3754 337
0 3754 509
0 3754 681
0 3754 852
0 3754 1023
0 3754 1194
0 3754 1364
0 3754 1535
0 3754 1706
0 3754 1877
0 3754 2048
0 3754 2218
0 3754 2389
0 3754 2560
0 3754 2730
0 3754 2901
0 3754 3072
0 3754 3242
0 3754 3412
0 3754 3583
0 3754 3754
0 3754 3924
0 3754 4095
6 3924 0
0 3924 165
0 3924 337
0 3924 509
0 3924 681
0 3924 852
0 3924 1023
0 3924 1194
0 3924 1364
0 3924 1535
0 3924 1706
0 3924 1877
0 3924 2048
0 3924 2218
0 3924 2389
0 3924 2560
0 3924 2730
0 3924 2901
0 3924 3072
0 3924 3243
0 3924 3413
0 3924 3583
0 3924 3754
0 3924 3924
0 3924 4095
10 4095 0
6 4095 168
3 4095 339
3 4095 510
3 4095 682
0 4095 852
0 4095 1023
6 4095 1194
0 4095 1364
0 4095 1535
0 4095 1706
3 4095 1877
0 4095 2047
0 4095 2218
0 4095 2389
0 4095 2560
0 4095 2730
0 4095 2901
0 4095 3072
0 4095 3243
0 4095 3413
0 4095 3583
0 4095 3754
3 4095 3924
3 4095 4095
168 0 0
171 0 171
168 0 337
171 0 509
171 0 680
171 0 856
171 0 1020
171 0 1194
171 0 1366
171 0 1533
171 0 1708
171 0 1876
171 0 2045
174 0 2219
174 0 2387
174 0 2560
174 0 2730
174 0 2899
174 0 3070
174 0 3241
177 0 3411
177 0 3582
177 0 3753
177 0 3923
177 0 4094
161 171 19
171 171 171
171 171 341
171 171 512
171 171 682
171 171 851
171 171 1022
171 171 1194
174 171 1366
174 171 1533
174 171 1703
174 171 1875
174 171 2045
174 171 2216
174 171 2387
174 171 2558
177 171 2730
177 171 2899
177 171 3070
177 171 3242
177 171 3412
177 171 3582
177 171 3753
180 171 3924
177 168 4095
171 341 0
171 339 171
171 341 341
171 341 513
171 341 684
171 341 853
171 341 1025
171 339 1194
171 341 1366
171 341 1537
171 339 1708
171 341 1880
171 339 2050
171 339 2221
171 339 2391
171 339 2562
171 339 2732
171 339 2904
171 337 3074
171 337 3244
171 337 3416
171 337 3587
171 336 3758
171 336 3927
177 341 4095
171 512 0
171 512 171
171 512 341
171 512 512
171 512 682
171 512 854
171 513 1025
171 512 1194
171 512 1365
171 512 1537
171 512 1708
171 512 1877
171 512 2049
171 512 2220
171 512 2391
171 510 2562
171 510 2732
171 510 2902
171 510 3074
171 509 3244
171 509 3415
171 509 3585
171 509 3756
171 508 3927
174 510 4095
171 682 0
171 682 171
171 682 341
171 682 512
171 682 682
171 683 853
171 683 1024
171 682 1194
171 683 1365
171 683 1536
171 683 1707
171 682 1877
171 683 2049
171 682 2220
171 682 2390
171 682 2561
171 682 2731
171 682 2903
171 682 3074
171 681 3244
171 681 3414
171 681 3585
171 680 3756
171 680 3927
174 682 4095
171 852 0
171 853 171
171 853 341
171 853 512
171 853 683
171 853 853
171 852 1023
171 853 1194
171 853 1365
171 852 1535
171 853 1707
171 853 1877
171 852 2047
171 852 2218
171 852 2389
171 852 2560
171 852 2731
171 852 2901
171 852 3072
171 852 3244
171 852 3414
171 852 3585
171 852 3756
171 852 3927
174 852 4095
171 1023 0
171 1023 171
171 1023 341
171 1023 512
171 1023 683
171 1024 853
171 1024 1024
171 1023 1194
171 1024 1364
171 1024 1535
171 1024 1706
171 1023 1876
171 1024 2048
171 1024 2219
171 1024 2389
171 1024 2560
171 1023 2731
171 1023 2901
171 1023 3073
171 1023 3243
171 1023 3413
171 1023 3584
171 1023 3755
171 1023 3926
174 1023 4095
171 1195 0
174 1195 171
171 1195 341
171 1195 512
171 1195 683
171 1194 853
171 1194 1024
171 1195 1195
171 1194 1364
171 1194 1535
171 1194 1705
171 1195 1876
171 1194 2047
171 1194 2218
171 1194 2388
171 1194 2559
171 1195 2731
171 1194 2901
171 1194 3072
171 1194 3243
171 1194 3413
171 1194 3584
171 1194 3755
171 1194 3926
174 1194 4095
171 1365 0
174 1364 171
171 1365 341
171 1365 512
171 1365 683
171 1365 853
171 1365 1025
171 1365 1195
171 1365 1365
171 1365 1535
171 1365 1705
171 1365 1877
171 1365 2047
171 1365 2218
171 1365 2389
171 1365 2559
171 1365 2730
171 1365 2901
171 1365 3072
171 1365 3242
171 1364 3413
171 1365 3584
171 1365 3755
171 1364 3925
177 1365 4095
171 1536 0
174 1536 171
171 1536 339
171 1536 512
171 1536 683
171 1536 853
171 1536 1024
171 1536 1195
171 1536 1365
171 1536 1536
171 1536 1706
171 1536 1876
171 1536 2047
171 1536 2218
171 1536 2388
171 1536 2559
171 1536 2730
171 1536 2900
171 1536 3071
171 1535 3242
171 1536 3413
171 1536 3584
171 1535 3755
171 1535 3925
174 1536 4095
171 1707 0
174 1707 171
171 1707 339
171 1707 512
171 1707 682
171 1706 853
171 1706 1024
171 1707 1195
171 1706 1366
171 1706 1536
171 1706 1706
171 1707 1877
171 1707 2047
171 1707 2218
171 1707 2388
171 1707 2559
171 1706 2730
171 1707 2900
171 1707 3071
171 1706 3242
171 1707 3413
171 1706 3583
171 1706 3754
171 1706 3925
174 1707 4095
