Examples/AB - Saturation decrease toned.3dl
#25pt 3DLUT created by 3D LUT Creator Pro (c) Oleg Sharonov
#Copyright Oleg Sharonov
#IMAGEPROFILE sRGB IEC61966-2.1 v.2.10
#INPUTGAMMA sRGB IEC61966-2.1 v.2.10
#OUTPUTGAMMA sRGB IEC61966-2.1 v.2.10
0 128 256 384 512 640 768 896 1023
0 0 129
43 54 249
143 169 460
319 384 707
532 656 958
703 870 1161
866 1067 1359
1015 1240 1541
1171 1416 1733
162 631 644
232 677 893
437 645 942
563 746 1040
691 886 1175
831 1047 1336
977 1215 1513
1134 1394 1710
1318 1602 1949
444 1383 1153
427 1416 1292
567 1365 1523
811 1286 1566
948 1321 1616
1073 1411 1721
1204 1533 1866
1344 1677 2043
1531 1886 2312
688 1945 1547
672 1967 1632
682 1982 1834
860 1928 2081
1137 1871 2199
1314 1893 2273
1457 1959 2389
1597 2062 2559
1767 2234 2814
932 2516 1949
918 2526 2007
901 2543 2155
942 2542 2396
1157 2490 2669
1440 2447 2885
1650 2462 3048
1820 2516 3232
1991 2616 3407
1176 3088 2365
1161 3088 2404
1134 3092 2513
1134 3093 2703
1200 3081 2956
1457 3031 3263
1731 2994 3584
1949 2999 3844
2172 3028 3939
1418 3651 2784
1402 3641 2810
1372 3631 2890
1355 3620 3034
1389 3605 3244
1501 3582 3496
1769 3528 3803
2143 3482 4055
2497 3438 4055
1628 4009 3133
1620 4012 3168
1602 4019 3250
1583 4008 3364
1589 3990 3530
1666 3968 3736
1849 3942 3964
2590 3875 4055
2958 3798 4055
1729 4010 3160
1740 4014 3209
1760 4020 3298
1802 4028 3425
1824 4039 3611
1939 4045 3803
2079 4052 4004
2868 4003 4055
3452 3977 4055
239 16 154
239 59 359
182 174 474
328 354 685
527 625 931
693 839 1132
853 1037 1329
1013 1226 1528
1181 1410 1729
301 319 255
330 349 608
445 530 817
561 686 975
684 842 1127
820 1008 1294
965 1180 1474
1126 1365 1676
1326 1585 1927
453 1179 884
628 1166 1083
679 1205 1345
827 1187 1450
939 1252 1535
1059 1358 1657
1191 1491 1811
1334 1640 1994
1542 1863 2279
657 1766 1350
805 1763 1465
781 1832 1700
926 1813 1943
1154 1786 2088
1314 1827 2182
1451 1907 2312
1593 2020 2492
1790 2211 2779
879 2336 1776
1002 2337 1857
992 2386 2019
1005 2418 2277
1205 2392 2546
1464 2374 2771
1666 2398 2946
1835 2467 3143
2032 2593 3375
1125 2918 2204
1225 2917 2269
1212 2946 2390
1196 2975 2599
1254 2985 2856
1512 2953 3162
1774 2930 3484
1994 2949 3761
2230 3009 3921
1364 3488 2632
1450 3480 2683
1437 3495 2777
1430 3509 2935
1452 3516 3161
1556 3509 3417
1842 3469 3731
2108 3451 4055
2537 3433 4055
1599 3959 3043
1676 3948 3082
1663 3945 3151
1658 3941 3270
1654 3937 3455
1736 3927 3671
1918 3912 3909
2559 3864 4055
3021 3800 4055
1730 4018 3130
1844 4011 3191
1866 4017 3277
1907 4025 3402
1911 4039 3596
2021 4046 3791
2153 4055 3996
2915 4009 4055
3496 3985 4055
617 56 216
767 0 450
634 179 644
465 403 720
582 603 926
736 826 1135
886 1032 1331
1037 1223 1528
1209 1411 1736
699 326 268
674 375 594
686 435 791
605 593 892
729 803 1108
854 992 1284
990 1168 1465
1145 1353 1666
1344 1571 1918
744 844 470
770 860 682
824 932 1101
894 1063 1296
980 1179 1440
1089 1313 1596
1215 1458 1765
1353 1613 1954
1563 1835 2240
745 1616 1043
850 1604 1171
1055 1592 1468
1098 1662 1763
1234 1676 1939
1355 1745 2068
1478 1850 2228
1619 1981 2428
1826 2181 2733
917 2170 1522
1019 2197 1631
1221 2191 1847
1181 2276 2131
1353 2277 2402
1548 2280 2635
1723 2325 2829
1882 2410 3043
2089 2561 3329
1135 2754 1982
1215 2778 2074
1414 2769 2232
1371 2839 2472
1399 2877 2739
1641 2856 3039
1863 2858 3365
2077 2892 3666
2313 2980 3894
1350 3328 2437
1425 3343 2507
1611 3333 2636
1601 3372 2808
1587 3409 3057
1664 3426 3321
1970 3402 3646
2213 3405 4014
2631 3420 4055
1569 3866 2871
1647 3868 2921
1820 3857 3030
1823 3867 3158
1786 3879 3370
1863 3882 3596
2028 3880 3845
2529 3856 4055
3086 3805 4055
1744 4031 3083
1847 4025 3139
2035 4012 3247
2071 4021 3368
2065 4037 3566
2142 4048 3772
2267 4058 3985
3001 4016 4055
3573 3993 4055
1011 120 316
1143 57 484
1270 0 761
1040 369 930
800 681 998
829 834 1129
968 1035 1359
1113 1229 1561
1270 1414 1764
1090 365 370
1095 409 612
1268 322 848
1104 570 1038
895 811 1105
942 960 1256
1066 1152 1483
1210 1347 1684
1389 1558 1924
1185 837 238
1177 866 655
1102 923 1039
1147 960 1244
1073 1079 1347
1160 1263 1573
1274 1435 1757
1401 1601 1952
1593 1809 2226
1203 1345 683
1232 1362 820
1259 1375 1113
1294 1444 1577
1359 1567 1793
1442 1678 1966
1545 1801 2150
1673 1944 2366
1875 2148 2679
1102 2077 1207
1134 2089 1283
1292 2063 1517
1498 2066 1916
1548 2140 2231
1684 2179 2493
1823 2254 2713
1960 2361 2956
2159 2524 3273
1222 2646 1725
1297 2654 1792
1456 2676 1999
1675 2670 2301
1618 2758 2609
1822 2760 2910
2003 2783 3251
2194 2834 3572
2417 2946 3860
1411 3199 2196
1486 3228 2271
1629 3246 2441
1863 3238 2681
1796 3303 2950
1835 3348 3226
2140 3339 3558
2352 3360 3944
2713 3405 4055
1624 3767 2663
1687 3785 2728
1821 3789 2866
2070 3766 3045
2023 3808 3267
2040 3839 3519
2178 3854 3785
2571 3843 4055
3166 3809 4055
1811 4047 2996
1886 4043 3053
2042 4033 3169
2291 4016 3331
2279 4032 3522
2300 4049 3749
2413 4064 3971
3119 4021 4055
3637 4005 4055
1415 188 422
1550 131 524
1687 34 821
1802 0 1081
1463 604 1224
1165 945 1291
1140 1105 1396
1226 1257 1581
1370 1440 1816
1499 423 439
1531 459 639
1659 397 879
1903 185 1161
1518 751 1307
1251 1033 1381
1219 1186 1483
1318 1350 1687
1473 1546 1948
1566 863 568
1595 886 738
1554 944 1050
1719 906 1283
1579 1064 1477
1395 1249 1561
1384 1386 1701
1506 1572 1960
1660 1768 2236
1693 1336 192
1720 1354 601
1685 1385 1083
1560 1450 1507
1610 1482 1733
1574 1576 1873
1641 1749 2143
1751 1909 2366
1929 2107 2677
1695 1857 903
1725 1878 1007
1751 1893 1241
1769 1907 1597
1790 1968 2093
1859 2083 2362
1948 2197 2611
2067 2316 2868
2243 2480 3201
1598 2552 1479
1628 2571 1540
1652 2590 1677
1784 2575 1946
1976 2588 2428
2053 2655 2781
2192 2701 3149
2347 2779 3483
2538 2909 3815
1565 3168 1950
1621 3179 2008
1740 3174 2158
1943 3184 2439
2182 3172 2788
2094 3268 3134
2344 3276 3466
2532 3304 3880
2824 3377 4055
1720 3692 2438
1782 3708 2488
1912 3727 2632
2103 3728 2864
2341 3713 3161
2279 3779 3447
2380 3817 3723
2704 3815 4041
3263 3810 4055
1914 4067 2881
1980 4064 2917
2109 4057 3036
2311 4045 3226
2554 4029 3481
2533 4050 3714
2597 4069 3954
3214 4033 4055
3718 4016 4055
1839 288 531
1970 214 597
2104 154 846
2271 0 1125
2375 0 1413
1905 842 1531
1559 1197 1599
1493 1372 1701
1537 1509 1866
1929 506 532
1978 535 699
2118 459 898
2320 262 1187
2550 0 1491
1960 952 1603
1635 1269 1677
1553 1440 1775
1599 1570 1943
2003 901 646
2049 922 781
2028 978 1068
2181 932 1307
2340 884 1594
2043 1189 1755
1781 1433 1851
1699 1589 1950
1772 1739 2167
2110 1349 615
2134 1373 834
2132 1402 1149
2042 1469 1517
2188 1454 1765
2087 1570 1987
1953 1714 2107
1901 1851 2280
2038 2038 2608
2244 1845 140
2277 1868 583
2288 1886 1047
2250 1917 1549
2085 1986 2016
2070 2032 2277
2110 2107 2534
2198 2258 2879
2328 2416 3241
2244 2396 1131
2277 2423 1215
2303 2439 1399
2298 2455 1736
2308 2466 2138
2323 2521 2666
2396 2615 3018
2501 2723 3367
2660 2867 3736
2125 3063 1769
2153 3093 1824
2168 3111 1942
2203 3125 2130
2320 3117 2462
2483 3132 2973
2588 3186 3360
2737 3238 3810
2964 3337 4055
1928 3701 2165
1972 3723 2236
2073 3717 2350
2227 3700 2584
2466 3692 2907
2694 3682 3305
2621 3768 3653
2902 3780 3986
3352 3810 4055
2080 4084 2702
2126 4094 2748
2229 4090 2841
2407 4078 3042
2641 4061 3314
2900 4042 3634
2827 4072 3932
3333 4044 4055
3803 4028 4055
2285 429 644
2404 377 700
2549 273 887
2666 209 1210
2867 0 1458
2974 0 1774
2368 1079 1866
1991 1442 1944
1888 1631 2055
2372 614 653
2436 644 791
2583 565 940
2693 516 1245
3032 0 1511
3121 0 1848
2422 1163 1935
2060 1501 2019
1942 1689 2125
2453 964 731
2512 984 851
2516 1031 1100
2663 979 1324
2846 890 1618
2990 840 1938
2492 1357 2071
2198 1633 2181
2069 1815 2287
2525 1390 887
2582 1408 984
2608 1432 1188
2543 1498 1534
2694 1468 1777
2778 1479 2090
2572 1674 2296
2370 1870 2439
2267 2025 2578
2680 1854 662
2719 1881 869
2712 1908 1217
2691 1940 1604
2559 2020 2030
2670 2021 2318
2656 2088 2605
2566 2201 2785
2523 2327 3041
2844 2378 129
2892 2409 539
2897 2428 1041
2882 2452 1549
2860 2478 2067
2623 2551 2571
2597 2600 2939
2680 2643 3304
2799 2780 3723
2802 2948 1379
2841 2988 1451
2859 3003 1608
2869 3019 1879
2866 3034 2264
2873 3050 2722
2879 3099 3276
2956 3175 3700
3087 3287 4055
2671 3587 2064
2702 3633 2121
2721 3648 2221
2713 3673 2398
2780 3678 2623
2880 3673 3009
3017 3690 3529
3145 3737 3933
3466 3806 4055
2324 4095 2360
2480 4095 2540
2577 4095 2676
2611 4095 2789
2772 4095 3036
3020 4074 3423
3215 4057 3841
3460 4057 4055
3897 4046 4055
2733 597 774
2834 571 827
2978 491 963
3085 452 1249
3310 149 1533
3451 0 1839
3553 0 2181
2812 1327 2242
2460 1678 2348
2808 756 792
2885 792 911
3031 722 1017
3129 696 1287
3283 580 1593
3589 16 1896
3669 32 2263
2868 1400 2315
2528 1731 2430
2894 1055 846
2970 1075 949
2995 1111 1157
3119 1072 1371
3181 1080 1698
3436 903 1973
3494 945 2322
2930 1555 2442
2654 1833 2583
2961 1452 995
3031 1472 1085
3055 1498 1266
3019 1556 1574
3144 1531 1807
3253 1515 2118
3298 1551 2454
3017 1819 2655
2837 2024 2845
3069 1900 1040
3126 1928 1176
3131 1955 1405
3146 1980 1657
3034 2059 2054
3134 2056 2327
3197 2077 2662
3117 2192 2952
2981 2334 3153
3262 2388 789
3314 2424 968
3311 2447 1273
3288 2477 1677
3239 2516 2122
3033 2610 2583
3135 2611 2915
3144 2649 3235
3132 2715 3557
3435 2919 129
3492 2963 495
3492 2986 1029
3463 3012 1562
3415 3042 2099
3369 3063 2633
3182 3127 3159
3171 3170 3606
3257 3193 4053
3357 3513 1632
3405 3567 1696
3425 3589 1827
3437 3602 2052
3409 3620 2431
3430 3627 2819
3435 3640 3303
3416 3673 3867
3571 3781 4055
3226 4030 2368
3262 4068 2428
3285 4082 2516
3281 4091 2674
3274 4095 2888
3330 4095 3150
3433 4089 3557
3549 4080 4055
3990 4067 4055
3154 795 927
3238 789 979
3368 739 1080
3451 741 1330
3512 776 1652
3781 432 1908
3953 181 2258
3920 589 2610
3227 1594 2672
3220 929 954
3311 972 1061
3432 935 1149
3506 933 1377
3554 960 1690
3759 787 1962
3915 656 2305
3897 872 2656
3275 1659 2747
3292 1189 1003
3374 1223 1112
3399 1261 1286
3505 1235 1465
3551 1257 1759
3671 1217 2056
3807 1163 2384
3825 1250 2727
3343 1781 2873
3343 1558 1153
3417 1584 1240
3452 1611 1392
3442 1660 1652
3537 1645 1873
3549 1683 2210
3685 1647 2506
3706 1704 2849
3429 1993 3068
3423 1983 1312
3491 2010 1390
3531 2034 1530
3547 2059 1751
3478 2127 2102
3557 2124 2356
3591 2145 2687
3617 2180 3039
3539 2298 3335
3588 2441 1227
3635 2476 1355
3657 2508 1567
3641 2536 1875
3638 2563 2175
3493 2651 2610
3538 2663 2906
3604 2670 3262
3590 2719 3613
3774 2940 988
3822 2979 1141
3851 3016 1404
3836 3039 1757
3800 3068 2194
3721 3114 2673
3496 3206 3141
3617 3186 3514
3624 3216 3862
3975 3477 129
4026 3523 470
4064 3571 966
4039 3594 1513
3988 3620 2084
3921 3647 2644
3875 3660 3194
3707 3719 3726
3697 3760 4055
3854 3994 1897
3901 4027 1955
3956 4066 2063
3968 4073 2252
3979 4079 2529
3939 4089 2978
3969 4088 3384
3971 4092 3869
4064 4095 4055
