Examples/AB - Cooler 2.3dl
#25pt 3DLUT created by 3D LUT Creator Pro (c) Oleg Sharonov
#Copyright Oleg Sharonov
#IMAGEPROFILE sRGB IEC61966-2.1 v.2.10
#INPUTGAMMA sRGB IEC61966-2.1 v.2.10
#OUTPUTGAMMA sRGB IEC61966-2.1 v.2.10
0 128 256 384 512 640 768 896 1023
0 0 0
3 26 398
13 87 828
32 195 1260
61 316 1693
100 439 2125
149 562 2558
206 684 2990
264 806 3423
192 458 471
0 503 594
0 533 907
0 590 1260
0 664 1636
0 752 2030
0 849 2438
13 952 2852
55 1060 3265
482 934 955
152 979 1001
0 1008 1163
0 1035 1459
0 1076 1799
0 1131 2150
0 1198 2518
0 1276 2897
0 1362 3287
773 1409 1438
482 1450 1463
126 1488 1544
0 1514 1733
0 1538 2029
0 1574 2348
0 1619 2687
0 1673 3041
0 1737 3405
1063 1884 1921
794 1923 1938
521 1958 1990
58 1995 2106
0 2019 2302
0 2043 2592
0 2075 2898
0 2113 3240
0 2162 3577
1353 2359 2405
1098 2397 2417
850 2430 2452
527 2467 2528
0 2502 2665
0 2525 2871
0 2549 3154
0 2578 3463
0 2613 3789
1643 2834 2888
1397 2870 2897
1167 2903 2924
883 2939 2978
496 2977 3070
0 3008 3222
0 3031 3440
0 3054 3720
0 3080 4032
1934 3309 3372
1695 3344 3378
1476 3376 3400
1216 3411 3442
905 3447 3516
443 3485 3626
0 3514 3784
0 3536 4009
1375 3516 4095
2224 3784 3855
1992 3818 3860
1781 3849 3878
1537 3883 3913
1248 3919 3967
899 3956 4056
939 3976 4095
2188 3905 4095
2780 3858 4095
161 152 243
214 136 604
195 126 1100
177 158 1552
209 209 2004
267 289 2443
322 394 2873
379 510 3299
434 630 3725
526 474 518
412 494 835
388 508 1181
365 531 1585
356 582 1973
363 650 2366
381 734 2764
408 827 3168
440 927 3577
784 917 1006
618 951 1163
467 987 1368
267 1033 1635
168 1077 1952
129 1129 2300
123 1190 2665
129 1266 3029
152 1349 3407
1050 1385 1472
855 1422 1562
531 1477 1667
379 1506 1883
74 1542 2167
0 1578 2476
0 1622 2798
0 1674 3147
0 1735 3510
1329 1856 1950
1117 1895 2005
743 1953 2063
490 1989 2192
206 2019 2415
0 2047 2700
0 2080 2987
0 2116 3325
0 2165 3650
1604 2331 2425
1395 2367 2468
1011 2425 2506
740 2463 2589
423 2498 2737
0 2528 2962
0 2551 3239
0 2581 3533
0 2616 3854
1882 2806 2902
1677 2840 2939
1301 2897 2968
1021 2936 3020
708 2974 3118
282 3008 3287
0 3034 3510
0 3056 3788
0 3083 4089
2163 3281 3380
1962 3314 3414
1586 3371 3431
1322 3408 3476
1039 3444 3555
673 3483 3667
0 3517 3844
0 3539 4066
1610 3503 4095
2445 3757 3860
2248 3788 3891
1877 3844 3902
1626 3880 3941
1341 3918 3995
1028 3954 4088
1526 3945 4095
2333 3891 4095
2875 3848 4095
430 414 565
465 404 787
520 383 1179
510 360 1690
475 370 2161
455 408 2612
465 455 3062
506 506 3515
562 577 3959
693 620 660
624 626 971
624 624 1319
614 603 1802
601 594 2270
599 597 2726
616 620 3164
645 669 3589
679 738 4009
1047 961 1035
908 988 1281
855 995 1573
835 1011 1874
803 1024 2278
782 1046 2687
765 1086 3074
760 1138 3467
765 1201 3860
1299 1395 1537
1210 1418 1631
1066 1441 1898
981 1467 2131
770 1525 2366
646 1570 2662
573 1615 2990
533 1666 3336
517 1721 3700
1565 1853 2003
1485 1873 2052
1264 1914 2231
992 1967 2398
927 1989 2629
677 2038 2873
527 2076 3179
416 2116 3501
324 2165 3823
1831 2321 2469
1773 2334 2513
1504 2384 2636
1124 2449 2738
938 2484 2891
849 2505 3149
538 2549 3402
295 2583 3708
36 2620 4028
2104 2791 2941
2048 2803 2975
1755 2857 3063
1332 2924 3136
1100 2962 3250
879 2997 3414
713 3023 3666
314 3057 3953
652 3080 4095
2384 3262 3420
2320 3276 3439
2026 3328 3515
1581 3397 3567
1322 3437 3652
1065 3474 3774
813 3506 3960
959 3522 4095
1958 3481 4095
2660 3736 3895
2596 3750 3909
2302 3800 3976
1855 3868 4018
1567 3912 4071
1428 3940 4095
2135 3898 4095
2637 3861 4095
3040 3835 4095
698 676 890
720 666 1066
774 657 1325
826 632 1755
825 602 2276
793 600 2760
758 620 3223
735 657 3674
735 702 4095
865 826 935
831 825 1159
853 811 1478
865 808 1846
872 779 2351
852 769 2832
830 772 3296
819 789 3750
859 852 4095
1213 1094 1116
1111 1113 1355
1075 1103 1714
1076 1105 2032
1079 1081 2503
1064 1064 2983
1052 1053 3447
1049 1054 3896
1131 1146 4095
1570 1447 1551
1429 1477 1748
1335 1488 2030
1298 1496 2309
1280 1515 2573
1248 1525 2968
1217 1541 3373
1198 1560 3787
1182 1592 4095
1818 1875 2074
1742 1895 2143
1633 1919 2314
1518 1931 2646
1459 1955 2871
1255 2018 3092
1118 2064 3381
1028 2105 3705
967 2150 4042
2083 2326 2535
2016 2344 2571
1921 2365 2699
1702 2404 2948
1472 2453 3147
1453 2467 3391
1211 2525 3619
1045 2569 3901
1011 2609 4095
2348 2788 3000
2296 2802 3028
2201 2823 3122
1910 2878 3303
1562 2941 3454
1439 2970 3641
1387 2989 3891
1119 3040 4095
1599 3050 4095
2613 3256 3465
2577 3265 3495
2479 3286 3565
2155 3346 3711
1728 3419 3818
1533 3455 3958
1378 3487 4095
2082 3448 4095
2394 3456 4095
2882 3727 3935
2850 3734 3960
2749 3756 4013
2411 3816 4095
2306 3853 4095
2506 3847 4095
2716 3842 4095
2995 3829 4095
3262 3822 4095
968 938 1214
986 926 1370
1025 920 1572
1083 910 1880
1132 883 2332
1134 849 2856
1108 839 3349
1074 845 3825
1091 946 4095
1091 1050 1223
1064 1049 1407
1091 1032 1686
1131 1025 1986
1153 1015 2396
1159 984 2908
1145 965 3407
1115 967 3877
1163 1074 4095
1393 1261 1366
1292 1286 1517
1274 1274 1849
1270 1262 2214
1273 1267 2544
1271 1245 3029
1263 1222 3523
1246 1214 3990
1349 1334 4095
1738 1574 1597
1603 1601 1818
1564 1603 2066
1511 1597 2452
1513 1603 2736
1543 1573 3203
1537 1552 3680
1530 1545 4095
1653 1665 4095
2092 1933 2068
1946 1965 2237
1846 1983 2456
1765 1988 2783
1741 1996 3046
1729 2017 3284
1696 2028 3663
1669 2035 4078
1781 2103 4095
2328 2360 2601
2254 2381 2649
2148 2406 2785
2068 2417 3041
1974 2422 3403
1929 2446 3611
1744 2507 3831
1600 2554 4095
1738 2606 4095
2595 2805 3065
2554 2815 3108
2457 2840 3199
2344 2865 3375
2154 2893 3688
1965 2934 3915
1983 2943 4095
2030 2996 4095
2199 3035 4095
2865 3260 3533
2820 3272 3554
2724 3297 3616
2611 3322 3757
2358 3363 4023
2112 3418 4095
2409 3410 4095
2644 3412 4095
2775 3444 4095
3131 3723 3998
3095 3733 4017
3007 3755 4064
2987 3765 4095
3019 3777 4095
3045 3800 4095
3191 3801 4095
3337 3809 4095
3476 3825 4095
1236 1200 1538
1249 1188 1679
1277 1183 1850
1330 1175 2097
1391 1162 2440
1437 1132 2907
1442 1098 3433
1423 1080 3935
1447 1208 4095
1327 1290 1522
1310 1286 1685
1335 1268 1935
1375 1262 2185
1423 1252 2519
1451 1235 2957
1456 1204 3473
1448 1179 3979
1491 1307 4095
1552 1470 1636
1500 1483 1739
1480 1473 2036
1493 1454 2382
1514 1451 2698
1517 1451 3073
1528 1421 3578
1522 1397 4076
1603 1527 4095
1900 1730 1790
1785 1755 1965
1755 1757 2185
1729 1741 2581
1724 1725 2970
1730 1735 3263
1719 1716 3736
1726 1719 4095
1836 1829 4095
2263 2056 2087
2122 2085 2294
2069 2089 2523
2011 2095 2808
1944 2095 3189
1949 2105 3449
1993 2075 3892
2052 2096 4095
2155 2177 4095
2614 2418 2584
2455 2456 2735
2372 2470 2928
2273 2484 3196
2201 2485 3543
2184 2496 3782
2177 2519 4001
2239 2548 4095
2357 2607 4095
2832 2848 3124
2772 2865 3168
2690 2883 3298
2588 2904 3496
2497 2917 3777
2433 2914 4095
2512 2945 4095
2529 3002 4095
2585 3058 4095
3113 3284 3599
3075 3294 3635
2991 3315 3716
2869 3346 3848
2767 3365 4075
2861 3365 4095
2935 3390 4095
3041 3413 4095
3091 3461 4095
3379 3736 4063
3350 3743 4090
3261 3769 4095
3312 3769 4095
3385 3771 4095
3448 3782 4095
3487 3806 4095
3584 3825 4095
3673 3851 4095
1505 1462 1862
1512 1450 1993
1538 1443 2146
1582 1436 2356
1638 1429 2636
1699 1413 3006
1742 1381 3483
1748 1347 4009
1774 1469 4095
1574 1538 1829
1563 1531 1979
1588 1512 2210
1623 1506 2427
1670 1499 2705
1717 1489 3063
1754 1463 3523
1758 1433 4041
1804 1554 4095
1753 1690 1913
1727 1696 1997
1703 1688 2263
1728 1665 2589
1756 1660 2868
1786 1655 3208
1792 1651 3615
1809 1616 4095
1883 1739 4095
2092 1901 2074
1985 1931 2171
1943 1939 2355
1923 1923 2728
1918 1904 3118
1926 1904 3433
1925 1912 3771
1955 1918 4095
2048 2011 4095
2421 2204 2250
2328 2221 2431
2239 2239 2629
2214 2237 2893
2181 2219 3330
2180 2202 3716
2181 2219 3975
2249 2253 4095
2331 2331 4095
2788 2540 2581
2664 2564 2777
2572 2579 2992
2516 2585 3244
2447 2592 3551
2377 2594 3927
2397 2610 4095
2548 2639 4095
2650 2694 4095
3135 2904 3100
2959 2949 3232
2888 2959 3407
2784 2978 3631
2703 2983 3949
2705 2991 4095
2778 3021 4095
2849 3060 4095
2933 3106 4095
3333 3339 3645
3288 3350 3689
3215 3366 3805
3102 3393 3965
3069 3404 4095
3146 3414 4095
3231 3431 4095
3286 3466 4095
3320 3515 4095
3640 3763 4095
3619 3772 4095
3587 3788 4095
3575 3805 4095
3607 3815 4095
3667 3826 4095
3719 3845 4095
3769 3874 4095
3829 3908 4095
1774 1724 2186
1781 1712 2311
1804 1703 2452
1835 1699 2635
1885 1693 2876
1947 1682 3185
2006 1664 3574
2048 1631 4060
2070 1750 4095
1833 1788 2144
1822 1781 2282
1845 1761 2499
1869 1757 2690
1919 1749 2935
1972 1740 3240
2020 1727 3620
2058 1698 4093
2088 1817 4095
1984 1917 2205
1964 1921 2274
1939 1914 2518
1966 1890 2823
2000 1883 3076
2033 1879 3372
2068 1871 3735
2088 1871 4095
2150 1975 4095
2243 2113 2339
2179 2132 2406
2150 2136 2566
2129 2121 2917
2139 2098 3293
2156 2094 3589
2169 2094 3922
2196 2133 4095
2281 2214 4095
2590 2370 2482
2517 2384 2625
2420 2408 2789
2404 2405 3030
2379 2385 3453
2366 2365 3873
2379 2377 4095
2438 2438 4095
2512 2507 4095
2945 2681 2725
2916 2676 2903
2728 2726 3089
2706 2722 3329
2669 2723 3626
2621 2708 4067
2687 2733 4095
2734 2785 4095
2823 2837 4095
3312 3025 3079
3249 3029 3273
3071 3072 3466
3016 3078 3693
2956 3082 3980
2933 3102 4095
2978 3135 4095
3043 3172 4095
3145 3211 4095
3657 3390 3617
3480 3436 3734
3411 3446 3905
3315 3463 4095
3315 3483 4095
3355 3502 4095
3405 3527 4095
3457 3561 4095
3511 3601 4095
3834 3835 4095
3816 3842 4095
3791 3858 4095
3781 3874 4095
3796 3888 4095
3829 3905 4095
3870 3926 4095
3915 3954 4095
3961 3990 4095
2042 1985 2510
2050 1973 2631
2067 1965 2760
2090 1961 2925
2140 1953 3141
2193 1947 3408
2255 1935 3738
2313 1919 4095
2348 2030 4095
2094 2041 2460
2082 2033 2591
2100 2015 2796
2126 2008 2972
2169 2001 3191
2216 1996 3456
2275 1984 3785
2323 1982 4095
2365 2084 4095
2219 2154 2501
2202 2158 2561
2182 2149 2791
2210 2124 3080
2238 2118 3307
2279 2112 3575
2325 2103 3896
2360 2132 4095
2412 2222 4095
2423 2335 2608
2397 2341 2667
2371 2346 2806
2348 2332 3132
2367 2306 3494
2394 2299 3771
2418 2296 4080
2466 2353 4095
2518 2432 4095
2792 2542 2784
2697 2570 2849
2613 2592 2984
2594 2592 3201
2572 2572 3609
2567 2548 4025
2601 2580 4095
2654 2633 4095
2711 2701 4095
3108 2841 2924
3085 2834 3089
2909 2883 3239
2883 2883 3458
2865 2879 3734
2843 2866 4095
2897 2900 4095
2945 2948 4095
2999 3004 4095
3471 3161 3206
3442 3161 3333
3239 3209 3560
3201 3209 3785
3157 3213 4041
3158 3236 4095
3200 3266 4095
3263 3300 4095
3309 3349 4095
3835 3511 3579
3794 3510 3742
3567 3567 3943
3538 3569 4095
3525 3594 4095
3543 3617 4095
3574 3645 4095
3616 3679 4095
3667 3718 4095
4095 3904 4081
3991 3940 4095
3955 3959 4095
3951 3972 4095
3956 3989 4095
3980 4007 4095
4012 4030 4095
4048 4059 4095
4088 4094 4095
