Examples/AB - Only warm.3dl
#25pt 3DLUT created by 3D LUT Creator Pro (c) Oleg Sharonov
#Copyright Oleg Sharonov
#IMAGEPROFILE sRGB IEC61966-2.1 v.2.10
#INPUTGAMMA sRGB IEC61966-2.1 v.2.10
#OUTPUTGAMMA sRGB IEC61966-2.1 v.2.10
0 43 86 128 171 214 256 299 341 384 427 469 512 555 597 640 682 725 768 810 853 896 938 981 1023 
0 0 0
13 13 16
29 29 36
55 55 71
87 87 116
136 132 168
189 189 222
248 248 280
304 304 334
362 362 389
419 419 449
475 475 508
532 532 568
590 590 627
646 646 687
703 703 746
759 759 806
816 816 865
874 874 924
930 931 984
987 987 1044
1044 1044 1103
1101 1101 1162
1157 1158 1221
1214 1215 1281
123 123 100
129 136 136
149 152 158
174 177 189
206 209 225
243 245 267
284 284 308
328 330 352
376 376 399
423 425 451
474 475 504
525 526 558
577 578 613
630 630 668
683 684 725
737 737 781
792 792 838
845 846 894
901 902 952
956 957 1010
1011 1011 1067
1067 1067 1126
1122 1122 1184
1178 1178 1242
1234 1234 1300
269 269 233
273 278 271
282 289 289
299 306 312
322 326 337
351 352 367
381 384 401
417 420 439
455 458 481
497 499 525
541 542 571
586 588 618
633 634 669
682 683 720
731 732 772
782 783 825
832 834 879
884 885 933
937 937 988
989 990 1043
1043 1044 1099
1096 1097 1155
1150 1151 1212
1205 1205 1268
1259 1259 1325
419 419 369
420 425 396
422 433 427
436 443 443
452 460 465
472 479 489
497 504 516
526 531 547
558 562 582
592 595 619
629 632 659
668 672 701
710 713 745
753 756 792
798 800 838
844 846 887
891 894 937
940 942 988
988 990 1040
1038 1040 1093
1089 1090 1145
1140 1142 1199
1192 1193 1253
1244 1245 1308
1296 1297 1363
569 571 485
570 573 516
572 578 551
575 587 582
588 599 599
604 614 618
624 632 642
647 655 667
673 680 696
702 708 728
734 739 763
768 772 800
803 808 838
842 845 880
882 885 922
923 926 967
966 969 1012
1010 1013 1059
1056 1058 1107
1102 1105 1156
1149 1151 1206
1198 1200 1257
1247 1249 1308
1296 1298 1360
1346 1348 1412
721 720 604
718 723 642
721 725 672
722 732 711
727 742 737
741 753 753
757 769 773
776 787 796
798 807 820
822 831 848
849 856 877
878 885 909
910 916 944
944 948 981
979 984 1018
1016 1020 1059
1054 1059 1100
1094 1099 1143
1136 1140 1187
1179 1183 1233
1223 1226 1279
1268 1271 1327
1313 1317 1375
1360 1363 1424
1407 1410 1474
870 870 736
868 871 768
870 874 797
871 879 831
871 886 872
880 896 892
894 909 909
909 924 928
928 940 950
949 960 973
972 982 1000
997 1006 1028
1025 1033 1059
1055 1062 1091
1086 1093 1126
1119 1126 1162
1154 1160 1199
1190 1196 1239
1228 1233 1279
1267 1272 1321
1308 1312 1364
1349 1354 1408
1392 1396 1454
1435 1439 1500
1480 1484 1546
1020 1020 867
1018 1021 894
1018 1023 923
1020 1027 953
1021 1032 992
1020 1041 1030
1033 1051 1047
1046 1064 1064
1063 1078 1083
1081 1095 1104
1101 1114 1128
1123 1135 1153
1147 1158 1180
1174 1183 1209
1201 1210 1240
1231 1240 1273
1262 1270 1306
1295 1303 1342
1330 1336 1380
1365 1372 1418
1403 1409 1458
1441 1446 1499
1480 1486 1541
1521 1526 1585
1562 1567 1629
1169 1169 999
1168 1170 1023
1167 1171 1050
1168 1175 1079
1170 1179 1113
1171 1186 1153
1173 1195 1185
1185 1206 1201
1199 1218 1218
1215 1233 1238
1233 1249 1258
1253 1267 1281
1274 1288 1306
1297 1310 1332
1322 1334 1360
1349 1360 1390
1377 1387 1421
1407 1416 1454
1438 1447 1488
1471 1479 1524
1505 1513 1561
1540 1548 1599
1577 1584 1638
1615 1621 1678
1653 1660 1720
1318 1318 1131
1318 1319 1151
1318 1321 1177
1318 1324 1204
1319 1327 1236
1320 1333 1273
1321 1340 1314
1325 1350 1340
1338 1360 1355
1352 1373 1373
1368 1388 1392
1385 1404 1413
1405 1422 1435
1425 1441 1459
1448 1463 1485
1472 1486 1512
1498 1510 1540
1525 1536 1571
1553 1564 1602
1583 1594 1635
1614 1624 1669
1647 1656 1704
1681 1689 1741
1716 1724 1779
1752 1760 1818
1468 1468 1261
1468 1469 1280
1467 1470 1303
1466 1472 1331
1467 1476 1360
1469 1480 1395
1471 1486 1434
1470 1494 1476
1478 1504 1495
1491 1515 1510
1505 1528 1528
1521 1542 1547
1538 1558 1567
1557 1576 1589
1577 1595 1613
1599 1616 1638
1622 1638 1664
1647 1662 1692
1673 1687 1721
1700 1714 1752
1729 1742 1783
1759 1771 1817
1790 1802 1851
1823 1834 1886
1857 1866 1922
1618 1618 1393
1617 1618 1409
1616 1619 1430
1615 1621 1459
1616 1624 1486
1618 1628 1518
1619 1633 1554
1620 1640 1595
1619 1649 1634
1630 1659 1649
1643 1670 1665
1658 1683 1682
1673 1697 1701
1690 1713 1722
1709 1730 1744
1729 1749 1767
1750 1769 1791
1773 1790 1817
1797 1813 1844
1822 1838 1872
1849 1863 1902
1876 1890 1933
1905 1919 1965
1935 1948 1998
1966 1979 2032
1767 1768 1524
1767 1768 1539
1766 1769 1557
1765 1770 1585
1766 1773 1612
1767 1776 1642
1768 1781 1677
1769 1787 1715
1770 1794 1756
1771 1803 1789
1783 1814 1803
1796 1825 1820
1811 1838 1838
1826 1852 1857
1843 1868 1877
1861 1884 1898
1881 1903 1921
1902 1922 1945
1924 1943 1970
1947 1966 1996
1972 1989 2024
1997 2014 2053
2024 2040 2083
2052 2067 2114
2081 2096 2146
1917 1917 1655
1917 1918 1669
1916 1919 1686
1915 1920 1711
1915 1922 1740
1916 1925 1768
1917 1929 1800
1919 1934 1837
1920 1940 1876
1920 1948 1918
1924 1958 1944
1936 1968 1958
1949 1980 1975
1964 1993 1992
1979 2007 2011
1996 2022 2032
2014 2039 2053
2033 2057 2075
2054 2076 2099
2075 2096 2124
2098 2118 2149
2122 2141 2176
2147 2165 2205
2173 2191 2234
2200 2217 2264
2067 2067 1787
2066 2067 1798
2066 2068 1815
2065 2069 1838
2064 2071 1868
2064 2074 1894
2066 2077 1924
2067 2081 1959
2069 2087 1997
2070 2094 2037
2069 2102 2079
2076 2112 2098
2089 2123 2113
2102 2135 2129
2116 2147 2147
2132 2162 2166
2149 2177 2186
2166 2193 2207
2185 2211 2229
2206 2230 2252
2226 2250 2277
2249 2271 2302
2272 2293 2329
2296 2317 2356
2322 2341 2385
2217 2216 1918
2216 2217 1929
2215 2217 1944
2215 2218 1966
2213 2220 1994
2214 2222 2021
2215 2226 2049
2216 2229 2082
2217 2234 2118
2219 2240 2157
2220 2248 2199
2218 2257 2237
2229 2267 2252
2241 2278 2268
2255 2289 2284
2269 2302 2302
2285 2316 2321
2301 2331 2341
2319 2348 2362
2338 2365 2384
2358 2384 2406
2378 2403 2431
2400 2424 2456
2423 2446 2482
2446 2469 2509
2366 2366 2049
2366 2366 2060
2365 2367 2073
2364 2368 2093
2363 2369 2120
2363 2371 2149
2364 2374 2176
2365 2378 2206
2366 2382 2241
2368 2387 2279
2369 2394 2318
2370 2402 2360
2370 2412 2392
2381 2422 2407
2394 2432 2422
2407 2445 2439
2422 2457 2457
2437 2471 2476
2454 2486 2496
2472 2502 2517
2490 2520 2538
2510 2538 2561
2530 2557 2585
2551 2578 2609
2574 2599 2635
2516 2515 2180
2515 2516 2189
2515 2516 2202
2514 2517 2221
2513 2519 2246
2512 2520 2277
2512 2523 2302
2514 2526 2331
2515 2530 2364
2516 2535 2400
2518 2541 2438
2519 2548 2479
2519 2556 2522
2522 2566 2547
2534 2576 2562
2547 2587 2577
2560 2599 2594
2575 2612 2612
2590 2626 2631
2607 2641 2650
2624 2657 2671
2642 2674 2692
2662 2692 2715
2681 2711 2738
2703 2731 2763
2665 2665 2311
2665 2665 2320
2665 2666 2332
2664 2667 2349
2663 2668 2373
2662 2669 2403
2662 2672 2430
2663 2675 2457
2664 2679 2488
2665 2683 2523
2667 2688 2560
2669 2694 2599
2669 2701 2641
2667 2710 2683
2674 2721 2701
2686 2731 2716
2699 2742 2732
2713 2754 2749
2728 2767 2767
2743 2781 2786
2760 2796 2805
2777 2812 2826
2795 2828 2847
2814 2846 2869
2834 2865 2893
2815 2815 2443
2814 2815 2451
2814 2816 2462
2814 2816 2478
2813 2817 2500
2812 2819 2528
2811 2821 2558
2812 2824 2584
2813 2827 2614
2814 2831 2646
2816 2836 2682
2817 2841 2720
2819 2848 2761
2819 2855 2802
2816 2866 2841
2827 2875 2856
2839 2885 2871
2852 2897 2887
2866 2909 2904
2881 2922 2922
2896 2936 2941
2912 2951 2960
2929 2967 2980
2947 2983 3002
2966 3001 3024
2964 2964 2573
2964 2964 2581
2964 2965 2592
2963 2966 2607
2962 2967 2628
2962 2968 2654
2960 2970 2686
2961 2972 2711
2962 2975 2739
2963 2979 2771
2964 2984 2805
2966 2989 2842
2967 2995 2881
2968 3002 2921
2968 3009 2964
2968 3020 2995
2979 3029 3010
2992 3040 3026
3005 3051 3042
3019 3063 3059
3034 3077 3077
3049 3091 3095
3065 3105 3115
3082 3121 3135
3100 3138 3156
3114 3114 2704
3114 3114 2712
3113 3114 2721
3113 3115 2736
3112 3116 2756
3111 3117 2781
3110 3119 2811
3110 3121 2839
3111 3124 2866
3112 3128 2896
3113 3132 2929
3115 3136 2964
3116 3142 3002
3118 3148 3042
3119 3155 3083
3118 3164 3125
3121 3174 3150
3132 3184 3165
3145 3195 3180
3158 3206 3197
3172 3218 3214
3186 3232 3231
3202 3246 3250
3218 3260 3269
3235 3276 3290
3263 3264 2836
3263 3264 2843
3263 3264 2852
3263 3265 2865
3262 3266 2884
3261 3267 2908
3260 3268 2936
3259 3270 2967
3260 3273 2992
3261 3276 3022
3263 3280 3053
3264 3284 3088
3265 3290 3124
3267 3295 3163
3268 3302 3203
3268 3309 3244
3266 3319 3287
3273 3329 3305
3285 3339 3319
3297 3350 3335
3311 3361 3351
3325 3373 3368
3339 3387 3386
3355 3400 3405
3370 3415 3424
3413 3413 2967
3413 3413 2973
3412 3414 2982
3412 3414 2995
3411 3415 3012
3411 3416 3035
3410 3418 3062
3408 3419 3094
3409 3422 3119
3410 3425 3147
3411 3428 3178
3413 3432 3211
3414 3437 3246
3416 3442 3284
3417 3448 3323
3418 3455 3364
3418 3463 3406
3414 3474 3444
3425 3483 3459
3437 3493 3474
3450 3504 3489
3463 3516 3506
3477 3528 3523
3492 3541 3541
3507 3555 3560
3563 3563 3099
3563 3563 3105
3562 3563 3113
3562 3564 3125
3561 3565 3141
3560 3566 3163
3560 3567 3188
3558 3569 3219
3558 3571 3247
3559 3574 3273
3560 3577 3303
3562 3581 3335
3563 3585 3369
3565 3590 3406
3566 3596 3444
3567 3602 3484
3568 3609 3526
3567 3618 3567
3567 3628 3599
3578 3638 3613
3590 3648 3628
3603 3659 3644
3616 3671 3661
3630 3683 3678
3645 3696 3696
171 0 0
55 45 55
68 65 74
94 90 107
126 123 149
174 171 201
222 220 250
276 273 302
328 328 354
383 381 408
436 436 465
492 490 523
546 546 582
602 602 640
658 657 697
713 713 757
770 770 815
826 826 874
882 882 933
938 938 992
994 994 1050
1051 1051 1110
1107 1107 1168
1164 1164 1228
1220 1220 1286
183 161 74
171 171 171
186 186 192
209 209 220
238 238 252
271 271 289
310 308 330
351 351 372
394 394 419
442 442 468
490 490 520
540 540 572
591 591 626
642 643 680
695 695 735
747 748 790
801 801 846
855 855 903
909 909 960
963 964 1017
1018 1018 1074
1073 1074 1132
1128 1129 1190
1184 1184 1248
1239 1240 1305
302 295 228
302 302 282
310 312 312
326 328 334
345 349 358
370 374 384
403 403 419
436 437 457
472 474 496
513 513 538
556 556 584
600 601 631
646 647 680
693 694 730
742 743 782
791 792 834
842 842 888
893 894 941
944 945 995
997 997 1050
1049 1050 1106
1103 1103 1162
1156 1157 1218
1210 1211 1274
1264 1265 1330
437 439 362
442 442 403
445 448 439
454 460 460
470 475 481
490 494 504
513 517 530
541 545 560
572 575 595
605 607 631
642 644 670
680 683 712
721 723 756
764 765 801
808 809 848
853 855 896
899 902 946
948 949 995
996 997 1047
1046 1047 1099
1095 1097 1152
1147 1148 1206
1198 1199 1259
1250 1251 1313
1302 1303 1368
585 585 472
587 586 516
586 592 556
588 600 594
602 611 610
618 626 630
637 644 653
659 666 678
686 691 708
713 718 738
744 749 773
777 782 809
813 817 848
851 854 888
890 894 931
932 934 974
974 977 1020
1018 1020 1066
1063 1065 1114
1109 1111 1162
1156 1157 1212
1203 1206 1262
1252 1254 1313
1301 1303 1365
1351 1353 1417
734 731 600
732 733 639
733 735 678
734 742 715
739 751 747
751 763 763
768 778 783
787 796 804
808 816 829
831 839 856
859 865 885
887 893 918
918 924 952
951 956 988
986 991 1025
1023 1027 1066
1061 1066 1107
1101 1105 1149
1143 1146 1194
1185 1188 1239
1229 1232 1285
1273 1276 1332
1319 1322 1380
1365 1368 1429
1412 1415 1479
880 879 733
880 880 765
880 883 801
881 887 835
883 894 877
889 904 899
903 917 917
919 931 936
937 948 957
957 967 981
981 990 1007
1006 1013 1035
1033 1040 1066
1062 1069 1097
1093 1099 1132
1126 1132 1168
1161 1166 1205
1197 1201 1244
1234 1239 1285
1273 1277 1326
1313 1318 1369
1355 1359 1413
1397 1401 1458
1441 1444 1504
1485 1488 1551
1028 1027 865
1028 1028 891
1027 1030 925
1028 1034 957
1030 1039 995
1029 1047 1037
1040 1058 1052
1054 1070 1070
1070 1084 1089
1087 1101 1110
1107 1120 1133
1129 1141 1159
1154 1164 1186
1179 1189 1215
1208 1216 1246
1237 1245 1278
1268 1275 1312
1301 1308 1347
1335 1341 1385
1370 1377 1423
1407 1413 1463
1446 1451 1504
1485 1490 1546
1525 1530 1589
1567 1571 1633
1177 1175 996
1176 1176 1020
1175 1178 1049
1176 1180 1081
1177 1185 1115
1178 1192 1156
1179 1201 1191
1192 1211 1207
1206 1223 1223
1221 1238 1243
1239 1254 1263
1258 1273 1286
1280 1293 1311
1303 1315 1337
1328 1339 1365
1354 1365 1395
1382 1392 1426
1412 1421 1458
1443 1452 1493
1476 1484 1528
1510 1517 1565
1545 1552 1603
1581 1588 1642
1619 1625 1682
1657 1663 1723
1325 1324 1128
1325 1325 1148
1324 1326 1175
1324 1329 1207
1325 1332 1239
1326 1338 1276
1327 1345 1317
1331 1355 1345
1344 1365 1360
1358 1378 1377
1373 1393 1397
1390 1409 1417
1410 1426 1440
1431 1446 1464
1453 1467 1489
1477 1490 1516
1502 1515 1545
1530 1541 1574
1558 1568 1606
1588 1598 1639
1619 1628 1673
1651 1660 1709
1685 1694 1745
1719 1728 1783
1756 1763 1821
1474 1473 1259
1474 1474 1278
1474 1475 1301
1472 1477 1334
1473 1480 1363
1474 1484 1398
1476 1491 1436
1476 1498 1478
1483 1509 1499
1496 1520 1515
1510 1532 1532
1526 1546 1551
1543 1562 1572
1562 1580 1593
1582 1599 1617
1603 1620 1642
1627 1642 1668
1651 1666 1696
1677 1691 1725
1705 1717 1755
1733 1745 1787
1763 1775 1820
1794 1805 1854
1827 1837 1889
1860 1870 1926
