Examples/AB - Only warm (toned).3dl
#25pt 3DLUT created by 3D LUT Creator Pro (c) Oleg Sharonov
#Copyright Oleg Sharonov
#IMAGEPROFILE sRGB IEC61966-2.1 v.2.10
#INPUTGAMMA sRGB IEC61966-2.1 v.2.10
#OUTPUTGAMMA sRGB IEC61966-2.1 v.2.10
0 256 512 768 1023
146 24 0
716 508 410
1464 1319 1333
2285 2249 2295
3032 3106 3125
766 574 282
1005 852 775
1631 1517 1517
2387 2376 2403
3091 3177 3183
1570 1438 1062
1686 1582 1381
2072 2046 2018
2673 2726 2703
3264 3380 3351
2436 2428 1901
2497 2511 2123
2701 2773 2625
3084 3212 3137
3531 3683 3613
3193 3288 2714
3226 3331 2850
3343 3473 3166
3528 3706 3593
3835 4009 3910
897 167 72
1022 834 775
1642 1504 1517
2394 2369 2403
3095 3172 3183
1153 905 270
1256 1096 1009
1795 1687 1683
2491 2488 2500
3153 3241 3236
1787 1661 1142
1872 1775 1492
2197 2178 2146
2757 2815 2783
3317 3434 3397
2560 2565 1957
2616 2634 2182
2796 2868 2686
3145 3272 3195
3573 3723 3649
3263 3361 2751
3294 3400 2884
3398 3528 3208
3573 3745 3627
3863 4036 3936
1840 625 486
2071 845 888
2107 2006 2018
2696 2700 2703
3279 3364 3351
2054 1073 458
2243 1136 998
2222 2149 2146
2773 2796 2783
3328 3422 3397
2383 2182 1065
2461 2316 1457
2554 2561 2467
2993 3062 3016
3472 3590 3533
2904 2915 2090
2952 2986 2313
3063 3142 2851
3321 3449 3361
3694 3837 3755
3459 3559 2850
3488 3598 2982
3566 3691 3314
3713 3865 3708
3950 4095 4014
2883 1178 1108
3009 1228 1390
3219 1964 2135
3125 3166 3137
3559 3654 3613
2999 1485 1105
3108 1516 1421
3296 2090 2204
3180 3233 3195
3597 3698 3649
3249 2430 1013
3320 2482 1380
3479 2578 2403
3341 3427 3361
3707 3823 3755
3440 3371 1983
3470 3424 2217
3547 3568 2834
3603 3728 3600
3881 4019 3926
3756 3832 2999
3776 3860 3115
3832 3943 3430
3921 4062 3841
4095 4095 4095
3695 1894 1873
3753 1913 2078
3884 2299 2541
3885 3278 3391
3871 3970 3911
3748 2117 1887
3800 2141 2096
3920 2409 2610
3953 3268 3375
3897 4000 3936
3877 2758 1917
3915 2788 2138
4014 2858 2756
4073 3399 3438
3975 4093 4014
4021 3603 1978
4046 3627 2213
4095 3687 2837
4095 3753 3622
4095 4095 4095
4095 4095 3082
4095 4095 3190
4095 4095 3489
4095 4095 3899
4095 4095 4095
