Examples/AB - Cooler.3dl
#25pt 3DLUT created by 3D LUT Creator Pro (c) Oleg Sharonov
#Copyright Oleg Sharonov
#IMAGEPROFILE sRGB IEC61966-2.1 v.2.10
#INPUTGAMMA sRGB IEC61966-2.1 v.2.10
#OUTPUTGAMMA sRGB IEC61966-2.1 v.2.10
0 43 86 128 171 214 256 299 341 384 427 469 512 555 597 640 682 725 768 810 853 896 938 981 1023 
0 0 0
0 10 90
3 19 198
6 39 326
10 61 454
13 90 578
19 132 707
26 177 836
32 225 961
42 276 1089
52 324 1216
61 372 1345
74 420 1472
90 470 1599
107 518 1727
123 566 1854
142 615 1983
161 663 2110
183 712 2237
203 760 2365
225 809 2492
245 857 2620
267 906 2747
289 955 2875
310 1003 3002
3 171 3
0 174 165
0 180 287
0 195 391
0 220 493
0 248 596
0 280 705
0 318 819
0 354 933
0 396 1053
0 437 1174
0 479 1298
0 522 1422
0 566 1547
3 611 1671
13 656 1795
23 701 1919
36 748 2044
48 794 2169
61 841 2294
78 887 2420
94 934 2545
113 981 2671
136 1028 2798
158 1075 2924
3 339 6
0 341 171
0 341 330
0 349 455
0 362 564
0 381 670
0 404 771
0 430 874
0 461 981
0 494 1091
0 530 1202
0 566 1315
0 605 1433
0 646 1551
0 686 1671
0 728 1793
0 770 1915
0 812 2038
0 856 2163
0 900 2290
3 944 2414
16 989 2538
29 1035 2661
45 1080 2785
65 1126 2910
6 510 13
0 512 171
0 512 341
0 513 497
0 520 626
0 528 740
0 545 844
0 564 948
0 587 1050
0 613 1152
0 643 1258
0 673 1364
0 707 1473
0 742 1584
0 778 1698
0 815 1813
0 855 1930
0 894 2048
0 935 2167
0 977 2289
0 1018 2410
0 1061 2533
0 1103 2657
0 1147 2781
0 1190 2906
13 680 23
0 683 171
0 682 343
0 683 509
0 684 664
0 690 797
0 698 912
0 712 1020
0 729 1124
0 748 1227
0 772 1329
0 797 1431
0 824 1535
0 855 1641
0 886 1748
0 919 1857
0 955 1969
0 990 2081
0 1028 2195
0 1066 2311
0 1105 2428
0 1144 2546
0 1185 2665
0 1225 2785
0 1267 2906
19 851 36
0 853 171
0 853 343
0 853 516
0 853 679
0 855 831
0 860 965
0 869 1083
0 880 1195
0 895 1299
0 912 1402
0 933 1506
0 955 1607
0 981 1710
0 1008 1813
0 1036 1918
0 1068 2025
0 1099 2132
0 1133 2242
0 1168 2353
0 1203 2465
0 1240 2578
0 1277 2693
0 1315 2809
0 1354 2926
26 1021 52
0 1024 171
0 1023 343
0 1023 514
0 1023 685
0 1024 847
0 1026 999
0 1031 1133
0 1039 1252
0 1049 1368
0 1063 1476
0 1079 1579
0 1097 1681
0 1117 1785
0 1140 1886
0 1164 1988
0 1192 2092
0 1219 2196
0 1249 2301
0 1280 2409
0 1312 2516
0 1346 2626
0 1380 2736
0 1416 2848
0 1452 2961
36 1192 68
0 1195 189
0 1195 341
0 1195 516
0 1195 687
0 1195 853
0 1195 1015
0 1197 1167
0 1202 1300
0 1209 1423
0 1218 1539
0 1231 1650
0 1245 1754
0 1262 1858
0 1281 1961
0 1302 2064
0 1324 2166
0 1349 2268
0 1375 2371
0 1403 2474
0 1431 2580
0 1462 2685
0 1493 2793
0 1526 2901
0 1559 3010
48 1361 90
3 1364 212
0 1365 341
0 1365 514
0 1364 686
0 1365 858
0 1365 1021
0 1366 1182
0 1368 1334
0 1373 1468
0 1379 1593
0 1388 1709
0 1399 1825
0 1413 1930
0 1429 2034
0 1446 2137
0 1465 2241
0 1486 2343
0 1508 2445
0 1533 2547
0 1558 2649
0 1586 2753
0 1614 2857
0 1643 2962
0 1674 3069
61 1532 113
6 1535 235
0 1535 341
0 1535 513
0 1535 686
0 1536 857
0 1535 1029
0 1536 1190
0 1537 1349
0 1539 1501
0 1544 1636
0 1550 1762
0 1559 1879
0 1568 1996
0 1581 2105
0 1596 2210
0 1612 2313
0 1630 2415
0 1649 2521
0 1670 2623
0 1693 2724
0 1717 2825
0 1742 2928
0 1769 3031
0 1797 3135
78 1703 142
13 1705 260
0 1706 356
0 1706 512
0 1706 685
0 1706 856
0 1706 1029
0 1706 1197
0 1707 1359
0 1708 1516
0 1710 1668
0 1714 1802
0 1720 1933
0 1729 2049
0 1738 2166
0 1750 2280
0 1763 2385
0 1779 2489
0 1796 2592
0 1814 2694
0 1833 2800
0 1855 2902
0 1877 3003
0 1901 3105
0 1926 3207
94 1873 174
19 1875 284
3 1876 377
0 1877 512
0 1877 684
0 1877 858
0 1877 1028
0 1876 1200
0 1877 1365
0 1878 1528
0 1879 1683
0 1881 1835
0 1885 1970
0 1891 2102
0 1899 2219
0 1908 2336
0 1919 2452
0 1931 2560
0 1946 2665
0 1962 2768
0 1979 2870
0 1998 2973
0 2017 3080
0 2039 3181
0 2061 3282
113 2043 206
29 2045 310
6 2046 399
0 2048 512
0 2048 684
0 2047 856
0 2047 1028
0 2047 1200
0 2047 1372
0 2048 1533
0 2048 1697
0 2050 1850
0 2052 2003
0 2056 2137
0 2062 2269
0 2069 2389
0 2078 2506
0 2088 2623
0 2100 2734
0 2114 2840
0 2129 2944
0 2145 3047
0 2163 3150
0 2182 3253
0 2201 3359
136 2213 240
39 2216 337
13 2217 422
0 2218 523
0 2218 683
0 2218 855
0 2218 1029
0 2218 1199
0 2218 1372
0 2218 1541
0 2219 1702
0 2219 1866
0 2221 2017
0 2223 2170
0 2227 2304
0 2232 2437
0 2240 2560
0 2248 2675
0 2258 2793
0 2269 2909
0 2282 3015
0 2296 3119
0 2312 3223
0 2329 3326
0 2347 3428
158 2384 271
52 2386 363
19 2387 445
3 2388 543
0 2389 683
0 2389 855
0 2389 1028
0 2388 1200
0 2388 1371
0 2388 1543
0 2389 1709
0 2389 1871
0 2390 2033
0 2392 2184
0 2394 2337
0 2398 2472
0 2403 2605
0 2410 2730
0 2419 2845
0 2428 2963
0 2438 3079
0 2450 3190
0 2464 3294
0 2479 3399
0 2495 3502
183 2554 304
68 2556 393
29 2557 470
6 2558 565
0 2559 683
0 2559 854
0 2559 1027
0 2559 1200
0 2559 1370
0 2559 1543
0 2559 1715
0 2559 1877
0 2560 2040
0 2561 2200
0 2563 2351
0 2565 2505
0 2569 2639
0 2574 2773
0 2580 2899
0 2589 3016
0 2598 3132
0 2608 3249
0 2619 3364
0 2632 3470
0 2647 3574
209 2724 337
84 2726 420
42 2728 496
13 2729 587
0 2730 691
0 2730 853
0 2730 1026
0 2730 1199
0 2730 1372
0 2730 1542
0 2730 1715
0 2730 1885
0 2730 2045
0 2731 2209
0 2732 2368
0 2734 2518
0 2736 2672
0 2740 2807
0 2745 2940
0 2751 3069
0 2759 3186
0 2768 3302
0 2778 3420
0 2788 3535
0 2801 3645
233 2894 370
107 2897 449
55 2898 521
19 2899 610
3 2900 711
0 2901 853
0 2900 1025
0 2900 1198
0 2900 1372
0 2900 1541
0 2900 1714
0 2900 1886
0 2900 2053
0 2901 2213
0 2901 2378
0 2903 2535
0 2905 2685
0 2907 2839
0 2911 2974
0 2916 3108
0 2921 3238
0 2929 3356
0 2938 3471
0 2948 3589
0 2958 3706
257 3065 403
126 3067 479
71 3068 547
29 3069 633
6 3070 731
0 3071 853
0 3071 1025
0 3071 1197
0 3071 1370
0 3071 1543
0 3071 1713
0 3071 1886
0 3071 2058
0 3071 2221
0 3072 2382
0 3072 2547
0 3074 2702
0 3076 2852
0 3078 3007
0 3082 3141
0 3087 3275
0 3092 3406
0 3100 3526
0 3108 3641
0 3118 3759
282 3235 434
152 3237 508
90 3238 575
42 3240 657
13 3241 752
0 3242 858
0 3242 1024
0 3242 1196
0 3242 1369
0 3242 1543
0 3242 1713
0 3241 1885
0 3241 2057
0 3241 2229
0 3242 2389
0 3243 2551
0 3243 2716
0 3245 2869
0 3247 3020
0 3249 3174
0 3253 3308
0 3258 3443
0 3263 3574
0 3270 3696
0 3279 3812
308 3405 467
177 3407 538
110 3408 602
58 3410 682
19 3411 775
3 3412 877
0 3412 1024
0 3412 1196
0 3412 1368
0 3412 1541
0 3412 1715
0 3412 1884
0 3412 2057
0 3412 2229
0 3412 2397
0 3413 2558
0 3413 2721
0 3414 2884
0 3415 3036
0 3418 3187
0 3419 3341
0 3424 3476
0 3428 3610
0 3434 3742
0 3441 3866
334 3575 500
203 3578 568
136 3579 629
74 3580 707
29 3581 798
6 3582 898
0 3583 1024
0 3583 1195
0 3583 1367
0 3583 1540
0 3583 1714
0 3583 1884
0 3583 2056
0 3583 2229
0 3582 2400
0 3583 2565
0 3583 2726
0 3584 2890
0 3585 3052
0 3586 3203
0 3589 3354
0 3591 3508
0 3595 3643
0 3599 3777
0 3605 3909
358 3746 532
230 3748 599
161 3749 657
94 3750 733
42 3751 820
13 3753 919
0 3754 1025
0 3754 1195
0 3754 1367
0 3754 1539
0 3754 1713
0 3753 1887
0 3754 2055
0 3753 2228
0 3753 2400
0 3753 2572
0 3754 2734
0 3754 2893
0 3755 3059
0 3756 3219
0 3757 3370
0 3760 3521
0 3762 3676
0 3766 3811
0 3770 3945
383 3916 564
257 3918 628
186 3919 686
116 3920 758
58 3921 844
19 3923 940
0 3924 1044
0 3924 1195
0 3924 1366
0 3924 1538
0 3924 1712
0 3924 1885
0 3924 2055
0 3924 2227
0 3924 2399
0 3923 2572
0 3924 2741
0 3924 2902
0 3925 3063
0 3925 3228
0 3926 3386
0 3928 3538
0 3930 3689
0 3932 3843
0 3936 3978
408 4086 597
282 4089 659
214 4090 714
139 4091 785
74 4092 868
29 4093 962
3 4094 1065
0 4095 1195
0 4095 1366
0 4095 1538
0 4095 1711
0 4095 1884
0 4095 2058
0 4095 2226
0 4094 2399
0 4094 2571
0 4094 2743
0 4094 2909
0 4095 3070
0 4095 3232
0 4095 3397
0 4095 3554
0 4095 3705
0 4095 3856
0 4095 4010
68 23 65
84 23 203
61 32 336
52 45 465
58 58 600
74 78 739
87 100 860
103 136 990
119 177 1118
136 222 1240
155 271 1369
174 316 1492
192 365 1616
212 414 1744
230 461 1868
250 510 1995
271 558 2120
289 606 2245
310 655 2371
330 704 2498
349 752 2623
369 801 2750
389 850 2876
409 899 3003
428 947 3129
103 183 65
152 171 225
145 177 347
136 186 484
126 203 607
119 228 725
119 255 841
119 287 957
126 322 1074
129 360 1189
139 398 1307
149 440 1427
161 482 1547
174 525 1668
186 569 1790
203 613 1913
217 658 2038
233 703 2160
250 749 2284
267 795 2409
284 842 2534
302 888 2659
320 935 2784
339 982 2909
356 1028 3035
94 351 68
165 339 195
145 345 349
113 358 475
94 370 599
78 386 715
68 408 827
58 433 934
52 461 1046
45 493 1159
45 526 1271
45 563 1385
48 600 1499
52 639 1615
58 678 1733
65 719 1851
74 761 1970
84 804 2091
94 847 2212
107 890 2333
123 935 2457
139 979 2579
155 1024 2703
174 1069 2825
195 1115 2951
97 517 74
174 510 195
149 513 349
136 517 503
100 526 637
78 538 762
55 553 879
39 570 994
26 592 1102
16 617 1209
10 645 1317
6 674 1424
0 707 1537
0 741 1647
0 777 1760
0 813 1874
3 851 1989
6 890 2104
13 931 2222
19 971 2340
29 1012 2458
39 1054 2578
48 1097 2698
61 1140 2819
78 1184 2940
103 685 87
177 680 201
155 683 351
139 685 513
126 688 665
87 696 805
55 707 931
29 719 1048
10 736 1162
0 754 1273
0 777 1375
0 800 1477
0 828 1582
0 857 1687
0 888 1795
0 921 1903
0 955 2014
0 990 2126
0 1027 2240
0 1064 2354
0 1102 2470
0 1141 2588
0 1181 2707
0 1221 2827
0 1262 2947
113 855 100
186 851 212
161 853 352
145 855 517
129 856 678
110 860 834
65 866 969
29 876 1099
0 888 1222
0 902 1328
0 919 1435
0 937 1541
0 959 1643
0 984 1745
0 1010 1849
0 1038 1953
0 1069 2060
0 1100 2167
0 1133 2276
0 1167 2388
0 1202 2499
0 1239 2612
0 1276 2727
0 1314 2842
0 1352 2959
123 1024 116
192 1021 222
165 1023 352
152 1024 518
136 1025 684
113 1028 844
94 1031 1001
42 1038 1138
0 1046 1268
0 1056 1389
0 1068 1498
0 1084 1602
0 1102 1709
0 1121 1814
0 1143 1916
0 1168 2018
0 1194 2121
0 1221 2225
0 1251 2331
0 1281 2437
0 1313 2545
0 1346 2654
0 1380 2764
0 1415 2876
0 1451 2989
139 1194 136
201 1192 238
165 1195 351
161 1195 522
142 1196 687
123 1197 852
94 1199 1011
71 1202 1169
16 1208 1306
0 1216 1434
0 1224 1554
0 1236 1668
0 1250 1773
0 1266 1877
0 1285 1983
0 1304 2088
0 1327 2190
0 1351 2292
0 1377 2395
0 1405 2499
0 1433 2603
0 1463 2709
0 1494 2816
0 1526 2924
0 1559 3034
158 1364 155
212 1361 252
165 1365 363
161 1365 521
149 1366 688
132 1366 858
103 1368 1019
74 1370 1178
45 1373 1336
0 1379 1473
0 1385 1601
0 1394 1722
0 1404 1839
0 1417 1946
0 1432 2050
0 1450 2154
0 1468 2260
0 1489 2364
0 1511 2465
0 1535 2567
0 1560 2669
0 1588 2773
0 1616 2878
0 1644 2982
0 1675 3089
177 1533 177
222 1532 271
168 1535 381
165 1536 520
158 1536 692
139 1536 856
119 1537 1027
84 1540 1187
48 1541 1346
16 1544 1504
0 1549 1639
0 1555 1769
0 1563 1889
0 1573 2008
0 1585 2118
0 1599 2223
0 1615 2327
0 1633 2430
0 1652 2537
0 1672 2640
0 1695 2742
0 1719 2843
0 1744 2946
0 1771 3049
0 1798 3153
201 1703 201
235 1703 289
174 1705 398
165 1707 518
161 1707 691
145 1707 859
126 1708 1028
100 1709 1195
58 1711 1355
19 1713 1514
0 1715 1671
0 1720 1806
0 1725 1938
0 1733 2057
0 1742 2176
0 1753 2291
0 1767 2397
0 1782 2501
0 1798 2605
0 1816 2707
0 1836 2815
0 1857 2917
0 1879 3019
0 1903 3120
0 1928 3223
