Examples/AB - Cleaner cyan.3dl
#25pt 3DLUT created by 3D LUT Creator Pro (c) Oleg Sharonov
#Copyright Oleg Sharonov
#IMAGEPROFILE 
#INPUTGAMMA 
#OUTPUTGAMMA 
0 43 86 128 171 214 256 299 341 384 427 469 512 555 597 640 682 725 768 810 853 896 938 981 1023 
0 0 0
0 0 177
0 0 341
0 0 512
0 0 683
0 0 850
0 0 1022
0 0 1196
0 0 1362
0 0 1534
0 0 1704
3 0 1875
3 3 2043
6 6 2212
13 10 2379
23 16 2544
39 26 2710
58 39 2870
87 58 3029
126 84 3186
177 119 3338
235 161 3487
293 212 3633
356 264 3775
420 318 3912
0 171 0
0 171 171
0 171 341
0 171 513
0 171 684
0 171 852
0 171 1023
0 171 1196
0 171 1364
0 171 1535
0 171 1705
3 171 1876
3 171 2045
6 174 2214
13 177 2383
19 180 2550
32 183 2716
45 189 2882
68 198 3046
97 212 3209
132 225 3369
180 243 3528
233 262 3684
287 287 3838
365 339 3971
0 339 0
0 341 171
0 339 339
0 341 510
0 341 681
0 341 854
0 341 1025
0 341 1194
0 341 1365
0 341 1536
3 341 1706
3 341 1874
6 343 2045
10 343 2214
16 345 2382
26 347 2549
39 351 2715
58 354 2879
81 360 3042
113 367 3205
152 377 3365
201 389 3523
250 403 3679
306 420 3833
360 442 3984
0 512 0
0 512 171
0 512 341
0 512 512
0 512 682
0 512 852
0 512 1023
0 512 1194
3 512 1365
3 512 1533
6 513 1705
6 513 1873
13 513 2042
16 513 2210
26 514 2378
39 516 2545
55 518 2712
74 522 2875
103 526 3038
139 531 3200
183 538 3360
230 547 3517
280 558 3673
334 571 3826
389 586 3977
0 682 0
0 683 171
0 682 341
0 682 512
0 682 682
0 683 853
3 682 1023
3 682 1193
6 683 1364
6 682 1532
10 683 1703
16 683 1871
23 683 2039
29 684 2207
42 685 2374
58 686 2540
78 688 2706
103 691 2869
136 694 3032
177 698 3193
222 704 3352
269 711 3509
320 719 3664
372 729 3817
427 741 3967
3 853 0
0 853 171
3 853 341
3 853 512
3 853 683
3 852 852
3 852 1023
6 853 1193
10 852 1362
16 852 1531
23 853 1698
32 853 1867
39 853 2035
52 854 2202
68 855 2369
90 856 2534
116 858 2700
145 860 2862
186 862 3024
228 866 3184
271 871 3342
318 876 3498
369 883 3653
419 891 3805
472 901 3956
6 1023 3
3 1023 174
6 1023 343
6 1023 513
6 1023 683
6 1023 853
6 1023 1023
10 1023 1193
16 1023 1362
26 1023 1530
39 1023 1698
55 1023 1863
71 1023 2029
90 1024 2195
110 1025 2361
139 1026 2526
171 1028 2690
206 1029 2852
245 1031 3012
287 1035 3172
332 1038 3329
377 1043 3485
425 1049 3639
477 1055 3791
528 1063 3941
13 1194 10
10 1194 177
13 1194 345
16 1194 516
16 1194 685
16 1194 854
16 1194 1024
19 1194 1194
26 1194 1362
39 1194 1530
55 1193 1697
78 1194 1862
107 1194 2026
142 1194 2188
177 1195 2351
206 1196 2515
240 1197 2677
278 1199 2839
316 1200 2999
356 1203 3157
399 1207 3314
445 1210 3470
492 1215 3623
541 1221 3774
592 1228 3924
29 1363 19
23 1364 183
26 1364 349
29 1363 520
36 1363 689
32 1364 857
32 1364 1025
32 1364 1194
39 1364 1364
52 1364 1531
74 1363 1697
103 1363 1862
142 1363 2026
186 1363 2187
233 1364 2346
282 1365 2503
320 1366 2663
354 1367 2823
393 1369 2982
433 1371 3140
474 1374 3296
518 1377 3451
564 1381 3604
612 1386 3755
661 1392 3904
58 1533 39
42 1534 192
45 1533 356
52 1533 525
61 1533 695
65 1533 862
61 1533 1029
61 1533 1196
65 1533 1365
78 1533 1533
97 1533 1699
132 1533 1863
177 1533 2026
228 1532 2187
278 1533 2346
330 1533 2502
384 1534 2655
439 1536 2805
477 1538 2963
516 1539 3120
556 1541 3276
599 1544 3430
643 1548 3583
689 1552 3734
735 1557 3883
103 1702 71
74 1703 209
81 1703 367
87 1703 532
100 1702 701
119 1702 871
113 1702 1035
110 1702 1200
110 1703 1368
116 1703 1535
136 1702 1702
168 1702 1866
214 1702 2029
264 1701 2190
320 1701 2348
374 1701 2503
431 1702 2656
489 1703 2806
547 1704 2953
603 1707 3098
642 1709 3253
683 1712 3408
725 1714 3560
770 1718 3711
815 1722 3861
171 1871 116
123 1873 228
129 1873 381
139 1872 543
155 1871 711
180 1871 880
192 1871 1046
180 1871 1208
177 1871 1372
177 1872 1538
186 1872 1705
214 1871 1871
250 1871 2033
299 1871 2193
354 1870 2352
412 1870 2507
472 1869 2660
533 1870 2810
594 1871 2957
655 1872 3100
717 1875 3240
771 1878 3383
811 1881 3536
853 1884 3687
896 1887 3837
248 2039 177
183 2042 255
192 2042 399
203 2041 558
222 2041 723
245 2040 890
273 2038 1060
267 2039 1220
257 2040 1381
252 2040 1545
255 2040 1709
269 2041 1875
297 2040 2040
334 2040 2199
386 2039 2357
446 2038 2513
508 2038 2666
571 2038 2816
634 2038 2964
698 2039 3108
762 2041 3248
825 2043 3385
889 2046 3519
939 2050 3662
980 2053 3813
328 2208 245
252 2211 287
260 2211 423
273 2210 576
289 2210 737
312 2209 903
339 2207 1071
358 2206 1238
345 2207 1394
336 2208 1554
332 2209 1716
336 2209 1880
351 2209 2044
383 2208 2208
420 2208 2366
475 2208 2521
537 2207 2675
602 2206 2825
667 2206 2973
734 2206 3118
799 2207 3260
865 2208 3398
930 2210 3533
994 2214 3664
1058 2218 3793
409 2375 316
322 2380 322
330 2379 449
341 2379 596
358 2378 754
379 2377 917
406 2376 1084
437 2374 1254
437 2374 1412
425 2375 1567
416 2376 1726
412 2377 1887
417 2377 2050
434 2377 2214
468 2376 2376
508 2376 2532
563 2376 2686
626 2375 2837
693 2374 2985
760 2374 3131
828 2374 3274
896 2374 3414
963 2375 3550
1029 2378 3683
1094 2381 3814
489 2543 384
419 2547 389
398 2548 479
409 2548 619
425 2547 773
445 2546 933
471 2544 1099
503 2543 1267
530 2541 1434
514 2542 1585
503 2543 1740
493 2544 1898
492 2545 2059
499 2546 2221
517 2546 2383
552 2545 2544
592 2544 2698
648 2544 2850
713 2543 2999
780 2542 3146
849 2542 3290
918 2542 3432
987 2542 3570
1055 2543 3705
1122 2545 3837
569 2711 451
509 2714 457
465 2717 510
475 2716 645
490 2716 794
510 2714 951
535 2713 1114
564 2711 1281
600 2709 1451
605 2709 1607
590 2710 1757
577 2712 1912
570 2713 2069
569 2714 2229
577 2714 2390
597 2714 2552
634 2713 2712
674 2713 2864
730 2712 3015
795 2711 3163
863 2711 3308
933 2710 3451
1003 2710 3591
1072 2710 3728
1141 2711 3863
645 2878 516
594 2882 522
530 2885 542
540 2885 671
554 2884 815
573 2883 969
596 2882 1130
625 2880 1295
658 2878 1463
695 2875 1633
677 2877 1779
662 2878 1929
650 2880 2083
643 2881 2240
643 2882 2399
653 2882 2560
675 2882 2721
713 2881 2880
751 2881 3031
808 2880 3181
872 2879 3327
941 2879 3472
1011 2878 3614
1081 2878 3753
1151 2878 3890
717 3046 578
673 3049 584
606 3053 591
601 3054 698
615 3053 838
632 3052 988
655 3051 1147
681 3049 1310
713 3047 1476
750 3044 1645
763 3044 1803
745 3045 1949
730 3047 2100
719 3048 2254
713 3049 2411
714 3050 2570
725 3050 2729
748 3050 2889
787 3049 3049
826 3050 3199
881 3049 3347
945 3048 3493
1014 3047 3637
1084 3047 3778
1154 3046 3917
787 3214 637
747 3217 643
689 3221 650
659 3223 725
672 3222 861
689 3221 1008
710 3220 1163
735 3218 1324
765 3216 1489
800 3214 1657
840 3211 1828
827 3212 1972
809 3214 2119
794 3216 2270
784 3217 2424
779 3218 2581
782 3219 2740
793 3219 2899
818 3219 3059
858 3218 3217
896 3218 3366
950 3218 3514
1013 3217 3659
1081 3216 3803
1151 3215 3944
852 3382 693
816 3385 697
764 3388 704
714 3392 752
726 3391 884
743 3390 1027
762 3389 1179
786 3387 1338
815 3385 1501
848 3383 1668
885 3380 1838
905 3379 1997
886 3381 2140
869 3383 2288
855 3385 2439
845 3386 2594
842 3387 2751
845 3388 2909
859 3388 3068
884 3388 3228
924 3387 3385
961 3387 3534
1015 3386 3682
1077 3386 3827
1145 3385 3970
915 3551 745
882 3553 751
834 3557 757
766 3561 779
778 3560 907
793 3559 1046
811 3558 1196
835 3557 1352
861 3555 1514
892 3553 1679
928 3550 1847
968 3547 2018
961 3548 2164
942 3550 2308
926 3552 2456
913 3554 2609
904 3555 2763
902 3556 2920
906 3557 3079
920 3557 3238
946 3557 3397
986 3556 3555
1023 3556 3703
1076 3555 3850
1231 3549 3982
974 3719 796
943 3722 800
899 3725 807
826 3730 815
827 3730 928
841 3729 1066
859 3728 1212
880 3726 1367
905 3725 1526
935 3723 1689
968 3721 1856
1006 3718 2026
1034 3716 2189
1014 3718 2330
995 3720 2475
980 3722 2625
967 3723 2778
960 3724 2932
958 3726 3090
964 3726 3248
979 3726 3407
1006 3726 3566
1046 3725 3724
1083 3725 3872
1403 3708 3987
1030 3888 844
1001 3890 848
961 3893 854
894 3898 862
874 3899 950
887 3898 1084
904 3897 1229
924 3896 1381
948 3894 1538
975 3893 1700
1007 3891 1865
1043 3888 2033
1083 3885 2204
1084 3885 2354
1064 3887 2496
1046 3889 2643
1031 3891 2793
1020 3892 2946
1013 3894 3102
1013 3895 3259
1020 3895 3417
1036 3895 3576
1063 3895 3735
1104 3894 3893
1639 3859 3992
1402 4029 1274
1405 4028 1301
1409 4028 1336
1415 4027 1387
1426 4026 1456
1444 4025 1543
1466 4023 1645
1494 4020 1758
1524 4017 1880
1562 4013 2011
1603 4009 2148
1651 4004 2290
1704 3998 2436
1754 3993 2580
1739 3996 2690
1728 4000 2806
1719 4003 2928
1717 4005 3055
1720 4007 3186
1731 4008 3321
1751 4008 3458
1783 4008 3596
1829 4006 3733
1891 4003 3867
1973 3998 3996
168 0 0
171 0 171
168 0 337
168 0 509
171 0 680
171 0 857
171 0 1021
171 0 1194
171 0 1367
171 0 1533
171 0 1707
171 0 1874
174 3 2043
177 6 2214
183 10 2378
192 16 2546
203 26 2709
222 39 2869
243 58 3028
271 87 3185
306 119 3338
345 165 3487
389 214 3632
439 267 3774
492 320 3911
171 171 0
171 171 171
171 171 341
171 171 512
171 171 682
171 171 851
171 171 1022
171 171 1195
171 171 1367
171 171 1534
171 171 1703
174 171 1874
177 174 2042
180 177 2210
186 180 2377
198 189 2542
212 198 2707
230 209 2867
252 225 3025
282 248 3181
318 271 3333
358 302 3482
403 336 3627
452 374 3769
448 341 3970
171 341 0
171 339 171
171 341 341
171 341 513
171 341 684
171 341 853
171 341 1024
171 341 1193
171 341 1364
171 341 1535
174 341 1705
174 341 1876
177 343 2045
180 343 2213
186 345 2381
195 347 2549
206 351 2714
220 354 2880
240 360 3044
262 367 3205
291 377 3366
322 389 3524
360 404 3680
399 422 3832
374 372 4048
171 512 0
171 512 171
171 512 341
171 512 512
171 512 682
171 512 853
171 513 1024
171 512 1193
174 512 1364
174 513 1535
174 513 1704
177 512 1873
183 513 2043
186 514 2212
195 516 2379
203 517 2546
217 518 2711
235 522 2875
255 526 3039
280 532 3200
310 538 3359
343 547 3517
381 558 3673
422 571 3826
399 538 4037
171 682 0
171 682 171
171 682 341
171 682 512
171 682 682
171 683 853
174 683 1023
174 682 1193
177 683 1363
177 683 1533
180 683 1702
186 683 1870
192 684 2040
198 684 2208
209 685 2375
220 687 2541
235 688 2706
255 691 2870
280 695 3033
306 698 3193
337 704 3352
372 711 3509
411 719 3664
454 729 3817
436 709 4023
171 852 0
174 852 171
174 852 341
174 852 512
174 852 683
174 853 853
174 852 1023
177 852 1193
180 853 1362
186 852 1530
192 853 1699
198 853 1867
206 853 2035
217 854 2202
230 855 2368
245 856 2534
264 858 2699
287 860 2862
312 862 3023
341 866 3184
374 871 3342
411 877 3498
451 883 3653
493 891 3805
482 879 4005
174 1023 3
177 1023 174
177 1023 343
177 1023 513
177 1023 683
177 1023 853
180 1023 1023
183 1023 1193
189 1023 1362
195 1023 1530
206 1023 1697
220 1023 1862
233 1024 2029
245 1025 2196
262 1025 2362
280 1027 2526
302 1028 2690
326 1029 2851
354 1032 3013
386 1035 3172
420 1038 3329
458 1043 3485
499 1049 3639
542 1055 3791
537 1048 3984
183 1194 10
186 1194 180
183 1194 345
186 1194 516
189 1194 686
186 1193 854
186 1194 1024
192 1194 1194
198 1193 1361
206 1193 1530
220 1193 1696
238 1194 1861
260 1194 2025
284 1194 2187
306 1195 2350
326 1196 2515
351 1197 2678
377 1199 2839
408 1200 2999
440 1203 3158
477 1207 3315
514 1210 3470
556 1215 3623
600 1221 3775
600 1217 3962
198 1364 19
201 1363 192
195 1364 351
201 1364 520
206 1363 690
203 1363 858
203 1364 1026
203 1363 1194
212 1363 1363
220 1363 1531
238 1363 1697
260 1363 1862
284 1363 2025
314 1363 2186
347 1364 2345
384 1365 2501
411 1366 2662
440 1368 2823
471 1369 2983
505 1371 3141
541 1374 3297
580 1378 3452
620 1382 3605
664 1386 3755
668 1385 3938
220 1533 39
228 1533 212
214 1534 358
220 1533 525
228 1533 695
233 1533 863
230 1533 1030
230 1533 1197
233 1533 1365
243 1533 1533
257 1533 1699
282 1533 1863
312 1532 2026
345 1532 2186
383 1532 2345
423 1533 2500
467 1534 2653
512 1536 2804
543 1538 2963
577 1539 3120
613 1542 3277
652 1545 3431
693 1548 3584
735 1553 3735
743 1553 3912
255 1703 68
262 1702 238
243 1703 369
248 1703 533
260 1702 702
271 1701 872
271 1702 1036
267 1702 1201
267 1702 1368
271 1702 1535
284 1702 1702
306 1702 1866
336 1702 2028
374 1701 2189
416 1701 2347
461 1701 2502
508 1702 2655
557 1703 2804
609 1705 2951
656 1707 3098
692 1710 3254
730 1712 3408
769 1715 3561
811 1718 3712
821 1720 3886
