Examples/AB - Teal & Orange.3dl
#25pt 3DLUT created by 3D LUT Creator Pro (c) Oleg Sharonov
#Copyright Oleg Sharonov
0 128 256 384 512 640 768 896 1023
0 0 0
23 58 116
84 201 345
192 377 578
312 552 812
433 727 1046
554 903 1279
675 1078 1513
796 1253 1747
84 485 326
0 512 514
139 542 752
282 627 893
394 744 1055
503 879 1239
612 1026 1437
725 1180 1644
838 1340 1858
276 979 708
0 1004 819
0 1023 1029
233 1044 1299
448 1095 1482
588 1181 1614
706 1286 1764
815 1407 1931
923 1538 2110
482 1472 1090
248 1493 1167
0 1515 1302
0 1535 1543
287 1553 1838
568 1589 2039
752 1650 2205
894 1735 2336
1015 1836 2481
688 1966 1473
542 1980 1529
0 2009 1651
0 2027 1791
0 2046 2057
318 2062 2373
658 2092 2585
884 2138 2776
1057 2206 2927
894 2460 1856
788 2471 1898
425 2497 1995
0 2519 2132
0 2540 2283
0 2558 2571
332 2573 2905
727 2598 3127
993 2637 3324
1099 2954 2238
1018 2962 2272
773 2983 2352
0 3015 2480
0 3031 2615
0 3053 2777
0 3070 3085
332 3083 3436
781 3106 3665
1305 3447 2621
1240 3454 2649
1053 3471 2716
586 3502 2824
0 3524 2965
0 3543 3102
0 3566 3272
0 3582 3599
320 3594 3965
1825 3906 3057
1737 3917 3069
1466 3947 3102
979 3987 3179
0 4021 3309
0 4035 3445
0 4055 3592
0 4079 3768
853 4076 4095
445 45 3
324 155 310
260 299 520
306 448 692
393 605 894
493 769 1109
602 936 1330
713 1105 1554
828 1276 1782
560 490 155
512 512 512
452 576 737
465 665 907
518 779 1079
594 909 1263
685 1052 1460
783 1203 1665
871 1361 1891
522 1005 551
580 994 808
499 1025 1029
538 1053 1304
618 1113 1476
700 1200 1619
788 1305 1774
879 1424 1942
954 1556 2138
662 1487 1018
702 1482 1154
422 1523 1308
470 1538 1546
584 1557 1838
731 1597 2046
859 1662 2202
970 1748 2338
1043 1850 2504
820 1977 1428
854 1973 1518
545 2008 1645
282 2038 1796
422 2051 2061
612 2065 2371
814 2096 2587
987 2144 2781
1083 2217 2946
996 2468 1823
1024 2465 1890
783 2492 1991
206 2530 2132
42 2553 2288
345 2564 2577
627 2574 2903
878 2601 3127
1017 2645 3348
1181 2960 2213
1205 2958 2266
1012 2979 2348
521 3015 2476
0 3042 2616
0 3064 2782
217 3077 3092
632 3084 3434
799 3114 3683
1372 3452 2601
1393 3451 2643
1234 3468 2712
880 3498 2823
0 3534 2963
0 3552 3104
0 3575 3276
0 3590 3607
334 3602 3978
1962 3898 3062
1885 3909 3075
1653 3938 3107
1055 3991 3169
29 4029 3300
0 4043 3445
0 4062 3593
0 4086 3772
1011 4076 4095
909 165 13
973 110 352
704 419 682
596 566 928
605 709 1081
650 857 1255
725 1011 1450
814 1169 1655
912 1331 1867
1032 506 0
979 540 490
850 632 832
725 742 1094
712 859 1224
741 984 1386
802 1118 1565
880 1261 1756
953 1412 1970
1106 986 419
1079 997 672
1024 1024 1024
947 1083 1273
920 1156 1461
932 1246 1630
971 1350 1797
1029 1467 1970
1034 1598 2207
1038 1508 891
1019 1516 975
1079 1505 1304
1015 1537 1541
1001 1568 1838
1036 1617 2048
1082 1689 2196
1143 1777 2344
1119 1884 2561
1095 2004 1237
1118 1999 1378
1172 1990 1627
950 2035 1809
995 2050 2058
1031 2071 2370
1114 2107 2595
1210 2159 2787
1155 2244 2994
1224 2487 1714
1243 2484 1799
1294 2478 1973
982 2523 2137
881 2552 2297
967 2563 2575
1049 2578 2901
1171 2608 3131
1080 2665 3409
1371 2975 2137
1389 2973 2198
1434 2968 2332
1157 3005 2470
827 3044 2623
807 3066 2789
926 3076 3090
1060 3087 3431
849 3133 3729
1533 3465 2543
1549 3463 2590
1590 3459 2698
1347 3489 2815
875 3533 2965
667 3560 3109
727 3580 3283
875 3589 3606
369 3620 4010
2245 3880 3077
2191 3889 3089
2027 3916 3121
1612 3970 3177
564 4041 3281
0 4063 3442
0 4082 3597
600 4095 3779
1320 4077 4095
1374 324 32
1519 94 217
1328 440 755
1086 684 1054
959 840 1279
921 973 1509
950 1118 1646
995 1267 1821
1063 1419 2010
1474 569 6
1431 606 482
1441 625 840
1190 824 1160
1050 959 1404
1006 1081 1602
1018 1213 1739
1055 1350 1908
1102 1493 2105
1597 992 0
1569 1007 513
1497 1044 1001
1367 1123 1346
1223 1217 1644
1179 1318 1782
1168 1425 1935
1192 1540 2096
1183 1666 2324
1652 1484 684
1635 1490 865
1595 1507 1180
1536 1536 1536
1452 1592 1800
1403 1659 2005
1389 1737 2184
1400 1827 2352
1268 1937 2659
1582 2003 1250
1568 2009 1312
1536 2024 1452
1583 2016 1806
1528 2048 2053
1491 2081 2364
1497 2125 2602
1513 2191 2763
1296 2287 3076
1518 2526 1480
1524 2526 1544
1601 2512 1778
1662 2499 2117
1468 2548 2314
1513 2562 2570
1512 2585 2894
1552 2620 3136
1206 2696 3526
1658 3004 1931
1673 3001 2017
1705 2995 2200
1765 2986 2448
1466 3037 2636
1420 3064 2802
1491 3075 3087
1528 3091 3425
947 3165 3815
1787 3488 2408
1799 3486 2466
1829 3481 2598
1886 3474 2794
1601 3518 2958
1368 3557 3120
1375 3579 3293
1463 3588 3604
436 3652 4069
2612 3856 3104
2581 3863 3116
2488 3884 3146
2254 3928 3200
1654 4012 3283
302 4095 3433
896 4095 3604
1303 4095 3787
1722 4078 4095
1839 484 58
1970 299 116
1999 273 739
1678 740 1144
1467 948 1426
1327 1113 1631
1262 1238 1929
1264 1382 2063
1296 1528 2211
1918 667 32
1885 702 485
2021 588 788
1770 856 1209
1545 1050 1505
1396 1201 1721
1322 1318 2019
1323 1455 2130
1334 1594 2296
2042 1028 0
2016 1046 503
1954 1088 983
1939 1120 1338
1699 1280 1664
1543 1403 1912
1464 1508 2163
1454 1627 2281
1416 1752 2494
2160 1485 0
2144 1493 510
2091 1515 1037
2010 1554 1511
1882 1625 1858
1733 1711 2172
1672 1800 2338
1634 1898 2495
1511 2003 2802
2197 1980 948
2185 1985 1084
2156 1996 1351
2109 2017 1691
2048 2048 2048
1960 2102 2320
1899 2166 2539
1866 2238 2730
1546 2339 3196
2123 2499 1601
2114 2503 1650
2092 2514 1765
2051 2533 1944
2092 2527 2314
2040 2561 2565
1990 2594 2885
1978 2637 3142
1435 2741 3643
2063 3023 1846
2053 3026 1883
2033 3035 1971
2095 3026 2214
2161 3010 2613
1984 3060 2821
2028 3073 3082
2008 3098 3416
1126 3206 3961
2062 3530 2131
2089 3526 2192
2142 3517 2349
2187 3506 2629
2252 3494 2934
1969 3551 3138
1946 3577 3308
2010 3587 3599
1439 3657 4069
2982 3837 3142
2967 3842 3154
2924 3856 3186
2819 3886 3238
2549 3947 3316
1769 4068 3426
1653 4095 3615
1881 4095 3800
2167 4080 4095
2304 643 97
2399 523 149
2527 291 601
2373 637 1163
2027 1028 1530
1848 1213 1798
1697 1385 1983
1621 1512 2280
1587 1646 2500
2366 786 68
2341 815 496
2540 602 662
2435 772 1212
2099 1111 1582
1908 1290 1859
1752 1454 2052
1669 1574 2349
1629 1703 2573
2483 1089 13
2462 1107 497
2406 1154 975
2527 1084 1312
2252 1310 1692
2039 1472 1992
1875 1616 2206
1781 1725 2510
1724 1842 2743
2608 1508 0
2594 1516 497
2545 1544 1017
2474 1586 1491
2445 1623 1844
2214 1760 2175
2050 1875 2433
1950 1968 2727
1859 2067 3008
2720 1980 0
2709 1985 510
2671 2000 1053
2609 2026 1557
2524 2064 2023
2396 2131 2372
2245 2212 2695
2173 2294 2885
1938 2382 3360
2743 2477 1212
2734 2480 1318
2712 2489 1543
2673 2505 1853
2622 2528 2203
2559 2559 2559
2470 2613 2837
2347 2679 3141
1860 2777 3772
2663 2994 1944
2657 2997 1984
2641 3006 2080
2611 3020 2237
2564 3043 2443
2602 3039 2823
2552 3072 3077
2383 3124 3469
2048 3194 3953
2606 3519 2209
2599 3521 2240
2582 3529 2314
2621 3523 2517
2730 3502 2797
2678 3517 3118
2425 3586 3328
2540 3586 3595
2149 3657 4060
3264 3845 3231
3259 3848 3236
3248 3857 3248
3242 3868 3288
3165 3899 3365
2894 3973 3466
2272 4095 3626
2427 4095 3817
2636 4083 4095
2768 802 145
2843 713 192
3048 320 345
3006 479 1114
2727 968 1563
2378 1311 1917
2229 1477 2170
2071 1655 2338
1984 1785 2630
2819 917 116
2800 943 513
2985 736 603
3020 709 1147
2781 1054 1602
2436 1375 1960
2278 1538 2219
2115 1711 2392
2026 1833 2703
2924 1174 52
2906 1192 505
2857 1239 973
3046 1094 1222
2898 1259 1690
2566 1531 2054
2388 1687 2331
2219 1845 2519
2124 1948 2885
3051 1550 0
3036 1561 503
2996 1589 1000
2929 1636 1476
3038 1588 1828
2753 1787 2191
2548 1929 2496
2377 2064 2713
2267 2138 3197
3173 1995 0
3169 1998 455
3130 2018 1022
3067 2049 1533
2992 2090 2002
2955 2129 2353
2730 2252 2689
2561 2361 2954
2417 2410 3562
3278 2477 0
3268 2480 525
3240 2491 1069
3192 2509 1584
3124 2537 2074
3037 2575 2535
2909 2639 2887
2756 2708 3290
2607 2780 3664
3288 2973 1476
3281 2976 1561
3263 2983 1752
3233 2995 2031
3189 3014 2360
3134 3039 2715
3071 3071 3071
2942 3128 3417
2707 3201 3862
3202 3490 2283
3197 3493 2316
3187 3498 2404
3189 3496 2652
3196 3497 2907
3170 3520 3076
3117 3549 3333
3064 3584 3590
2803 3650 4040
3558 3857 3396
3557 3860 3401
3553 3867 3415
3543 3880 3440
3525 3901 3473
3497 3930 3526
3272 4006 3648
2958 4095 3837
3116 4086 4095
3233 961 201
3294 892 240
3460 640 343
3535 496 979
3414 807 1561
3078 1277 1955
2731 1590 2306
2611 1742 2542
2446 1925 2694
3276 1057 174
3259 1079 535
3411 913 609
3545 724 1015
3453 915 1595
3124 1340 1988
2778 1642 2342
2650 1792 2583
2491 1966 2751
3369 1277 107
3353 1294 521
3312 1337 977
3560 1111 1106
3520 1178 1664
3231 1495 2063
2889 1770 2424
2744 1915 2678
2599 2066 2890
3493 1611 16
3479 1622 504
3442 1652 992
3381 1701 1467
3556 1596 1756
3383 1751 2182
3057 1983 2548
2888 2121 2825
2771 2233 3125
3617 2027 0
3608 2033 490
3573 2054 1020
3524 2085 1510
3450 2131 1984
3545 2098 2341
3260 2276 2697
3062 2404 3007
2983 2463 3457
3736 2485 0
3737 2487 404
3708 2500 1011
3658 2524 1546
3587 2558 2050
3558 2578 2484
3489 2626 2862
3293 2728 3245
3107 2827 3594
3834 2974 19
3825 2977 559
3803 2985 1090
3765 2999 1609
3679 3027 2184
3608 3056 2632
3565 3081 3039
3431 3145 3404
3271 3219 3769
3821 3470 1843
3805 3472 1979
3770 3477 2254
3720 3487 2592
3666 3502 2914
3642 3523 3114
3625 3550 3302
3583 3583 3583
3429 3642 3970
3822 3895 3550
3823 3897 3556
3823 3902 3572
3824 3912 3600
3824 3927 3642
3821 3949 3695
3806 3981 3757
3675 4047 3859
3603 4090 4095
3698 1120 257
3748 1064 291
3884 880 376
4057 522 775
4014 686 1489
3772 1165 1971
3427 1575 2343
3085 1867 2697
2992 2006 2914
3734 1201 235
3783 1150 269
3919 983 356
4070 732 811
4053 801 1494
3869 1160 1987
3504 1595 2376
3144 1897 2739
3039 2039 2960
3816 1392 174
3862 1351 206
3991 1221 295
4075 1127 935
4060 1168 1558
3993 1293 2041
3701 1636 2451
3292 1970 2838
3157 2121 3075
3933 1690 68
3974 1662 90
4086 1576 165
4084 1584 1091
4072 1607 1666
4039 1656 2163
3872 1836 2549
3549 2087 2998
3354 2257 3267
4060 2073 0
4093 2055 0
4095 2058 744
4092 2066 1281
4085 2078 1800
4066 2103 2280
3952 2204 2676
3712 2368 3110
3545 2493 3460
4095 2546 891
4095 2548 1000
4095 2552 1234
4095 2558 1563
4095 2566 1959
4087 2578 2411
4052 2609 2850
3833 2742 3220
3647 2854 3579
4095 3037 1615
4095 3038 1663
4095 3042 1781
4095 3049 1975
4095 3059 2240
4095 3070 2573
4089 3082 2987
3980 3144 3372
3773 3248 3726
4092 3519 2388
4092 3521 2410
4093 3525 2465
4095 3532 2563
4095 3543 2713
4095 3558 2916
4095 3574 3181
4092 3588 3546
3923 3664 3899
4034 3963 3731
4035 3965 3737
4037 3970 3751
4041 3979 3776
4047 3992 3813
4056 4010 3863
4066 4033 3927
4079 4061 4004
4095 4095 4095
