Examples/AB - Cooler.3dl
#25pt 3DLUT created by 3D LUT Creator Pro (c) Oleg Sharonov
#Copyright Oleg Sharonov
#IMAGEPROFILE sRGB IEC61966-2.1 v.2.10
#INPUTGAMMA sRGB IEC61966-2.1 v.2.10
#OUTPUTGAMMA sRGB IEC61966-2.1 v.2.10
0 256 512 768 1023
0 0 0
19 132 707
74 420 1472
183 712 2237
310 1003 3002
26 1021 52
0 1026 999
0 1097 1681
0 1249 2301
0 1452 2961
113 2043 206
0 2047 1028
0 2052 2003
0 2100 2734
0 2201 3359
257 3065 403
0 3071 1025
0 3071 2058
0 3078 3007
0 3118 3759
408 4086 597
3 4094 1065
0 4095 2058
0 4095 3070
0 4095 4010
635 320 614
705 306 1128
545 486 1919
636 643 2724
768 868 3493
785 1065 600
959 1024 1192
909 1073 1970
856 1186 2706
852 1360 3397
761 2066 655
1029 2043 1099
915 2063 2024
686 2125 2797
492 2221 3499
816 3078 764
1066 3065 1146
941 3076 2061
828 3091 3011
449 3141 3809
904 4094 887
1112 4086 1219
986 4095 2079
865 4095 3066
836 4095 4013
1343 766 1304
1475 674 1669
1470 742 2240
1246 932 3042
1177 1098 3819
1591 1203 1205
1606 1182 1674
1530 1250 2231
1418 1303 3141
1393 1380 3975
1614 2122 1276
1648 2118 1582
1930 2048 2353
1902 2084 3099
1824 2150 3913
1553 3123 1312
1659 3112 1579
2022 3067 2191
1888 3095 3103
1682 3160 3860
1684 4095 1521
1750 4095 1688
2064 4087 2193
1915 4095 3119
1887 4095 4034
2049 1212 1991
2161 1117 2326
2314 1058 2700
2232 1177 3350
1988 1375 4095
2163 1551 1782
2265 1467 2251
2398 1399 2786
2261 1536 3344
2074 1668 4095
2579 2176 1968
2604 2174 2114
2495 2200 2800
2416 2268 3337
2390 2312 4095
2443 3180 1952
2455 3178 2157
2604 3155 2611
2901 3071 3514
2916 3110 4095
2668 4095 2410
2703 4095 2528
2773 4095 2753
2996 4091 3328
3328 4036 4095
2755 1659 2680
2861 1559 2998
2991 1490 3338
3153 1453 3735
2873 1795 4095
2802 1936 2440
2914 1839 2867
3071 1724 3404
3205 1707 3796
2910 2021 4095
3171 2435 2453
3157 2450 2546
3233 2374 3331
3315 2346 3927
3032 2594 4095
3481 3211 2603
3494 3211 2712
3552 3201 3075
3356 3242 3956
3369 3332 4095
3612 4095 3333
3638 4095 3425
3680 4095 3612
3811 4095 3909
4085 4095 4095
