Examples/AB - Cleaner cyan.3dl
#25pt 3DLUT created by 3D LUT Creator Pro (c) Oleg Sharonov
#Copyright Oleg Sharonov
#IMAGEPROFILE 
#INPUTGAMMA 
#OUTPUTGAMMA 
0 128 256 384 512 640 768 896 1023
0 0 0
0 0 512
0 0 1022
0 0 1534
3 3 2043
23 16 2544
87 58 3029
235 161 3487
420 318 3912
0 512 0
0 512 512
0 512 1023
3 512 1533
13 513 2042
39 516 2545
103 526 3038
230 547 3517
389 586 3977
6 1023 3
6 1023 513
6 1023 1023
26 1023 1530
71 1023 2029
139 1026 2526
245 1031 3012
377 1043 3485
528 1063 3941
58 1533 39
52 1533 525
61 1533 1029
78 1533 1533
177 1533 2026
330 1533 2502
477 1538 2963
599 1544 3430
735 1557 3883
248 2039 177
203 2041 558
273 2038 1060
252 2040 1545
297 2040 2040
446 2038 2513
634 2038 2964
825 2043 3385
980 2053 3813
489 2543 384
409 2548 619
471 2544 1099
514 2542 1585
492 2545 2059
552 2545 2544
713 2543 2999
918 2542 3432
1122 2545 3837
717 3046 578
601 3054 698
655 3051 1147
750 3044 1645
730 3047 2100
714 3050 2570
787 3049 3049
945 3048 3493
1154 3046 3917
915 3551 745
766 3561 779
811 3558 1196
892 3553 1679
961 3548 2164
913 3554 2609
906 3557 3079
986 3556 3555
1231 3549 3982
1402 4029 1274
1415 4027 1387
1466 4023 1645
1562 4013 2011
1704 3998 2436
1728 4000 2806
1720 4007 3186
1783 4008 3596
1973 3998 3996
512 0 0
512 0 512
512 0 1023
512 0 1534
513 3 2043
520 19 2543
541 65 3028
593 171 3486
686 326 3912
512 512 0
512 512 512
512 512 1022
513 512 1532
517 514 2038
531 522 2533
564 542 3012
628 585 3465
605 503 4077
513 1023 3
517 1023 516
518 1023 1023
523 1023 1528
537 1024 2029
562 1027 2526
603 1032 3013
668 1044 3486
652 1018 4065
531 1533 32
546 1531 536
548 1532 1033
554 1532 1532
586 1532 2023
652 1534 2496
726 1538 2964
808 1545 3432
766 1536 4014
599 2040 155
629 2038 596
630 2038 1063
632 2038 1548
655 2038 2038
728 2038 2509
850 2039 2957
992 2045 3376
1001 2051 3894
730 2544 363
769 2541 700
743 2543 1102
791 2540 1596
771 2543 2061
814 2543 2542
918 2542 2995
1076 2542 3426
1144 2550 3881
892 3048 558
933 3044 827
870 3050 1150
945 3043 1648
946 3045 2107
931 3048 2572
989 3048 3047
1107 3047 3490
1168 3052 3944
1052 3552 728
1090 3549 950
991 3558 1200
1058 3552 1681
1133 3546 2175
1090 3552 2614
1083 3555 3080
1151 3554 3553
1330 3550 3984
1479 4031 1259
1491 4030 1374
1530 4026 1629
1620 4016 2000
1755 4002 2428
1795 4000 2808
1785 4008 3188
1843 4009 3597
2026 3999 3998
1023 0 0
1023 0 512
1023 0 1023
1023 0 1534
1023 6 2043
1024 23 2542
1031 78 3027
1052 192 3486
1094 345 3913
1023 512 0
1023 512 512
1024 512 1024
1024 513 1535
1025 516 2040
1028 525 2535
1039 547 3013
1067 592 3468
1077 500 4076
1023 1023 0
1024 1023 513
1024 1024 1024
1030 1025 1521
1036 1027 2020
1049 1033 2506
1073 1045 2974
1117 1070 3420
1099 1017 4066
1026 1535 13
1030 1534 525
1062 1527 1052
1068 1528 1528
1068 1533 2009
1094 1536 2483
1127 1540 2968
1175 1547 3439
1144 1530 4044
1053 2043 103
1066 2041 573
1118 2032 1093
1123 2032 1565
1138 2033 2033
1159 2037 2496
1224 2041 2937
1307 2049 3362
1201 2045 4004
1120 2547 306
1142 2544 668
1210 2534 1160
1221 2533 1621
1213 2537 2072
1243 2538 2536
1288 2541 2984
1388 2543 3410
1259 2557 3969
1220 3051 508
1246 3048 791
1321 3038 1241
1303 3041 1654
1337 3038 2130
1321 3043 2578
1365 3043 3042
1427 3045 3480
1351 3059 3972
1332 3555 684
1359 3552 915
1432 3544 1324
1381 3551 1687
1465 3540 2198
1437 3546 2628
1428 3551 3084
1482 3550 3549
1548 3553 3987
1657 4036 1219
1666 4035 1338
1690 4032 1595
1759 4024 1969
1878 4009 2406
1954 4002 2815
1939 4011 3192
1987 4012 3600
2152 4003 4002
1535 0 0
1535 0 512
1535 0 1023
1535 0 1535
1535 0 2047
1534 23 2548
1533 84 3033
1538 206 3494
1556 363 3924
1535 512 0
1535 512 512
1535 512 1023
1535 512 1535
1535 512 2047
1535 523 2544
1536 548 3023
1545 597 3479
1575 494 4075
1535 1023 0
1535 1023 512
1535 1023 1023
1536 1024 1536
1536 1025 2041
1540 1032 2526
1549 1046 2994
1568 1073 3441
1589 1014 4066
1536 1536 3
1536 1536 516
1538 1535 1031
1536 1536 1536
1559 1537 1991
1576 1542 2460
1597 1551 2924
1631 1568 3366
1610 1529 4049
1537 2047 32
1538 2046 538
1554 2042 1061
1629 2022 1609
1643 2026 2024
1638 2039 2456
1664 2049 2893
1699 2052 3378
1646 2043 4016
1569 2553 198
1579 2551 614
1614 2543 1118
1725 2519 1674
1734 2521 2111
1760 2524 2522
1740 2539 2956
1792 2547 3374
1676 2559 3969
1630 3056 414
1644 3054 728
1689 3046 1194
1799 3026 1729
1823 3022 2189
1802 3031 2596
1841 3033 3030
1846 3043 3461
1733 3062 3976
1706 3561 603
1723 3558 854
1771 3551 1277
1877 3534 1786
1865 3537 2204
1889 3535 2662
1876 3542 3093
1921 3542 3540
1865 3557 3993
1930 4044 1147
1937 4043 1273
1954 4041 1543
1988 4036 1917
2079 4023 2366
2205 4005 2830
2182 4015 3199
2216 4018 3606
2357 4009 4008
2048 0 0
2048 0 512
2048 0 1024
2048 0 1536
2048 0 2048
2048 0 2560
2045 42 3056
2040 183 3520
2040 360 3954
2048 512 0
2048 512 512
2048 512 1024
2048 512 1536
2048 512 2048
2048 512 2559
2045 532 3051
2042 587 3510
2079 489 4076
2048 1024 0
2048 1024 512
2048 1024 1024
2048 1024 1536
2048 1024 2048
2048 1023 2560
2047 1038 3035
2051 1068 3484
2088 1010 4070
2048 1536 0
2048 1536 512
2048 1536 1023
2047 1536 1536
2047 1536 2047
2052 1537 2542
2063 1548 2991
2079 1567 3428
2103 1526 4056
2048 2048 6
2049 2047 520
2051 2046 1036
2056 2043 1561
2048 2048 2048
2097 2048 2442
2134 2056 2857
2155 2068 3312
2117 2041 4035
2049 2558 61
2051 2558 554
2055 2556 1072
2084 2547 1611
2206 2511 2180
2228 2521 2516
2223 2541 2878
2226 2561 3290
2140 2557 3994
2074 3065 257
2081 3063 641
2104 3058 1133
2163 3044 1667
2348 2998 2265
2362 3001 2664
2404 3007 3003
2315 3040 3418
2166 3066 3982
2129 3568 475
2139 3566 764
2167 3561 1212
2232 3548 1726
2383 3516 2293
2445 3503 2768
2416 3519 3123
2500 3515 3511
2247 3564 4001
2273 4056 1033
2277 4055 1173
2290 4053 1463
2313 4050 1855
2353 4043 2302
2459 4024 2795
2497 4022 3211
2512 4027 3615
2627 4019 4018
2559 0 0
2559 0 512
2559 0 1024
2559 0 1536
2559 0 2048
2559 0 2559
2559 0 3071
2557 36 3573
2546 278 4013
2559 512 0
2559 512 512
2559 512 1023
2559 512 1535
2559 512 2047
2559 512 2559
2559 512 3071
2557 531 3569
2580 486 4083
2559 1024 0
2559 1024 512
2559 1023 1023
2559 1023 1536
2559 1023 2048
2559 1023 2559
2559 1023 3071
2557 1039 3556
2586 1009 4078
2559 1536 0
2559 1536 512
2560 1536 1023
2559 1536 1536
2559 1536 2048
2559 1536 2559
2560 1536 3072
2563 1551 3524
2596 1524 4070
2559 2048 0
2559 2048 512
2559 2048 1023
2559 2048 1536
2559 2048 2048
2559 2048 2559
2569 2048 3043
2593 2061 3450
2608 2038 4055
2560 2559 19
2561 2559 526
2563 2558 1041
2567 2556 1563
2579 2549 2102
2559 2559 2559
2631 2558 2910
2671 2549 3430
2614 2554 4033
2562 3070 90
2563 3070 566
2567 3068 1078
2573 3065 1608
2614 3051 2166
2753 3009 2719
2780 3022 3015
2730 3053 3386
2625 3071 3988
2573 3579 284
2578 3578 652
2592 3574 1136
2626 3566 1659
2707 3545 2211
2905 3491 2828
2960 3485 3207
3020 3492 3489
2669 3571 4013
2666 4070 888
2669 4070 1047
2677 4068 1361
2691 4065 1773
2716 4061 2235
2758 4052 2724
2867 4029 3232
2861 4039 3626
2949 4032 4031
3071 0 0
3071 0 512
3071 0 1024
3071 0 1536
3071 0 2047
3071 0 2559
3071 0 3071
3071 0 3583
3071 3 4095
3071 512 0
3071 512 512
3071 512 1024
3071 512 1536
3071 512 2047
3071 512 2559
3071 512 3071
3071 512 3583
3071 512 4095
3071 1024 0
3071 1024 512
3071 1023 1023
3071 1023 1536
3071 1023 2048
3071 1023 2559
3071 1023 3071
3071 1023 3583
3072 1023 4095
3071 1536 0
3071 1536 512
3071 1536 1023
3071 1536 1536
3072 1536 2048
3072 1535 2560
3072 1535 3072
3072 1535 3584
3079 1532 4090
3071 2048 0
3071 2048 512
3071 2048 1023
3071 2047 1535
3070 2048 2048
3071 2048 2559
3071 2048 3071
3071 2048 3582
3090 2041 4082
3071 2559 0
3071 2559 512
3071 2559 1023
3071 2559 1535
3071 2559 2048
3071 2559 2559
3071 2560 3071
3089 2555 3568
3103 2553 4068
3072 3071 32
3073 3070 532
3075 3070 1045
3078 3068 1564
3085 3064 2093
3094 3059 2623
3071 3071 3071
3150 3063 3454
3106 3068 4045
3074 3582 119
3075 3582 576
3078 3580 1080
3083 3578 1604
3091 3574 2142
3145 3553 2736
3274 3517 3234
3319 3525 3521
3121 3579 4027
3099 4084 773
3100 4084 954
3102 4083 1290
3111 4082 1704
3125 4079 2166
3148 4074 2657
3189 4063 3168
3249 4052 3642
3307 4049 4048
3583 0 0
3583 0 513
3583 0 1024
3583 0 1536
3583 0 2048
3583 0 2560
3583 0 3071
3583 0 3583
3583 3 4094
3583 513 0
3583 512 512
3583 512 1024
3583 512 1536
3583 512 2048
3583 512 2559
3583 512 3071
3583 512 3583
3583 513 4095
3583 1024 3
3583 1024 513
3583 1023 1023
3583 1024 1536
3583 1024 2048
3583 1023 2560
3583 1023 3072
3583 1023 3583
3583 1024 4095
3583 1536 3
3583 1536 513
3583 1536 1023
3583 1535 1535
3583 1535 2048
3583 1535 2559
3583 1535 3072
3583 1535 3583
3583 1536 4095
3583 2048 3
3583 2048 513
3583 2048 1023
3583 2047 1535
3582 2048 2048
3583 2048 2560
3583 2048 3071
3583 2048 3583
3583 2048 4095
3583 2559 0
3583 2559 512
3583 2560 1023
3583 2559 1535
3583 2560 2048
3583 2560 2560
3583 2559 3071
3583 2560 3583
3583 2559 4095
3583 3071 0
3583 3071 510
3583 3071 1023
3583 3071 1535
3583 3071 2048
3583 3071 2560
3583 3071 3071
3583 3071 3583
3588 3070 4091
3584 3582 45
3585 3582 538
3587 3582 1048
3589 3580 1565
3594 3578 2089
3593 3573 2674
3596 3572 3154
3583 3583 3583
3599 3582 4067
3590 4090 551
3590 4090 784
3591 4090 1177
3591 4090 1633
3592 4090 2115
3593 4090 2611
3602 4088 3112
3636 4078 3627
3692 4070 4070
4095 3 3
4095 3 513
4094 3 1024
4094 3 1536
4094 3 2048
4095 3 2559
4095 0 3071
4095 0 3583
4095 0 4095
4094 513 3
4095 512 512
4095 513 1024
4095 513 1536
4095 513 2048
4095 513 2560
4095 510 3071
4095 512 3583
4095 512 4095
4094 1024 3
4095 1023 512
4095 1024 1024
4095 1024 1536
4095 1024 2048
4095 1024 2560
4095 1024 3071
4095 1023 3583
4095 1023 4095
4095 1536 3
4095 1536 513
4095 1536 1024
4095 1536 1536
4095 1536 2048
4095 1536 2560
4095 1536 3071
4095 1536 3583
4095 1536 4095
4094 2048 3
4095 2048 510
4095 2048 1024
4095 2048 1536
4095 2048 2048
4095 2048 2560
4095 2047 3071
4095 2047 3583
4095 2048 4095
4095 2560 3
4095 2559 512
4095 2559 1023
4095 2559 1535
4095 2559 2047
4095 2559 2559
4095 2559 3071
4095 2559 3583
4095 2559 4095
4095 3071 0
4095 3071 510
4095 3071 1023
4095 3071 1535
4095 3071 2047
4095 3071 2559
4095 3071 3071
4095 3071 3583
4095 3071 4095
4095 3583 0
4095 3583 512
4095 3583 1023
4095 3583 1535
4095 3583 2047
4095 3583 2559
4095 3583 3071
4095 3583 3583
4095 3583 4095
4093 4091 729
4093 4091 912
4093 4091 1251
4093 4091 1676
4093 4092 2137
4094 4092 2616
4094 4093 3104
4094 4094 3598
4095 4095 4095
