Examples/AB - Cooler.3dl
#25pt 3DLUT created by 3D LUT Creator Pro (c) Oleg Sharonov
#Copyright Oleg Sharonov
#IMAGEPROFILE sRGB IEC61966-2.1 v.2.10
#INPUTGAMMA sRGB IEC61966-2.1 v.2.10
#OUTPUTGAMMA sRGB IEC61966-2.1 v.2.10
0 128 256 384 512 640 768 896 1023
0 0 0
6 39 326
19 132 707
42 276 1089
74 420 1472
123 566 1854
183 712 2237
245 857 2620
310 1003 3002
6 510 13
0 513 497
0 545 844
0 613 1152
0 707 1473
0 815 1813
0 935 2167
0 1061 2533
0 1190 2906
26 1021 52
0 1023 514
0 1026 999
0 1049 1368
0 1097 1681
0 1164 1988
0 1249 2301
0 1346 2626
0 1452 2961
61 1532 113
0 1535 513
0 1535 1029
0 1539 1501
0 1559 1879
0 1596 2210
0 1649 2521
0 1717 2825
0 1797 3135
113 2043 206
0 2048 512
0 2047 1028
0 2048 1533
0 2052 2003
0 2069 2389
0 2100 2734
0 2145 3047
0 2201 3359
183 2554 304
6 2558 565
0 2559 1027
0 2559 1543
0 2560 2040
0 2565 2505
0 2580 2899
0 2608 3249
0 2647 3574
257 3065 403
29 3069 633
0 3071 1025
0 3071 1543
0 3071 2058
0 3072 2547
0 3078 3007
0 3092 3406
0 3118 3759
334 3575 500
74 3580 707
0 3583 1024
0 3583 1540
0 3583 2056
0 3583 2565
0 3585 3052
0 3591 3508
0 3605 3909
408 4086 597
139 4091 785
3 4094 1065
0 4095 1538
0 4095 2058
0 4094 2571
0 4095 3070
0 4095 3554
0 4095 4010
282 103 271
324 97 575
233 180 969
257 257 1370
328 354 1762
388 478 2143
446 614 2520
504 755 2896
563 898 3271
370 536 262
474 512 611
451 533 996
422 583 1374
409 660 1725
416 757 2071
436 868 2421
464 988 2777
500 1114 3138
354 1036 287
512 1022 553
452 1032 1017
343 1064 1402
255 1109 1758
183 1173 2089
132 1253 2412
90 1346 2744
78 1448 3080
377 1541 337
528 1532 571
465 1539 1033
416 1547 1503
257 1572 1904
81 1610 2265
0 1660 2597
0 1725 2906
0 1802 3216
416 2049 396
551 2043 605
485 2048 1041
430 2052 1531
354 2060 2006
94 2083 2410
0 2112 2775
0 2156 3092
0 2209 3413
467 2557 461
577 2554 648
497 2559 1041
455 2561 1543
372 2566 2034
250 2574 2510
0 2593 2915
0 2618 3276
0 2655 3607
528 3067 528
609 3065 699
501 3071 1037
482 3072 1551
420 3074 2056
284 3079 2540
58 3087 3013
0 3102 3416
0 3126 3779
597 3576 600
646 3575 758
504 3582 1072
493 3583 1550
439 3585 2054
347 3587 2560
116 3593 3045
0 3599 3514
0 3613 3917
667 4086 676
689 4086 825
514 4093 1127
497 4095 1546
479 4095 2063
393 4095 2567
214 4095 3064
0 4095 3549
0 4095 4015
635 320 614
716 267 835
705 306 1128
591 401 1531
545 486 1919
568 563 2320
636 643 2724
706 748 3110
768 868 3493
800 588 585
790 587 847
749 624 1123
700 644 1589
684 675 2014
718 721 2412
758 789 2797
797 880 3172
838 989 3541
785 1065 600
811 1061 791
959 1024 1192
948 1041 1559
909 1073 1970
879 1121 2346
856 1186 2706
849 1267 3052
852 1360 3397
752 1565 616
821 1558 788
1006 1533 1105
944 1546 1564
836 1581 1936
758 1620 2310
690 1669 2664
634 1732 3002
593 1806 3328
761 2066 655
842 2060 812
1029 2043 1099
952 2054 1565
915 2063 2024
791 2090 2427
686 2125 2797
586 2169 3150
492 2221 3499
784 2571 707
869 2566 845
1046 2554 1116
971 2562 1569
926 2568 2053
877 2578 2507
731 2601 2925
592 2632 3302
439 2671 3660
816 3078 764
902 3073 888
1066 3065 1146
989 3072 1571
941 3076 2061
890 3081 2548
828 3091 3011
645 3113 3422
449 3141 3809
856 3585 823
943 3582 937
1087 3575 1179
1001 3583 1571
960 3586 2067
909 3590 2563
837 3596 3043
763 3604 3514
527 3626 3925
904 4094 887
990 4091 989
1112 4086 1219
1005 4095 1565
986 4095 2079
933 4095 2573
865 4095 3066
772 4095 3544
836 4095 4013
989 542 959
1057 486 1161
1137 460 1351
1087 523 1684
964 623 2089
886 711 2478
861 792 2870
883 868 3270
944 944 3678
1074 758 845
1131 713 1131
1189 685 1405
1109 758 1678
1020 804 2123
961 857 2541
947 914 2938
977 975 3334
1034 1039 3735
1277 1088 943
1296 1086 1047
1228 1102 1414
1197 1134 1678
1178 1136 2166
1162 1151 2615
1173 1173 3041
1197 1210 3446
1220 1266 3834
1200 1594 938
1211 1593 1071
1298 1578 1311
1444 1536 1772
1441 1553 2116
1406 1576 2540
1366 1611 2942
1337 1660 3316
1315 1720 3676
1156 2095 950
1190 2091 1071
1306 2077 1299
1491 2046 1682
1461 2053 2138
1331 2096 2483
1249 2133 2859
1178 2176 3224
1118 2228 3577
1155 2594 981
1198 2590 1095
1326 2578 1313
1527 2555 1639
1439 2568 2119
1402 2579 2560
1283 2610 2947
1190 2643 3327
1103 2682 3692
1169 3096 1024
1218 3093 1129
1351 3083 1337
1546 3065 1647
1461 3076 2109
1412 3084 2576
1376 3094 3031
1241 3120 3439
1132 3150 3823
1191 3601 1076
1244 3598 1170
1378 3589 1367
1563 3576 1661
1478 3586 2103
1428 3592 2585
1383 3598 3064
1337 3609 3511
1187 3632 3934
1220 4095 1132
1274 4095 1218
1410 4095 1403
1581 4087 1685
1493 4095 2102
1444 4095 2590
1399 4095 3080
1346 4095 3555
1402 4095 4010
1343 766 1304
1407 708 1495
1475 674 1669
1556 658 1869
1470 742 2240
1341 841 2649
1246 932 3042
1192 1018 3428
1177 1098 3819
1386 944 1168
1450 890 1431
1528 834 1713
1590 831 1909
1482 921 2236
1374 983 2676
1295 1051 3075
1247 1117 3476
1239 1185 3870
1591 1203 1205
1578 1216 1257
1606 1182 1674
1643 1170 1976
1530 1250 2231
1466 1271 2710
1418 1303 3141
1389 1338 3569
1393 1380 3975
1726 1608 1257
1734 1608 1332
1764 1602 1534
1665 1622 1993
1666 1645 2241
1666 1641 2728
1654 1645 3202
1655 1655 3655
1669 1677 4076
1614 2122 1276
1620 2122 1375
1648 2118 1582
1766 2092 1918
1930 2048 2353
1935 2064 2672
1902 2084 3099
1865 2113 3510
1824 2150 3913
1561 2624 1286
1580 2622 1379
1644 2614 1571
1810 2592 1811
1964 2559 2279
1979 2558 2720
1825 2610 3029
1737 2648 3402
1670 2684 3789
1553 3123 1312
1582 3120 1395
1659 3112 1579
1826 3094 1825
2022 3067 2191
1920 3083 2679
1888 3095 3103
1773 3128 3477
1682 3160 3860
1561 3624 1348
1592 3621 1429
1677 3614 1605
1848 3598 1845
2045 3577 2176
1946 3591 2652
1897 3600 3113
1867 3609 3565
1730 3640 3954
1684 4095 1521
1689 4095 1558
1750 4095 1688
1872 4095 1868
2064 4087 2193
1973 4095 2651
1915 4095 3119
1871 4095 3583
1887 4095 4034
1696 989 1647
1757 931 1833
1815 895 1995
1894 865 2184
1952 869 2408
1851 959 2795
1719 1059 3209
1614 1153 3602
1541 1241 3989
1713 1143 1502
1780 1084 1746
1862 1016 2025
1930 992 2220
1981 1003 2431
1861 1101 2791
1741 1174 3228
1648 1251 3625
1582 1325 4019
1863 1373 1467
1866 1372 1547
1946 1306 1957
2003 1268 2282
2043 1284 2473
1892 1385 2785
1806 1423 3245
1733 1468 3674
1677 1515 4095
2108 1672 1618
2109 1676 1657
2082 1700 1729
2058 1684 2234
2089 1680 2542
1967 1757 2783
1931 1765 3269
1887 1782 3735
1872 1819 4095
2145 2140 1535
2156 2138 1599
2183 2134 1753
2201 2132 2031
2137 2132 2579
2155 2152 2808
2159 2148 3292
2151 2148 3777
2173 2173 4095
2029 2651 1614
2033 2651 1689
2050 2649 1860
2110 2640 2099
2209 2608 2571
2415 2559 2934
2425 2577 3231
2399 2594 3652
2359 2618 4082
1969 3154 1624
1981 3152 1696
2023 3147 1852
2118 3135 2079
2316 3106 2341
2427 3072 2894
2494 3061 3305
2320 3124 3579
2234 3159 3960
1954 3652 1645
1974 3650 1710
2026 3645 1861
2133 3633 2087
2336 3608 2338
2512 3579 2749
2397 3598 3247
2403 3603 3673
2268 3643 4020
2205 4095 1993
2200 4095 2012
2198 4095 2072
2240 4095 2191
2354 4095 2354
2542 4088 2728
2435 4095 3216
2417 4095 3667
2464 4095 4090
2049 1212 1991
2108 1153 2175
2161 1117 2326
2233 1081 2504
2314 1058 2700
2338 1085 2957
2232 1177 3350
2099 1277 3768
1988 1375 4095
2048 1350 1841
2117 1288 2070
2201 1213 2344
2267 1180 2533
2340 1163 2729
2357 1194 2978
2240 1292 3346
2114 1372 3782
2011 1472 4095
2163 1551 1782
2173 1546 1860
2265 1467 2251
2342 1407 2583
2398 1399 2786
2409 1433 3004
2261 1536 3344
2162 1588 3793
2074 1668 4095
2381 1820 1828
2373 1827 1857
2368 1834 1985
2420 1778 2502
2469 1748 2854
2485 1777 3041
2311 1878 3341
2246 1899 3817
2193 1964 4095
2579 2176 1968
2586 2175 2012
2604 2174 2114
2575 2199 2236
2495 2200 2800
2526 2198 3109
2416 2268 3337
2400 2268 3829
2390 2312 4095
2553 2670 1884
2556 2671 1935
2575 2669 2042
2604 2667 2232
2551 2681 2604
2634 2636 3168
2656 2658 3379
2659 2655 3851
2686 2685 4095
2443 3180 1952
2447 3179 2012
2455 3178 2157
2486 3174 2373
2604 3155 2611
2714 3109 3208
2901 3071 3514
2915 3089 3792
2916 3110 4095
2377 3683 1962
2385 3682 2021
2415 3679 2150
2475 3671 2355
2604 3653 2593
2811 3619 2891
2882 3587 3521
3007 3565 3892
2825 3634 4095
2668 4095 2410
2666 4095 2429
2703 4095 2528
2737 4095 2644
2773 4095 2753
2901 4095 2916
2996 4091 3328
2883 4095 3834
3328 4036 4095
2402 1436 2336
2463 1373 2517
2511 1338 2661
2573 1303 2830
2651 1272 3018
2734 1254 3217
2724 1302 3509
2614 1395 3906
2438 1585 4095
2390 1561 2181
2458 1498 2401
2544 1417 2671
2603 1384 2853
2678 1355 3042
2754 1343 3240
2738 1393 3523
2621 1490 3902
2450 1665 4095
2479 1740 2107
2491 1732 2182
2586 1648 2554
2675 1573 2890
2738 1550 3093
2797 1548 3292
2776 1600 3547
2637 1702 3899
2491 1842 4095
2653 1988 2091
2652 1990 2138
2663 1986 2278
2761 1901 2784
2821 1854 3152
2862 1858 3357
2836 1909 3580
2675 2012 3892
2566 2115 4095
2913 2274 2257
2909 2280 2274
2889 2299 2305
2870 2314 2471
2877 2274 3059
2924 2249 3422
2918 2287 3609
2748 2381 3884
2695 2448 4095
3033 2692 2291
3038 2691 2328
3053 2689 2423
3085 2683 2587
3058 2705 2778
2919 2722 3376
2964 2719 3677
2879 2780 3892
2892 2816 4095
2964 3199 2232
2965 3200 2275
2974 3201 2372
2988 3201 2536
3001 3204 2773
3020 3183 3290
3125 3144 3749
3153 3165 3949
3197 3197 4095
2857 3709 2290
2861 3708 2339
2868 3707 2460
2888 3705 2649
2941 3697 2887
3092 3670 3161
3228 3609 3826
3386 3583 4095
3481 3609 4095
3144 4095 2864
3140 4095 2880
3164 4095 2955
3194 4095 3063
3220 4095 3169
3325 4095 3325
3364 4095 3523
3434 4080 4095
3882 4012 4095
2755 1659 2680
2818 1594 2860
2861 1559 2998
2915 1525 3161
2991 1490 3338
3071 1463 3532
3153 1453 3735
3108 1518 4060
2873 1795 4095
2735 1775 2521
2802 1711 2734
2888 1629 3003
2944 1592 3177
3015 1559 3359
3091 1535 3554
3169 1529 3754
3119 1596 4071
2889 1855 4095
2802 1936 2440
2816 1927 2511
2914 1839 2867
3009 1754 3203
3071 1724 3404
3139 1707 3601
3205 1707 3796
3146 1776 4095
2910 2021 4095
2945 2164 2401
2950 2162 2447
2968 2153 2584
3084 2052 3079
3157 1990 3452
3212 1977 3662
3258 1987 3858
3201 2054 4095
2959 2271 4095
3171 2435 2453
3166 2440 2474
3157 2450 2546
3163 2449 2743
3233 2374 3331
3290 2332 3723
3315 2346 3927
3259 2411 4095
3032 2594 4095
3410 2759 2642
3412 2760 2668
3416 2764 2725
3398 2785 2786
3367 2804 2993
3322 2782 3621
3365 2762 3993
3331 2819 4095
3161 2953 4095
3481 3211 2603
3485 3211 2634
3494 3211 2712
3516 3208 2854
3552 3201 3075
3529 3207 3415
3356 3242 3956
3404 3258 4095
3369 3332 4095
3377 3728 2577
3377 3729 2614
3378 3730 2704
3394 3730 2839
3401 3733 3046
3397 3739 3322
3509 3688 3905
3643 3672 4095
3696 3710 4095
3612 4095 3333
3613 4095 3346
3638 4095 3425
3657 4095 3507
3680 4095 3612
3737 4095 3734
3811 4095 3909
4020 4068 4095
4085 4095 4095
