Examples/AB - Teal & Orange.3dl
#25pt 3DLUT created by 3D LUT Creator Pro (c) Oleg Sharonov
#Copyright Oleg Sharonov
0 256 512 768 1023
0 0 0
84 201 345
312 552 812
554 903 1279
796 1253 1747
276 979 708
0 1023 1029
448 1095 1482
706 1286 1764
923 1538 2110
688 1966 1473
0 2009 1651
0 2046 2057
658 2092 2585
1057 2206 2927
1099 2954 2238
773 2983 2352
0 3031 2615
0 3070 3085
781 3106 3665
1825 3906 3057
1466 3947 3102
0 4021 3309
0 4055 3592
853 4076 4095
909 165 13
704 419 682
605 709 1081
725 1011 1450
912 1331 1867
1106 986 419
1024 1024 1024
920 1156 1461
971 1350 1797
1034 1598 2207
1095 2004 1237
1172 1990 1627
995 2050 2058
1114 2107 2595
1155 2244 2994
1371 2975 2137
1434 2968 2332
827 3044 2623
926 3076 3090
849 3133 3729
2245 3880 3077
2027 3916 3121
564 4041 3281
0 4082 3597
1320 4077 4095
1839 484 58
1999 273 739
1467 948 1426
1262 1238 1929
1296 1528 2211
2042 1028 0
1954 1088 983
1699 1280 1664
1464 1508 2163
1416 1752 2494
2197 1980 948
2156 1996 1351
2048 2048 2048
1899 2166 2539
1546 2339 3196
2063 3023 1846
2033 3035 1971
2161 3010 2613
2028 3073 3082
1126 3206 3961
2982 3837 3142
2924 3856 3186
2549 3947 3316
1653 4095 3615
2167 4080 4095
2768 802 145
3048 320 345
2727 968 1563
2229 1477 2170
1984 1785 2630
2924 1174 52
2857 1239 973
2898 1259 1690
2388 1687 2331
2124 1948 2885
3173 1995 0
3130 2018 1022
2992 2090 2002
2730 2252 2689
2417 2410 3562
3288 2973 1476
3263 2983 1752
3189 3014 2360
3071 3071 3071
2707 3201 3862
3558 3857 3396
3553 3867 3415
3525 3901 3473
3272 4006 3648
3116 4086 4095
3698 1120 257
3884 880 376
4014 686 1489
3427 1575 2343
2992 2006 2914
3816 1392 174
3991 1221 295
4060 1168 1558
3701 1636 2451
3157 2121 3075
4060 2073 0
4095 2058 744
4085 2078 1800
3952 2204 2676
3545 2493 3460
4095 3037 1615
4095 3042 1781
4095 3059 2240
4089 3082 2987
3773 3248 3726
4034 3963 3731
4037 3970 3751
4047 3992 3813
4066 4033 3927
4095 4095 4095
