Examples/AB - All Yellow-Red (Double grid) With Mask.3dl
#25pt 3DLUT created by 3D LUT Creator Pro (c) Oleg Sharonov
#Copyright Oleg Sharonov
#IMAGEPROFILE sRGB IEC61966-2.1 v.2.10
#INPUTGAMMA sRGB IEC61966-2.1 v.2.10
#OUTPUTGAMMA sRGB IEC61966-2.1 v.2.10
0 43 86 128 171 214 256 299 341 384 427 469 512 555 597 640 682 725 768 810 853 896 938 981 1023 
0 0 0
0 0 171
0 0 341
0 0 512
0 0 683
0 0 853
0 0 1024
0 0 1194
0 0 1365
0 0 1536
0 0 1706
0 0 1877
0 0 2048
0 0 2218
0 0 2389
0 0 2559
0 0 2730
0 0 2901
0 0 3071
0 0 3242
0 0 3412
0 0 3583
0 0 3754
0 0 3924
0 0 4095
0 171 0
0 171 171
0 171 341
0 171 512
0 171 683
0 171 853
0 171 1024
0 171 1194
0 171 1365
0 171 1536
0 171 1706
0 171 1877
0 171 2048
0 171 2218
0 171 2389
0 171 2559
0 171 2730
0 171 2901
0 171 3071
0 171 3242
0 171 3412
0 171 3583
0 171 3754
0 171 3924
0 171 4095
0 341 0
0 341 171
0 341 341
0 341 512
0 341 683
0 341 853
0 341 1024
0 341 1194
0 341 1365
0 341 1536
0 341 1706
0 341 1877
0 341 2048
0 341 2218
0 341 2389
0 341 2559
0 341 2730
0 341 2901
0 341 3071
0 341 3242
0 341 3412
0 341 3583
0 341 3754
0 341 3924
0 341 4095
0 512 0
0 512 171
0 512 341
0 512 512
0 512 683
0 512 853
0 512 1024
0 512 1194
0 512 1365
0 512 1536
0 512 1706
0 512 1877
0 512 2048
0 512 2218
0 512 2389
0 512 2559
0 512 2730
0 512 2901
0 512 3071
0 512 3242
0 512 3412
0 512 3583
0 512 3754
0 512 3924
0 512 4095
0 683 0
0 683 171
0 683 341
0 683 512
0 683 683
0 683 853
0 683 1024
0 683 1194
0 683 1365
0 683 1536
0 683 1706
0 683 1877
0 683 2048
0 683 2218
0 683 2389
0 683 2559
0 683 2730
0 683 2901
0 683 3071
0 683 3242
0 683 3412
0 683 3583
0 683 3754
0 683 3924
0 683 4095
0 853 0
0 853 171
0 853 341
0 853 512
0 853 683
0 853 853
0 853 1024
0 853 1194
0 853 1365
0 853 1536
0 853 1706
0 853 1877
0 853 2048
0 853 2218
0 853 2389
0 853 2559
0 853 2730
0 853 2901
0 853 3071
0 853 3242
0 853 3412
0 853 3583
0 853 3754
0 853 3924
0 853 4095
0 1024 0
0 1024 171
0 1024 341
0 1024 512
0 1024 683
0 1024 853
0 1024 1024
0 1024 1194
0 1024 1365
0 1024 1536
0 1024 1706
0 1024 1877
0 1024 2048
0 1024 2218
0 1024 2389
0 1024 2559
0 1024 2730
0 1024 2901
0 1024 3071
0 1024 3242
0 1024 3412
0 1024 3583
0 1024 3754
0 1024 3924
0 1024 4095
0 1194 0
0 1194 171
0 1194 341
0 1194 512
0 1194 683
0 1194 853
0 1194 1024
0 1194 1194
0 1194 1365
0 1194 1536
0 1194 1706
0 1194 1877
0 1194 2048
0 1194 2218
0 1194 2389
0 1194 2559
0 1194 2730
0 1194 2901
0 1194 3071
0 1194 3242
0 1194 3412
0 1194 3583
0 1194 3754
0 1194 3924
0 1194 4095
0 1365 0
0 1365 171
0 1365 341
0 1365 512
0 1365 683
0 1365 853
0 1365 1024
0 1365 1194
0 1365 1365
0 1365 1536
0 1365 1706
0 1365 1877
0 1365 2048
0 1365 2218
0 1365 2389
0 1365 2559
0 1365 2730
0 1365 2901
0 1365 3071
0 1365 3242
0 1365 3412
0 1365 3583
0 1365 3754
0 1365 3924
0 1365 4095
0 1536 0
0 1536 171
0 1536 341
0 1536 512
0 1536 683
0 1536 853
0 1536 1024
0 1536 1194
0 1536 1365
0 1536 1536
0 1536 1706
0 1536 1877
0 1536 2048
0 1536 2218
0 1536 2389
0 1536 2559
0 1536 2730
0 1536 2901
0 1536 3071
0 1536 3242
0 1536 3412
0 1536 3583
0 1536 3754
0 1536 3924
0 1536 4095
0 1706 0
0 1706 171
0 1706 341
0 1706 512
0 1706 683
0 1706 853
0 1706 1024
0 1706 1194
0 1706 1365
0 1706 1536
0 1706 1706
0 1706 1877
0 1706 2048
0 1706 2218
0 1706 2389
0 1706 2559
0 1706 2730
0 1706 2901
0 1706 3071
0 1706 3242
0 1706 3412
0 1706 3583
0 1706 3754
0 1706 3924
0 1706 4095
0 1877 0
0 1877 171
0 1877 341
0 1877 512
0 1877 683
0 1877 853
0 1877 1024
0 1877 1194
0 1877 1365
0 1877 1536
0 1877 1706
0 1877 1877
0 1877 2048
0 1877 2218
0 1877 2389
0 1877 2559
0 1877 2730
0 1877 2901
0 1877 3071
0 1877 3242
0 1877 3412
0 1877 3583
0 1877 3754
0 1877 3924
0 1877 4095
0 2048 0
0 2048 171
0 2048 341
0 2048 512
0 2048 683
0 2048 853
0 2048 1024
0 2048 1194
0 2048 1365
0 2048 1536
0 2048 1706
0 2048 1877
0 2048 2048
0 2048 2218
0 2048 2389
0 2048 2559
0 2048 2730
0 2048 2901
0 2048 3071
0 2048 3242
0 2048 3412
0 2048 3583
0 2048 3754
0 2048 3924
0 2048 4095
0 2218 0
0 2218 171
0 2218 341
0 2218 512
0 2218 683
0 2218 853
0 2218 1024
0 2218 1194
0 2218 1365
0 2218 1536
0 2218 1706
0 2218 1877
0 2218 2048
0 2218 2218
0 2218 2389
0 2218 2559
0 2218 2730
0 2218 2901
0 2218 3071
0 2218 3242
0 2218 3412
0 2218 3583
0 2218 3754
0 2218 3924
0 2218 4095
0 2389 0
0 2389 171
0 2389 341
0 2389 512
0 2389 683
0 2389 853
0 2389 1024
0 2389 1194
0 2389 1365
0 2389 1536
0 2389 1706
0 2389 1877
0 2389 2048
0 2389 2218
0 2389 2389
0 2389 2559
0 2389 2730
0 2389 2901
0 2389 3071
0 2389 3242
0 2389 3412
0 2389 3583
0 2389 3754
0 2389 3924
0 2389 4095
0 2559 0
0 2559 171
0 2559 341
0 2559 512
0 2559 683
0 2559 853
0 2559 1024
0 2559 1194
0 2559 1365
0 2559 1536
0 2559 1706
0 2559 1877
0 2559 2048
0 2559 2218
0 2559 2389
0 2559 2559
0 2559 2730
0 2559 2901
0 2559 3071
0 2559 3242
0 2559 3412
0 2559 3583
0 2559 3754
0 2559 3924
0 2559 4095
0 2730 0
0 2730 171
0 2730 341
0 2730 512
0 2730 683
0 2730 853
0 2730 1024
0 2730 1194
0 2730 1365
0 2730 1536
0 2730 1706
0 2730 1877
0 2730 2048
0 2730 2218
0 2730 2389
0 2730 2559
0 2730 2730
0 2730 2901
0 2730 3071
0 2730 3242
0 2730 3412
0 2730 3583
0 2730 3754
0 2730 3924
0 2730 4095
0 2901 0
0 2901 171
0 2901 341
0 2901 512
0 2901 683
0 2901 853
0 2901 1024
0 2901 1194
0 2901 1365
0 2901 1536
0 2901 1706
0 2901 1877
0 2901 2048
0 2901 2218
0 2901 2389
0 2901 2559
0 2901 2730
0 2901 2901
0 2901 3071
0 2901 3242
0 2901 3412
0 2901 3583
0 2901 3754
0 2901 3924
0 2901 4095
0 3071 0
0 3071 171
0 3071 341
0 3071 512
0 3071 683
0 3071 853
0 3071 1024
0 3071 1194
0 3071 1365
0 3071 1536
0 3071 1706
0 3071 1877
0 3071 2048
0 3071 2218
0 3071 2389
0 3071 2559
0 3071 2730
0 3071 2901
0 3071 3071
0 3071 3242
0 3071 3412
0 3071 3583
0 3071 3754
0 3071 3924
0 3071 4095
0 3242 0
0 3242 171
0 3242 341
0 3242 512
0 3242 683
0 3242 853
0 3242 1024
0 3242 1194
0 3242 1365
0 3242 1536
0 3242 1706
0 3242 1877
0 3242 2048
0 3242 2218
0 3242 2389
0 3242 2559
0 3242 2730
0 3242 2901
0 3242 3071
0 3242 3242
0 3242 3412
0 3242 3583
0 3242 3754
0 3242 3924
0 3242 4095
0 3412 0
0 3412 171
0 3412 341
0 3412 512
0 3412 683
0 3412 853
0 3412 1024
0 3412 1194
0 3412 1365
0 3412 1536
0 3412 1706
0 3412 1877
0 3412 2048
0 3412 2218
0 3412 2389
0 3412 2559
0 3412 2730
0 3412 2901
0 3412 3071
0 3412 3242
0 3412 3412
0 3412 3583
0 3412 3754
0 3412 3924
0 3412 4095
0 3583 0
0 3583 171
0 3583 341
0 3583 512
0 3583 683
0 3583 853
0 3583 1024
0 3583 1194
0 3583 1365
0 3583 1536
0 3583 1706
0 3583 1877
0 3583 2048
0 3583 2218
0 3583 2389
0 3583 2559
0 3583 2730
0 3583 2901
0 3583 3071
0 3583 3242
0 3583 3412
0 3583 3583
0 3583 3754
0 3583 3924
0 3583 4095
0 3754 0
0 3754 171
0 3754 341
0 3754 512
0 3754 683
0 3754 853
0 3754 1024
0 3754 1194
0 3754 1365
0 3754 1536
0 3754 1706
0 3754 1877
0 3754 2048
0 3754 2218
0 3754 2389
0 3754 2559
0 3754 2730
0 3754 2901
0 3754 3071
0 3754 3242
0 3754 3412
0 3754 3583
0 3754 3754
0 3754 3924
0 3754 4095
0 3924 0
0 3924 171
0 3924 341
0 3924 512
0 3924 683
0 3924 853
0 3924 1024
0 3924 1194
0 3924 1365
0 3924 1536
0 3924 1706
0 3924 1877
0 3924 2048
0 3924 2218
0 3924 2389
0 3924 2559
0 3924 2730
0 3924 2901
0 3924 3071
0 3924 3242
0 3924 3412
0 3924 3583
0 3924 3754
0 3924 3924
0 3924 4095
0 4095 0
0 4095 171
0 4095 341
0 4095 512
0 4095 683
0 4095 853
0 4095 1024
0 4095 1194
0 4095 1365
0 4095 1536
0 4095 1706
0 4095 1877
0 4095 2048
0 4095 2218
0 4095 2389
0 4095 2559
0 4095 2730
0 4095 2901
0 4095 3071
0 4095 3242
0 4095 3412
0 4095 3583
0 4095 3754
0 4095 3924
0 4095 4095
171 0 0
171 0 171
171 0 341
171 0 512
171 0 683
171 0 853
171 0 1024
171 0 1194
171 0 1365
171 0 1536
171 0 1706
171 0 1877
171 0 2048
171 0 2218
171 0 2389
171 0 2559
171 0 2730
171 0 2901
171 0 3071
171 0 3242
171 0 3412
171 0 3583
171 0 3754
171 0 3924
171 0 4095
171 171 0
171 171 171
171 171 341
171 171 512
171 171 683
171 171 853
171 171 1024
171 171 1194
171 171 1365
171 171 1536
171 171 1706
171 171 1877
171 171 2048
171 171 2218
171 171 2389
171 171 2559
171 171 2730
171 171 2901
171 171 3071
171 171 3242
171 171 3412
171 171 3583
171 171 3754
171 171 3924
171 171 4095
171 341 0
171 341 171
171 341 341
171 341 512
171 341 683
171 341 853
171 341 1024
171 341 1194
171 341 1365
171 341 1536
171 341 1706
171 341 1877
171 341 2048
171 341 2218
171 341 2389
171 341 2559
171 341 2730
171 341 2901
171 341 3071
171 341 3242
171 341 3412
171 341 3583
171 341 3754
171 341 3924
171 341 4095
171 512 0
171 512 171
171 512 341
171 512 512
171 512 683
171 512 853
171 512 1024
171 512 1194
171 512 1365
171 512 1536
171 512 1706
171 512 1877
171 512 2048
171 512 2218
171 512 2389
171 512 2559
171 512 2730
171 512 2901
171 512 3071
171 512 3242
171 512 3412
171 512 3583
171 512 3754
171 512 3924
171 512 4095
171 683 0
171 683 171
171 683 341
171 683 512
171 683 683
171 683 853
171 683 1024
171 683 1194
171 683 1365
171 683 1536
171 683 1706
171 683 1877
171 683 2048
171 683 2218
171 683 2389
171 683 2559
171 683 2730
171 683 2901
171 683 3071
171 683 3242
171 683 3412
171 683 3583
171 683 3754
171 683 3924
171 683 4095
171 853 0
171 853 171
171 853 341
171 853 512
171 853 683
171 853 853
171 853 1024
171 853 1194
171 853 1365
171 853 1536
171 853 1706
171 853 1877
171 853 2048
171 853 2218
171 853 2389
171 853 2559
171 853 2730
171 853 2901
171 853 3071
171 853 3242
171 853 3412
171 853 3583
171 853 3754
171 853 3924
171 853 4095
171 1024 0
171 1024 171
171 1024 341
171 1024 512
171 1024 683
171 1024 853
171 1024 1024
171 1024 1194
171 1024 1365
171 1024 1536
171 1024 1706
171 1024 1877
171 1024 2048
171 1024 2218
171 1024 2389
171 1024 2559
171 1024 2730
171 1024 2901
171 1024 3071
171 1024 3242
171 1024 3412
171 1024 3583
171 1024 3754
171 1024 3924
171 1024 4095
171 1194 0
171 1194 171
171 1194 341
171 1194 512
171 1194 683
171 1194 853
171 1194 1024
171 1194 1194
171 1194 1365
171 1194 1536
171 1194 1706
171 1194 1877
171 1194 2048
171 1194 2218
171 1194 2389
171 1194 2559
171 1194 2730
171 1194 2901
171 1194 3071
171 1194 3242
171 1194 3412
171 1194 3583
171 1194 3754
171 1194 3924
171 1194 4095
171 1365 0
171 1365 171
171 1365 341
171 1365 512
171 1365 683
171 1365 853
171 1365 1024
171 1365 1194
171 1365 1365
171 1365 1536
171 1365 1706
171 1365 1877
171 1365 2048
171 1365 2218
171 1365 2389
171 1365 2559
171 1365 2730
171 1365 2901
171 1365 3071
171 1365 3242
171 1365 3412
171 1365 3583
171 1365 3754
171 1365 3924
171 1365 4095
171 1536 0
171 1536 171
171 1536 341
171 1536 512
171 1536 683
171 1536 853
171 1536 1024
171 1536 1194
171 1536 1365
171 1536 1536
171 1536 1706
171 1536 1877
171 1536 2048
171 1536 2218
171 1536 2389
171 1536 2559
171 1536 2730
171 1536 2901
171 1536 3071
171 1536 3242
171 1536 3412
171 1536 3583
171 1536 3754
171 1536 3924
171 1536 4095
171 1706 0
171 1706 171
171 1706 341
171 1706 512
171 1706 683
171 1706 853
171 1706 1024
171 1706 1194
171 1706 1365
171 1706 1536
171 1706 1706
171 1706 1877
171 1706 2048
171 1706 2218
171 1706 2389
171 1706 2559
171 1706 2730
171 1706 2901
171 1706 3071
171 1706 3242
171 1706 3412
171 1706 3583
171 1706 3754
171 1706 3924
171 1706 4095
