Examples/AB - Teal & Orange.3dl
#25pt 3DLUT created by 3D LUT Creator Pro (c) Oleg Sharonov
#Copyright Oleg Sharonov
0 43 86 128 171 214 256 299 341 384 427 469 512 555 597 640 682 725 768 810 853 896 938 981 1023 
0 0 0
6 13 26
13 32 61
23 58 116
39 97 189
58 142 267
84 201 345
116 262 423
149 318 500
192 377 578
230 436 656
271 494 735
312 552 812
352 611 890
393 669 968
433 727 1046
474 787 1124
513 845 1201
554 903 1279
594 961 1358
634 1020 1435
675 1078 1513
715 1137 1591
756 1195 1669
796 1253 1747
19 158 84
0 171 174
16 177 262
42 198 322
65 225 365
90 262 416
116 302 472
149 347 533
186 394 596
222 443 664
260 494 732
297 547 803
336 601 874
374 654 946
412 709 1019
451 765 1093
490 819 1167
530 876 1242
569 932 1317
609 989 1393
648 1045 1468
687 1102 1544
726 1159 1620
766 1216 1697
806 1273 1773
45 320 198
0 334 264
0 339 343
23 347 440
61 360 506
103 381 562
142 411 606
180 443 654
217 482 708
255 523 765
291 568 824
326 613 885
363 661 951
399 711 1017
436 761 1085
474 812 1154
510 864 1223
548 917 1294
587 970 1366
625 1024 1439
663 1079 1511
702 1133 1585
741 1189 1658
780 1244 1733
819 1300 1807
84 485 326
0 500 381
0 505 427
0 512 514
26 517 619
81 526 689
139 542 752
195 566 802
243 595 846
282 627 893
322 664 946
358 703 999
394 744 1055
430 788 1114
465 832 1176
503 879 1239
538 927 1304
576 976 1370
612 1026 1437
650 1077 1506
687 1128 1574
725 1180 1644
762 1233 1715
800 1286 1787
838 1340 1858
139 650 452
45 661 496
0 669 541
0 676 591
0 682 686
29 688 798
100 696 870
177 709 936
243 727 999
297 751 1042
343 780 1087
384 812 1133
423 846 1183
461 884 1235
499 924 1290
535 965 1347
571 1008 1407
606 1052 1467
643 1098 1529
679 1145 1593
715 1193 1658
751 1242 1723
788 1292 1790
826 1342 1858
863 1393 1926
209 815 580
116 823 615
0 835 656
0 839 702
0 847 756
0 852 857
29 857 974
113 865 1050
206 876 1118
282 891 1182
345 910 1242
398 936 1284
445 965 1327
486 996 1374
527 1030 1423
565 1066 1474
602 1105 1527
639 1144 1582
675 1186 1639
711 1229 1698
747 1273 1758
783 1318 1819
819 1364 1882
855 1412 1946
892 1460 2011
276 979 708
201 986 737
78 996 772
0 1004 819
0 1010 865
0 1018 920
0 1023 1029
26 1027 1150
126 1035 1229
233 1044 1299
318 1058 1365
388 1074 1427
448 1095 1482
500 1121 1524
546 1150 1568
588 1181 1614
629 1214 1663
668 1250 1712
706 1286 1764
743 1325 1819
779 1365 1874
815 1407 1931
851 1449 1989
887 1493 2049
923 1538 2110
345 1144 836
284 1150 861
183 1158 891
0 1170 933
0 1175 979
0 1181 1027
0 1189 1086
0 1194 1201
23 1198 1325
132 1205 1407
255 1214 1479
349 1225 1547
427 1241 1611
492 1258 1673
550 1280 1724
601 1307 1766
647 1335 1809
691 1366 1855
732 1399 1903
771 1433 1952
809 1470 2003
846 1507 2056
883 1546 2110
919 1586 2166
956 1628 2223
414 1308 963
362 1313 984
282 1320 1011
116 1331 1049
0 1339 1097
0 1345 1141
0 1352 1191
0 1359 1253
0 1364 1372
13 1369 1497
142 1375 1585
273 1383 1659
376 1394 1728
460 1407 1793
532 1423 1856
594 1442 1918
651 1465 1964
701 1492 2006
748 1520 2050
792 1551 2095
833 1583 2142
873 1617 2191
912 1652 2241
950 1689 2293
986 1727 2347
482 1472 1090
439 1477 1109
372 1483 1133
248 1493 1167
0 1505 1209
0 1509 1256
0 1515 1302
0 1523 1355
0 1530 1425
0 1535 1543
0 1540 1669
145 1545 1762
287 1553 1838
398 1562 1909
490 1575 1975
568 1589 2039
636 1607 2101
697 1626 2163
752 1650 2205
802 1677 2247
849 1705 2291
894 1735 2336
935 1768 2383
975 1801 2431
1015 1836 2481
551 1638 1218
513 1641 1235
457 1647 1256
356 1655 1286
161 1666 1325
0 1674 1375
0 1680 1417
0 1686 1465
0 1694 1519
0 1701 1596
0 1705 1715
0 1710 1840
149 1715 1940
299 1722 2017
419 1732 2089
517 1743 2156
601 1756 2221
674 1772 2285
740 1790 2347
799 1810 2405
853 1835 2446
904 1862 2488
950 1890 2532
995 1921 2577
1037 1952 2623
619 1802 1346
586 1805 1360
536 1810 1379
452 1817 1407
308 1827 1442
10 1840 1486
0 1844 1534
0 1850 1578
0 1857 1628
0 1865 1684
0 1871 1767
0 1876 1885
0 1881 2012
149 1885 2117
310 1892 2195
436 1901 2268
541 1911 2337
631 1924 2403
710 1939 2467
780 1955 2530
843 1973 2592
902 1995 2645
955 2020 2686
1004 2047 2729
1052 2076 2773
688 1966 1473
658 1970 1486
614 1974 1503
542 1980 1529
425 1989 1562
212 2001 1602
0 2009 1651
0 2014 1694
0 2021 1740
0 2027 1791
0 2035 1849
0 2042 1937
0 2046 2057
0 2051 2183
145 2055 2293
318 2062 2373
452 2071 2447
563 2080 2517
658 2092 2585
743 2106 2650
817 2121 2713
884 2138 2776
946 2157 2837
1003 2180 2886
1057 2206 2927
757 2131 1601
729 2134 1612
691 2138 1628
627 2144 1651
528 2152 1682
367 2163 1719
26 2175 1762
0 2179 1812
0 2185 1855
0 2191 1902
0 2198 1955
0 2206 2014
0 2212 2108
0 2217 2228
0 2222 2354
142 2225 2470
324 2232 2551
465 2240 2626
583 2250 2697
684 2260 2766
772 2273 2832
851 2288 2896
923 2304 2959
988 2322 3021
1049 2341 3082
825 2296 1728
800 2298 1739
765 2302 1753
709 2307 1774
623 2314 1802
492 2324 1837
260 2336 1878
0 2344 1927
0 2349 1972
0 2355 2016
0 2362 2065
0 2369 2119
0 2377 2179
0 2383 2280
0 2388 2400
0 2392 2526
136 2396 2646
330 2402 2728
477 2410 2805
601 2419 2877
707 2429 2946
800 2441 3013
883 2455 3078
959 2470 3142
1028 2487 3204
894 2460 1856
871 2463 1866
839 2466 1879
788 2471 1898
713 2477 1925
601 2486 1957
425 2497 1995
48 2510 2039
0 2514 2090
0 2519 2132
0 2526 2178
0 2533 2228
0 2540 2283
0 2548 2344
0 2553 2451
0 2558 2571
0 2563 2697
119 2566 2820
332 2573 2905
488 2580 2983
616 2588 3056
727 2598 3127
826 2610 3194
914 2623 3260
993 2637 3324
963 2625 1983
942 2627 1992
913 2630 2005
867 2634 2023
798 2641 2047
700 2649 2077
554 2659 2113
308 2671 2155
0 2680 2204
0 2684 2250
0 2690 2293
0 2696 2340
0 2703 2391
0 2711 2448
0 2720 2509
0 2724 2622
0 2729 2742
0 2734 2868
97 2738 2992
334 2743 3082
496 2750 3161
630 2758 3235
747 2768 3307
849 2778 3375
942 2791 3442
1031 2789 2111
1011 2791 2119
985 2794 2130
943 2798 2147
881 2804 2170
793 2811 2198
669 2821 2232
479 2832 2271
78 2845 2315
0 2849 2368
0 2854 2410
0 2860 2454
0 2867 2502
0 2874 2555
0 2882 2612
0 2890 2678
0 2895 2793
0 2899 2914
0 2904 3040
71 2908 3164
334 2913 3259
503 2920 3338
644 2928 3414
765 2937 3486
871 2947 3555
1099 2954 2238
1081 2956 2246
1057 2958 2257
1018 2962 2272
962 2967 2294
883 2974 2320
773 2983 2352
616 2993 2389
356 3006 2431
0 3015 2480
0 3019 2527
0 3025 2570
0 3031 2615
0 3037 2665
0 3045 2719
0 3053 2777
0 3061 2849
0 3065 2964
0 3070 3085
0 3075 3211
39 3079 3336
332 3083 3436
509 3090 3516
655 3098 3592
781 3106 3665
1168 3118 2366
1151 3120 2373
1129 3123 2383
1093 3126 2398
1041 3131 2418
969 3138 2443
871 3146 2473
735 3155 2508
533 3167 2548
113 3180 2592
0 3184 2645
0 3189 2687
0 3195 2731
0 3201 2778
0 3208 2828
0 3216 2883
0 3224 2942
0 3231 3020
0 3236 3136
0 3240 3256
0 3245 3382
0 3250 3509
330 3254 3613
513 3260 3693
664 3268 3770
1237 3283 2493
1221 3284 2500
1200 3286 2509
1166 3290 2523
1118 3294 2542
1053 3301 2565
964 3308 2594
844 3317 2627
676 3328 2666
403 3340 2708
0 3350 2756
0 3354 2805
0 3359 2847
0 3365 2892
0 3372 2940
0 3379 2991
0 3387 3047
0 3395 3106
0 3402 3190
0 3406 3307
0 3411 3428
0 3416 3554
0 3421 3680
326 3424 3789
517 3430 3871
1305 3447 2621
1291 3449 2627
1271 3451 2636
1240 3454 2649
1195 3458 2667
1134 3464 2689
1053 3471 2716
946 3480 2748
800 3490 2784
586 3502 2824
152 3515 2869
0 3520 2922
0 3524 2965
0 3530 3008
0 3536 3053
0 3543 3102
0 3550 3155
0 3558 3211
0 3566 3272
0 3572 3362
0 3577 3478
0 3582 3599
0 3586 3725
0 3591 3851
320 3594 3965
1374 3612 2748
1360 3613 2754
1341 3615 2762
1312 3618 2775
1271 3622 2791
1214 3628 2813
1140 3635 2838
1042 3643 2869
913 3652 2903
734 3663 2942
449 3675 2984
0 3686 3032
0 3689 3084
0 3694 3125
0 3700 3169
0 3707 3215
0 3713 3265
0 3721 3319
0 3729 3376
0 3737 3437
0 3743 3532
0 3747 3649
0 3752 3770
0 3757 3896
0 3762 4023
1442 3776 2876
1429 3778 2881
1412 3779 2889
1384 3782 2901
1346 3786 2917
1293 3791 2936
1224 3798 2961
1134 3805 2990
1018 3814 3023
862 3825 3060
639 3836 3101
201 3849 3145
0 3855 3198
0 3859 3243
0 3864 3285
0 3870 3330
0 3877 3378
0 3884 3428
0 3891 3482
0 3899 3540
0 3908 3602
0 3913 3703
0 3918 3820
0 3923 3942
0 3927 4068
1825 3906 3057
1806 3908 3060
1780 3912 3063
1737 3917 3069
1675 3925 3078
1588 3935 3088
1466 3947 3102
1293 3963 3118
1118 3977 3143
979 3987 3179
791 3998 3218
496 4010 3261
0 4021 3309
0 4024 3362
0 4029 3402
0 4035 3445
0 4041 3491
0 4048 3540
0 4055 3592
0 4062 3646
0 4070 3705
0 4079 3768
0 4084 3875
0 4089 3992
853 4076 4095
132 10 0
84 36 78
61 58 145
65 87 192
74 126 252
94 177 320
116 228 386
145 284 460
180 339 532
217 394 605
255 452 681
291 508 755
330 565 831
369 623 908
408 679 983
446 738 1061
486 795 1137
525 852 1214
564 910 1291
604 969 1368
644 1026 1445
684 1084 1523
724 1142 1600
763 1200 1677
803 1258 1754
198 158 36
171 171 171
145 189 252
139 214 314
142 245 370
158 280 427
177 320 485
203 365 547
233 411 611
262 458 675
293 508 744
328 559 813
363 611 883
398 664 955
434 718 1028
471 772 1101
509 828 1175
547 883 1249
585 939 1324
623 995 1399
661 1051 1474
700 1107 1550
739 1164 1625
778 1221 1701
813 1278 1780
174 334 136
189 330 264
168 343 343
165 352 442
177 369 510
195 393 559
217 423 609
240 457 659
267 494 714
295 535 772
326 578 832
358 624 895
391 671 959
425 719 1025
460 769 1092
494 819 1161
530 871 1230
566 924 1301
603 977 1372
641 1030 1444
678 1085 1517
716 1139 1590
754 1195 1664
792 1249 1737
827 1305 1815
198 496 255
222 493 372
145 506 431
161 512 514
174 520 618
203 532 694
238 550 757
269 575 800
299 604 848
330 637 897
360 673 950
391 711 1004
423 752 1062
457 796 1121
490 840 1183
525 886 1246
558 934 1310
593 982 1375
629 1033 1443
665 1083 1510
701 1134 1579
738 1186 1649
775 1238 1720
812 1291 1791
845 1345 1866
240 658 411
262 655 489
158 670 542
123 679 595
152 683 687
180 689 796
225 699 872
271 713 940
314 733 999
352 758 1043
388 787 1088
422 819 1136
457 854 1187
490 891 1240
523 931 1295
557 971 1352
591 1014 1411
626 1059 1472
660 1104 1534
695 1150 1597
730 1198 1661
765 1247 1727
802 1296 1794
838 1347 1862
870 1398 1933
291 821 551
310 819 610
220 831 654
110 844 704
103 851 759
139 855 860
183 858 972
240 867 1050
299 880 1120
352 894 1185
399 916 1240
442 942 1283
481 970 1328
518 1001 1375
554 1035 1424
590 1071 1476
624 1110 1530
658 1149 1585
693 1190 1642
727 1234 1701
762 1277 1761
797 1322 1823
832 1368 1885
868 1416 1949
899 1464 2017
345 984 685
363 982 732
284 992 769
126 1006 818
68 1016 866
81 1023 924
123 1026 1031
186 1028 1149
252 1036 1229
322 1047 1300
386 1061 1367
440 1077 1430
490 1100 1482
536 1126 1524
577 1155 1569
615 1186 1616
653 1219 1664
689 1253 1714
725 1291 1767
760 1329 1821
795 1369 1876
830 1411 1933
865 1453 1992
900 1497 2052
930 1542 2116
404 1148 817
420 1147 855
351 1155 888
222 1167 931
61 1180 979
23 1188 1029
61 1194 1089
103 1197 1203
186 1198 1325
262 1206 1406
341 1215 1480
414 1228 1548
478 1243 1612
533 1261 1675
585 1284 1722
630 1310 1765
673 1339 1810
713 1370 1856
751 1402 1903
789 1437 1954
826 1473 2005
862 1510 2058
897 1550 2112
933 1590 2168
962 1631 2229
464 1312 948
478 1311 980
419 1318 1008
310 1329 1047
97 1343 1095
0 1352 1140
0 1359 1193
39 1365 1255
81 1368 1375
177 1369 1497
269 1375 1585
358 1384 1659
439 1395 1729
510 1409 1795
573 1426 1858
629 1444 1920
680 1468 1963
727 1495 2006
771 1524 2050
812 1554 2096
852 1586 2143
890 1620 2193
927 1655 2243
963 1692 2295
994 1731 2352
527 1476 1077
540 1475 1106
486 1481 1130
393 1491 1165
228 1503 1209
0 1515 1255
0 1521 1303
0 1529 1357
0 1536 1427
52 1539 1547
165 1540 1669
273 1546 1762
372 1554 1838
461 1564 1909
540 1576 1976
609 1591 2041
670 1608 2103
726 1628 2163
777 1653 2205
825 1679 2247
869 1708 2291
912 1738 2337
951 1770 2384
990 1804 2432
1021 1839 2486
590 1641 1207
602 1639 1232
554 1645 1253
474 1653 1285
337 1664 1324
68 1678 1372
0 1685 1417
0 1692 1466
0 1699 1521
0 1706 1598
23 1710 1719
149 1711 1841
278 1716 1939
384 1723 2016
481 1733 2089
565 1744 2157
641 1758 2222
708 1774 2286
769 1792 2349
824 1813 2404
876 1838 2446
924 1865 2488
968 1893 2532
1011 1923 2578
1043 1955 2628
