Examples/AB - All Yellow-Red (Double grid).3dl
#25pt 3DLUT created by 3D LUT Creator Pro (c) Oleg Sharonov
#Copyright Oleg Sharonov
#IMAGEPROFILE 
#INPUTGAMMA 
#OUTPUTGAMMA 
0 128 256 384 512 640 768 896 1023
0 0 0
503 0 71
1001 0 222
1481 78 322
1940 580 278
2386 1037 0
2829 1468 0
3275 1867 0
3727 2235 0
554 0 23
641 126 257
1055 145 369
1523 297 409
1975 668 339
2417 1087 0
2857 1500 0
3302 1890 0
3752 2252 0
1088 0 48
1081 61 336
1225 467 558
1594 644 624
2020 899 577
2458 1231 318
2896 1596 0
3338 1958 0
3787 2302 0
1600 0 0
1583 68 269
1583 658 639
1781 927 795
2136 1157 786
2511 1452 735
2948 1755 352
3388 2076 0
3834 2392 0
2087 165 0
2068 500 0
2071 841 430
2091 1190 873
2324 1431 974
2674 1673 904
3030 1955 857
3448 2236 550
3891 2519 0
2560 838 0
2547 955 0
2540 1166 0
2551 1429 599
2630 1691 1019
2866 1925 1129
3217 2159 1027
3576 2416 961
3959 2680 860
3028 1335 0
3019 1398 0
3005 1537 0
3020 1723 0
3035 1953 837
3171 2172 1173
3415 2392 1296
3770 2612 1185
4095 2849 1120
3500 1768 0
3494 1808 0
3478 1903 0
3490 2041 0
3511 2218 0
3522 2429 1164
3719 2623 1357
3972 2831 1490
4095 3039 1383
3979 2152 0
3974 2180 0
3962 2249 0
3963 2356 0
3987 2496 0
4013 2669 443
4045 2867 1442
4095 3051 1570
4095 3252 1708
554 0 23
641 126 257
1054 145 369
1523 299 409
1975 669 339
2417 1087 0
2857 1500 0
3301 1890 0
3752 2252 0
597 203 291
512 512 512
1003 497 568
1480 584 611
1939 835 586
2387 1184 416
2831 1562 0
3279 1932 0
3731 2282 0
1102 0 306
1064 412 516
1169 684 720
1554 810 776
2004 1003 721
2445 1302 548
2885 1645 0
3329 1993 0
3779 2328 0
1608 0 186
1582 399 448
1574 788 751
1751 1036 919
2111 1240 918
2503 1505 855
2940 1795 575
3381 2105 0
3828 2415 0
2093 440 0
2075 648 48
2061 948 593
2062 1272 999
2304 1489 1083
2658 1718 1027
3016 1990 994
3444 2262 718
3888 2540 0
2565 934 0
2552 1036 0
2532 1239 0
2547 1481 729
2614 1735 1127
2853 1960 1228
3206 2188 1139
3566 2440 1086
3957 2699 975
3033 1389 0
3025 1448 0
3003 1585 0
3016 1763 0
3034 1983 935
3160 2200 1269
3406 2415 1385
3762 2632 1285
4095 2866 1229
3505 1803 0
3499 1842 0
3484 1934 0
3487 2071 0
3510 2243 61
3524 2450 1231
3711 2643 1441
3965 2849 1567
4095 3055 1468
3984 2177 0
3979 2205 0
3967 2272 0
3961 2379 0
3985 2516 0
4012 2687 627
4036 2885 1530
4095 3066 1642
4095 3267 1775
1088 0 48
1081 61 336
1225 468 558
1593 645 625
2019 899 579
2458 1231 322
2896 1597 0
3338 1958 0
3786 2303 0
1102 0 306
1064 412 516
1169 684 720
1553 810 777
2003 1003 722
2445 1302 550
2885 1645 0
3329 1993 0
3778 2328 0
1153 565 627
1116 734 759
1024 1024 1024
1489 1079 1041
1946 1227 1025
2395 1467 946
2841 1764 771
3290 2080 399
3743 2395 0
1619 609 585
1602 758 716
1552 1035 984
1673 1256 1179
2047 1417 1192
2481 1627 1105
2921 1889 931
3365 2178 618
3813 2473 0
2105 798 293
2091 917 510
2053 1151 858
2055 1413 1182
2257 1622 1317
2618 1825 1284
2992 2070 1246
3432 2324 1027
3878 2592 674
2577 1134 0
2566 1213 0
2539 1384 514
2534 1602 990
2574 1840 1361
2821 2045 1445
3179 2257 1382
3541 2498 1350
3949 2745 1215
3046 1513 0
3038 1565 0
3018 1685 0
3006 1858 582
3030 2058 1149
3134 2268 1483
3382 2473 1585
3741 2683 1505
4095 2911 1464
3518 1887 0
3512 1923 0
3498 2008 0
3479 2143 0
3505 2305 688
3527 2501 1390
3692 2693 1632
3946 2893 1746
4095 3095 1662
3995 2238 0
3991 2265 0
3980 2328 0
3961 2434 0
3981 2567 0
4010 2732 944
4013 2929 1725
4095 3105 1809
4095 3303 1931
1600 0 0
1583 68 269
1583 658 639
1781 927 795
2135 1157 787
2510 1452 738
2946 1756 362
3386 2076 0
3833 2393 0
1607 0 186
1582 399 448
1574 788 751
1751 1036 920
2111 1240 919
2502 1505 858
2939 1796 580
3380 2106 0
3828 2416 0
1618 609 586
1601 759 717
1552 1035 984
1673 1256 1179
2046 1417 1193
2480 1627 1106
2920 1889 933
3364 2179 624
3812 2473 0
1686 1010 919
1666 1099 1015
1617 1286 1228
1536 1536 1536
1977 1644 1521
2421 1818 1474
2865 2044 1385
3313 2302 1247
3765 2575 1043
2116 1172 827
2107 1242 925
2085 1397 1141
2039 1620 1458
2173 1816 1652
2544 1989 1642
2969 2194 1556
3411 2429 1412
3857 2680 1213
2595 1402 389
2587 1458 583
2567 1586 909
2530 1778 1304
2543 1990 1644
2764 2179 1761
3129 2372 1721
3494 2596 1712
3936 2824 1546
3066 1702 0
3060 1744 0
3044 1842 310
3014 1997 1020
3021 2181 1455
3086 2382 1796
3340 2571 1880
3703 2769 1823
4069 2987 1799
3539 2023 0
3534 2054 0
3522 2129 0
3499 2253 334
3495 2409 1163
3527 2588 1641
3657 2777 1920
3913 2969 2018
4095 3164 1951
4015 2341 0
4012 2364 0
4003 2423 0
3986 2521 0
3973 2654 601
4005 2809 1323
4028 2995 1897
4095 3174 2068
4095 3365 2176
2087 165 0
2068 500 0
2071 841 430
2091 1190 873
2323 1431 974
2673 1673 907
3028 1955 863
3446 2237 562
3890 2520 0
2093 440 0
2075 648 48
2061 948 593
2062 1272 999
2304 1489 1083
2657 1718 1029
3014 1990 999
3442 2262 727
3886 2541 0
2104 799 293
2090 917 512
2053 1151 858
2055 1413 1182
2257 1622 1317
2617 1825 1285
2991 2069 1250
3431 2325 1031
3876 2592 681
2115 1173 828
2106 1242 926
2084 1397 1141
2039 1620 1458
2173 1816 1652
2544 1989 1642
2968 2195 1557
3410 2429 1414
3856 2680 1216
2208 1492 1174
2196 1543 1253
2167 1659 1434
2117 1834 1708
2048 2048 2048
2474 2185 2014
2911 2365 1957
3353 2576 1875
3800 2809 1767
2609 1701 1065
2605 1740 1145
2594 1833 1326
2575 1980 1599
2535 2171 1948
2678 2354 2141
3050 2527 2124
3470 2722 2051
3912 2936 1931
3091 1933 575
3087 1966 726
3076 2044 1014
3056 2171 1379
3021 2341 1790
3042 2528 2135
3277 2706 2241
3646 2890 2204
4013 3097 2196
3567 2201 0
3563 2227 0
3554 2292 257
3536 2399 1012
3506 2544 1556
3520 2713 1962
3602 2897 2274
3863 3077 2357
4095 3264 2306
4044 2480 0
4041 2501 0
4034 2554 0
4019 2643 0
3994 2769 1186
3997 2920 1731
4032 3093 2159
4095 3272 2396
4095 3457 2489
2559 839 0
2547 955 0
2540 1166 0
2551 1429 599
2630 1691 1019
2866 1925 1130
3216 2159 1030
3574 2417 967
3957 2681 868
2565 935 0
2552 1037 0
2532 1239 0
2547 1481 729
2614 1735 1127
2853 1960 1229
3206 2188 1142
3564 2440 1093
3955 2699 982
2577 1134 0
2566 1213 0
2539 1384 514
2534 1602 990
2574 1840 1361
2821 2045 1445
3178 2257 1384
3539 2498 1355
3947 2745 1222
2594 1403 394
2586 1458 585
2567 1586 910
2530 1779 1304
2543 1990 1644
2764 2179 1761
3128 2372 1722
3493 2595 1716
3934 2824 1550
2608 1700 1068
2604 1740 1148
2594 1833 1327
2574 1981 1600
2535 2171 1948
2678 2354 2142
3050 2527 2124
3469 2723 2052
3911 2937 1933
2729 1971 1418
2721 2003 1485
2703 2078 1643
2670 2201 1889
2622 2365 2202
2559 2559 2559
2979 2709 2518
3412 2886 2460
3851 3084 2389
3128 2184 1285
3121 2211 1365
3103 2276 1547
3092 2379 1785
3075 2522 2089
3040 2699 2451
3189 2874 2644
3562 3044 2625
3978 3231 2563
3597 2411 861
3595 2433 969
3588 2487 1199
3577 2578 1518
3558 2706 1891
3524 2868 2301
3549 3046 2642
3794 3218 2740
4095 3394 2705
4078 2652 0
4076 2671 0
4070 2718 530
4059 2798 1113
4040 2912 1614
4009 3058 2101
4028 3223 2483
4095 3402 2772
4095 3577 2851
3028 1335 0
3019 1398 0
3005 1537 0
3020 1723 0
3035 1953 837
3171 2172 1173
3415 2392 1297
3769 2612 1188
4095 2850 1124
3033 1389 0
3025 1449 0
3003 1585 0
3016 1763 0
3034 1983 935
3160 2200 1269
3406 2415 1386
3761 2633 1288
4095 2867 1233
3046 1514 0
3038 1565 0
3018 1685 0
3006 1858 582
3030 2058 1149
3134 2268 1483
3382 2473 1585
3740 2683 1508
4095 2912 1468
3065 1702 0
3059 1744 0
3043 1843 314
3014 1997 1021
3021 2181 1455
3086 2382 1796
3340 2571 1880
3702 2768 1825
4067 2988 1803
3090 1933 582
3086 1966 732
3075 2044 1017
3056 2171 1381
3021 2341 1790
3042 2528 2135
3277 2706 2241
3645 2890 2205
4011 3097 2199
3127 2184 1289
3120 2210 1369
3102 2276 1549
3092 2381 1786
3075 2522 2089
3040 2699 2451
3189 2874 2644
3562 3044 2625
3977 3231 2565
3256 2429 1673
3251 2451 1730
3237 2505 1867
3214 2596 2086
3180 2723 2371
3132 2883 2705
3071 3071 3071
3489 3223 3028
3918 3396 2973
3662 2635 1521
3656 2655 1588
3643 2703 1746
3619 2785 1992
3599 2898 2279
3584 3041 2596
3550 3214 2962
3702 3387 3152
4076 3554 3134
4095 2853 1202
4095 2869 1280
4095 2910 1456
4095 2981 1720
4087 3084 2047
4067 3216 2417
4032 3378 2822
4058 3556 3156
4095 3725 3246
3500 1768 0
3494 1808 0
3478 1904 0
3490 2041 0
3511 2218 0
3522 2429 1164
3719 2623 1357
3972 2831 1490
4095 3040 1384
3505 1803 0
3499 1842 0
3484 1934 0
3487 2071 0
3510 2243 61
3524 2450 1231
3711 2643 1441
3964 2849 1568
4095 3056 1469
3517 1887 0
3512 1923 0
3498 2008 0
3479 2143 0
3505 2305 688
3527 2501 1390
3692 2693 1632
3946 2893 1746
4095 3096 1662
3538 2023 0
3534 2054 0
3521 2130 0
3498 2253 337
3495 2409 1163
3527 2588 1641
3657 2777 1920
3913 2969 2018
4095 3165 1952
3566 2202 0
3562 2228 0
3553 2292 267
3535 2399 1015
3506 2544 1557
3520 2713 1962
3602 2897 2274
3863 3077 2358
4095 3264 2308
3596 2411 868
3593 2433 976
3587 2487 1204
3576 2578 1521
3557 2705 1893
3524 2868 2301
3549 3046 2642
3794 3218 2740
4095 3395 2706
3660 2636 1525
3655 2655 1592
3642 2702 1750
3618 2784 1995
3598 2898 2280
3583 3041 2596
3550 3214 2962
3702 3387 3152
4075 3553 3135
3789 2866 1945
3785 2883 1994
3775 2924 2112
3757 2996 2305
3730 3100 2562
3693 3233 2869
3644 3395 3213
3583 3583 3583
3999 3734 3539
4095 3064 1782
4095 3079 1838
4095 3117 1973
4095 3184 2189
4095 3280 2472
4095 3403 2787
4095 3551 3110
4061 3726 3475
4095 3898 3663
3979 2152 0
3974 2181 0
3962 2249 0
3963 2356 0
3987 2496 0
4013 2669 443
4045 2867 1442
4095 3051 1570
4095 3252 1709
3983 2177 0
3979 2205 0
3967 2272 0
3961 2379 0
3985 2516 0
4012 2687 627
4036 2885 1530
4095 3066 1642
4095 3267 1775
3995 2239 0
3991 2265 0
3980 2328 0
3961 2434 0
3981 2567 0
4010 2732 944
4013 2929 1725
4095 3105 1809
4095 3303 1932
4015 2341 0
4011 2365 0
4002 2423 0
3985 2521 0
3973 2654 601
4005 2809 1323
4028 2995 1897
4095 3174 2068
4095 3365 2176
4043 2481 0
4041 2502 0
4033 2554 0
4018 2644 0
3994 2769 1187
3997 2920 1731
4032 3093 2159
4095 3272 2396
4095 3457 2489
4077 2653 0
4075 2672 0
4069 2719 533
4058 2798 1115
4039 2912 1616
4009 3058 2102
4028 3223 2483
4095 3402 2772
4095 3577 2851
4095 2854 1207
4095 2870 1284
4095 2911 1460
4095 2982 1724
4086 3084 2049
4066 3217 2418
4032 3378 2822
4058 3556 3156
4095 3725 3246
4095 3065 1785
4095 3080 1841
4095 3118 1976
4095 3184 2192
4095 3280 2475
4095 3403 2789
4095 3551 3111
4061 3726 3475
4095 3898 3663
4095 3290 2226
4095 3304 2268
4095 3338 2370
4095 3397 2540
4095 3484 2772
4095 3599 3053
4095 3740 3374
4095 3906 3724
4095 4095 4095
