Examples/AB - No purple.3dl
#25pt 3DLUT created by 3D LUT Creator Pro (c) Oleg Sharonov
#Copyright Oleg Sharonov
0 128 256 384 512 640 768 896 1023
0 0 0
29 58 113
100 198 337
220 374 568
349 547 798
478 722 1029
607 896 1259
737 1070 1490
866 1244 1721
0 512 0
10 513 493
212 543 679
337 627 838
448 741 1011
560 874 1200
676 1020 1400
794 1173 1608
916 1331 1821
0 1023 0
0 1023 512
32 1025 992
363 1044 1210
565 1098 1353
686 1180 1513
798 1284 1680
907 1402 1856
1018 1532 2042
0 1535 0
0 1535 512
0 1536 1024
74 1538 1492
482 1551 1739
744 1591 1883
913 1653 2029
1033 1736 2188
1146 1833 2352
0 2048 0
0 2048 512
0 2047 1023
0 2047 1536
136 2050 1990
584 2060 2265
894 2092 2413
1108 2141 2554
1260 2209 2705
3 2559 0
0 2559 512
0 2559 1023
0 2559 1536
0 2559 2048
217 2562 2490
674 2570 2790
1024 2597 2943
1273 2639 3085
3 3071 0
0 3071 510
0 3071 1023
0 3071 1536
0 3071 2048
0 3071 2560
297 3074 2989
758 3081 3314
1142 3105 3471
3 3583 0
0 3583 510
0 3583 1023
0 3583 1535
0 3583 2048
0 3583 2560
0 3583 3072
379 3587 3488
836 3591 3838
6 4095 0
3 4095 512
0 4095 1023
0 4095 1535
0 4095 2048
0 4095 2560
0 4095 3072
0 4095 3584
1127 4075 3968
446 42 29
358 132 343
289 278 588
334 437 724
428 596 907
537 759 1110
654 926 1324
775 1095 1543
898 1265 1765
512 512 0
512 512 512
467 572 731
492 661 895
556 774 1064
641 903 1246
740 1045 1439
847 1195 1641
946 1351 1863
512 1023 0
512 1023 512
522 1024 1001
588 1056 1222
686 1115 1380
771 1199 1541
863 1301 1707
960 1419 1882
1046 1548 2079
512 1535 0
512 1535 512
512 1536 1023
538 1537 1497
684 1558 1744
859 1600 1893
986 1665 2046
1090 1747 2206
1171 1846 2383
513 2048 0
512 2048 512
512 2047 1024
512 2047 1535
562 2049 1994
766 2064 2267
997 2098 2419
1180 2148 2563
1281 2219 2730
513 2559 0
513 2559 512
513 2559 1023
513 2559 1536
512 2559 2048
592 2562 2492
842 2573 2791
1120 2601 2946
1296 2647 3103
513 3071 0
514 3071 512
513 3071 1023
513 3071 1536
513 3071 2048
512 3071 2560
629 3074 2991
914 3082 3314
1160 3112 3485
513 3583 0
514 3583 512
512 3583 1023
513 3583 1535
513 3583 2048
512 3583 2560
512 3583 3072
673 3587 3490
847 3598 3848
514 4095 0
513 4095 512
512 4095 1023
512 4095 1535
512 4095 2048
512 4095 2559
512 4095 3072
512 4095 3584
1243 4075 3970
913 149 103
878 206 492
761 379 735
658 538 964
648 675 1203
694 836 1322
775 994 1489
873 1154 1677
979 1316 1877
1023 512 0
981 536 522
888 612 868
779 718 1137
751 836 1301
786 967 1428
854 1103 1586
940 1247 1765
1025 1397 1970
1023 1023 0
1023 1023 512
1024 1024 1024
963 1079 1266
949 1151 1448
973 1239 1611
1023 1342 1775
1091 1458 1945
1121 1586 2175
1024 1536 0
1023 1536 512
1025 1536 1024
1033 1536 1511
1034 1572 1754
1098 1622 1923
1158 1690 2089
1228 1775 2250
1238 1878 2465
1024 2047 0
1023 2048 512
1023 2047 1023
1024 2048 1536
1044 2049 2004
1099 2073 2272
1223 2112 2433
1342 2165 2586
1339 2245 2796
1025 2559 0
1025 2559 512
1023 2559 1024
1023 2559 1535
1023 2559 2047
1061 2562 2500
1160 2579 2793
1332 2611 2954
1357 2668 3150
1025 3071 0
1025 3071 512
1023 3071 1025
1023 3071 1536
1023 3071 2047
1024 3071 2559
1081 3074 2996
1218 3086 3315
1207 3132 3522
1025 3583 0
1025 3583 512
1024 3583 1024
1024 3583 1536
1023 3583 2048
1024 3583 2559
1024 3583 3071
1106 3587 3494
876 3617 3876
1025 4095 0
1024 4095 510
1023 4095 1023
1023 4095 1535
1023 4095 2047
1023 4095 2559
1023 4095 3071
1023 4095 3584
1492 4076 3975
1380 302 230
1376 316 552
1294 448 885
1166 627 1130
1039 800 1341
1006 928 1614
1010 1075 1803
1056 1236 1923
1129 1393 2080
1472 566 132
1436 596 562
1385 648 964
1258 782 1225
1127 924 1457
1082 1036 1731
1077 1176 1871
1117 1322 1993
1173 1468 2165
1536 1023 0
1535 1024 512
1498 1041 1028
1405 1103 1382
1288 1192 1674
1232 1286 1899
1222 1401 2006
1253 1519 2140
1263 1644 2354
1536 1536 0
1536 1536 512
1535 1536 1024
1536 1536 1536
1467 1589 1792
1434 1653 1990
1432 1730 2163
1456 1818 2327
1371 1923 2621
1536 2048 0
1536 2048 512
1536 2047 1024
1536 2047 1536
1544 2048 2021
1512 2087 2279
1548 2133 2460
1585 2194 2635
1454 2284 2924
1536 2559 0
1536 2559 512
1535 2560 1023
1536 2559 1536
1536 2559 2048
1554 2561 2513
1560 2588 2797
1641 2627 2970
1478 2701 3238
1536 3071 0
1536 3071 512
1535 3071 1024
1536 3071 1536
1536 3071 2048
1535 3071 2559
1567 3074 3007
1608 3093 3317
1301 3164 3589
1536 3583 0
1536 3583 512
1535 3583 1024
1535 3583 1536
1535 3583 2047
1535 3583 2559
1535 3583 3071
1584 3586 3503
933 3649 3925
1536 4095 0
1536 4095 509
1536 4095 1022
1536 4095 1535
1535 4095 2047
1535 4095 2559
1535 4095 3071
1535 4095 3583
1841 4077 3983
1848 454 362
1868 433 602
1796 537 1030
1701 696 1282
1571 876 1524
1424 1060 1719
1377 1189 1990
1360 1318 2263
1372 1474 2405
1918 657 304
1892 684 626
1865 715 1040
1773 832 1343
1640 986 1596
1492 1151 1803
1436 1271 2076
1411 1392 2347
1413 1543 2480
2041 1028 23
2014 1045 550
1958 1079 1049
1899 1127 1461
1772 1237 1734
1630 1363 1979
1564 1461 2261
1530 1574 2476
1498 1706 2649
2048 1536 0
2048 1536 512
2047 1536 1024
2012 1550 1538
1921 1606 1895
1802 1685 2204
1735 1761 2479
1698 1867 2590
1602 1970 2890
2048 2048 0
2048 2048 512
2048 2048 1024
2048 2048 1536
2048 2048 2048
1975 2099 2311
1930 2160 2524
1912 2229 2709
1668 2323 3151
2047 2559 0
2047 2559 512
2048 2559 1024
2048 2559 1536
2048 2559 2048
2056 2560 2532
2003 2601 2801
2018 2646 2992
1656 2743 3407
2048 3071 0
2048 3071 510
2047 3071 1025
2047 3071 1536
2049 3071 2048
2048 3071 2560
2065 3073 3023
2042 3103 3318
1470 3207 3698
2048 3583 0
2048 3583 510
2047 3583 1024
2046 3583 1535
2048 3583 2048
2048 3583 2559
2048 3583 3072
2078 3585 3515
1060 3694 4001
2049 4095 0
2048 4095 505
2048 4095 1023
2048 4095 1535
2048 4095 2048
2048 4095 2560
2047 4095 3071
2047 4095 3583
2248 4079 3996
2314 607 494
2355 557 660
2295 647 1074
2218 771 1429
2104 945 1680
1975 1123 1918
1813 1318 2098
1754 1450 2366
1725 1578 2639
2369 768 454
2350 790 709
2349 798 1074
2270 896 1474
2161 1045 1729
2029 1208 1974
1867 1390 2163
1802 1515 2432
1768 1632 2732
2479 1087 295
2458 1103 642
2413 1138 1087
2375 1171 1544
2277 1274 1831
2143 1408 2091
1983 1560 2305
1910 1670 2582
1861 1762 2959
2560 1535 0
2560 1535 512
2544 1544 1033
2478 1579 1552
2415 1623 1965
2290 1719 2247
2145 1832 2506
2066 1920 2800
1974 1974 3345
2559 2048 0
2559 2048 513
2559 2048 1023
2560 2047 1536
2526 2060 2049
2435 2113 2410
2317 2185 2729
2244 2251 3041
2046 2322 3564
2559 2559 0
2559 2560 512
2560 2559 1023
2559 2559 1536
2560 2559 2048
2559 2559 2559
2484 2610 2828
2386 2672 3123
2006 2758 3714
2559 3071 0
2559 3071 510
2560 3071 1024
2559 3071 1535
2560 3071 2048
2560 3071 2560
2567 3072 3043
2399 3132 3369
1929 3230 3819
2560 3583 0
2559 3583 510
2559 3583 1024
2559 3583 1536
2561 3583 2048
2561 3583 2560
2560 3583 3072
2593 3582 3531
1977 3689 3991
2560 4095 0
2560 4095 510
2560 4095 1022
2560 4095 1534
2560 4095 2047
2559 4095 2559
2559 4095 3071
2559 4095 3583
2689 4082 4013
2781 760 626
2839 684 726
2790 761 1120
2715 869 1551
2633 1013 1822
2506 1195 2080
2379 1371 2312
2204 1576 2479
2135 1711 2742
2825 891 595
2810 910 804
2834 891 1115
2758 983 1559
2676 1106 1859
2552 1272 2120
2423 1439 2357
2247 1633 2530
2181 1757 2816
2921 1167 490
2905 1181 746
2867 1215 1143
2853 1234 1565
2771 1322 1942
2653 1456 2208
2520 1601 2457
2347 1773 2647
2289 1870 2999
3049 1550 132
3032 1560 592
2992 1586 1087
2935 1623 1577
2890 1654 2055
2790 1748 2333
2658 1865 2601
2493 2005 2824
2449 2056 3310
3071 2047 0
3072 2047 512
3070 2048 1023
3067 2049 1537
2995 2084 2059
2930 2125 2473
2808 2213 2762
2663 2315 3031
2601 2340 3626
3071 2559 0
3071 2559 513
3071 2559 1023
3071 2559 1536
3072 2559 2048
3038 2572 2560
2950 2621 2924
2843 2676 3327
2738 2732 3737
3071 3071 0
3071 3071 512
3072 3071 1023
3071 3071 1536
3071 3071 2048
3071 3071 2560
3071 3071 3071
2962 3124 3404
2776 3189 3821
3071 3583 0
3071 3583 510
3072 3583 1024
3072 3583 1536
3071 3583 2048
3072 3583 2559
3071 3583 3072
3084 3583 3554
2723 3675 3970
3071 4095 3
3071 4095 513
3071 4095 1023
3071 4095 1535
3071 4095 2047
3071 4095 2559
3071 4095 3071
3071 4095 3583
3147 4085 4035
3248 913 758
3315 823 811
3281 880 1171
3215 979 1596
3137 1097 1974
3043 1259 2218
2908 1444 2480
2784 1619 2706
2596 1833 2860
3285 1022 734
3272 1039 909
3317 993 1162
3251 1080 1598
3172 1185 2005
3080 1332 2249
2946 1506 2514
2820 1674 2743
2644 1872 2920
3368 1261 657
3355 1275 859
3324 1307 1211
3333 1306 1595
3250 1387 2057
3163 1506 2321
3033 1657 2590
2903 1810 2829
2760 1968 3065
3487 1609 455
3473 1619 735
3440 1644 1156
3391 1681 1615
3367 1703 2067
3282 1784 2429
3161 1904 2705
3028 2035 2958
2945 2129 3309
3584 2047 0
3584 2047 512
3572 2054 1036
3520 2083 1570
3456 2119 2077
3406 2149 2562
3305 2236 2840
3175 2342 3113
3137 2382 3579
3583 2559 0
3583 2559 512
3583 2560 1024
3583 2560 1535
3584 2559 2049
3540 2579 2554
3478 2616 2991
3367 2691 3314
3230 2772 3680
3583 3071 0
3583 3071 513
3583 3071 1024
3583 3071 1535
3583 3071 2048
3583 3071 2561
3559 3080 3068
3469 3128 3441
3352 3189 3812
3583 3583 0
3583 3583 512
3583 3583 1024
3583 3583 1535
3583 3583 2048
3583 3583 2561
3583 3583 3072
3583 3583 3583
3456 3637 3948
3583 4095 13
3583 4095 517
3583 4095 1030
3583 4095 1538
3583 4095 2049
3583 4095 2560
3583 4095 3072
3583 4095 3583
3617 4090 4062
3714 1066 890
3770 993 935
3769 1002 1227
3710 1092 1642
3634 1201 2073
3557 1336 2365
3449 1507 2614
3309 1693 2881
3188 1867 3100
3746 1159 870
3800 1094 914
3868 1007 1141
3804 1103 1609
3720 1218 2075
3634 1355 2399
3519 1531 2655
3369 1722 2927
3239 1898 3150
3818 1368 810
3867 1321 854
4008 1162 973
3988 1189 1512
3936 1254 2054
3827 1400 2476
3693 1588 2753
3518 1790 3039
3363 1974 3271
3927 1683 667
3969 1653 713
4035 1600 957
4017 1617 1505
3982 1648 2038
3935 1689 2561
3864 1790 2862
3754 1916 3210
3572 2102 3474
4056 2072 295
4080 2060 437
4071 2067 976
4053 2080 1499
4025 2099 2029
3978 2129 2561
3914 2190 2950
3809 2288 3280
3680 2405 3592
4095 2559 13
4095 2559 517
4095 2559 1027
4095 2559 1537
4075 2572 2030
4037 2592 2547
3977 2622 3069
3883 2699 3375
3756 2794 3684
4095 3071 6
4095 3071 514
4095 3071 1025
4095 3071 1536
4095 3071 2048
4095 3071 2560
4053 3090 3064
3974 3133 3497
3850 3211 3800
4095 3583 3
4095 3583 513
4095 3583 1024
4095 3583 1536
4095 3583 2048
4095 3583 2560
4095 3583 3071
4072 3592 3580
3964 3647 3937
4095 4095 13
4095 4095 517
4095 4095 1024
4095 4095 1536
4095 4095 2048
4095 4095 2559
4095 4095 3071
4095 4095 3583
4095 4095 4095
