Examples/AB - No purple.3dl
#25pt 3DLUT created by 3D LUT Creator Pro (c) Oleg Sharonov
#Copyright Oleg Sharonov
0 43 86 128 171 214 256 299 341 384 427 469 512 555 597 640 682 725 768 810 853 896 938 981 1023 
0 0 0
6 13 26
16 29 58
29 58 113
45 94 183
68 142 260
100 198 337
136 257 416
177 314 490
220 374 568
262 431 644
306 489 722
349 547 798
393 605 875
436 663 952
478 722 1029
522 780 1106
564 838 1183
607 896 1259
651 954 1337
694 1012 1413
737 1070 1490
780 1128 1567
823 1186 1644
866 1244 1721
0 171 0
3 171 161
29 177 233
58 198 280
84 225 334
110 260 389
142 302 449
180 345 513
217 391 577
257 440 644
295 492 713
336 543 783
376 596 854
417 650 926
458 704 998
499 758 1071
541 814 1145
583 869 1219
625 925 1294
666 982 1368
709 1038 1443
751 1094 1518
793 1151 1593
835 1208 1669
878 1264 1744
0 339 0
0 341 171
6 341 326
48 345 408
100 360 455
145 383 506
186 411 559
222 443 613
260 481 671
295 522 732
334 565 793
370 610 855
409 657 922
446 706 989
486 756 1057
526 807 1126
565 859 1196
605 910 1266
646 963 1337
687 1017 1409
727 1071 1482
769 1126 1554
810 1180 1628
852 1236 1701
893 1291 1775
0 512 0
0 512 171
0 512 341
10 513 493
65 516 584
142 526 632
212 543 679
262 568 731
302 595 784
337 627 838
376 663 895
412 700 953
448 741 1011
485 783 1073
522 828 1136
560 874 1200
599 922 1267
636 971 1333
676 1020 1400
715 1071 1469
754 1122 1538
794 1173 1608
835 1225 1679
875 1278 1750
916 1331 1821
0 682 0
0 683 171
0 682 341
0 682 512
16 683 659
84 687 759
186 695 809
269 710 857
332 728 904
376 751 955
417 781 1010
454 811 1063
492 845 1118
528 882 1175
564 921 1234
601 961 1293
639 1004 1355
675 1048 1417
713 1093 1480
751 1140 1546
788 1187 1611
827 1236 1677
866 1285 1745
905 1335 1813
944 1386 1882
0 853 0
0 853 171
0 853 341
0 853 512
0 853 683
23 854 826
107 856 933
225 865 986
318 876 1033
389 892 1081
449 912 1128
492 937 1181
532 965 1234
570 995 1288
607 1029 1343
644 1064 1399
681 1102 1457
717 1141 1515
754 1182 1575
791 1224 1636
828 1268 1698
865 1312 1761
903 1358 1825
941 1405 1890
979 1452 1956
0 1023 0
0 1024 171
0 1023 341
0 1023 512
0 1023 683
0 1023 853
32 1025 992
129 1027 1108
262 1034 1162
363 1044 1210
445 1059 1258
510 1076 1304
565 1098 1353
607 1123 1406
648 1150 1459
686 1180 1513
724 1213 1568
760 1248 1623
798 1284 1680
834 1322 1738
870 1361 1796
907 1402 1856
944 1444 1917
981 1487 1979
1018 1532 2042
0 1195 0
0 1195 171
0 1195 341
0 1195 512
0 1195 683
0 1195 853
0 1195 1024
45 1196 1159
152 1197 1279
295 1203 1337
406 1213 1387
494 1226 1435
568 1242 1482
631 1261 1529
681 1283 1579
724 1308 1632
763 1336 1684
802 1366 1738
840 1398 1793
877 1431 1847
914 1467 1904
950 1504 1961
986 1542 2019
1023 1582 2078
1060 1623 2138
0 1365 0
0 1365 171
0 1365 341
0 1365 512
0 1365 683
0 1365 853
0 1365 1024
0 1365 1193
58 1367 1325
183 1368 1446
328 1373 1512
445 1382 1563
541 1394 1611
620 1408 1659
689 1425 1706
750 1445 1753
798 1468 1804
838 1493 1856
879 1521 1909
918 1551 1963
955 1582 2017
993 1615 2072
1030 1650 2128
1066 1686 2185
1103 1723 2242
0 1535 0
0 1535 171
0 1535 341
0 1535 512
0 1535 682
0 1536 853
0 1536 1024
0 1535 1195
3 1536 1358
74 1538 1492
212 1538 1613
358 1543 1687
482 1551 1739
585 1562 1788
670 1575 1836
744 1591 1883
810 1609 1930
869 1630 1977
913 1653 2029
955 1679 2082
994 1706 2135
1033 1736 2188
1071 1767 2242
1109 1799 2297
1146 1833 2352
0 1707 0
0 1706 171
0 1707 341
0 1706 512
0 1706 682
0 1707 853
0 1707 1024
0 1706 1195
0 1706 1365
10 1707 1524
94 1708 1658
238 1709 1780
386 1714 1862
518 1721 1915
626 1731 1964
717 1743 2012
797 1757 2059
867 1774 2107
930 1793 2154
986 1814 2202
1028 1838 2254
1070 1865 2307
1110 1892 2360
1149 1921 2413
1187 1952 2467
0 1877 0
0 1877 171
0 1877 341
0 1877 512
0 1877 682
0 1877 853
0 1877 1024
0 1877 1195
0 1877 1365
0 1877 1536
16 1878 1691
113 1879 1824
267 1880 1947
414 1883 2037
551 1891 2090
665 1900 2140
762 1911 2189
846 1925 2236
921 1940 2283
988 1958 2330
1049 1977 2377
1101 1999 2427
1144 2023 2479
1185 2049 2532
1225 2077 2585
0 2048 0
0 2048 171
0 2048 341
0 2048 512
0 2048 682
0 2047 853
0 2047 1023
0 2048 1195
0 2048 1365
0 2047 1536
0 2047 1707
26 2049 1857
136 2050 1990
295 2051 2113
442 2053 2211
584 2060 2265
702 2069 2316
804 2080 2365
894 2092 2413
973 2107 2460
1043 2123 2507
1108 2141 2554
1168 2162 2602
1217 2184 2652
1260 2209 2705
0 2218 0
0 2218 171
0 2218 341
0 2218 512
0 2218 682
0 2218 853
0 2218 1023
0 2218 1195
0 2218 1365
0 2218 1536
0 2218 1707
0 2218 1877
36 2220 2023
161 2221 2157
322 2221 2280
468 2223 2386
614 2230 2441
738 2238 2492
845 2249 2541
939 2260 2590
1022 2274 2637
1097 2289 2684
1166 2307 2731
1228 2326 2778
1287 2346 2826
0 2389 0
0 2389 168
0 2389 341
0 2389 512
0 2389 682
0 2389 853
0 2389 1023
0 2389 1194
0 2389 1365
0 2389 1536
0 2389 1707
0 2389 1877
0 2389 2048
48 2390 2189
189 2391 2323
351 2392 2447
494 2394 2560
645 2400 2615
773 2408 2668
885 2417 2717
982 2429 2766
1070 2442 2814
1148 2456 2861
1220 2472 2908
1286 2490 2955
3 2559 0
0 2560 168
0 2559 339
0 2559 512
0 2559 682
0 2559 852
0 2559 1023
0 2560 1195
0 2559 1365
0 2559 1536
0 2559 1707
0 2559 1877
0 2559 2048
0 2559 2219
61 2561 2355
217 2562 2490
377 2563 2614
522 2564 2730
674 2570 2790
807 2578 2843
922 2587 2894
1024 2597 2943
1115 2610 2991
1198 2623 3038
1273 2639 3085
3 2730 0
0 2730 168
0 2730 339
0 2730 512
0 2730 682
0 2730 852
0 2730 1023
0 2730 1194
0 2730 1365
0 2730 1536
0 2730 1707
0 2730 1877
0 2730 2048
0 2730 2219
0 2730 2389
81 2732 2522
245 2733 2656
404 2734 2780
551 2735 2897
702 2740 2965
838 2748 3019
959 2756 3069
1065 2766 3119
1160 2778 3167
1246 2791 3215
3 2900 0
0 2900 168
0 2900 339
0 2900 510
0 2900 682
0 2901 852
0 2900 1023
0 2900 1194
0 2901 1365
0 2900 1536
0 2901 1707
0 2900 1877
0 2900 2048
0 2901 2219
0 2900 2389
3 2901 2557
100 2903 2688
271 2904 2822
433 2904 2947
580 2906 3064
730 2910 3140
871 2917 3194
994 2926 3245
1104 2935 3295
1202 2946 3343
3 3071 0
0 3071 168
0 3071 339
0 3071 510
0 3071 682
0 3071 852
0 3071 1023
0 3071 1194
0 3071 1365
0 3071 1536
0 3071 1707
0 3071 1877
0 3071 2048
0 3071 2218
0 3071 2389
0 3071 2560
10 3072 2723
123 3074 2854
297 3074 2989
460 3075 3114
609 3077 3231
758 3081 3314
902 3087 3369
1028 3095 3421
1142 3105 3471
3 3242 0
0 3242 168
0 3242 339
0 3242 510
0 3242 682
0 3242 852
0 3242 1023
0 3242 1194
0 3242 1365
0 3242 1536
0 3242 1707
0 3242 1877
0 3242 2048
0 3242 2218
0 3242 2389
0 3242 2560
0 3242 2730
19 3243 2889
145 3245 3020
326 3245 3155
486 3246 3280
637 3247 3398
784 3251 3489
931 3257 3544
1062 3265 3596
3 3412 0
0 3412 168
0 3412 339
0 3412 510
0 3412 682
0 3412 852
0 3412 1023
0 3412 1194
0 3412 1365
0 3412 1536
0 3412 1706
0 3412 1877
0 3412 2048
0 3412 2218
0 3412 2389
0 3412 2560
0 3412 2730
0 3412 2901
29 3413 3055
174 3415 3187
352 3416 3321
514 3417 3447
666 3418 3565
811 3421 3663
961 3427 3718
3 3583 0
0 3583 168
0 3583 339
0 3583 510
0 3583 682
0 3583 852
0 3583 1023
0 3583 1194
0 3583 1365
0 3583 1535
0 3583 1706
0 3583 1877
0 3583 2048
0 3583 2218
0 3583 2389
0 3583 2560
0 3583 2730
0 3583 2901
0 3583 3072
42 3584 3221
201 3586 3353
379 3587 3488
541 3588 3614
695 3589 3731
836 3591 3838
3 3754 0
0 3754 168
0 3754 339
0 3754 510
0 3754 681
0 3754 852
0 3754 1023
0 3754 1194
0 3754 1364
0 3754 1535
0 3754 1706
0 3754 1877
0 3754 2048
0 3754 2218
0 3754 2389
0 3754 2560
0 3754 2730
0 3754 2901
0 3754 3072
0 3754 3242
58 3755 3387
228 3757 3519
408 3758 3654
568 3759 3780
723 3760 3898
3 3924 0
0 3924 168
0 3924 339
0 3924 510
0 3924 681
0 3924 852
0 3924 1023
0 3924 1194
0 3924 1364
0 3924 1535
0 3924 1706
0 3924 1877
0 3924 2048
0 3924 2218
0 3924 2389
0 3924 2560
0 3924 2730
0 3924 2901
0 3924 3072
0 3924 3242
0 3924 3413
78 3926 3553
255 3928 3686
434 3928 3820
595 3929 3947
6 4095 0
6 4095 171
3 4095 339
3 4095 512
3 4095 682
0 4095 852
0 4095 1023
3 4095 1195
0 4095 1364
0 4095 1535
0 4095 1706
3 4095 1877
0 4095 2048
0 4095 2218
0 4095 2389
0 4095 2560
0 4095 2730
0 4095 2901
0 4095 3072
3 4095 3242
0 4095 3413
0 4095 3584
461 4092 3719
817 4085 3846
1127 4075 3968
132 10 6
97 29 90
74 52 155
71 81 228
84 123 271
107 174 332
132 225 393
168 280 461
206 336 532
245 389 602
284 446 676
326 503 749
367 559 822
409 617 898
449 673 972
492 731 1048
533 788 1123
576 845 1198
618 903 1274
660 961 1350
703 1018 1426
745 1076 1502
788 1133 1578
831 1191 1654
874 1249 1731
171 171 0
171 171 171
152 189 250
149 214 310
155 243 365
174 278 419
198 318 477
228 362 537
257 408 601
291 454 664
326 504 731
363 554 800
399 606 869
439 659 940
478 713 1011
517 766 1084
558 822 1157
599 877 1230
639 932 1304
680 988 1378
721 1043 1452
763 1099 1526
804 1156 1601
846 1212 1676
885 1269 1754
171 341 0
171 339 171
174 343 334
177 354 414
198 370 470
220 393 525
243 422 578
269 455 631
299 492 689
330 532 748
363 575 809
398 620 872
433 666 936
468 714 1002
506 764 1069
543 814 1137
582 865 1206
622 918 1276
660 970 1347
700 1023 1418
740 1077 1491
781 1132 1563
821 1186 1636
862 1241 1708
900 1296 1785
171 512 0
171 512 171
171 512 341
177 512 497
198 520 586
243 533 640
282 552 691
312 575 744
343 604 798
376 636 852
408 671 908
439 709 965
474 750 1025
508 792 1086
543 836 1148
579 882 1211
615 928 1276
652 977 1342
691 1027 1410
728 1076 1477
767 1127 1546
806 1178 1615
845 1230 1686
885 1283 1756
922 1336 1830
171 682 0
171 682 171
171 682 341
171 682 512
183 683 662
220 689 760
280 700 814
334 714 862
381 735 913
416 759 966
449 787 1019
484 818 1073
517 852 1129
551 888 1185
585 927 1244
620 968 1303
655 1010 1364
691 1053 1426
727 1099 1489
764 1145 1553
801 1192 1618
838 1240 1684
877 1289 1751
915 1339 1819
951 1390 1890
171 852 0
171 853 171
171 852 341
171 853 512
171 853 682
192 855 829
240 858 933
314 867 988
381 880 1038
439 896 1086
485 918 1136
522 942 1188
558 970 1242
594 1001 1296
628 1034 1351
663 1069 1406
698 1107 1464
734 1145 1522
769 1186 1582
805 1229 1643
841 1272 1704
877 1317 1767
914 1362 1831
951 1409 1896
985 1456 1964
171 1023 0
171 1023 171
171 1023 341
171 1023 512
171 1023 682
171 1024 853
198 1025 995
257 1028 1108
345 1036 1163
423 1047 1213
490 1062 1262
547 1080 1309
594 1102 1360
632 1127 1413
670 1155 1466
706 1185 1520
742 1217 1574
777 1251 1629
812 1288 1686
848 1326 1744
883 1365 1802
919 1406 1862
955 1448 1923
991 1491 1984
1024 1535 2050
171 1195 0
171 1195 171
171 1195 341
171 1195 512
171 1195 683
171 1194 853
171 1194 1023
209 1196 1161
278 1197 1281
374 1205 1338
462 1215 1389
537 1229 1437
603 1245 1485
660 1264 1533
705 1286 1584
744 1312 1637
783 1340 1690
819 1369 1743
855 1401 1798
891 1435 1853
927 1470 1909
963 1507 1966
998 1545 2024
1034 1585 2083
1066 1626 2146
171 1365 0
171 1364 171
171 1365 341
171 1365 512
171 1365 683
171 1365 853
171 1365 1024
171 1365 1194
220 1367 1326
297 1368 1448
403 1375 1513
500 1384 1565
583 1396 1614
654 1410 1661
717 1428 1709
774 1448 1756
817 1471 1808
856 1496 1861
895 1524 1914
932 1554 1968
969 1585 2022
1006 1618 2077
1041 1653 2133
1077 1689 2189
1109 1727 2250
171 1536 0
171 1536 171
171 1536 341
171 1536 512
171 1536 683
171 1536 853
171 1536 1024
171 1536 1195
174 1536 1359
233 1537 1493
318 1539 1615
430 1545 1688
533 1553 1740
624 1564 1789
702 1577 1838
771 1593 1885
833 1611 1932
888 1632 1981
930 1656 2033
969 1681 2085
1008 1709 2139
1046 1739 2192
1084 1769 2246
1120 1802 2301
1151 1837 2359
171 1707 0
171 1707 171
171 1707 341
171 1707 512
171 1707 683
171 1706 853
171 1706 1024
171 1707 1195
171 1706 1365
177 1707 1526
248 1708 1659
339 1710 1781
455 1714 1862
568 1722 1915
664 1732 1966
748 1745 2014
823 1759 2061
889 1776 2109
949 1795 2156
1001 1816 2205
1043 1841 2258
1083 1867 2311
1123 1894 2364
1161 1923 2417
1193 1955 2474
