Examples/AB - All Yellow-Red (Double grid) With Mask.3dl
#25pt 3DLUT created by 3D LUT Creator Pro (c) Oleg Sharonov
#Copyright Oleg Sharonov
#IMAGEPROFILE sRGB IEC61966-2.1 v.2.10
#INPUTGAMMA sRGB IEC61966-2.1 v.2.10
#OUTPUTGAMMA sRGB IEC61966-2.1 v.2.10
0 128 256 384 512 640 768 896 1023
0 0 0
0 0 512
0 0 1024
0 0 1536
0 0 2048
0 0 2559
0 0 3071
0 0 3583
0 0 4095
0 512 0
0 512 512
0 512 1024
0 512 1536
0 512 2048
0 512 2559
0 512 3071
0 512 3583
0 512 4095
0 1024 0
0 1024 512
0 1024 1024
0 1024 1536
0 1024 2048
0 1024 2559
0 1024 3071
0 1024 3583
0 1024 4095
0 1536 0
0 1536 512
0 1536 1024
0 1536 1536
0 1536 2048
0 1536 2559
0 1536 3071
0 1536 3583
0 1536 4095
0 2048 0
0 2048 512
0 2048 1024
0 2048 1536
0 2048 2048
0 2048 2559
0 2048 3071
0 2048 3583
0 2048 4095
0 2559 0
0 2559 512
0 2559 1024
0 2559 1536
0 2559 2048
0 2559 2559
0 2559 3071
0 2559 3583
0 2559 4095
0 3071 0
0 3071 512
0 3071 1024
0 3071 1536
0 3071 2048
0 3071 2559
0 3071 3071
0 3071 3583
0 3071 4095
0 3583 0
0 3583 512
0 3583 1024
0 3583 1536
0 3583 2048
0 3583 2559
0 3583 3071
0 3583 3583
0 3583 4095
0 4095 0
0 4095 512
0 4095 1024
0 4095 1536
0 4095 2048
0 4095 2559
0 4095 3071
0 4095 3583
0 4095 4095
512 0 0
512 0 512
512 0 1024
512 0 1536
512 0 2048
512 0 2559
512 0 3071
512 0 3583
512 0 4095
512 512 0
512 512 512
512 512 1024
512 512 1536
512 512 2048
512 512 2559
512 512 3071
512 512 3583
512 512 4095
512 1024 0
512 1024 512
512 1024 1024
512 1024 1536
512 1024 2048
512 1024 2559
512 1024 3071
512 1024 3583
512 1024 4095
512 1536 0
512 1536 512
512 1536 1024
512 1536 1536
512 1536 2048
512 1536 2559
512 1536 3071
512 1536 3583
512 1536 4095
512 2048 0
512 2048 512
512 2048 1024
512 2048 1536
512 2048 2048
512 2048 2559
512 2048 3071
512 2048 3583
512 2048 4095
512 2559 0
512 2559 512
512 2559 1024
512 2559 1536
512 2559 2048
512 2559 2559
512 2559 3071
512 2559 3583
512 2559 4095
512 3071 0
512 3071 512
512 3071 1024
512 3071 1536
512 3071 2048
512 3071 2559
512 3071 3071
512 3071 3583
512 3071 4095
512 3583 0
512 3583 512
512 3583 1024
512 3583 1536
512 3583 2048
512 3583 2559
512 3583 3071
512 3583 3583
512 3583 4095
512 4095 0
512 4095 512
512 4095 1024
512 4095 1536
512 4095 2048
512 4095 2559
512 4095 3071
512 4095 3583
512 4095 4095
1024 0 0
1024 0 512
1024 0 1024
1024 0 1536
1024 0 2048
1024 0 2559
1024 0 3071
1024 0 3583
1024 0 4095
1024 512 0
1024 512 512
1024 512 1024
1024 512 1536
1024 512 2048
1024 512 2559
1024 512 3071
1024 512 3583
1024 512 4095
1024 1024 0
1054 981 519
1024 1024 1024
1024 1024 1536
1024 1024 2048
1024 1024 2559
1024 1024 3071
1024 1024 3583
1024 1024 4095
1024 1536 0
1024 1536 512
1024 1536 1024
1024 1536 1536
1024 1536 2048
1024 1536 2559
1024 1536 3071
1024 1536 3583
1024 1536 4095
1024 2048 0
1024 2048 512
1024 2048 1024
1024 2048 1536
1024 2048 2048
1024 2048 2559
1024 2048 3071
1024 2048 3583
1024 2048 4095
1024 2559 0
1024 2559 512
1024 2559 1024
1024 2559 1536
1024 2559 2048
1024 2559 2559
1024 2559 3071
1024 2559 3583
1024 2559 4095
1024 3071 0
1024 3071 512
1024 3071 1024
1024 3071 1536
1024 3071 2048
1024 3071 2559
1024 3071 3071
1024 3071 3583
1024 3071 4095
1024 3583 0
1024 3583 512
1024 3583 1024
1024 3583 1536
1024 3583 2048
1024 3583 2559
1024 3583 3071
1024 3583 3583
1024 3583 4095
1024 4095 0
1024 4095 512
1024 4095 1024
1024 4095 1536
1024 4095 2048
1024 4095 2559
1024 4095 3071
1024 4095 3583
1024 4095 4095
1536 0 0
1536 0 512
1536 0 1024
1536 0 1536
1536 0 2048
1536 0 2559
1536 0 3071
1536 0 3583
1536 0 4095
1536 512 0
1536 512 512
1536 512 1024
1536 512 1536
1536 512 2048
1536 512 2559
1536 512 3071
1536 512 3583
1536 512 4095
1536 1024 0
1577 956 506
1536 1024 1024
1536 1024 1536
1536 1024 2048
1536 1024 2559
1536 1024 3071
1536 1024 3583
1536 1024 4095
1536 1536 0
1555 1508 518
1563 1498 1032
1536 1536 1536
1536 1536 2048
1536 1536 2559
1536 1536 3071
1536 1536 3583
1536 1536 4095
1536 2048 0
1536 2048 512
1536 2048 1024
1536 2048 1536
1536 2048 2048
1536 2048 2559
1536 2048 3071
1536 2048 3583
1536 2048 4095
1536 2559 0
1536 2559 512
1536 2559 1024
1536 2559 1536
1536 2559 2048
1536 2559 2559
1536 2559 3071
1536 2559 3583
1536 2559 4095
1536 3071 0
1536 3071 512
1536 3071 1024
1536 3071 1536
1536 3071 2048
1536 3071 2559
1536 3071 3071
1536 3071 3583
1536 3071 4095
1536 3583 0
1536 3583 512
1536 3583 1024
1536 3583 1536
1536 3583 2048
1536 3583 2559
1536 3583 3071
1536 3583 3583
1536 3583 4095
1536 4095 0
1536 4095 512
1536 4095 1024
1536 4095 1536
1536 4095 2048
1536 4095 2559
1536 4095 3071
1536 4095 3583
1536 4095 4095
2048 0 0
2048 0 512
2048 0 1024
2048 0 1536
2048 0 2048
2048 0 2559
2048 0 3071
2048 0 3583
2048 0 4095
2048 512 0
2048 512 512
2048 512 1024
2048 512 1536
2048 512 2048
2048 512 2559
2048 512 3071
2048 512 3583
2048 512 4095
2048 1024 0
2054 1015 498
2048 1024 1024
2048 1024 1536
2048 1024 2048
2048 1024 2559
2048 1024 3071
2048 1024 3583
2048 1024 4095
2048 1536 0
2074 1491 517
2117 1431 1032
2048 1536 1536
2048 1536 2048
2048 1536 2559
2048 1536 3071
2048 1536 3583
2048 1536 4095
2048 2048 0
2056 2036 515
2088 1989 1039
2072 2014 1544
2048 2048 2048
2048 2048 2559
2048 2048 3071
2048 2048 3583
2048 2048 4095
2048 2559 0
2048 2559 512
2048 2559 1024
2048 2559 1536
2048 2559 2048
2048 2559 2559
2048 2559 3071
2048 2559 3583
2048 2559 4095
2048 3071 0
2048 3071 512
2048 3071 1024
2048 3071 1536
2048 3071 2048
2048 3071 2559
2048 3071 3071
2048 3071 3583
2048 3071 4095
2048 3583 0
2048 3583 512
2048 3583 1024
2048 3583 1536
2048 3583 2048
2048 3583 2559
2048 3583 3071
2048 3583 3583
2048 3583 4095
2048 4095 0
2048 4095 512
2048 4095 1024
2048 4095 1536
2048 4095 2048
2048 4095 2559
2048 4095 3071
2048 4095 3583
2048 4095 4095
2559 0 0
2559 0 512
2559 0 1024
2559 0 1536
2559 0 2048
2559 0 2559
2559 0 3071
2559 0 3583
2559 0 4095
2559 512 0
2559 512 512
2559 512 1024
2559 512 1536
2559 512 2048
2559 512 2559
2559 512 3071
2559 512 3583
2559 512 4095
2559 1024 0
2559 1024 512
2559 1024 1024
2559 1024 1536
2559 1024 2048
2559 1024 2559
2559 1024 3071
2559 1024 3583
2559 1024 4095
2559 1536 0
2560 1535 512
2577 1536 975
2559 1536 1536
2559 1536 2048
2559 1536 2559
2559 1536 3071
2559 1536 3583
2559 1536 4095
2559 2048 0
2560 2046 512
2646 1907 1056
2608 1970 1555
2559 2048 2048
2559 2048 2559
2559 2048 3071
2559 2048 3583
2559 2048 4095
2559 2559 0
2560 2559 512
2589 2517 1037
2603 2497 1554
2581 2529 2056
2559 2559 2559
2559 2559 3071
2559 2559 3583
2559 2559 4095
2559 3071 0
2559 3071 512
2559 3071 1024
2559 3071 1536
2559 3071 2048
2559 3071 2559
2559 3071 3071
2559 3071 3583
2559 3071 4095
2559 3583 0
2559 3583 512
2559 3583 1024
2559 3583 1536
2559 3583 2048
2559 3583 2559
2559 3583 3071
2559 3583 3583
2559 3583 4095
2559 4095 0
2559 4095 512
2559 4095 1024
2559 4095 1536
2559 4095 2048
2559 4095 2559
2559 4095 3071
2559 4095 3583
2559 4095 4095
3071 0 0
3071 0 512
3071 0 1024
3071 0 1536
3071 0 2048
3071 0 2559
3071 0 3071
3071 0 3583
3071 0 4095
3071 512 0
3071 512 512
3071 512 1024
3071 512 1536
3071 512 2048
3071 512 2559
3071 512 3071
3071 512 3583
3071 512 4095
3071 1024 0
3071 1024 512
3071 1024 1024
3071 1024 1536
3071 1024 2048
3071 1024 2559
3071 1024 3071
3071 1024 3583
3071 1024 4095
3071 1536 0
3071 1536 512
3070 1554 994
3071 1536 1536
3071 1536 2048
3071 1536 2559
3071 1536 3071
3071 1536 3583
3071 1536 4095
3071 2048 0
3071 2048 512
3090 2014 1031
3076 2095 1459
3071 2048 2048
3071 2048 2559
3071 2048 3071
3071 2048 3583
3071 2048 4095
3071 2559 0
3071 2559 512
3142 2445 1059
3197 2355 1600
3100 2506 2070
3071 2559 2559
3071 2559 3071
3071 2559 3583
3071 2559 4095
3071 3071 0
3071 3071 512
3091 3042 1034
3119 3002 1558
3112 3012 2066
3089 3046 2567
3071 3071 3071
3071 3071 3583
3071 3071 4095
3071 3583 0
3071 3583 512
3071 3583 1024
3071 3583 1536
3071 3583 2048
3071 3583 2559
3071 3583 3071
3071 3583 3583
3071 3583 4095
3071 4095 0
3071 4095 512
3071 4095 1024
3071 4095 1536
3071 4095 2048
3071 4095 2559
3071 4095 3071
3071 4095 3583
3071 4095 4095
3583 0 0
3583 0 512
3583 0 1024
3583 0 1536
3583 0 2048
3583 0 2559
3583 0 3071
3583 0 3583
3583 0 4095
3583 512 0
3583 512 512
3583 512 1024
3583 512 1536
3583 512 2048
3583 512 2559
3583 512 3071
3583 512 3583
3583 512 4095
3583 1024 0
3583 1024 512
3583 1024 1024
3583 1024 1536
3583 1024 2048
3583 1024 2559
3583 1024 3071
3583 1024 3583
3583 1024 4095
3583 1536 0
3583 1536 512
3581 1547 1011
3583 1536 1536
3583 1536 2048
3583 1536 2559
3583 1536 3071
3583 1536 3583
3583 1536 4095
3583 2048 0
3583 2048 512
3585 2050 1012
3571 2110 1471
3583 2048 2048
3583 2048 2559
3583 2048 3071
3583 2048 3583
3583 2048 4095
3583 2559 0
3583 2559 512
3603 2523 1037
3607 2512 1558
3569 2652 1953
3583 2559 2559
3583 2559 3071
3583 2559 3583
3583 2559 4095
3583 3071 0
3583 3071 512
3630 2996 1051
3718 2853 1611
3728 2830 2134
3602 3028 2584
3583 3071 3071
3583 3071 3583
3583 3071 4095
3583 3583 0
3583 3583 512
3592 3567 1034
3621 3526 1557
3641 3497 2078
3623 3525 2579
3596 3564 3077
3583 3583 3583
3583 3583 4095
3583 4095 0
3583 4095 512
3583 4095 1024
3583 4095 1536
3583 4095 2048
3583 4095 2559
3583 4095 3071
3583 4095 3583
3583 4095 4095
4095 0 0
4095 0 512
4095 0 1024
4095 0 1536
4095 0 2048
4095 0 2559
4095 0 3071
4095 0 3583
4095 0 4095
4095 512 0
4095 512 512
4095 512 1024
4095 512 1536
4095 512 2048
4095 512 2559
4095 512 3071
4095 512 3583
4095 512 4095
4095 1024 0
4095 1024 512
4095 1024 1024
4095 1024 1536
4095 1024 2048
4095 1024 2559
4095 1024 3071
4095 1024 3583
4095 1024 4095
4095 1536 0
4095 1536 512
4094 1539 1020
4095 1536 1536
4095 1536 2048
4095 1536 2559
4095 1536 3071
4095 1536 3583
4095 1536 4095
4095 2048 0
4095 2048 512
4094 2053 1017
4084 2092 1494
4095 2048 2048
4095 2048 2559
4095 2048 3071
4095 2048 3583
4095 2048 4095
4095 2559 0
4095 2559 512
4095 2555 1029
4094 2579 1505
4068 2676 1943
4095 2559 2559
4095 2559 3071
4095 2559 3583
4095 2559 4095
4095 3071 0
4095 3071 512
4095 3057 1052
4095 3003 1639
4095 3019 2096
4075 3175 2463
4095 3071 3071
4095 3071 3583
4095 3071 4095
4095 3583 0
4095 3583 512
4095 3558 1073
4095 3431 1788
4095 3323 2409
4095 3379 2801
4095 3543 3098
4095 3583 3583
4095 3583 4095
4095 4095 0
4095 4095 512
4095 4090 1034
4095 4059 1596
4095 4025 2150
4095 4021 2656
4095 4043 3131
4095 4081 3597
4095 4095 4095
