Examples/AB - All Orange.3dl
#25pt 3DLUT created by 3D LUT Creator Pro (c) Oleg Sharonov
#Copyright Oleg Sharonov
0 256 512 768 1023
0 0 0
914 492 0
1849 1079 0
2783 1665 0
3717 2252 0
987 468 0
1152 768 354
1946 1226 10
2858 1753 0
3779 2310 0
1981 1038 0
1993 1213 0
2281 1582 828
3009 2020 771
3889 2505 0
2975 1607 0
2963 1722 0
3016 2018 741
3410 2397 1301
4095 2817 1202
3969 2177 0
3955 2259 0
3984 2479 0
4049 2837 1498
4095 3212 1775
987 470 0
1152 768 354
1946 1226 10
2858 1753 0
3778 2310 0
1092 783 494
1024 1024 1024
1898 1387 905
2813 1865 611
3738 2394 0
2023 1205 0
1997 1364 660
2228 1708 1256
2977 2113 1208
3877 2575 761
3002 1710 0
2985 1820 0
3015 2103 1105
3379 2473 1593
4095 2881 1523
3988 2249 0
3975 2327 0
3980 2547 0
4017 2901 1768
4095 3265 1986
1981 1038 0
1993 1213 0
2281 1582 829
3009 2019 771
3888 2505 0
2023 1205 0
1997 1364 660
2228 1709 1256
2977 2112 1212
3876 2574 769
2171 1608 1086
2142 1725 1392
2048 2048 2048
2905 2374 1955
3803 2788 1796
3069 2005 416
3060 2093 960
3014 2353 1787
3276 2700 2250
4016 3072 2228
4042 2463 0
4033 2532 0
3996 2742 1251
4037 3067 2190
4095 3427 2524
2975 1607 0
2963 1722 0
3016 2018 741
3410 2397 1301
4095 2817 1208
3002 1710 0
2984 1820 0
3015 2103 1105
3379 2473 1594
4095 2880 1528
3069 2004 417
3060 2093 961
3014 2353 1787
3276 2700 2251
4016 3072 2228
3251 2433 1677
3234 2505 1873
3178 2718 2379
3071 3071 3071
3921 3381 2986
4095 2822 1276
4095 2880 1515
4090 3056 2084
4036 3360 2840
4095 3708 3262
3968 2177 0
3955 2259 0
3984 2479 0
4049 2837 1498
4095 3212 1776
3988 2249 0
3975 2328 0
3980 2547 0
4017 2901 1768
4095 3265 1986
4042 2464 0
4032 2533 0
3996 2742 1252
4037 3067 2190
4095 3427 2524
4095 2822 1283
4095 2879 1520
4090 3055 2086
4036 3360 2840
4095 3708 3262
4095 3259 2268
4095 3308 2407
4095 3460 2796
4095 3727 3385
4095 4095 4095
