Examples/AB - Lab B=A With Mask.3dl
#25pt 3DLUT created by 3D LUT Creator Pro (c) Oleg Sharonov
#Copyright Oleg Sharonov
#IMAGEPROFILE sRGB IEC61966-2.1 v.2.10
#INPUTGAMMA sRGB IEC61966-2.1 v.2.10
#OUTPUTGAMMA sRGB IEC61966-2.1 v.2.10
0 128 256 384 512 640 768 896 1023
0 0 0
0 0 512
0 0 1024
0 0 1536
0 0 2048
0 0 2559
0 0 3071
0 0 3583
0 0 4095
0 512 0
0 512 512
0 512 1024
0 512 1536
0 512 2048
0 512 2559
0 512 3071
0 512 3583
0 512 4095
0 1024 0
0 1024 512
0 1024 1024
0 1024 1536
0 1024 2048
0 1024 2559
0 1024 3071
0 1024 3583
0 1024 4095
0 1536 0
0 1536 512
0 1536 1024
0 1536 1536
0 1536 2048
0 1536 2559
0 1536 3071
0 1536 3583
0 1536 4095
0 2048 0
0 2048 512
0 2048 1024
0 2048 1536
0 2048 2048
0 2048 2559
0 2048 3071
0 2048 3583
0 2048 4095
0 2559 0
0 2559 512
0 2559 1024
0 2559 1536
0 2559 2048
0 2559 2559
0 2559 3071
0 2559 3583
0 2559 4095
0 3071 0
0 3071 512
0 3071 1024
0 3071 1536
0 3071 2048
0 3071 2559
0 3071 3071
0 3071 3583
0 3071 4095
0 3583 0
0 3583 512
0 3583 1024
0 3583 1536
0 3583 2048
0 3583 2559
0 3583 3071
0 3583 3583
0 3583 4095
0 4095 0
0 4095 512
0 4095 1024
0 4095 1536
0 4095 2048
0 4095 2559
0 4095 3071
0 4095 3583
0 4095 4095
500 8 0
505 11 472
517 17 944
536 22 1417
560 26 1889
583 31 2361
608 34 2833
632 39 3306
656 44 3778
493 513 47
512 512 512
537 509 971
564 504 1423
585 502 1889
605 505 2361
626 508 2833
646 514 3306
668 519 3778
472 1022 93
472 1023 567
486 1024 1040
547 1022 1496
583 1018 1949
615 1013 2404
645 1005 2857
674 995 3306
694 997 3778
472 1530 136
472 1531 609
472 1532 1083
472 1535 1559
550 1534 2020
598 1531 2472
636 1526 2925
669 1521 3379
700 1515 3832
472 2039 179
472 2040 652
472 2041 1126
472 2043 1601
472 2046 2077
544 2047 2543
609 2043 2996
653 2040 3448
690 2035 3900
472 2548 223
472 2549 695
472 2550 1169
472 2551 1643
472 2554 2118
472 2557 2594
527 2559 3067
615 2556 3519
666 2552 3971
472 3058 266
472 3058 739
472 3059 1212
472 3060 1686
472 3062 2161
472 3065 2636
472 3068 3112
472 3072 3590
617 3068 4042
472 3568 310
472 3568 783
472 3568 1256
472 3569 1729
472 3571 2203
472 3573 2678
484 3575 3151
533 3577 3623
572 3580 4095
661 4067 317
661 4067 789
661 4067 1262
666 4068 1734
670 4069 2206
676 4069 2678
683 4071 3151
690 4073 3623
701 4075 4095
983 50 0
992 52 422
1013 56 844
1045 62 1266
1086 68 1688
1132 76 2110
1181 84 2532
1231 94 2953
1281 106 3375
1017 513 58
1031 511 473
1060 505 875
1102 493 1266
1134 498 1688
1172 504 2110
1214 512 2532
1259 522 2953
1305 534 3375
951 1028 206
977 1027 620
1024 1024 1024
1080 1018 1418
1139 1010 1808
1200 998 2194
1261 982 2576
1322 958 2953
1363 967 3375
844 1534 321
844 1535 745
844 1539 1171
987 1537 1575
1089 1531 1962
1170 1524 2346
1243 1514 2728
1312 1503 3111
1379 1488 3492
844 2036 415
844 2037 839
844 2040 1264
844 2044 1692
847 2051 2121
1085 2045 2505
1192 2038 2886
1280 2029 3265
1357 2019 3645
844 2541 512
844 2541 935
844 2543 1360
844 2547 1786
844 2552 2214
844 2559 2645
1064 2558 3046
1206 2551 3425
1309 2543 3803
844 3046 610
844 3046 1033
844 3048 1457
844 3051 1882
844 3055 2309
844 3060 2738
844 3068 3169
1019 3071 3585
1211 3065 3964
844 3552 708
844 3552 1131
844 3553 1554
844 3556 1980
844 3559 2405
854 3563 2829
941 3568 3251
1025 3572 3673
1090 3578 4095
1278 4033 720
1282 4033 1142
1284 4034 1563
1293 4035 1985
1302 4037 2407
1317 4039 2829
1332 4042 3251
1348 4047 3673
1372 4051 4095
1466 123 0
1479 121 355
1502 126 710
1544 129 1065
1597 137 1420
1660 148 1774
1731 161 2129
1805 179 2484
1883 201 2839
1534 513 26
1547 509 374
1580 498 710
1618 496 1065
1663 504 1420
1718 514 1774
1781 528 2129
1849 545 2484
1920 568 2839
1499 1028 270
1515 1027 618
1553 1021 953
1612 1012 1276
1686 998 1589
1770 978 1892
1862 950 2176
1946 930 2484
2009 949 2839
1358 1547 535
1387 1546 882
1449 1542 1216
1536 1536 1536
1633 1526 1845
1735 1514 2146
1839 1498 2442
1944 1478 2736
2050 1452 3024
1065 2052 751
1065 2053 1109
1065 2057 1469
1279 2058 1809
1482 2050 2117
1636 2041 2416
1772 2029 2709
1899 2014 2998
2019 1997 3286
1065 2545 914
1065 2546 1271
1065 2549 1630
1065 2555 1993
1065 2564 2359
1369 2565 2693
1619 2555 2985
1796 2544 3273
1948 2530 3557
1065 3041 1081
1065 3042 1437
1065 3045 1796
1065 3050 2157
1065 3057 2521
1065 3066 2888
1065 3078 3258
1577 3070 3551
1807 3058 3835
1065 3540 1249
1065 3541 1605
1065 3543 1962
1065 3546 2321
1100 3552 2675
1268 3557 3030
1357 3564 3385
1446 3572 3740
1554 3580 4095
1858 3993 1256
1859 3994 1611
1868 3995 1966
1877 3997 2321
1899 3999 2675
1917 4004 3030
1943 4009 3385
1971 4017 3740
2011 4024 4095
1932 261 0
1949 255 250
1978 258 499
2025 265 749
2095 271 999
2178 288 1249
2273 310 1498
2377 341 1748
2489 376 1998
2031 535 0
2049 527 250
2073 531 499
2116 537 749
2180 542 999
2255 558 1249
2342 580 1498
2439 609 1748
2545 643 1998
2024 1028 329
2041 1025 571
2082 1017 801
2149 1003 1013
2242 980 1206
2355 947 1374
2484 901 1505
2585 904 1748
2681 930 1998
1930 1549 741
1950 1546 982
2001 1541 1208
2082 1531 1417
2190 1517 1610
2317 1497 1789
2457 1471 1958
2608 1438 2117
2766 1395 2262
1665 2072 1186
1699 2070 1427
1779 2066 1652
1900 2059 1859
2048 2048 2047
2209 2033 2222
2377 2014 2386
2550 1990 2542
2724 1962 2693
999 2579 1574
999 2581 1828
999 2586 2085
1361 2586 2314
1702 2577 2504
1966 2564 2677
2201 2549 2838
2420 2530 2989
2628 2508 3135
999 3057 1844
999 3058 2097
999 3063 2353
999 3070 2612
999 3082 2877
1165 3094 3137
1820 3081 3298
2164 3065 3449
2442 3047 3592
1087 3538 2097
1175 3539 2347
1190 3542 2597
1335 3545 2846
1481 3550 3096
1566 3559 3346
1689 3569 3596
1797 3583 3845
2091 3581 4056
2400 3941 2097
2401 3942 2347
2415 3943 2597
2430 3947 2846
2449 3953 3096
2494 3958 3346
2536 3967 3596
2580 3979 3845
2636 3992 4095
2388 442 0
2409 431 153
2438 435 307
2486 446 460
2554 463 613
2650 474 767
2755 504 920
2877 539 1074
3012 579 1227
2488 627 0
2500 628 153
2534 621 307
2580 630 460
2644 645 613
2736 654 767
2837 680 920
2952 714 1074
3080 754 1227
2547 1027 302
2563 1023 449
2604 1012 582
2674 993 691
2773 962 769
2899 918 798
3022 894 920
3127 922 1074
3245 957 1227
2482 1547 830
2500 1545 976
2545 1538 1107
2622 1526 1221
2730 1507 1316
2865 1480 1393
3022 1446 1453
3198 1401 1494
3389 1342 1505
2310 2072 1411
2333 2070 1556
2389 2065 1685
2483 2056 1795
2612 2042 1884
2768 2022 1957
2946 1998 2014
3139 1967 2060
3344 1929 2095
1918 2600 2023
1954 2599 2167
2040 2594 2295
2177 2587 2405
2355 2575 2492
2559 2559 2559
2779 2539 2612
3007 2515 2651
3241 2486 2681
767 3115 2592
767 3118 2749
767 3123 2911
1378 3118 3025
1787 3108 3114
2135 3095 3182
2455 3078 3232
2756 3057 3269
3046 3033 3294
1534 3558 2868
1577 3558 3021
1585 3562 3175
1666 3567 3328
1748 3574 3482
1826 3587 3635
1979 3598 3788
2284 3596 3897
2698 3575 3921
2821 3912 2868
2823 3914 3021
2827 3918 3175
2847 3922 3328
2883 3928 3482
2929 3937 3635
2984 3948 3788
3054 3962 3942
3126 3980 4095
2843 627 0
2866 611 102
2891 616 204
2936 625 307
2997 644 409
3094 644 511
3195 673 613
3312 710 716
3446 749 818
2931 763 0
2942 763 102
2979 750 204
3022 757 307
3081 773 409
3160 795 511
3273 800 613
3386 833 716
3518 868 818
3067 1026 149
3081 1021 244
3118 1009 321
3181 987 366
3272 953 409
3354 958 511
3459 959 613
3564 989 716
3683 1025 818
3026 1545 767
3041 1542 863
3079 1534 947
3146 1520 1016
3242 1500 1065
3366 1470 1094
3516 1431 1100
3688 1380 1078
3879 1313 994
2915 2069 1393
2932 2066 1488
2975 2061 1570
3050 2051 1635
3157 2035 1682
3293 2014 1712
3456 1987 1724
3639 1952 1722
3840 1910 1706
2678 2596 2068
2699 2594 2162
2753 2590 2244
2845 2582 2307
2974 2569 2349
3136 2553 2372
3322 2531 2380
3529 2504 2373
3751 2472 2354
2203 3127 2770
2236 3125 2864
2316 3121 2943
2448 3114 3005
2624 3104 3048
2836 3090 3069
3071 3071 3071
3321 3049 3060
3580 3022 3035
1902 3608 3277
1931 3608 3379
1938 3612 3482
2035 3614 3584
2101 3623 3686
2267 3626 3780
2618 3610 3782
2957 3591 3768
3286 3568 3740
3137 3928 3277
3138 3930 3379
3156 3932 3482
3179 3937 3584
3204 3946 3686
3262 3954 3788
3312 3968 3891
3390 3982 3993
3469 4002 4095
3286 846 0
3294 849 51
3334 831 102
3375 840 153
3436 853 205
3514 874 256
3627 877 307
3742 909 358
3876 943 409
3366 930 0
3377 929 51
3417 910 102
3458 916 153
3514 932 205
3590 951 256
3702 951 307
3815 981 358
3944 1017 409
3566 1048 0
3574 1051 51
3615 1027 102
3650 1037 153
3705 1047 205
3777 1062 256
3885 1057 307
3991 1084 358
4044 1182 444
3557 1543 673
3570 1539 719
3604 1531 755
3664 1516 776
3752 1492 776
3868 1460 749
4010 1416 692
4044 1452 774
4044 1595 1036
3480 2065 1347
3495 2063 1392
3532 2057 1426
3596 2046 1445
3690 2029 1448
3813 2006 1433
3963 1976 1400
4044 1973 1412
4044 2071 1599
3317 2592 2072
3333 2590 2117
3375 2585 2150
3449 2576 2166
3555 2563 2163
3692 2545 2145
3857 2522 2109
4044 2493 2056
4044 2546 2171
3012 3122 2840
3033 3121 2884
3085 3117 2915
3174 3109 2931
3302 3098 2927
3465 3083 2903
3659 3063 2861
3876 3040 2804
4044 3025 2765
2455 3655 3630
2486 3654 3674
2560 3650 3705
2686 3644 3719
2859 3634 3714
3073 3621 3690
3317 3604 3646
3583 3583 3583
3863 3558 3507
3424 3964 3686
3426 3966 3737
3447 3967 3788
3469 3973 3839
3501 3982 3890
3547 3993 3942
3612 4006 3993
3683 4023 4044
3769 4044 4095
3720 1098 0
3728 1101 0
3772 1075 0
3808 1085 0
3866 1096 0
3940 1115 0
4032 1142 0
4095 1208 23
4095 1358 328
3795 1128 0
3806 1126 0
3847 1103 0
3887 1107 0
3940 1123 0
4013 1141 0
4095 1176 0
4095 1280 162
4095 1449 471
3985 1192 0
3992 1195 0
4037 1165 0
4069 1177 0
4095 1215 0
4095 1275 103
4095 1366 304
4095 1525 576
4095 1676 790
4081 1541 527
4093 1537 522
4095 1528 509
4095 1532 520
4095 1587 616
4095 1669 749
4095 1758 878
4095 1871 1040
4095 1986 1198
4026 2062 1274
4039 2059 1270
4072 2053 1255
4095 2041 1228
4095 2073 1280
4095 2121 1353
4095 2190 1456
4095 2272 1576
4095 2366 1709
3908 2587 2045
3922 2585 2039
3957 2580 2024
4020 2571 1993
4095 2557 1945
4095 2585 1986
4095 2635 2064
4095 2697 2157
4095 2773 2271
3688 3117 2867
3704 3116 2860
3745 3111 2844
3816 3104 2812
3921 3092 2762
4059 3076 2693
4095 3090 2693
4095 3138 2766
4095 3199 2857
3314 3650 3726
3333 3649 3719
3383 3645 3701
3471 3639 3668
3596 3628 3617
3760 3615 3547
3957 3597 3456
4095 3591 3395
4095 3640 3467
3701 4020 4095
3703 4022 4095
3724 4023 4095
3748 4029 4095
3778 4039 4095
3828 4050 4095
3898 4063 4095
3970 4082 4095
4095 4095 4095
