Examples/AB - All Orange.3dl
#25pt 3DLUT created by 3D LUT Creator Pro (c) Oleg Sharonov
#Copyright Oleg Sharonov
0 43 86 128 171 214 256 299 341 384 427 469 512 555 597 640 682 725 768 810 853 896 938 981 1023 
0 0 0
136 45 0
291 107 0
448 198 0
603 295 0
759 393 0
914 492 0
1070 590 0
1226 687 0
1382 785 0
1538 883 0
1693 981 0
1849 1079 0
2005 1176 0
2160 1274 0
2316 1372 0
2472 1470 0
2627 1567 0
2783 1665 0
2939 1763 0
3095 1861 0
3250 1959 0
3406 2057 0
3562 2154 0
3717 2252 0
158 42 0
212 100 26
332 161 23
478 243 0
629 330 0
782 420 0
935 512 0
1090 606 0
1244 701 0
1398 797 0
1553 894 0
1708 990 0
1863 1086 0
2018 1183 0
2173 1280 0
2328 1377 0
2483 1475 0
2638 1572 0
2794 1669 0
2949 1767 0
3105 1864 0
3260 1962 0
3415 2059 0
3571 2157 0
3726 2255 0
324 100 0
332 161 26
399 225 65
520 295 55
651 374 42
802 457 0
953 542 0
1106 632 0
1258 723 0
1412 815 0
1566 909 0
1720 1004 0
1874 1099 0
2029 1195 0
2183 1291 0
2338 1387 0
2493 1483 0
2648 1580 0
2803 1677 0
2958 1773 0
3113 1870 0
3268 1968 0
3423 2065 0
3578 2162 0
3733 2259 0
490 183 0
493 238 0
506 299 84
587 362 119
708 430 103
831 508 103
975 587 48
1126 669 0
1277 756 0
1429 845 0
1582 935 0
1735 1027 0
1888 1119 0
2042 1213 0
2196 1307 0
2350 1402 0
2505 1497 0
2659 1592 0
2814 1688 0
2968 1784 0
3123 1880 0
3278 1977 0
3433 2073 0
3587 2170 0
3742 2266 0
656 280 0
655 322 0
664 370 6
694 433 145
776 497 195
896 564 171
1018 640 168
1149 720 149
1298 799 45
1449 883 0
1601 969 0
1753 1057 0
1905 1147 0
2058 1238 0
2211 1330 0
2365 1423 0
2519 1516 0
2672 1610 0
2827 1704 0
2981 1799 0
3135 1894 0
3289 1990 0
3444 2085 0
3598 2181 0
3753 2277 0
822 374 0
817 409 0
826 449 0
835 505 90
880 568 222
964 632 273
1084 699 250
1205 773 240
1329 852 248
1472 931 171
1622 1013 32
1773 1097 0
1925 1183 0
2077 1271 0
2229 1359 0
2382 1450 0
2535 1541 0
2688 1633 0
2841 1726 0
2995 1820 0
3149 1913 0
3303 2007 0
3457 2102 0
3611 2196 0
3765 2292 0
987 468 0
982 499 0
987 533 0
997 582 0
1003 643 225
1067 703 304
1152 768 354
1272 834 328
1393 907 316
1515 984 318
1646 1065 304
1796 1144 180
1946 1226 10
2097 1310 0
2248 1396 0
2400 1484 0
2553 1572 0
2705 1662 0
2858 1753 0
3011 1845 0
3164 1937 0
3318 2029 0
3471 2122 0
3625 2216 0
3779 2310 0
1153 564 0
1149 588 0
1149 619 0
1158 661 0
1168 714 55
1176 780 343
1254 838 386
1341 904 433
1460 969 406
1581 1041 391
1703 1118 389
1827 1198 399
1970 1276 328
2120 1357 183
2270 1439 0
2421 1524 0
2572 1610 0
2724 1697 0
2876 1785 0
3029 1875 0
3181 1965 0
3334 2056 0
3487 2148 0
3641 2239 0
3794 2332 0
1318 658 0
1315 680 0
1312 708 0
1319 744 0
1329 792 0
1337 849 206
1366 913 411
1440 974 468
1528 1039 512
1648 1105 485
1769 1176 468
1890 1251 462
2013 1330 468
2144 1410 457
2293 1489 345
2443 1570 174
2594 1653 0
2745 1737 0
2896 1823 0
3048 1910 0
3200 1998 0
3352 2087 0
3505 2177 0
3658 2267 0
3811 2358 0
1484 753 0
1481 771 0
1477 797 0
1481 829 0
1490 872 0
1500 924 0
1507 986 356
1553 1047 488
1627 1110 550
1717 1175 591
1836 1240 563
1956 1310 545
2078 1384 537
2201 1462 540
2325 1543 551
2467 1622 482
2617 1701 356
2767 1783 152
2918 1866 0
3069 1951 0
3220 2036 0
3372 2124 0
3524 2211 0
3676 2300 0
3828 2389 0
1650 849 0
1647 865 0
1643 886 0
1643 917 0
1651 955 0
1661 1003 0
1670 1058 155
1673 1124 501
1740 1182 565
1814 1246 632
1905 1311 670
2024 1375 642
2145 1445 623
2266 1519 613
2388 1595 612
2511 1675 619
2641 1755 611
2790 1834 504
2940 1914 360
3091 1996 113
3241 2079 0
3392 2164 0
3544 2250 0
3695 2336 0
3848 2424 0
1815 943 0
1813 957 0
1810 977 0
1805 1006 0
1813 1040 0
1822 1083 0
1832 1134 0
1840 1194 334
1846 1260 617
1927 1317 646
2000 1381 715
2093 1446 749
2212 1511 720
2333 1580 699
2453 1653 688
2575 1728 685
2698 1807 690
2822 1888 701
2964 1967 639
3114 2046 518
3264 2127 354
3414 2209 58
3565 2293 0
3716 2377 0
3868 2463 0
1981 1038 0
1979 1050 0
1976 1068 0
1972 1094 0
1975 1127 0
1983 1166 0
1993 1213 0
2003 1268 58
2010 1330 486
2037 1393 682
2113 1452 726
2187 1517 798
2281 1582 828
2401 1647 798
2521 1715 777
2641 1787 765
2763 1862 759
2885 1940 761
3009 2020 771
3138 2101 765
3288 2179 659
3438 2259 526
3588 2340 339
3738 2422 0
3889 2505 0
2147 1133 0
2145 1144 0
2142 1160 0
2138 1184 0
2137 1215 0
2145 1251 0
2154 1294 0
2164 1345 0
2173 1403 282
2178 1467 630
2225 1528 755
2300 1587 807
2373 1653 881
2470 1718 907
2589 1782 877
2709 1850 855
2829 1922 841
2951 1996 834
3073 2073 834
3196 2152 841
3320 2233 853
3462 2312 791
3612 2391 675
3761 2472 530
3912 2552 324
2312 1228 0
2311 1238 0
2308 1252 0
2304 1274 0
2300 1304 0
2307 1337 0
2315 1377 0
2325 1424 0
2335 1478 0
2343 1538 460
2343 1605 777
2412 1662 831
2487 1723 888
2560 1788 964
2658 1854 986
2777 1918 956
2897 1986 933
3017 2056 918
3138 2130 909
3260 2206 907
3383 2284 911
3507 2365 920
3636 2446 916
3785 2525 811
3935 2603 690
2478 1323 0
2476 1332 0
2474 1346 0
2471 1365 0
2466 1393 0
2469 1424 0
2477 1462 0
2486 1505 0
2496 1555 0
2506 1612 186
2513 1674 614
2516 1742 892
2599 1796 909
2673 1858 970
2747 1925 1047
2846 1990 1066
2965 2054 1035
3085 2121 1011
3205 2191 995
3326 2264 985
3448 2340 981
3571 2418 982
3694 2497 988
3818 2579 1000
3960 2658 942
2644 1417 0
2642 1426 0
2640 1439 0
2637 1457 0
2633 1482 0
2631 1513 0
2639 1547 0
2647 1588 0
2657 1635 0
2667 1688 0
2676 1747 409
2682 1810 760
2708 1875 953
2786 1931 987
2860 1994 1052
2933 2061 1129
3034 2126 1144
3153 2189 1113
3273 2256 1089
3393 2326 1072
3514 2399 1061
3636 2474 1055
3758 2551 1054
3881 2630 1058
4005 2710 1069
2809 1512 0
2808 1521 0
2806 1532 0
2803 1549 0
2799 1572 0
2794 1602 0
2801 1634 0
2809 1673 0
2818 1716 0
2828 1766 0
2838 1821 19
2846 1882 584
2849 1948 904
2896 2008 1023
2973 2066 1067
3046 2130 1133
3120 2197 1212
3222 2261 1222
3342 2325 1192
3461 2392 1167
3581 2461 1149
3702 2534 1137
3823 2608 1129
3945 2684 1127
4069 2762 1131
2975 1607 0
2974 1615 0
2972 1625 0
2969 1641 0
2966 1663 0
2961 1690 0
2963 1722 0
2971 1758 0
2979 1799 0
2989 1846 0
2999 1898 0
3008 1955 330
3016 2018 741
3013 2087 1051
3084 2142 1097
3160 2202 1147
3233 2265 1215
3307 2333 1294
3410 2397 1301
3530 2461 1270
3649 2527 1246
3769 2597 1227
3890 2669 1213
4011 2742 1205
4095 2817 1202
3141 1702 0
3139 1710 0
3138 1719 0
3135 1734 0
3132 1754 0
3127 1780 0
3125 1811 0
3133 1844 0
3141 1883 0
3150 1928 0
3160 1977 0
3170 2031 0
3179 2090 538
3185 2155 888
3186 2223 1166
3272 2277 1173
3346 2337 1227
3420 2402 1296
3494 2469 1376
3599 2533 1379
3718 2597 1349
3837 2663 1324
3957 2732 1304
4078 2803 1291
4095 2875 1282
3306 1797 0
3305 1804 0
3304 1813 0
3301 1827 0
3298 1846 0
3294 1870 0
3288 1900 0
3294 1932 0
3302 1968 0
3311 2010 0
3321 2057 0
3331 2108 0
3340 2165 186
3349 2226 712
3353 2292 1032
3378 2356 1224
3459 2412 1249
3533 2473 1306
3606 2538 1378
3680 2606 1458
3787 2669 1458
3906 2732 1428
4026 2799 1403
4095 2867 1384
4095 2937 1369
3472 1892 0
3471 1898 0
3470 1907 0
3467 1920 0
3464 1938 0
3460 1961 0
3455 1989 0
3457 2020 0
3464 2055 0
3473 2094 0
3482 2139 0
3492 2188 0
3502 2241 0
3511 2299 468
3519 2362 869
3519 2430 1176
3568 2490 1291
3646 2547 1327
3720 2608 1388
3793 2673 1461
3867 2741 1542
3975 2805 1538
4094 2868 1508
4095 2933 1483
4095 3001 1463
3638 1987 0
3637 1993 0
3635 2001 0
3633 2014 0
3631 2030 0
3627 2052 0
3622 2079 0
3619 2109 0
3626 2142 0
3634 2179 0
3643 2221 0
3653 2268 0
3663 2319 0
3672 2374 0
3681 2434 668
3688 2498 1019
3683 2569 1325
3756 2624 1364
3832 2682 1407
3906 2744 1471
3979 2809 1545
4053 2877 1627
4095 2940 1619
4095 3003 1589
4095 3069 1561
3803 2082 0
3802 2088 0
3801 2095 0
3799 2107 0
3797 2123 0
3793 2143 0
3789 2169 0
3783 2199 0
3789 2230 0
3796 2265 0
3804 2305 0
3814 2349 0
3823 2398 0
3833 2451 0
3843 2508 360
3851 2569 842
3856 2635 1165
3856 2705 1440
3943 2758 1440
4019 2817 1488
4092 2879 1553
4095 2945 1629
4095 3013 1711
4095 3076 1698
4095 3140 1665
3969 2177 0
3968 2182 0
3967 2190 0
3965 2200 0
3963 2216 0
3959 2235 0
3955 2259 0
3950 2288 0
3951 2319 0
3958 2353 0
3966 2391 0
3975 2433 0
3984 2479 0
3994 2529 0
4004 2584 0
4013 2643 606
4021 2705 1001
4023 2773 1309
4049 2837 1498
4095 2892 1518
4095 2952 1570
4095 3015 1637
4095 3081 1712
4095 3150 1793
4095 3212 1775
158 42 0
212 100 26
332 161 23
478 243 0
629 330 0
782 420 0
935 512 0
1090 606 0
1244 701 0
1398 797 0
1553 893 0
1708 990 0
1863 1086 0
2018 1183 0
2173 1280 0
2328 1377 0
2483 1475 0
2638 1572 0
2794 1669 0
2949 1767 0
3104 1864 0
3260 1962 0
3415 2059 0
3571 2157 0
3726 2255 0
192 103 45
171 171 171
314 225 155
462 293 132
615 370 100
768 454 58
922 541 3
1077 632 0
1232 724 0
1386 817 0
1542 911 0
1697 1006 0
1852 1101 0
2008 1197 0
2163 1293 0
2319 1389 0
2474 1486 0
2629 1582 0
2785 1679 0
2941 1776 0
3096 1873 0
3252 1970 0
3407 2067 0
3563 2164 0
3719 2261 0
341 161 10
332 222 129
376 280 203
500 341 201
646 409 161
796 486 110
947 569 45
1100 654 0
1253 743 0
1406 833 0
1561 925 0
1715 1018 0
1869 1112 0
2024 1207 0
2178 1302 0
2333 1397 0
2488 1493 0
2643 1589 0
2798 1685 0
2954 1781 0
3108 1878 0
3264 1974 0
3419 2071 0
3574 2168 0
3729 2265 0
504 235 0
496 284 68
501 339 195
571 399 250
694 462 238
822 535 233
971 611 168
1122 691 87
1273 774 0
1426 861 0
1578 950 0
1731 1040 0
1885 1132 0
2039 1224 0
2193 1318 0
2347 1412 0
2501 1506 0
2656 1601 0
2810 1696 0
2965 1792 0
3120 1887 0
3275 1983 0
3430 2079 0
3585 2176 0
3740 2272 0
666 318 0
660 360 0
662 406 116
679 467 269
764 526 304
885 591 289
1008 663 287
1146 739 252
1296 817 168
1446 899 52
1598 983 0
1750 1070 0
1903 1159 0
2056 1249 0
2209 1340 0
2362 1432 0
2516 1525 0
2670 1618 0
2824 1712 0
2978 1807 0
3133 1901 0
3287 1996 0
3442 2091 0
3596 2187 0
3751 2283 0
830 406 0
824 439 0
823 479 16
835 532 195
870 594 322
955 656 363
1075 720 345
1197 792 339
1321 870 347
1470 946 269
1620 1026 155
1771 1109 6
1922 1194 0
2075 1281 0
2227 1369 0
2379 1459 0
2533 1550 0
2686 1641 0
2839 1733 0
2993 1826 0
3147 1920 0
3301 2013 0
3455 2108 0
3609 2202 0
3763 2297 0
994 494 0
990 523 0
985 558 0
995 604 68
1004 663 297
1059 724 386
1144 788 428
1265 852 408
1386 923 399
1509 999 401
1645 1077 372
1794 1155 278
1944 1237 132
2095 1320 0
2247 1405 0
2398 1492 0
2551 1580 0
2703 1670 0
2856 1760 0
3009 1851 0
3163 1943 0
3316 2035 0
3470 2128 0
3623 2221 0
3777 2315 0
1159 585 0
1155 610 0
1149 641 0
1156 681 0
1167 734 165
1169 798 417
1247 855 454
1334 920 496
1454 984 474
1575 1055 462
1698 1130 461
1821 1209 471
1968 1286 394
2118 1366 278
2268 1448 97
2419 1532 0
2571 1617 0
2723 1704 0
2875 1792 0
3027 1881 0
3180 1971 0
3333 2062 0
3486 2153 0
3639 2245 0
3793 2337 0
1323 677 0
1320 697 0
1315 725 0
1318 762 0
1328 808 0
1337 865 287
1359 929 479
1435 989 526
1523 1053 566
1643 1118 542
1764 1187 528
1886 1262 525
2009 1340 530
2142 1419 508
2292 1497 409
2442 1577 273
2593 1660 45
2743 1744 0
2895 1829 0
3047 1916 0
3199 2004 0
3351 2093 0
3504 2183 0
3656 2273 0
3809 2363 0
1489 770 0
1486 788 0
1482 811 0
1480 845 0
1489 887 0
1499 938 94
1507 999 411
1547 1061 545
1622 1122 601
1712 1187 640
1832 1251 614
1952 1320 597
2074 1394 592
2197 1472 594
2321 1551 604
2466 1629 531
2616 1708 419
2766 1789 257
2917 1872 0
3068 1957 0
3219 2042 0
3371 2129 0
3523 2217 0
3675 2305 0
3827 2394 0
1654 862 0
1651 878 0
1648 900 0
1642 931 0
1650 969 0
1660 1015 0
1670 1070 248
1675 1135 538
1735 1194 616
1809 1256 677
1901 1322 713
2021 1386 687
2141 1454 669
2262 1527 660
2384 1603 660
2508 1683 667
2640 1762 650
2789 1840 551
2939 1920 422
3090 2002 228
3240 2085 0
3392 2170 0
3543 2255 0
3695 2341 0
3847 2428 0
