Examples/AB - Cooler 2.3dl
#25pt 3DLUT created by 3D LUT Creator Pro (c) Oleg Sharonov
#Copyright Oleg Sharonov
#IMAGEPROFILE sRGB IEC61966-2.1 v.2.10
#INPUTGAMMA sRGB IEC61966-2.1 v.2.10
#OUTPUTGAMMA sRGB IEC61966-2.1 v.2.10
0 43 86 128 171 214 256 299 341 384 427 469 512 555 597 640 682 725 768 810 853 896 938 981 1023 
0 0 0
0 6 119
3 13 252
3 26 398
6 39 541
10 61 683
13 87 828
19 116 975
26 155 1115
32 195 1260
42 235 1404
52 276 1550
61 316 1693
71 358 1837
84 398 1981
100 439 2125
113 481 2271
129 521 2414
149 562 2558
168 602 2703
186 643 2846
206 684 2990
225 725 3134
245 765 3279
264 806 3423
45 142 149
0 168 217
0 174 314
0 189 428
0 209 547
0 230 668
0 257 796
0 287 928
0 318 1060
0 351 1197
0 384 1336
3 419 1474
10 455 1611
16 492 1750
26 528 1890
36 566 2030
45 603 2171
55 642 2313
68 680 2455
81 719 2598
97 758 2740
113 797 2882
129 835 3026
149 874 3169
171 914 3312
103 299 308
10 326 341
0 334 404
0 341 503
0 354 610
0 370 725
0 389 844
0 409 964
0 434 1089
0 461 1217
0 490 1347
0 520 1478
0 552 1614
0 584 1750
0 617 1888
0 651 2027
10 686 2163
16 721 2299
26 757 2438
39 794 2577
52 831 2716
65 868 2857
81 905 2997
97 943 3138
113 981 3280
192 458 471
55 482 492
6 494 528
0 503 594
0 510 692
0 521 793
0 533 907
0 551 1021
0 570 1140
0 590 1260
0 614 1385
0 639 1509
0 664 1636
0 693 1766
0 723 1897
0 752 2030
0 785 2166
0 816 2301
0 849 2438
0 883 2577
0 917 2715
13 952 2852
26 988 2989
39 1023 3127
55 1060 3265
289 617 632
132 640 647
58 652 670
0 663 715
0 671 784
0 680 880
0 689 981
0 701 1091
0 715 1206
0 731 1317
0 751 1437
0 770 1557
0 793 1679
0 816 1803
0 842 1929
0 868 2056
0 897 2187
0 926 2317
0 955 2449
0 986 2583
0 1018 2717
0 1050 2853
0 1083 2990
0 1116 3128
0 1149 3266
386 776 793
235 798 804
142 809 821
52 822 852
0 832 902
0 839 973
0 847 1067
0 856 1171
0 868 1273
0 880 1388
0 895 1502
0 912 1615
0 931 1733
0 950 1854
0 972 1975
0 995 2098
0 1020 2224
0 1046 2349
0 1073 2477
0 1101 2607
0 1129 2737
0 1159 2868
0 1189 3001
0 1220 3135
0 1251 3269
482 934 955
339 955 963
255 966 977
152 979 1001
45 991 1036
0 1001 1088
0 1008 1163
0 1016 1257
0 1025 1361
0 1035 1459
0 1047 1571
0 1061 1685
0 1076 1799
0 1093 1911
0 1111 2030
0 1131 2150
0 1153 2272
0 1175 2394
0 1198 2518
0 1223 2643
0 1250 2770
0 1276 2897
0 1304 3026
0 1332 3156
0 1362 3287
579 1093 1116
440 1113 1123
360 1124 1133
264 1136 1151
152 1149 1180
32 1161 1223
0 1170 1278
0 1177 1354
0 1184 1447
0 1193 1548
0 1203 1649
0 1215 1755
0 1227 1868
0 1241 1983
0 1257 2095
0 1274 2209
0 1292 2328
0 1312 2448
0 1333 2568
0 1355 2690
0 1378 2814
0 1402 2938
0 1427 3064
0 1454 3190
0 1480 3318
676 1251 1276
541 1271 1282
464 1281 1291
376 1293 1306
276 1305 1330
142 1318 1361
13 1330 1412
0 1338 1467
0 1346 1543
0 1353 1638
0 1361 1736
0 1370 1839
0 1383 1938
0 1394 2052
0 1407 2165
0 1421 2280
0 1438 2391
0 1455 2506
0 1473 2625
0 1493 2745
0 1513 2865
0 1535 2986
0 1557 3109
0 1581 3233
0 1605 3358
773 1409 1438
641 1429 1442
566 1439 1450
482 1450 1463
386 1463 1481
278 1475 1510
126 1488 1544
0 1498 1598
0 1506 1656
0 1514 1733
0 1521 1828
0 1530 1922
0 1538 2029
0 1550 2127
0 1561 2235
0 1574 2348
0 1587 2462
0 1602 2578
0 1619 2687
0 1636 2803
0 1654 2922
0 1673 3041
0 1694 3162
0 1715 3283
0 1737 3405
870 1567 1599
740 1586 1603
668 1597 1610
587 1608 1620
497 1620 1636
399 1632 1661
273 1645 1690
110 1657 1730
0 1668 1783
0 1675 1846
0 1683 1923
0 1689 2018
0 1698 2110
0 1707 2218
0 1717 2317
0 1729 2418
0 1741 2532
0 1754 2645
0 1767 2760
0 1782 2875
0 1800 2983
0 1817 3101
0 1835 3219
0 1854 3338
0 1874 3458
967 1726 1760
839 1744 1763
769 1755 1769
692 1765 1779
605 1777 1792
508 1789 1811
403 1802 1839
264 1814 1870
90 1826 1918
0 1836 1969
0 1843 2036
0 1851 2112
0 1858 2208
0 1867 2298
0 1875 2405
0 1885 2507
0 1896 2605
0 1908 2715
0 1920 2828
0 1933 2942
0 1947 3057
0 1962 3172
0 1981 3279
0 1998 3397
0 2016 3516
1063 1884 1921
938 1903 1924
869 1912 1929
794 1923 1938
712 1935 1950
619 1946 1966
521 1958 1990
403 1971 2019
248 1984 2052
58 1995 2106
0 2005 2155
0 2012 2225
0 2019 2302
0 2026 2398
0 2035 2488
0 2043 2592
0 2052 2697
0 2064 2795
0 2075 2898
0 2087 3012
0 2100 3125
0 2113 3240
0 2128 3355
0 2144 3468
0 2162 3577
1160 2042 2083
1037 2061 2085
969 2070 2089
896 2081 2097
815 2092 2108
728 2104 2123
630 2116 2141
527 2128 2169
398 2141 2199
230 2153 2238
19 2165 2294
0 2174 2342
0 2180 2415
0 2188 2491
0 2194 2588
0 2203 2678
0 2212 2780
0 2220 2886
0 2231 2985
0 2244 3083
0 2255 3195
0 2266 3309
0 2279 3423
0 2293 3537
0 2308 3652
1256 2201 2244
1135 2219 2246
1069 2229 2250
997 2238 2256
919 2250 2266
835 2261 2279
742 2273 2297
642 2285 2319
528 2298 2348
388 2311 2380
209 2323 2425
0 2334 2480
0 2342 2531
0 2349 2605
0 2357 2681
0 2363 2779
0 2371 2869
0 2380 2967
0 2388 3075
0 2398 3175
0 2410 3272
0 2422 3379
0 2433 3492
0 2446 3605
0 2459 3720
1353 2359 2405
1234 2377 2407
1168 2387 2410
1098 2397 2417
1022 2408 2425
939 2419 2437
850 2430 2452
752 2443 2471
651 2454 2499
527 2467 2528
370 2481 2561
180 2492 2612
0 2502 2665
0 2510 2720
0 2517 2795
0 2525 2871
0 2531 2969
0 2540 3059
0 2549 3154
0 2557 3262
0 2566 3365
0 2578 3463
0 2590 3562
0 2601 3675
0 2613 3789
1450 2517 2566
1332 2535 2568
1267 2544 2571
1198 2555 2577
1123 2565 2585
1043 2576 2595
957 2588 2609
863 2600 2627
763 2612 2649
654 2624 2678
521 2637 2708
354 2650 2745
139 2661 2800
0 2671 2851
0 2679 2909
0 2686 2985
0 2694 3061
0 2700 3159
0 2708 3249
0 2717 3341
0 2725 3449
0 2734 3554
0 2745 3653
0 2757 3751
0 2769 3859
1547 2675 2727
1430 2693 2729
1366 2702 2731
1297 2712 2736
1224 2723 2744
1146 2734 2754
1063 2745 2766
972 2757 2782
874 2770 2802
774 2781 2829
654 2794 2857
510 2807 2889
337 2819 2932
90 2830 2989
0 2840 3036
0 2847 3099
0 2854 3175
0 2862 3250
0 2868 3349
0 2877 3439
0 2886 3529
0 2893 3636
0 2902 3744
0 2913 3842
0 2924 3940
1643 2834 2888
1528 2851 2890
1465 2861 2892
1397 2870 2897
1325 2881 2904
1249 2891 2913
1167 2903 2924
1080 2915 2939
985 2927 2956
883 2939 2978
778 2951 3007
651 2964 3037
496 2977 3070
314 2988 3119
23 3000 3176
0 3008 3222
0 3016 3288
0 3023 3365
0 3031 3440
0 3037 3540
0 3045 3629
0 3054 3720
0 3062 3823
0 3070 3932
0 3080 4032
1740 2992 3049
1626 3009 3051
1564 3019 3053
1497 3029 3057
1426 3039 3064
1351 3049 3072
1271 3061 3083
1185 3072 3096
1094 3084 3112
995 3096 3132
897 3108 3159
780 3120 3187
645 3134 3218
477 3147 3253
284 3158 3307
0 3169 3362
0 3177 3408
0 3184 3477
0 3191 3555
0 3199 3630
0 3205 3729
0 3213 3820
0 3222 3910
0 3231 4010
0 3239 4095
1837 3150 3210
1724 3167 3212
1662 3177 3214
1596 3186 3217
1526 3196 3223
1452 3207 3231
1374 3218 3241
1290 3229 3253
1202 3241 3269
1107 3253 3287
1004 3266 3307
902 3277 3337
779 3290 3366
633 3303 3398
462 3316 3439
245 3327 3495
0 3337 3547
0 3346 3595
0 3353 3667
0 3360 3744
0 3368 3819
0 3374 3919
0 3382 4010
0 3390 4095
701 3387 4095
1934 3309 3372
1822 3325 3373
1761 3335 3375
1695 3344 3378
1626 3355 3384
1553 3365 3391
1476 3376 3400
1395 3387 3412
1308 3399 3426
1216 3411 3442
1117 3423 3462
1020 3435 3489
905 3447 3516
775 3460 3546
619 3473 3580
443 3485 3626
192 3496 3683
0 3506 3732
0 3514 3784
0 3521 3856
0 3528 3934
0 3536 4009
0 3542 4095
449 3544 4095
1375 3516 4095
2030 3467 3533
1920 3484 3534
1859 3493 3536
1794 3502 3539
1726 3512 3544
1654 3523 3551
1578 3534 3559
1498 3545 3570
1414 3556 3583
1325 3568 3599
1229 3580 3617
1126 3593 3637
1026 3604 3668
906 3617 3696
768 3630 3727
600 3643 3762
419 3654 3814
119 3665 3871
0 3675 3918
0 3683 3973
0 3690 4046
0 3697 4095
834 3688 4095
1592 3652 4095
1869 3639 4095
2127 3626 3694
2018 3642 3695
1957 3651 3697
1893 3660 3699
1825 3670 3704
1754 3680 3710
1680 3691 3718
1601 3702 3728
1518 3714 3741
1431 3725 3755
1338 3737 3772
1239 3750 3791
1141 3761 3818
1030 3774 3846
904 3786 3875
757 3799 3908
585 3812 3947
389 3823 4001
23 3835 4058
0 3843 4095
278 3848 4095
1277 3820 4095
1839 3786 4095
2100 3769 4095
2367 3748 4095
2224 3784 3855
2115 3800 3856
2056 3809 3858
1992 3818 3860
1925 3828 3865
1855 3838 3870
1781 3849 3878
1703 3860 3887
1622 3871 3899
1537 3883 3913
1446 3895 3928
1351 3907 3947
1248 3919 3967
1149 3931 3998
1031 3943 4025
899 3956 4056
743 3970 4089
569 3982 4095
939 3976 4095
1528 3949 4095
1878 3929 4095
2188 3905 4095
2386 3890 4095
2660 3863 4095
2780 3858 4095
36 32 55
48 29 220
48 26 386
42 29 543
39 36 695
42 42 850
48 48 994
58 65 1143
71 84 1289
84 110 1429
97 145 1575
110 183 1714
126 222 1855
142 264 2000
161 304 2139
180 347 2283
198 388 2424
217 428 2565
235 470 2707
255 512 2850
273 553 2992
293 594 3134
312 636 3276
330 678 3418
349 719 3561
177 152 174
119 161 345
113 168 446
107 171 580
100 180 717
97 192 845
97 212 976
100 235 1109
103 260 1242
107 287 1372
113 318 1506
123 351 1642
129 384 1778
142 419 1915
152 454 2053
168 490 2192
180 527 2332
195 564 2471
212 602 2611
225 641 2753
243 678 2893
257 717 3035
276 756 3176
291 795 3318
308 834 3460
262 297 341
186 310 451
158 320 532
97 339 610
71 354 711
55 369 818
48 386 935
48 404 1055
45 428 1175
45 454 1296
48 481 1423
52 509 1554
58 540 1684
65 570 1817
71 603 1951
78 636 2086
87 670 2221
100 705 2359
110 740 2497
123 776 2635
139 812 2775
155 849 2914
171 885 3055
189 923 3194
206 961 3336
351 448 496
252 468 565
161 485 618
139 493 696
74 509 778
45 522 880
29 536 990
19 552 1096
16 569 1215
13 588 1336
16 610 1458
16 632 1581
16 660 1703
19 688 1828
26 716 1957
32 746 2087
39 777 2218
45 808 2350
55 842 2485
65 874 2619
78 908 2754
90 943 2890
103 978 3027
119 1013 3165
136 1049 3303
439 604 651
336 625 702
209 646 735
145 658 784
113 665 868
45 680 956
13 692 1058
0 703 1163
0 717 1273
0 734 1379
0 751 1497
0 770 1616
0 791 1739
0 814 1863
0 838 1988
0 865 2113
0 893 2238
0 921 2369
0 950 2500
6 981 2631
16 1011 2762
26 1043 2894
36 1076 3028
48 1109 3162
61 1143 3297
531 761 809
420 783 846
278 805 868
201 817 905
126 829 960
81 838 1044
13 849 1139
0 859 1234
0 871 1331
0 882 1443
0 897 1554
0 914 1662
0 931 1780
0 950 1900
0 971 2021
0 994 2144
0 1018 2269
0 1043 2394
0 1068 2522
0 1097 2647
0 1126 2776
0 1155 2908
0 1184 3040
0 1215 3173
0 1246 3308
625 919 969
510 940 997
365 962 1013
278 975 1041
189 988 1080
107 999 1143
39 1009 1223
0 1017 1319
0 1027 1412
0 1038 1508
0 1049 1616
0 1062 1729
0 1078 1840
0 1095 1950
0 1113 2069
0 1132 2189
0 1152 2309
0 1174 2431
0 1198 2556
0 1222 2680
0 1247 2806
0 1273 2933
0 1302 3059
0 1330 3188
0 1359 3319
716 1077 1127
603 1097 1152
457 1119 1166
360 1134 1182
273 1146 1216
174 1157 1260
78 1169 1325
0 1179 1406
0 1185 1499
0 1194 1594
0 1205 1689
0 1217 1792
0 1229 1905
0 1242 2019
0 1258 2128
0 1275 2240
0 1294 2360
0 1312 2479
0 1333 2599
0 1355 2722
0 1377 2844
0 1401 2969
0 1426 3094
0 1451 3220
0 1478 3348
809 1236 1286
696 1254 1308
548 1277 1317
455 1291 1333
367 1304 1359
262 1316 1391
155 1327 1443
42 1338 1510
0 1347 1587
0 1354 1682
0 1363 1777
0 1372 1874
0 1384 1971
0 1396 2083
0 1408 2197
0 1422 2311
0 1439 2419
0 1456 2533
0 1474 2652
0 1493 2771
0 1513 2891
0 1535 3013
0 1557 3136
0 1580 3259
0 1604 3384
902 1394 1445
792 1412 1465
640 1436 1470
553 1448 1486
458 1461 1503
367 1473 1535
252 1486 1570
129 1497 1628
0 1508 1697
0 1515 1771
0 1522 1867
0 1531 1958
0 1540 2060
0 1551 2156
0 1563 2262
0 1575 2376
0 1588 2489
0 1603 2604
0 1620 2711
0 1637 2826
0 1655 2945
0 1674 3065
0 1694 3185
0 1715 3306
0 1737 3428
995 1553 1605
886 1570 1624
736 1593 1627
651 1606 1641
559 1619 1656
467 1631 1681
362 1643 1712
240 1656 1754
94 1667 1813
0 1676 1881
0 1684 1956
0 1690 2052
0 1699 2141
0 1708 2246
0 1719 2343
0 1730 2443
0 1742 2556
0 1754 2669
0 1768 2784
0 1783 2897
0 1801 3004
0 1818 3121
0 1836 3240
0 1855 3359
0 1875 3479
