Examples/AB - All Yellow-Red (Double grid) With Mask.3dl
#25pt 3DLUT created by 3D LUT Creator Pro (c) Oleg Sharonov
#Copyright Oleg Sharonov
#IMAGEPROFILE sRGB IEC61966-2.1 v.2.10
#INPUTGAMMA sRGB IEC61966-2.1 v.2.10
#OUTPUTGAMMA sRGB IEC61966-2.1 v.2.10
0 256 512 768 1023
0 0 0
0 0 1024
0 0 2048
0 0 3071
0 0 4095
0 1024 0
0 1024 1024
0 1024 2048
0 1024 3071
0 1024 4095
0 2048 0
0 2048 1024
0 2048 2048
0 2048 3071
0 2048 4095
0 3071 0
0 3071 1024
0 3071 2048
0 3071 3071
0 3071 4095
0 4095 0
0 4095 1024
0 4095 2048
0 4095 3071
0 4095 4095
1024 0 0
1024 0 1024
1024 0 2048
1024 0 3071
1024 0 4095
1024 1024 0
1024 1024 1024
1024 1024 2048
1024 1024 3071
1024 1024 4095
1024 2048 0
1024 2048 1024
1024 2048 2048
1024 2048 3071
1024 2048 4095
1024 3071 0
1024 3071 1024
1024 3071 2048
1024 3071 3071
1024 3071 4095
1024 4095 0
1024 4095 1024
1024 4095 2048
1024 4095 3071
1024 4095 4095
2048 0 0
2048 0 1024
2048 0 2048
2048 0 3071
2048 0 4095
2048 1024 0
2048 1024 1024
2048 1024 2048
2048 1024 3071
2048 1024 4095
2048 2048 0
2088 1989 1039
2048 2048 2048
2048 2048 3071
2048 2048 4095
2048 3071 0
2048 3071 1024
2048 3071 2048
2048 3071 3071
2048 3071 4095
2048 4095 0
2048 4095 1024
2048 4095 2048
2048 4095 3071
2048 4095 4095
3071 0 0
3071 0 1024
3071 0 2048
3071 0 3071
3071 0 4095
3071 1024 0
3071 1024 1024
3071 1024 2048
3071 1024 3071
3071 1024 4095
3071 2048 0
3090 2014 1031
3071 2048 2048
3071 2048 3071
3071 2048 4095
3071 3071 0
3091 3042 1034
3112 3012 2066
3071 3071 3071
3071 3071 4095
3071 4095 0
3071 4095 1024
3071 4095 2048
3071 4095 3071
3071 4095 4095
4095 0 0
4095 0 1024
4095 0 2048
4095 0 3071
4095 0 4095
4095 1024 0
4095 1024 1024
4095 1024 2048
4095 1024 3071
4095 1024 4095
4095 2048 0
4094 2053 1017
4095 2048 2048
4095 2048 3071
4095 2048 4095
4095 3071 0
4095 3057 1052
4095 3019 2096
4095 3071 3071
4095 3071 4095
4095 4095 0
4095 4090 1034
4095 4025 2150
4095 4043 3131
4095 4095 4095
