Examples/AB - Saturation decrease toned.3dl
#25pt 3DLUT created by 3D LUT Creator Pro (c) Oleg Sharonov
#Copyright Oleg Sharonov
#IMAGEPROFILE sRGB IEC61966-2.1 v.2.10
#INPUTGAMMA sRGB IEC61966-2.1 v.2.10
#OUTPUTGAMMA sRGB IEC61966-2.1 v.2.10
0 256 512 768 1023
0 0 129
143 169 460
532 656 958
866 1067 1359
1171 1416 1733
444 1383 1153
567 1365 1523
948 1321 1616
1204 1533 1866
1531 1886 2312
932 2516 1949
901 2543 2155
1157 2490 2669
1650 2462 3048
1991 2616 3407
1418 3651 2784
1372 3631 2890
1389 3605 3244
1769 3528 3803
2497 3438 4055
1729 4010 3160
1760 4020 3298
1824 4039 3611
2079 4052 4004
3452 3977 4055
617 56 216
634 179 644
582 603 926
886 1032 1331
1209 1411 1736
744 844 470
824 932 1101
980 1179 1440
1215 1458 1765
1563 1835 2240
917 2170 1522
1221 2191 1847
1353 2277 2402
1723 2325 2829
2089 2561 3329
1350 3328 2437
1611 3333 2636
1587 3409 3057
1970 3402 3646
2631 3420 4055
1744 4031 3083
2035 4012 3247
2065 4037 3566
2267 4058 3985
3573 3993 4055
1415 188 422
1687 34 821
1463 604 1224
1140 1105 1396
1370 1440 1816
1566 863 568
1554 944 1050
1579 1064 1477
1384 1386 1701
1660 1768 2236
1695 1857 903
1751 1893 1241
1790 1968 2093
1948 2197 2611
2243 2480 3201
1565 3168 1950
1740 3174 2158
2182 3172 2788
2344 3276 3466
2824 3377 4055
1914 4067 2881
2109 4057 3036
2554 4029 3481
2597 4069 3954
3718 4016 4055
2285 429 644
2549 273 887
2867 0 1458
2368 1079 1866
1888 1631 2055
2453 964 731
2516 1031 1100
2846 890 1618
2492 1357 2071
2069 1815 2287
2680 1854 662
2712 1908 1217
2559 2020 2030
2656 2088 2605
2523 2327 3041
2802 2948 1379
2859 3003 1608
2866 3034 2264
2879 3099 3276
3087 3287 4055
2324 4095 2360
2577 4095 2676
2772 4095 3036
3215 4057 3841
3897 4046 4055
3154 795 927
3368 739 1080
3512 776 1652
3953 181 2258
3227 1594 2672
3292 1189 1003
3399 1261 1286
3551 1257 1759
3807 1163 2384
3343 1781 2873
3423 1983 1312
3531 2034 1530
3478 2127 2102
3591 2145 2687
3539 2298 3335
3774 2940 988
3851 3016 1404
3800 3068 2194
3496 3206 3141
3624 3216 3862
3854 3994 1897
3956 4066 2063
3979 4079 2529
3969 4088 3384
4064 4095 4055
