Examples/AB - All Yellow-Red (Double grid).3dl
#25pt 3DLUT created by 3D LUT Creator Pro (c) Oleg Sharonov
#Copyright Oleg Sharonov
#IMAGEPROFILE 
#INPUTGAMMA 
#OUTPUTGAMMA 
0 256 512 768 1023
0 0 0
1001 0 222
1940 580 278
2829 1468 0
3727 2235 0
1088 0 48
1225 467 558
2020 899 577
2896 1596 0
3787 2302 0
2087 165 0
2071 841 430
2324 1431 974
3030 1955 857
3891 2519 0
3028 1335 0
3005 1537 0
3035 1953 837
3415 2392 1296
4095 2849 1120
3979 2152 0
3962 2249 0
3987 2496 0
4045 2867 1442
4095 3252 1708
1088 0 48
1225 468 558
2019 899 579
2896 1597 0
3786 2303 0
1153 565 627
1024 1024 1024
1946 1227 1025
2841 1764 771
3743 2395 0
2105 798 293
2053 1151 858
2257 1622 1317
2992 2070 1246
3878 2592 674
3046 1513 0
3018 1685 0
3030 2058 1149
3382 2473 1585
4095 2911 1464
3995 2238 0
3980 2328 0
3981 2567 0
4013 2929 1725
4095 3303 1931
2087 165 0
2071 841 430
2323 1431 974
3028 1955 863
3890 2520 0
2104 799 293
2053 1151 858
2257 1622 1317
2991 2069 1250
3876 2592 681
2208 1492 1174
2167 1659 1434
2048 2048 2048
2911 2365 1957
3800 2809 1767
3091 1933 575
3076 2044 1014
3021 2341 1790
3277 2706 2241
4013 3097 2196
4044 2480 0
4034 2554 0
3994 2769 1186
4032 3093 2159
4095 3457 2489
3028 1335 0
3005 1537 0
3035 1953 837
3415 2392 1297
4095 2850 1124
3046 1514 0
3018 1685 0
3030 2058 1149
3382 2473 1585
4095 2912 1468
3090 1933 582
3075 2044 1017
3021 2341 1790
3277 2706 2241
4011 3097 2199
3256 2429 1673
3237 2505 1867
3180 2723 2371
3071 3071 3071
3918 3396 2973
4095 2853 1202
4095 2910 1456
4087 3084 2047
4032 3378 2822
4095 3725 3246
3979 2152 0
3962 2249 0
3987 2496 0
4045 2867 1442
4095 3252 1709
3995 2239 0
3980 2328 0
3981 2567 0
4013 2929 1725
4095 3303 1932
4043 2481 0
4033 2554 0
3994 2769 1187
4032 3093 2159
4095 3457 2489
4095 2854 1207
4095 2911 1460
4086 3084 2049
4032 3378 2822
4095 3725 3246
4095 3290 2226
4095 3338 2370
4095 3484 2772
4095 3740 3374
4095 4095 4095
