Examples/AB - Saturation decrease toned.3dl
#25pt 3DLUT created by 3D LUT Creator Pro (c) Oleg Sharonov
#Copyright Oleg Sharonov
#IMAGEPROFILE sRGB IEC61966-2.1 v.2.10
#INPUTGAMMA sRGB IEC61966-2.1 v.2.10
#OUTPUTGAMMA sRGB IEC61966-2.1 v.2.10
0 43 86 128 171 214 256 299 341 384 427 469 512 555 597 640 682 725 768 810 853 896 938 981 1023 
0 0 129
13 16 165
27 32 200
43 54 249
68 86 312
101 124 379
143 169 460
183 213 538
246 293 622
319 384 707
393 479 794
466 573 881
532 656 958
591 730 1028
648 801 1095
703 870 1161
758 937 1227
813 1004 1294
866 1067 1359
920 1130 1425
973 1192 1491
1015 1240 1541
1057 1289 1594
1111 1349 1659
1171 1416 1733
36 140 276
50 145 376
82 137 398
114 156 434
140 178 474
164 201 516
194 238 571
254 312 639
314 387 709
380 469 785
446 554 862
512 636 939
566 704 1002
621 772 1067
675 838 1130
728 904 1194
781 969 1258
835 1033 1323
888 1095 1388
940 1157 1453
993 1219 1519
1041 1273 1577
1089 1328 1637
1145 1392 1707
1208 1462 1785
82 306 436
81 327 512
122 340 606
161 288 607
201 320 643
259 366 687
312 417 735
361 470 784
414 533 842
470 600 904
522 662 963
572 722 1019
620 781 1075
669 841 1132
720 903 1192
771 963 1252
822 1024 1314
873 1085 1376
925 1144 1439
977 1205 1504
1031 1267 1571
1082 1326 1635
1134 1386 1700
1193 1453 1775
1258 1526 1858
162 631 644
162 669 716
170 688 806
232 677 893
323 633 912
384 624 918
437 645 942
487 681 977
524 710 1004
563 746 1040
604 789 1081
647 836 1126
691 886 1175
736 938 1226
783 992 1280
831 1047 1336
879 1102 1394
928 1159 1453
977 1215 1513
1030 1275 1578
1084 1336 1645
1134 1394 1710
1188 1456 1780
1250 1526 1860
1318 1602 1949
288 991 882
280 1011 932
278 1027 1005
294 1022 1089
376 972 1153
470 914 1167
532 886 1160
578 880 1161
617 890 1173
655 911 1195
694 939 1225
733 974 1259
773 1013 1300
816 1057 1345
859 1102 1392
903 1151 1444
949 1201 1497
996 1253 1553
1046 1308 1613
1096 1364 1675
1146 1418 1737
1196 1475 1802
1252 1540 1877
1314 1611 1961
1384 1688 2054
367 1189 1018
360 1203 1055
354 1219 1112
358 1228 1191
381 1216 1274
472 1169 1337
573 1119 1362
646 1095 1364
700 1089 1365
744 1094 1375
785 1109 1393
824 1131 1418
863 1160 1449
902 1193 1485
944 1232 1527
986 1274 1573
1031 1319 1623
1076 1366 1675
1122 1414 1730
1169 1464 1788
1217 1515 1848
1267 1570 1913
1323 1635 1991
1386 1706 2079
1456 1783 2176
444 1383 1153
438 1393 1181
431 1405 1226
427 1416 1292
441 1417 1372
473 1405 1456
567 1365 1523
672 1317 1555
749 1294 1560
811 1286 1566
862 1289 1575
906 1302 1592
948 1321 1616
990 1346 1646
1031 1377 1681
1073 1411 1721
1115 1449 1765
1159 1490 1813
1204 1533 1866
1250 1579 1921
1297 1627 1980
1344 1677 2043
1400 1741 2123
1462 1811 2213
1531 1886 2312
522 1567 1281
517 1575 1305
510 1586 1342
505 1597 1396
506 1604 1468
527 1601 1552
569 1586 1634
662 1554 1707
772 1515 1753
853 1495 1762
922 1484 1774
979 1486 1785
1028 1496 1802
1075 1513 1825
1118 1535 1855
1160 1562 1889
1203 1593 1928
1246 1628 1973
1289 1665 2021
1334 1706 2074
1380 1750 2132
1427 1796 2195
1480 1856 2274
1543 1925 2366
1612 1999 2468
604 1755 1413
601 1761 1433
595 1771 1464
588 1781 1511
584 1790 1575
594 1793 1650
615 1789 1734
670 1771 1818
761 1741 1892
872 1706 1947
959 1692 1970
1035 1684 1991
1096 1684 2004
1149 1692 2022
1198 1706 2046
1244 1726 2077
1289 1750 2113
1333 1779 2153
1377 1811 2199
1421 1846 2250
1466 1883 2305
1513 1925 2367
1563 1981 2444
1623 2044 2533
1690 2114 2635
688 1945 1547
685 1950 1563
679 1958 1591
672 1967 1632
667 1976 1686
667 1982 1754
682 1982 1834
704 1978 1919
770 1957 2004
860 1928 2081
969 1895 2142
1059 1879 2174
1137 1871 2199
1204 1871 2222
1261 1879 2245
1314 1893 2273
1364 1911 2306
1411 1932 2344
1457 1959 2389
1503 1991 2441
1550 2025 2497
1597 2062 2559
1645 2111 2631
1702 2169 2716
1767 2234 2814
768 2133 1679
765 2137 1693
759 2143 1716
751 2149 1751
743 2157 1799
741 2163 1859
746 2167 1932
765 2165 2016
789 2160 2102
864 2141 2190
959 2116 2275
1066 2084 2342
1157 2067 2383
1235 2060 2412
1308 2058 2448
1371 2066 2479
1428 2079 2514
1481 2097 2554
1532 2120 2599
1582 2145 2650
1631 2175 2707
1678 2208 2771
1725 2248 2836
1781 2299 2914
1847 2357 3005
847 2320 1810
844 2324 1822
839 2328 1843
831 2334 1875
823 2341 1918
818 2347 1972
817 2353 2040
829 2354 2117
853 2350 2204
878 2345 2291
960 2327 2380
1056 2302 2470
1165 2279 2551
1261 2265 2610
1340 2258 2650
1417 2255 2695
1482 2260 2733
1541 2272 2775
1598 2288 2822
1651 2308 2874
1703 2332 2932
1754 2359 2997
1801 2391 3055
1857 2434 3123
1923 2486 3206
932 2516 1949
930 2518 1960
924 2522 1979
918 2526 2007
909 2532 2045
903 2538 2095
901 2543 2155
903 2546 2228
919 2545 2309
942 2542 2396
977 2533 2484
1060 2514 2575
1157 2490 2669
1262 2466 2758
1359 2451 2831
1440 2447 2885
1517 2447 2940
1588 2451 2996
1650 2462 3048
1709 2476 3105
1765 2494 3165
1820 2516 3232
1869 2540 3286
1924 2573 3339
1991 2616 3407
1018 2711 2090
1016 2713 2099
1011 2715 2116
1004 2719 2141
996 2724 2176
988 2727 2221
982 2731 2275
979 2734 2341
989 2734 2415
1008 2732 2499
1028 2729 2586
1080 2718 2678
1162 2700 2770
1257 2674 2869
1359 2652 2966
1457 2635 3052
1537 2630 3118
1611 2629 3181
1686 2629 3253
1750 2638 3316
1811 2651 3382
1869 2667 3452
1923 2684 3504
1982 2711 3544
2053 2749 3600
1099 2901 2228
1096 2901 2236
1091 2902 2250
1083 2904 2272
1074 2907 2303
1065 2909 2343
1057 2912 2392
1055 2914 2451
1055 2915 2521
1068 2914 2598
1092 2909 2684
1113 2906 2771
1178 2894 2864
1260 2879 2961
1359 2856 3069
1457 2833 3174
1555 2815 3272
1632 2809 3350
1706 2808 3426
1780 2810 3506
1849 2817 3586
1913 2830 3663
1972 2842 3719
2036 2857 3741
2113 2886 3780
1176 3088 2365
1173 3087 2371
1168 3087 2384
1161 3088 2404
1152 3089 2432
1142 3090 2468
1134 3092 2513
1129 3093 2567
1125 3094 2631
1134 3093 2703
1151 3091 2782
1177 3086 2869
1200 3081 2956
1277 3067 3050
1358 3052 3150
1457 3031 3263
1556 3015 3380
1653 3001 3493
1731 2994 3584
1804 2992 3669
1876 2994 3755
1949 2999 3844
2016 3005 3911
2088 3008 3916
2172 3028 3939
1258 3279 2506
1255 3278 2512
1250 3277 2523
1242 3276 2541
1234 3276 2566
1224 3276 2599
1214 3276 2640
1208 3276 2689
1207 3276 2746
1206 3275 2814
1218 3272 2888
1239 3268 2969
1262 3263 3054
1292 3256 3142
1381 3239 3236
1460 3225 3337
1558 3203 3452
1653 3186 3575
1748 3174 3692
1830 3168 3795
1904 3169 3890
1975 3173 3981
2051 3176 4055
2133 3165 4055
2225 3175 4055
1339 3468 2647
1336 3466 2652
1331 3464 2662
1324 3462 2677
1314 3460 2700
1305 3459 2730
1295 3458 2767
1287 3456 2812
1284 3455 2865
1279 3453 2928
1288 3450 2996
1304 3445 3070
1329 3439 3152
1348 3434 3235
1396 3424 3323
1484 3407 3416
1564 3390 3518
1661 3369 3633
1755 3353 3757
1848 3340 3875
1932 3334 3983
2005 3334 4055
2174 3330 4055
2248 3311 4055
2344 3312 4055
1418 3651 2784
1415 3648 2788
1409 3645 2796
1402 3641 2810
1392 3637 2830
1382 3634 2856
1372 3631 2890
1363 3628 2931
1358 3624 2978
1355 3620 3034
1356 3616 3098
1368 3611 3168
1389 3605 3244
1417 3598 3325
1438 3593 3409
1501 3582 3496
1589 3566 3589
1671 3549 3690
1769 3528 3803
1863 3512 3926
1955 3500 4040
2143 3482 4055
2359 3468 4055
2412 3445 4055
2497 3438 4055
1493 3826 2916
1490 3822 2919
1484 3817 2926
1477 3812 2938
1467 3807 2955
1457 3803 2979
1447 3798 3010
1438 3793 3046
1431 3788 3090
1430 3782 3140
1424 3778 3201
1433 3771 3265
1450 3764 3335
1475 3756 3411
1500 3748 3490
1529 3741 3572
1608 3727 3657
1695 3712 3749
1783 3697 3850
1886 3678 3961
1979 3663 4055
2288 3628 4055
2509 3608 4055
2566 3578 4055
2650 3561 4055
1573 3944 3051
1569 3941 3053
1563 3937 3059
1555 3933 3069
1545 3928 3084
1535 3924 3105
1524 3920 3132
1515 3915 3165
1508 3911 3205
1505 3906 3251
1496 3902 3307
1503 3897 3366
1517 3892 3431
1539 3886 3501
1568 3880 3575
1591 3875 3652
1632 3869 3732
1723 3859 3814
1811 3849 3903
1904 3838 4001
2089 3813 4055
2406 3775 4055
2662 3748 4055
2755 3707 4055
2812 3683 4055
1628 4009 3133
1627 4010 3140
1624 4011 3152
1620 4012 3168
1615 4014 3190
1608 4016 3217
1602 4019 3250
1595 4019 3286
1587 4013 3322
1583 4008 3364
1584 4001 3412
1576 3996 3471
1589 3990 3530
1608 3983 3595
1635 3975 3664
1666 3968 3736
1690 3963 3810
1752 3954 3885
1849 3942 3964
1937 3933 4048
2189 3910 4055
2590 3875 4055
2815 3859 4055
2926 3831 4055
2958 3798 4055
1654 4009 3140
1654 4010 3148
1653 4011 3162
1651 4013 3180
1648 4015 3203
1646 4017 3232
1643 4019 3265
1642 4022 3303
1643 4025 3347
1647 4028 3396
1653 4030 3451
1643 4034 3519
1659 4037 3583
1680 4039 3652
1706 4040 3725
1739 4041 3802
1766 4043 3880
1799 4042 3957
1882 4031 4027
2079 4010 4055
2499 3971 4055
2753 3945 4055
3017 3921 4055
3112 3899 4055
3147 3876 4055
1688 4010 3149
1689 4010 3159
1690 4012 3174
1691 4013 3194
1692 4015 3218
1694 4018 3247
1697 4020 3281
1701 4023 3319
1708 4025 3362
1719 4028 3410
1719 4031 3468
1715 4036 3534
1736 4038 3595
1763 4040 3659
1795 4042 3728
1833 4043 3799
1867 4045 3871
1902 4047 3944
1966 4047 4016
2066 4044 4055
2524 4008 4055
2829 3986 4055
3080 3969 4055
3265 3959 4055
3281 3933 4055
1729 4010 3160
1732 4011 3171
1736 4012 3188
1740 4014 3209
1745 4016 3235
1752 4018 3264
1760 4020 3298
1770 4023 3337
1784 4025 3379
1802 4028 3425
1795 4033 3488
1797 4037 3552
1824 4039 3611
1857 4041 3673
1895 4043 3737
1939 4045 3803
1979 4047 3870
2022 4050 3938
2079 4052 4004
2178 4050 4055
2558 4024 4055
2868 4003 4055
3121 3987 4055
3291 3981 4055
3452 3977 4055
70 4 135
66 14 187
45 38 208
59 59 265
82 91 323
109 124 381
142 162 448
182 208 529
244 281 612
314 373 696
387 465 781
459 558 868
526 644 947
584 717 1015
641 788 1083
695 857 1149
750 925 1215
805 991 1282
859 1056 1348
912 1119 1413
966 1181 1479
1014 1236 1538
1057 1285 1590
1111 1345 1656
1173 1414 1731
86 93 159
88 96 293
96 113 344
111 131 384
136 158 436
164 190 494
194 224 554
249 296 622
312 374 695
376 456 771
440 539 847
506 622 925
561 691 990
615 760 1054
668 825 1118
721 891 1181
774 956 1246
827 1020 1310
880 1084 1375
934 1146 1441
987 1208 1507
1039 1268 1571
1088 1323 1630
1146 1388 1701
1210 1459 1780
84 222 296
141 223 424
150 244 513
184 267 578
224 306 623
264 346 665
308 394 711
355 450 763
407 512 821
463 580 885
517 648 948
565 707 1003
614 767 1061
663 827 1119
713 889 1178
763 950 1239
815 1012 1300
866 1072 1363
918 1133 1427
970 1194 1491
1025 1256 1558
1078 1318 1626
1132 1379 1693
1193 1447 1768
1260 1522 1853
167 560 542
228 547 623
227 607 738
276 595 812
332 569 845
381 575 867
429 605 901
479 650 946
519 688 983
557 728 1021
598 772 1063
641 820 1110
684 871 1159
729 924 1211
776 978 1265
823 1033 1322
872 1090 1380
921 1146 1439
971 1203 1500
1023 1263 1565
1077 1325 1632
1130 1385 1700
1186 1449 1771
1250 1520 1852
1319 1597 1943
276 904 782
359 896 843
349 942 936
351 955 1028
415 916 1092
482 869 1113
534 847 1119
575 849 1127
612 864 1145
649 888 1171
686 919 1203
725 956 1240
766 997 1282
808 1041 1327
851 1088 1376
896 1136 1428
942 1187 1481
989 1239 1538
1039 1296 1599
1090 1352 1661
1140 1407 1724
1191 1464 1789
1249 1531 1866
1314 1604 1951
1386 1683 2047
358 1129 948
424 1112 984
420 1138 1045
408 1164 1138
420 1164 1221
499 1124 1285
584 1083 1317
649 1062 1326
696 1060 1332
738 1068 1345
777 1087 1368
816 1110 1395
854 1141 1428
894 1176 1466
935 1215 1508
978 1258 1555
1024 1305 1607
1069 1352 1659
1116 1402 1715
1163 1452 1773
1211 1504 1834
1261 1558 1898
1320 1625 1978
1386 1698 2068
1457 1777 2167
432 1325 1090
489 1314 1120
484 1335 1170
473 1360 1245
478 1368 1329
498 1362 1411
586 1325 1475
680 1282 1513
752 1263 1525
809 1259 1534
857 1265 1547
900 1279 1567
940 1300 1593
982 1327 1624
1023 1359 1661
1065 1394 1701
1108 1433 1746
1152 1475 1796
1198 1520 1849
1244 1567 1905
1291 1615 1965
1339 1665 2028
1397 1730 2109
1462 1802 2201
1534 1880 2303
508 1514 1226
556 1507 1252
551 1523 1292
547 1539 1349
537 1555 1428
553 1557 1512
586 1548 1593
675 1520 1664
777 1481 1712
852 1465 1726
919 1456 1741
973 1461 1755
1022 1473 1775
1067 1492 1800
1110 1516 1832
1153 1544 1867
1195 1577 1908
1239 1612 1953
1283 1651 2002
1328 1693 2056
1375 1737 2115
1423 1783 2178
1478 1845 2258
1543 1916 2353
1615 1994 2460
588 1700 1359
628 1695 1382
624 1709 1416
619 1724 1465
613 1739 1532
615 1749 1612
633 1749 1697
682 1735 1780
770 1709 1852
877 1677 1911
959 1665 1936
1032 1656 1958
1090 1659 1973
1143 1669 1994
1192 1685 2020
1238 1706 2051
1282 1732 2089
1326 1762 2131
1370 1795 2178
1415 1831 2229
1461 1870 2286
1509 1913 2349
1562 1970 2428
1625 2036 2521
1694 2108 2625
670 1890 1495
705 1886 1514
701 1898 1544
696 1911 1587
692 1924 1643
685 1937 1718
698 1942 1799
716 1940 1882
778 1922 1968
866 1897 2043
973 1866 2107
1059 1853 2140
1135 1847 2168
1200 1849 2193
1258 1859 2218
1310 1873 2247
1359 1893 2282
1407 1916 2321
1452 1943 2366
1498 1976 2419
1546 2012 2476
1594 2050 2539
1644 2099 2614
1704 2160 2703
1773 2228 2805
752 2080 1630
783 2077 1647
779 2087 1673
772 2097 1710
765 2108 1759
762 2118 1821
760 2126 1899
779 2127 1983
799 2125 2068
872 2110 2157
964 2086 2238
1069 2057 2307
1158 2041 2349
1235 2036 2381
1306 2035 2417
1368 2045 2449
1424 2060 2485
1478 2079 2527
1529 2103 2573
1579 2130 2625
1628 2161 2684
1676 2195 2749
1725 2237 2819
1785 2290 2901
1853 2351 2996
