Examples/AB - All Yellow-Red (Double grid).3dl
#25pt 3DLUT created by 3D LUT Creator Pro (c) Oleg Sharonov
#Copyright Oleg Sharonov
#IMAGEPROFILE 
#INPUTGAMMA 
#OUTPUTGAMMA 
0 43 86 128 171 214 256 299 341 384 427 469 512 555 597 640 682 725 768 810 853 896 938 981 1023 
0 0 0
165 0 16
334 0 39
503 0 71
671 0 116
837 0 171
1001 0 222
1164 0 267
1324 0 299
1481 78 322
1636 255 328
1788 422 316
1940 580 278
2089 735 203
2238 888 65
2386 1037 0
2534 1184 0
2681 1327 0
2829 1468 0
2977 1604 0
3126 1738 0
3275 1867 0
3425 1993 0
3576 2116 0
3727 2235 0
195 0 6
240 26 61
372 23 90
531 0 123
696 0 161
859 0 206
1022 0 248
1183 0 284
1341 0 312
1497 107 330
1651 278 330
1803 437 314
1953 593 271
2102 745 186
2250 896 36
2398 1044 0
2545 1190 0
2692 1333 0
2839 1473 0
2987 1609 0
3136 1742 0
3285 1871 0
3434 1997 0
3585 2119 0
3736 2237 0
374 0 13
372 26 94
442 65 145
572 58 186
714 52 233
876 19 267
1037 0 297
1197 13 326
1354 71 347
1509 189 360
1662 330 358
1814 475 337
1963 622 293
2112 768 209
2259 914 58
2406 1060 0
2553 1204 0
2700 1345 0
2847 1483 0
2995 1618 0
3143 1750 0
3292 1878 0
3442 2003 0
3592 2125 0
3743 2243 0
554 0 23
551 0 103
556 87 203
641 126 257
771 123 293
901 149 339
1055 145 369
1213 155 388
1369 209 403
1523 297 409
1675 409 404
1826 535 383
1975 668 339
2123 807 262
2270 946 116
2417 1087 0
2564 1227 0
2710 1364 0
2857 1500 0
3005 1633 0
3153 1763 0
3302 1890 0
3451 2014 0
3601 2134 0
3752 2252 0
735 0 36
727 0 123
730 19 217
754 161 308
838 222 363
967 230 393
1094 271 433
1231 322 468
1385 356 477
1539 419 478
1690 506 468
1840 613 446
1989 732 404
2136 859 334
2283 990 214
2430 1124 6
2576 1259 0
2722 1393 0
2869 1525 0
3016 1655 0
3164 1782 0
3312 1907 0
3462 2029 0
3611 2148 0
3762 2264 0
912 0 45
902 0 139
905 0 228
906 136 334
948 269 411
1033 337 464
1160 360 488
1285 411 520
1409 485 554
1556 545 560
1706 615 548
1855 705 525
2004 810 485
2151 925 423
2297 1046 326
2443 1173 155
2589 1301 0
2735 1429 0
2882 1557 0
3029 1683 0
3176 1808 0
3325 1930 0
3474 2050 0
3623 2167 0
3774 2281 0
1088 0 48
1078 0 142
1078 0 235
1081 61 336
1077 310 452
1139 394 509
1225 467 558
1349 504 575
1472 564 597
1594 644 624
1724 730 639
1872 807 615
2020 899 577
2167 1002 522
2313 1113 442
2458 1231 318
2604 1351 90
2750 1474 0
2896 1596 0
3043 1719 0
3190 1839 0
3338 1958 0
3487 2075 0
3636 2190 0
3787 2302 0
1262 0 32
1253 0 129
1248 0 230
1251 16 330
1252 269 440
1251 468 558
1328 536 600
1413 611 645
1535 658 654
1656 726 668
1776 811 685
1897 907 702
2037 995 679
2184 1087 629
2329 1189 559
2475 1297 462
2620 1411 316
2766 1526 39
2912 1643 0
3059 1760 0
3206 1877 0
3354 1992 0
3502 2106 0
3651 2218 0
3801 2328 0
1432 0 0
1425 0 87
1416 0 209
1418 13 310
1420 267 422
1420 467 540
1440 609 639
1512 687 684
1598 765 724
1719 822 725
1838 896 731
1956 982 738
2076 1080 746
2202 1179 741
2347 1272 680
2493 1372 600
2638 1477 489
2783 1586 326
2929 1696 10
3076 1808 0
3222 1920 0
3370 2031 0
3518 2141 0
3667 2250 0
3817 2357 0
1600 0 0
1593 0 6
1584 0 139
1583 68 269
1585 304 386
1587 489 508
1583 658 639
1624 764 713
1695 847 760
1781 927 795
1900 991 789
2018 1068 787
2136 1157 786
2254 1253 785
2373 1355 786
2511 1452 735
2657 1550 645
2802 1651 526
2948 1755 352
3094 1862 16
3240 1969 0
3388 2076 0
3536 2182 0
3684 2287 0
3834 2392 0
1765 0 0
1759 0 0
1751 0 13
1745 195 183
1748 383 326
1750 543 458
1751 695 592
1743 847 737
1806 927 783
1875 1013 830
1963 1094 860
2081 1162 847
2198 1242 836
2315 1331 827
2433 1426 820
2551 1526 814
2677 1627 793
2821 1722 698
2967 1820 575
3113 1921 399
3259 2023 71
3407 2125 0
3554 2227 0
3703 2329 0
3852 2430 0
1927 0 0
1922 0 0
1915 155 0
1906 351 29
1907 489 212
1910 624 377
1912 758 527
1912 892 674
1908 1026 823
1985 1095 845
2054 1182 894
2144 1262 919
2260 1334 899
2377 1415 882
2494 1503 866
2612 1596 852
2730 1694 842
2850 1794 832
2988 1889 759
3134 1984 635
3280 2081 467
3427 2179 177
3574 2277 0
3722 2375 0
3871 2473 0
2087 165 0
2083 269 0
2077 376 0
2068 500 0
2066 612 0
2068 724 238
2071 841 430
2073 960 595
2071 1083 756
2091 1190 873
2164 1265 903
2233 1351 954
2324 1431 974
2440 1504 948
2557 1585 925
2674 1673 904
2791 1764 885
2910 1858 870
3030 1955 857
3155 2051 829
3301 2143 708
3448 2236 550
3595 2330 310
3743 2425 0
3891 2519 0
2246 442 0
2242 496 0
2237 562 0
2229 650 0
2223 745 0
2225 838 0
2228 940 264
2231 1045 481
2233 1155 663
2229 1270 841
2271 1358 923
2342 1434 958
2411 1519 1010
2504 1598 1027
2620 1673 995
2737 1753 967
2854 1838 942
2972 1927 920
3091 2019 901
3211 2112 885
3332 2207 875
3471 2298 791
3617 2388 645
3765 2478 445
3913 2570 68
2403 651 0
2400 689 0
2395 736 0
2388 802 0
2379 885 0
2381 962 0
2384 1049 0
2388 1142 297
2391 1241 536
2393 1343 735
2385 1452 935
2450 1525 971
2521 1602 1011
2590 1685 1066
2684 1763 1078
2801 1838 1043
2918 1917 1011
3035 2001 982
3153 2087 957
3272 2176 937
3393 2266 920
3514 2357 909
3641 2448 883
3788 2535 749
3936 2623 579
2560 838 0
2557 867 0
2553 903 0
2547 955 0
2538 1022 0
2536 1091 0
2540 1166 0
2543 1248 0
2548 1336 337
2551 1429 599
2552 1525 812
2550 1625 1011
2630 1691 1019
2700 1768 1063
2770 1849 1122
2866 1925 1129
2983 1999 1091
3100 2078 1057
3217 2159 1027
3336 2243 1000
3455 2329 978
3576 2416 961
3697 2505 948
3820 2594 942
3959 2680 860
2716 1013 0
2713 1035 0
2710 1064 0
2705 1106 0
2697 1161 0
2692 1223 0
2695 1288 0
2699 1360 0
2703 1439 0
2708 1522 391
2712 1610 668
2712 1701 897
2734 1786 1047
2809 1855 1068
2880 1930 1117
2950 2009 1178
3048 2084 1183
3165 2157 1142
3282 2234 1106
3400 2314 1074
3519 2395 1047
3639 2478 1025
3760 2563 1007
3882 2649 995
4004 2736 992
2872 1178 0
2870 1195 0
2867 1219 0
2862 1253 0
2855 1299 0
2846 1356 0
2850 1412 0
2854 1476 0
2859 1545 0
2864 1621 0
2869 1700 461
2873 1784 747
2871 1872 993
2916 1946 1088
2989 2015 1119
3060 2089 1172
3131 2167 1238
3231 2240 1238
3349 2312 1197
3466 2387 1160
3585 2464 1127
3704 2544 1099
3824 2625 1077
3945 2707 1060
4067 2791 1050
3028 1335 0
3026 1350 0
3023 1369 0
3019 1398 0
3014 1437 0
3006 1485 0
3005 1537 0
3009 1593 0
3015 1655 0
3020 1723 0
3026 1796 23
3032 1872 543
3035 1953 837
3029 2038 1101
3097 2104 1136
3171 2172 1173
3242 2245 1231
3313 2320 1299
3415 2392 1296
3533 2463 1254
3651 2536 1217
3770 2612 1185
3889 2690 1157
4010 2769 1136
4095 2849 1120
3185 1485 0
3183 1498 0
3181 1514 0
3177 1539 0
3172 1572 0
3166 1614 0
3161 1661 0
3165 1711 0
3171 1767 0
3176 1828 0
3183 1894 0
3189 1964 161
3195 2038 640
3198 2116 936
3196 2197 1188
3280 2258 1187
3353 2326 1231
3424 2397 1292
3496 2471 1364
3600 2542 1358
3718 2611 1316
3837 2683 1279
3956 2757 1247
4075 2832 1220
4095 2909 1200
3342 1629 0
3340 1640 0
3338 1654 0
3335 1676 0
3331 1704 0
3325 1741 0
3318 1784 0
3321 1829 0
3327 1879 0
3333 1934 0
3339 1995 0
3346 2059 0
3353 2127 324
3359 2199 747
3360 2275 1045
3384 2347 1225
3462 2409 1242
3535 2476 1292
3607 2546 1357
3680 2619 1432
3785 2688 1423
3904 2756 1381
4023 2827 1344
4095 2899 1313
4095 2973 1288
3500 1768 0
3499 1777 0
3497 1789 0
3494 1808 0
3490 1833 0
3485 1865 0
3478 1903 0
3478 1945 0
3484 1990 0
3490 2041 0
3497 2096 0
3504 2155 0
3511 2218 0
3519 2285 475
3524 2355 862
3522 2429 1164
3570 2495 1274
3646 2557 1302
3719 2623 1357
3791 2692 1425
3864 2764 1502
3972 2831 1490
4091 2899 1449
4095 2968 1413
4095 3039 1383
3659 1901 0
3658 1909 0
3656 1920 0
3653 1936 0
3650 1959 0
3645 1987 0
3639 2021 0
3635 2060 0
3641 2101 0
3647 2147 0
3654 2197 0
3662 2252 0
3670 2310 0
3678 2372 0
3685 2438 622
3690 2507 984
3683 2581 1296
3755 2640 1330
3831 2702 1366
3904 2768 1425
3976 2836 1496
4050 2907 1576
4095 2973 1559
4095 3039 1519
4095 3108 1486
3818 2029 0
3817 2036 0
3816 2046 0
3813 2060 0
3810 2080 0
3806 2106 0
3800 2136 0
3794 2173 0
3799 2210 0
3805 2252 0
3812 2298 0
3820 2348 0
3828 2403 0
3837 2461 0
3845 2522 171
3852 2587 767
3855 2655 1112
3854 2727 1398
3941 2783 1390
4016 2845 1434
4089 2910 1496
4095 2978 1570
4095 3048 1651
4095 3113 1632
4095 3179 1595
3979 2152 0
3978 2159 0
3977 2167 0
3974 2180 0
3971 2198 0
3967 2221 0
3962 2249 0
3956 2282 0
3957 2318 0
3963 2356 0
3970 2399 0
3978 2445 0
3987 2496 0
3996 2550 0
4005 2608 0
4013 2669 443
4019 2733 912
4021 2801 1245
4045 2867 1442
4095 2924 1456
4095 2986 1504
4095 3051 1570
4095 3118 1646
4095 3188 1730
4095 3252 1708
195 0 6
240 26 61
372 23 90
531 0 123
696 0 161
859 0 206
1022 0 248
1183 0 284
1341 0 312
1497 107 330
1651 278 332
1802 437 314
1953 593 271
2102 745 186
2250 896 39
2397 1044 0
2545 1190 0
2692 1333 0
2839 1473 0
2987 1609 0
3135 1742 0
3285 1871 0
3434 1997 0
3585 2119 0
3736 2238 0
217 45 74
171 171 171
337 155 192
504 132 220
671 107 255
837 84 291
1001 74 328
1163 94 360
1323 155 386
1480 260 403
1636 379 408
1788 510 398
1939 648 367
2089 789 310
2238 931 206
2386 1073 26
2534 1214 0
2681 1353 0
2829 1490 0
2978 1624 0
3126 1754 0
3276 1882 0
3426 2007 0
3577 2127 0
3728 2246 0
383 10 84
360 129 177
401 203 243
538 203 276
701 174 302
864 145 328
1026 132 358
1186 145 383
1344 203 404
1500 293 416
1654 406 416
1805 532 401
1956 665 365
2105 803 302
2253 943 186
2400 1083 0
2548 1223 0
2695 1361 0
2842 1497 0
2990 1631 0
3138 1760 0
3288 1888 0
3438 2011 0
3588 2132 0
3739 2250 0
563 0 94
545 68 186
542 198 273
614 255 328
748 252 360
885 264 396
1046 252 417
1205 262 436
1361 304 451
1516 374 457
1669 470 454
1820 583 436
1970 707 399
2118 837 336
2265 972 228
2413 1108 29
2559 1245 0
2706 1380 0
2854 1514 0
3001 1645 0
3149 1773 0
3298 1899 0
3448 2022 0
3598 2141 0
3749 2258 0
741 0 103
726 0 198
722 129 282
730 280 374
819 322 420
949 330 446
1079 362 484
1223 389 508
1379 419 516
1533 475 518
1685 556 510
1835 653 490
1984 765 454
2132 887 394
2279 1013 297
2426 1144 119
2572 1275 0
2719 1407 0
2866 1537 0
3013 1666 0
3161 1792 0
3310 1916 0
3459 2037 0
3609 2155 0
3760 2270 0
917 0 113
906 0 203
898 55 293
901 235 383
931 358 462
1018 412 510
1145 431 533
1272 477 563
1398 542 596
1551 587 594
1702 654 584
1851 739 562
2000 838 526
2147 949 471
2294 1067 386
2440 1190 250
2586 1316 3
2732 1442 0
2879 1568 0
3026 1694 0
3174 1817 0
3322 1938 0
3471 2057 0
3621 2173 0
3772 2287 0
1092 0 113
1083 0 203
1071 0 297
1075 177 384
1074 369 488
1127 461 552
1212 525 599
1338 557 614
1461 612 636
1585 686 661
1720 761 669
1868 835 647
2016 924 612
2163 1023 562
2310 1132 488
2456 1247 379
2602 1366 201
2748 1486 0
2894 1607 0
3041 1728 0
3188 1848 0
3336 1966 0
3485 2082 0
3635 2196 0
3785 2308 0
1265 0 97
1256 0 189
1245 0 291
1246 132 379
1248 341 478
1239 525 597
1317 585 637
1403 655 680
1526 698 690
1647 763 703
1768 843 720
1889 935 737
2034 1016 708
2181 1106 661
2327 1206 596
2472 1312 508
2618 1424 379
2764 1538 152
2910 1654 0
3057 1769 0
3204 1885 0
3352 1999 0
3500 2112 0
3650 2224 0
3799 2333 0
1434 0 52
1427 0 149
1417 0 260
1413 129 363
1416 339 462
1417 513 572
1429 654 675
1504 725 716
1590 799 756
1711 852 758
1831 924 764
1950 1008 771
2070 1102 780
2199 1196 768
2345 1287 711
2490 1385 635
2636 1489 533
2781 1596 388
2927 1706 123
3074 1817 0
3221 1928 0
3368 2038 0
3517 2148 0
3666 2256 0
3815 2363 0
1602 0 0
1595 0 68
1587 0 195
1579 186 326
1581 372 431
1583 535 542
1582 690 665
1616 798 746
1687 877 790
1775 953 825
1894 1015 819
2012 1090 818
2130 1176 817
2249 1271 818
2368 1371 819
2510 1464 764
2655 1561 679
2800 1661 568
2946 1765 411
3092 1870 132
3239 1976 0
3386 2083 0
3534 2188 0
3683 2293 0
3832 2397 0
1766 0 0
1761 0 0
1753 48 71
1742 287 257
1744 440 376
1747 585 496
1748 725 622
1743 870 758
1799 953 812
1869 1036 858
1957 1114 888
2075 1181 876
2193 1259 866
2310 1346 859
2428 1440 852
2547 1538 847
2675 1637 820
2820 1731 729
2966 1829 613
3112 1928 454
3258 2029 186
3405 2131 0
3553 2233 0
3701 2334 0
3851 2435 0
