Examples/AB - No greens 2.3dl
#25pt 3DLUT created by 3D LUT Creator Pro (c) Oleg Sharonov
#Copyright Oleg Sharonov
#IMAGEPROFILE 
#INPUTGAMMA 
#OUTPUTGAMMA 
0 256 512 768 1023
0 0 0
0 0 1023
0 0 2048
0 0 3071
0 0 4095
522 652 510
647 868 943
617 978 1978
440 1027 3041
0 1023 4095
1134 1370 1114
1178 1504 1334
1356 1765 1903
1313 1879 2942
1223 1954 4000
1735 2109 1702
1796 2157 1851
1808 2470 2202
1995 2667 2903
2043 2793 3884
2268 2972 2187
2281 3008 2322
2160 3214 2709
1842 3544 3341
2754 3564 3832
1024 0 0
1024 0 1024
1024 0 2047
1024 0 3071
1025 3 4095
984 919 492
1024 1024 1024
1024 1024 2048
1023 1023 3071
1025 1025 4094
1351 1530 1120
1402 1600 1383
1550 1837 1942
1516 1934 2971
1429 1986 4031
1882 2214 1686
1904 2258 1871
1931 2515 2253
2131 2709 2921
2151 2825 3912
2423 3051 2104
2388 3079 2305
2355 3201 2729
2005 3604 3315
2838 3593 3849
2048 0 0
2048 0 1023
2047 0 2048
2047 0 3071
2048 3 4095
1968 1043 541
2047 1024 1024
2048 1024 2048
2048 1026 3071
2048 1026 4094
1980 1858 1068
1997 1905 1380
2048 2048 2048
2047 2047 3071
2048 2048 4095
2322 2466 1645
2348 2512 1813
2372 2623 2346
2512 2842 2971
2477 2923 3993
2777 3268 1966
2787 3298 2122
2743 3365 2664
2477 3708 3300
3086 3690 3903
3071 0 0
3071 0 1023
3071 0 2048
3071 0 3071
3071 0 4095
2998 1132 552
3070 1026 1026
3071 1023 2047
3071 1023 3071
3071 1025 4095
2932 1983 1166
2965 2013 1417
3072 2047 2047
3071 2048 3071
3072 2048 4094
3029 2817 1481
3031 2842 1729
3038 2921 2324
3071 3071 3071
3071 3071 4095
3508 3588 1259
3509 3605 1557
3497 3656 2255
3332 3736 3280
3526 3856 3980
4095 0 0
4095 0 1024
4095 0 2047
4095 0 3071
4095 3 4095
4015 1203 696
4094 1027 1027
4095 1024 2047
4095 1025 3071
4094 1028 4095
3966 2093 1113
3985 2119 1391
4094 2048 2048
4095 2048 3071
4095 2048 4095
3962 2922 1606
3981 2939 1797
4035 2993 2303
4094 3072 3072
4095 3073 4094
3810 3674 2627
3828 3698 2723
3882 3775 3003
3959 3901 3499
4095 4095 4095
