Examples/AB - Only warm.3dl
#25pt 3DLUT created by 3D LUT Creator Pro (c) Oleg Sharonov
#Copyright Oleg Sharonov
#IMAGEPROFILE sRGB IEC61966-2.1 v.2.10
#INPUTGAMMA sRGB IEC61966-2.1 v.2.10
#OUTPUTGAMMA sRGB IEC61966-2.1 v.2.10
0 128 256 384 512 640 768 896 1023
0 0 0
55 55 71
189 189 222
362 362 389
532 532 568
703 703 746
874 874 924
1044 1044 1103
1214 1215 1281
419 419 369
436 443 443
497 504 516
592 595 619
710 713 745
844 846 887
988 990 1040
1140 1142 1199
1296 1297 1363
870 870 736
871 879 831
894 909 909
949 960 973
1025 1033 1059
1119 1126 1162
1228 1233 1279
1349 1354 1408
1480 1484 1546
1318 1318 1131
1318 1324 1204
1321 1340 1314
1352 1373 1373
1405 1422 1435
1472 1486 1512
1553 1564 1602
1647 1656 1704
1752 1760 1818
1767 1768 1524
1765 1770 1585
1768 1781 1677
1771 1803 1789
1811 1838 1838
1861 1884 1898
1924 1943 1970
1997 2014 2053
2081 2096 2146
2217 2216 1918
2215 2218 1966
2215 2226 2049
2219 2240 2157
2229 2267 2252
2269 2302 2302
2319 2348 2362
2378 2403 2431
2446 2469 2509
2665 2665 2311
2664 2667 2349
2662 2672 2430
2665 2683 2523
2669 2701 2641
2686 2731 2716
2728 2767 2767
2777 2812 2826
2834 2865 2893
3114 3114 2704
3113 3115 2736
3110 3119 2811
3112 3128 2896
3116 3142 3002
3118 3164 3125
3145 3195 3180
3186 3232 3231
3235 3276 3290
3563 3563 3099
3562 3564 3125
3560 3567 3188
3559 3574 3273
3563 3585 3369
3567 3602 3484
3567 3628 3599
3603 3659 3644
3645 3696 3696
512 0 0
220 209 220
316 310 330
446 442 468
593 592 625
750 748 790
911 909 960
1074 1074 1132
1241 1240 1305
533 493 276
512 512 512
565 565 576
649 649 671
757 758 789
883 883 924
1022 1022 1071
1168 1168 1225
1320 1320 1386
918 908 722
915 915 845
933 943 942
985 992 1006
1057 1063 1088
1148 1153 1188
1254 1258 1303
1372 1375 1430
1501 1503 1566
1347 1343 1120
1347 1346 1205
1350 1362 1325
1377 1394 1394
1427 1442 1456
1493 1505 1531
1573 1583 1620
1666 1674 1722
1769 1776 1833
1787 1785 1517
1787 1787 1579
1788 1796 1685
1789 1819 1804
1828 1853 1852
1878 1899 1913
1939 1958 1984
2012 2027 2066
2095 2108 2159
2231 2229 1913
2231 2231 1960
2229 2238 2057
2234 2252 2163
2242 2278 2264
2282 2314 2313
2331 2359 2373
2390 2414 2441
2458 2479 2519
2677 2675 2308
2676 2677 2346
2673 2682 2433
2677 2692 2528
2682 2710 2645
2697 2740 2725
2738 2776 2776
2787 2820 2835
2843 2874 2901
3124 3122 2702
3123 3123 2733
3121 3127 2808
3121 3136 2900
3126 3150 3006
3128 3171 3129
3153 3202 3188
3195 3239 3239
3243 3283 3297
3571 3570 3096
3570 3571 3122
3568 3574 3186
3567 3580 3278
3571 3591 3373
3575 3608 3487
3574 3634 3605
3610 3665 3650
3652 3702 3702
1023 0 0
873 235 360
525 510 525
613 603 626
726 719 751
857 852 892
999 995 1044
1149 1145 1202
1304 1301 1366
1024 512 0
1024 512 512
707 697 707
773 766 786
865 859 888
975 971 1010
1101 1097 1145
1236 1234 1289
1379 1377 1441
1070 990 593
1054 999 756
1024 1024 1024
1070 1070 1081
1135 1135 1158
1219 1219 1252
1318 1318 1362
1430 1430 1483
1552 1552 1614
1425 1400 1099
1420 1405 1184
1417 1417 1349
1436 1447 1447
1484 1493 1506
1546 1554 1579
1622 1629 1665
1711 1716 1764
1811 1816 1873
1840 1826 1501
1837 1829 1562
1836 1837 1696
1842 1856 1827
1871 1890 1890
1919 1935 1949
1978 1993 2019
2049 2061 2099
2130 2141 2190
2269 2262 1900
2268 2264 1947
2268 2269 2055
2270 2282 2179
2276 2307 2294
2315 2342 2342
2363 2387 2400
2421 2441 2468
2487 2505 2545
2706 2701 2298
2706 2703 2336
2706 2706 2425
2706 2716 2541
2711 2734 2657
2724 2763 2748
2764 2798 2798
2812 2843 2857
2867 2895 2922
3148 3143 2694
3148 3145 2726
3147 3148 2801
3145 3155 2912
3150 3169 3016
3154 3190 3139
3175 3221 3207
3216 3257 3257
3263 3301 3315
3591 3588 3089
3591 3588 3115
3590 3591 3180
3587 3597 3285
3591 3608 3383
3596 3625 3496
3595 3650 3621
3628 3681 3666
3670 3718 3718
1535 0 3
1484 142 448
1165 577 702
832 812 832
917 901 929
1020 1008 1045
1139 1129 1175
1270 1261 1316
1409 1402 1465
1535 513 0
1535 513 512
1313 714 817
955 938 955
1027 1014 1041
1119 1109 1144
1228 1218 1263
1348 1341 1394
1478 1472 1535
1536 1023 3
1535 1024 512
1536 1023 1024
1204 1194 1204
1260 1252 1273
1334 1327 1358
1423 1417 1458
1525 1521 1571
1639 1635 1695
1600 1488 928
1590 1494 1038
1568 1509 1257
1536 1536 1536
1579 1579 1590
1636 1636 1659
1707 1707 1741
1790 1790 1835
1884 1884 1940
1939 1895 1475
1935 1899 1535
1927 1908 1669
1923 1924 1857
1944 1955 1954
1989 1998 2011
2046 2054 2079
2113 2120 2157
2191 2197 2245
2343 2316 1880
2340 2318 1927
2335 2325 2035
2334 2335 2195
2341 2357 2331
2371 2392 2391
2417 2435 2449
2473 2489 2515
2537 2552 2589
2763 2745 2281
2761 2747 2319
2758 2752 2408
2758 2760 2546
2763 2776 2679
2771 2803 2789
2809 2838 2838
2856 2882 2895
2910 2933 2960
3192 3180 2680
3191 3182 2711
3189 3185 2786
3190 3191 2906
3192 3204 3034
3198 3224 3156
3213 3254 3240
3254 3290 3290
3300 3333 3347
3628 3619 3077
3627 3620 3103
3626 3623 3168
3626 3627 3274
3625 3637 3399
3632 3653 3510
3635 3677 3636
3661 3709 3694
3701 3745 3745
2047 0 3
2047 3 512
1829 540 794
1344 947 1057
1139 1114 1139
1221 1200 1234
1319 1301 1344
1430 1415 1467
1552 1539 1600
2048 512 3
2046 513 510
1923 683 888
1476 1030 1142
1228 1205 1229
1303 1284 1317
1394 1378 1419
1498 1484 1535
1614 1602 1662
2047 1024 0
2047 1024 512
2047 1024 1023
1782 1207 1304
1425 1406 1425
1488 1472 1501
1566 1553 1591
1658 1646 1694
1760 1750 1808
2048 1536 3
2048 1536 513
2047 1536 1025
2048 1536 1536
1709 1698 1708
1759 1751 1772
1824 1816 1848
1901 1893 1937
1988 1982 2035
2130 1986 1263
2123 1991 1344
2107 2001 1519
2080 2020 1765
2048 2048 2048
2089 2089 2101
2141 2141 2165
2205 2205 2240
2278 2278 2325
2457 2391 1848
2453 2394 1895
2445 2401 2004
2435 2414 2168
2432 2432 2366
2453 2464 2464
2496 2506 2519
2549 2558 2583
2611 2619 2655
2851 2808 2258
2849 2810 2295
2844 2815 2383
2837 2825 2523
2837 2838 2699
2845 2861 2839
2876 2897 2896
2920 2939 2952
2973 2990 3015
3263 3233 2661
3262 3235 2691
3258 3239 2765
3254 3246 2886
3254 3256 3044
3260 3274 3182
3270 3303 3289
3309 3338 3338
3354 3381 3394
3686 3664 3061
3685 3665 3087
3682 3669 3151
3679 3674 3256
3680 3682 3397
3683 3696 3533
3691 3718 3657
3708 3750 3736
3748 3786 3786
2559 3 6
2559 0 514
2439 452 883
2145 889 1136
1600 1270 1375
1446 1416 1447
1527 1500 1540
1621 1597 1646
1726 1705 1764
2559 512 6
2559 513 513
2508 612 962
2222 979 1204
1682 1341 1444
1515 1485 1515
1590 1565 1604
1680 1658 1705
1781 1762 1818
2559 1025 0
2559 1025 510
2558 1025 1022
2391 1183 1362
1879 1500 1601
1672 1647 1673
1740 1718 1753
1820 1801 1845
1912 1895 1949
2559 1536 3
2559 1536 514
2559 1536 1024
2559 1536 1535
2268 1709 1803
1914 1895 1914
1971 1954 1984
2040 2025 2066
2120 2107 2157
2560 2047 3
2560 2047 513
2559 2048 1025
2559 2048 1536
2559 2048 2048
2216 2206 2216
2264 2255 2277
2323 2314 2347
2391 2384 2427
2661 2484 1598
2656 2488 1660
2643 2496 1802
2621 2510 2015
2593 2531 2275
2559 2559 2559
2600 2600 2612
2649 2649 2673
2708 2708 2743
2978 2888 2210
2974 2891 2250
2966 2897 2347
2955 2907 2490
2944 2922 2671
2941 2942 2876
2963 2974 2974
3005 3016 3028
3056 3065 3089
3363 3302 2634
3361 3303 2664
3356 3308 2739
3349 3316 2860
3341 3328 3020
3342 3343 3206
3351 3367 3347
3382 3403 3403
3426 3445 3458
3769 3723 3039
3767 3725 3065
3763 3728 3128
3758 3735 3233
3753 3744 3375
3754 3756 3545
3762 3775 3687
3773 3805 3792
3811 3841 3841
3070 6 6
3071 3 514
3029 260 971
2783 843 1228
2436 1228 1478
1878 1582 1687
1754 1718 1754
1833 1801 1846
1923 1895 1950
3070 514 6
3071 512 516
3070 514 1023
2841 935 1286
2502 1292 1530
1939 1639 1743
1808 1773 1808
1884 1853 1898
1972 1944 1998
3071 1024 6
3071 1025 513
3070 1025 1022
2973 1144 1426
2653 1443 1654
2087 1773 1875
1937 1905 1938
2007 1979 2021
2088 2063 2114
3071 1536 0
3071 1536 510
3070 1536 1023
3070 1536 1535
2875 1687 1852
2334 1983 2080
2144 2117 2144
2205 2181 2218
2278 2256 2303
3071 2048 10
3071 2048 517
3071 2048 1025
3071 2048 1536
3071 2048 2048
2761 2216 2308
2412 2392 2412
2465 2447 2478
2528 2512 2553
3097 2546 477
3090 2549 685
3073 2559 1033
3071 2559 1537
3071 2560 2047
3071 2559 2560
2726 2715 2726
2771 2762 2784
2826 2817 2850
3192 2982 1931
3188 2985 1981
3177 2991 2099
3159 3002 2283
3135 3019 2518
3105 3042 2785
3071 3071 3071
3111 3111 3123
3159 3159 3182
3501 3386 2565
3498 3388 2599
3491 3393 2681
3479 3401 2814
3466 3414 2984
3454 3431 3178
3452 3452 3387
3474 3485 3485
3515 3525 3538
3878 3797 3010
3876 3798 3035
3871 3802 3098
3864 3809 3203
3855 3819 3347
3848 3833 3521
3849 3849 3714
3857 3875 3856
3890 3911 3911
3581 13 10
3582 10 516
3583 3 1026
3395 754 1319
3107 1198 1570
2691 1574 1827
2162 1891 1997
2061 2019 2062
2139 2102 2153
3581 517 10
3582 516 516
3583 512 1026
3441 857 1370
3157 1262 1616
2753 1620 1867
2211 1938 2043
2106 2065 2106
2182 2145 2196
3582 1025 10
3582 1025 516
3583 1024 1025
3548 1079 1493
3274 1415 1728
2895 1733 1965
2331 2051 2154
2214 2176 2214
2286 2251 2299
3583 1536 10
3583 1536 514
3583 1536 1023
3582 1537 1533
3454 1659 1909
3109 1926 2128
2530 2234 2334
2391 2357 2391
2456 2425 2469
3583 2048 3
3583 2048 512
3583 2048 1023
3582 2048 1535
3582 2048 2047
3368 2194 2351
2809 2475 2570
2629 2601 2629
2687 2661 2700
3583 2559 16
3583 2559 518
3583 2559 1028
3583 2559 1537
3583 2559 2048
3582 2560 2559
3259 2724 2815
2914 2894 2914
2965 2947 2977
3641 3040 887
3635 3043 1012
3621 3050 1265
3598 3063 1601
3583 3071 2048
3583 3071 2560
3583 3071 3072
3236 3225 3236
3280 3270 3292
3723 3481 2265
3719 3483 2306
3711 3488 2404
3696 3497 2563
3674 3511 2776
3648 3529 3024
3617 3553 3296
3583 3583 3583
3623 3623 3634
4025 3884 2918
4023 3886 2946
4016 3890 3016
4006 3897 3134
3992 3907 3296
3977 3922 3485
3965 3941 3686
3962 3963 3898
3985 3996 3996
4093 16 6
4093 19 513
4092 23 1024
3988 609 1406
3738 1143 1665
3415 1540 1912
2818 1969 2194
2453 2198 2305
2368 2321 2369
4093 520 6
4093 520 514
4093 521 1025
4026 732 1452
3779 1209 1706
3459 1589 1950
2876 2004 2230
2493 2237 2344
2406 2360 2407
4093 1027 10
4093 1027 516
4093 1027 1025
4094 1025 1537
3875 1367 1806
3563 1707 2041
3072 2063 2302
2594 2334 2439
2498 2454 2499
4093 1537 16
4093 1537 518
4094 1536 1027
4095 1536 1537
4027 1614 1971
3730 1903 2193
3314 2202 2428
2762 2493 2596
2652 2611 2652
4094 2048 16
4094 2048 518
4094 2048 1027
4095 2048 1536
4094 2049 2046
3944 2171 2402
3579 2420 2616
2995 2711 2810
2863 2827 2864
4094 2560 13
4094 2560 516
4095 2560 1025
4095 2560 1536
4094 2560 2047
4093 2560 2558
3866 2702 2854
3295 2973 3067
3122 3093 3122
4095 3071 13
4095 3071 517
4095 3071 1027
4095 3071 1537
4095 3071 2048
4094 3071 2560
4094 3072 3071
3760 3234 3324
3420 3399 3420
4095 3535 1240
4095 3537 1329
4095 3543 1525
4095 3554 1809
4095 3569 2147
4095 3583 2562
4095 3583 3072
4095 3583 3583
3746 3735 3746
4095 3968 3284
4095 3970 3286
4095 3975 3342
4095 3984 3399
4095 3998 3421
4095 4015 3535
4095 4037 3690
4095 4065 3826
4095 4095 4095
