Examples/AB - Only warm.3dl
#25pt 3DLUT created by 3D LUT Creator Pro (c) Oleg Sharonov
#Copyright Oleg Sharonov
#IMAGEPROFILE sRGB IEC61966-2.1 v.2.10
#INPUTGAMMA sRGB IEC61966-2.1 v.2.10
#OUTPUTGAMMA sRGB IEC61966-2.1 v.2.10
0 256 512 768 1023
0 0 0
189 189 222
532 532 568
874 874 924
1214 1215 1281
870 870 736
894 909 909
1025 1033 1059
1228 1233 1279
1480 1484 1546
1767 1768 1524
1768 1781 1677
1811 1838 1838
1924 1943 1970
2081 2096 2146
2665 2665 2311
2662 2672 2430
2669 2701 2641
2728 2767 2767
2834 2865 2893
3563 3563 3099
3560 3567 3188
3563 3585 3369
3567 3628 3599
3645 3696 3696
1023 0 0
525 510 525
726 719 751
999 995 1044
1304 1301 1366
1070 990 593
1024 1024 1024
1135 1135 1158
1318 1318 1362
1552 1552 1614
1840 1826 1501
1836 1837 1696
1871 1890 1890
1978 1993 2019
2130 2141 2190
2706 2701 2298
2706 2706 2425
2711 2734 2657
2764 2798 2798
2867 2895 2922
3591 3588 3089
3590 3591 3180
3591 3608 3383
3595 3650 3621
3670 3718 3718
2047 0 3
1829 540 794
1139 1114 1139
1319 1301 1344
1552 1539 1600
2047 1024 0
2047 1024 1023
1425 1406 1425
1566 1553 1591
1760 1750 1808
2130 1986 1263
2107 2001 1519
2048 2048 2048
2141 2141 2165
2278 2278 2325
2851 2808 2258
2844 2815 2383
2837 2838 2699
2876 2897 2896
2973 2990 3015
3686 3664 3061
3682 3669 3151
3680 3682 3397
3691 3718 3657
3748 3786 3786
3070 6 6
3029 260 971
2436 1228 1478
1754 1718 1754
1923 1895 1950
3071 1024 6
3070 1025 1022
2653 1443 1654
1937 1905 1938
2088 2063 2114
3071 2048 10
3071 2048 1025
3071 2048 2048
2412 2392 2412
2528 2512 2553
3192 2982 1931
3177 2991 2099
3135 3019 2518
3071 3071 3071
3159 3159 3182
3878 3797 3010
3871 3802 3098
3855 3819 3347
3849 3849 3714
3890 3911 3911
4093 16 6
4092 23 1024
3738 1143 1665
2818 1969 2194
2368 2321 2369
4093 1027 10
4093 1027 1025
3875 1367 1806
3072 2063 2302
2498 2454 2499
4094 2048 16
4094 2048 1027
4094 2049 2046
3579 2420 2616
2863 2827 2864
4095 3071 13
4095 3071 1027
4095 3071 2048
4094 3072 3071
3420 3399 3420
4095 3968 3284
4095 3975 3342
4095 3998 3421
4095 4037 3690
4095 4095 4095
