Examples/AB - No purple.3dl
#25pt 3DLUT created by 3D LUT Creator Pro (c) Oleg Sharonov
#Copyright Oleg Sharonov
0 256 512 768 1023
0 0 0
100 198 337
349 547 798
607 896 1259
866 1244 1721
0 1023 0
32 1025 992
565 1098 1353
798 1284 1680
1018 1532 2042
0 2048 0
0 2047 1023
136 2050 1990
894 2092 2413
1260 2209 2705
3 3071 0
0 3071 1023
0 3071 2048
297 3074 2989
1142 3105 3471
6 4095 0
0 4095 1023
0 4095 2048
0 4095 3072
1127 4075 3968
913 149 103
761 379 735
648 675 1203
775 994 1489
979 1316 1877
1023 1023 0
1024 1024 1024
949 1151 1448
1023 1342 1775
1121 1586 2175
1024 2047 0
1023 2047 1023
1044 2049 2004
1223 2112 2433
1339 2245 2796
1025 3071 0
1023 3071 1025
1023 3071 2047
1081 3074 2996
1207 3132 3522
1025 4095 0
1023 4095 1023
1023 4095 2047
1023 4095 3071
1492 4076 3975
1848 454 362
1796 537 1030
1571 876 1524
1377 1189 1990
1372 1474 2405
2041 1028 23
1958 1079 1049
1772 1237 1734
1564 1461 2261
1498 1706 2649
2048 2048 0
2048 2048 1024
2048 2048 2048
1930 2160 2524
1668 2323 3151
2048 3071 0
2047 3071 1025
2049 3071 2048
2065 3073 3023
1470 3207 3698
2049 4095 0
2048 4095 1023
2048 4095 2048
2047 4095 3071
2248 4079 3996
2781 760 626
2790 761 1120
2633 1013 1822
2379 1371 2312
2135 1711 2742
2921 1167 490
2867 1215 1143
2771 1322 1942
2520 1601 2457
2289 1870 2999
3071 2047 0
3070 2048 1023
2995 2084 2059
2808 2213 2762
2601 2340 3626
3071 3071 0
3072 3071 1023
3071 3071 2048
3071 3071 3071
2776 3189 3821
3071 4095 3
3071 4095 1023
3071 4095 2047
3071 4095 3071
3147 4085 4035
3714 1066 890
3769 1002 1227
3634 1201 2073
3449 1507 2614
3188 1867 3100
3818 1368 810
4008 1162 973
3936 1254 2054
3693 1588 2753
3363 1974 3271
4056 2072 295
4071 2067 976
4025 2099 2029
3914 2190 2950
3680 2405 3592
4095 3071 6
4095 3071 1025
4095 3071 2048
4053 3090 3064
3850 3211 3800
4095 4095 13
4095 4095 1024
4095 4095 2048
4095 4095 3071
4095 4095 4095
