Examples/AB - Saturation decrease.3dl
#25pt 3DLUT created by 3D LUT Creator Pro (c) Oleg Sharonov
#Copyright Oleg Sharonov
#IMAGEPROFILE sRGB IEC61966-2.1 v.2.10
#INPUTGAMMA sRGB IEC61966-2.1 v.2.10
#OUTPUTGAMMA sRGB IEC61966-2.1 v.2.10
0 43 86 128 171 214 256 299 341 384 427 469 512 555 597 640 682 725 768 810 853 896 938 981 1023 
0 0 0
19 0 116
48 0 250
87 0 394
145 0 537
214 0 677
284 0 822
354 0 967
423 0 1107
493 0 1252
563 0 1395
633 0 1540
702 0 1682
771 0 1825
842 0 1969
911 0 2112
982 0 2257
1050 0 2399
1120 0 2542
1190 0 2686
1260 0 2829
1329 0 2972
1399 0 3115
1469 0 3259
1538 0 3402
71 142 84
55 152 203
52 129 475
74 32 859
198 0 957
282 0 1018
352 0 1106
419 0 1210
481 0 1318
546 0 1436
611 0 1558
676 0 1685
742 0 1814
808 0 1944
875 0 2078
942 0 2212
1010 0 2347
1077 0 2484
1145 0 2621
1214 0 2760
1282 0 2898
1350 0 3037
1418 0 3176
1487 0 3316
1556 0 3456
165 297 198
145 306 276
129 312 383
126 297 630
113 225 1006
206 65 1343
347 0 1455
445 0 1503
522 0 1578
591 0 1667
657 0 1765
721 0 1869
786 0 1983
850 0 2100
914 0 2220
979 0 2343
1044 0 2468
1110 0 2595
1176 0 2725
1243 0 2857
1309 0 2989
1375 0 3123
1443 0 3257
1510 0 3393
1578 0 3529
284 455 326
273 461 383
245 471 448
233 475 568
228 462 807
217 420 1128
203 287 1571
351 110 1826
494 10 1944
602 0 1994
687 0 2060
760 0 2136
829 0 2224
895 0 2321
960 0 2424
1024 0 2532
1089 0 2646
1153 0 2761
1217 0 2880
1282 0 3003
1347 0 3126
1412 0 3252
1478 0 3379
1544 0 3508
1610 0 3638
403 613 454
396 617 497
381 624 550
345 634 626
339 637 751
336 628 982
326 596 1276
314 522 1659
297 314 2158
497 171 2308
643 36 2428
756 0 2489
847 0 2545
926 0 2615
999 0 2695
1067 0 2784
1134 0 2881
1199 0 2981
1263 0 3086
1328 0 3196
1392 0 3309
1456 0 3425
1521 0 3543
1585 0 3663
1650 0 3786
520 771 580
516 774 616
506 778 659
484 787 720
445 798 802
445 800 935
442 790 1157
436 767 1436
422 714 1784
408 603 2210
443 369 2664
643 235 2793
788 74 2910
907 0 2985
1006 0 3035
1090 0 3099
1167 0 3174
1238 0 3255
1306 0 3344
1373 0 3439
1438 0 3538
1503 0 3642
1567 0 3749
1632 0 3859
1696 0 3972
637 928 709
635 931 737
628 934 774
613 940 826
585 950 893
551 961 979
551 962 1119
548 954 1336
540 933 1610
531 894 1928
518 818 2314
503 663 2778
599 437 3149
788 302 3277
935 126 3394
1057 0 3482
1161 0 3529
1250 0 3586
1330 0 3655
1405 0 3732
1476 0 3815
1544 0 3904
1611 0 3998
1677 0 4095
1741 29 4095
756 1087 836
754 1088 861
749 1091 892
738 1096 937
719 1103 995
685 1114 1066
656 1124 1157
657 1124 1303
655 1117 1514
646 1098 1784
640 1067 2081
627 1009 2440
613 906 2858
595 703 3357
750 505 3635
934 367 3761
1081 192 3878
1206 0 3981
1315 0 4023
1409 0 4076
1493 0 4095
1571 0 4095
1636 299 4095
1699 427 4095
1754 576 4095
874 1244 963
872 1246 984
868 1248 1011
861 1251 1051
846 1257 1102
822 1267 1166
785 1278 1244
762 1286 1335
763 1286 1486
761 1280 1695
753 1263 1958
748 1236 2240
735 1189 2581
722 1111 2969
707 979 3416
688 721 3946
900 571 4095
1093 497 4095
1247 490 4095
1374 563 4095
1475 612 4095
1562 675 4095
1639 728 4095
1707 825 4095
1770 888 4095
992 1402 1091
990 1403 1109
987 1405 1133
981 1408 1168
971 1413 1214
953 1420 1270
924 1430 1338
883 1441 1420
868 1449 1515
869 1449 1670
867 1442 1879
860 1427 2131
854 1403 2410
844 1364 2731
831 1302 3096
817 1203 3509
801 1038 3984
965 922 4095
1186 938 4095
1335 942 4095
1458 973 4095
1559 1007 4095
1645 1045 4095
1722 1094 4095
1791 1153 4095
1110 1560 1219
1108 1561 1235
1106 1562 1256
1101 1565 1287
1093 1569 1329
1079 1575 1379
1057 1583 1440
1025 1593 1510
982 1606 1597
974 1612 1696
975 1611 1854
973 1604 2062
967 1591 2308
958 1568 2589
953 1536 2886
940 1484 3234
926 1406 3623
912 1285 4060
1117 1239 4095
1300 1235 4095
1449 1256 4095
1563 1272 4095
1659 1293 4095
1746 1334 4095
1821 1369 4095
1228 1717 1346
1226 1718 1360
1224 1720 1380
1220 1721 1408
1214 1725 1445
1203 1730 1491
1185 1737 1546
1160 1746 1611
1124 1757 1684
1082 1769 1773
1080 1774 1877
1080 1773 2037
1078 1767 2246
1074 1754 2484
1064 1733 2762
1061 1705 3046
1048 1660 3382
1035 1596 3751
1022 1500 4095
1248 1477 4095
1426 1476 4095
1577 1506 4095
1686 1525 4095
1776 1544 4095
1858 1574 4095
1346 1875 1474
1345 1876 1487
1343 1877 1504
1340 1879 1530
1334 1882 1564
1325 1886 1606
1311 1892 1656
1291 1900 1715
1262 1910 1783
1224 1921 1860
1187 1932 1950
1186 1937 2059
1187 1935 2221
1184 1929 2430
1181 1917 2661
1171 1898 2934
1169 1873 3209
1156 1834 3533
1144 1778 3889
1188 1714 4095
1435 1713 4095
1589 1714 4095
1715 1727 4095
1820 1750 4095
1906 1770 4095
1463 2033 1602
1463 2033 1613
1461 2034 1629
1458 2036 1652
1454 2039 1683
1446 2043 1722
1435 2048 1769
1418 2054 1823
1395 2063 1885
1363 2073 1955
1324 2085 2038
1293 2095 2127
1293 2099 2241
1293 2098 2404
1290 2091 2613
1287 2081 2839
1278 2063 3108
1272 2039 3387
1265 2005 3690
1252 1956 4034
1419 1926 4095
1595 1916 4095
1757 1928 4095
1857 1929 4095
1959 1952 4095
1581 2190 1729
1580 2191 1739
1579 2192 1754
1577 2193 1775
1573 2195 1804
1567 2199 1840
1558 2204 1883
1543 2209 1933
1524 2217 1991
1498 2226 2056
1464 2237 2128
1422 2248 2214
1398 2258 2304
1399 2261 2424
1399 2260 2588
1396 2253 2797
1394 2244 3017
1386 2227 3283
1375 2203 3567
1373 2174 3850
1366 2131 4095
1608 2118 4095
1783 2115 4095
1910 2118 4095
2018 2129 4095
1699 2348 1857
1698 2349 1866
1697 2349 1879
1695 2351 1899
1692 2353 1926
1687 2356 1959
1679 2360 1999
1667 2365 2046
1651 2371 2100
1629 2380 2160
1600 2389 2228
1564 2401 2302
1521 2413 2391
1504 2421 2482
1505 2424 2606
1505 2422 2772
1501 2415 2981
1501 2407 3196
1493 2391 3458
1482 2369 3739
1482 2343 4012
1634 2317 4095
1822 2305 4095
1978 2306 4095
2091 2311 4095
1817 2506 1984
1816 2506 1993
1815 2507 2005
1814 2508 2023
1811 2510 2048
1806 2513 2079
1800 2516 2117
1789 2521 2161
1776 2527 2211
1757 2534 2267
1733 2543 2330
1702 2553 2400
1664 2565 2477
1619 2577 2568
1610 2584 2660
1611 2586 2789
1611 2584 2955
1607 2578 3165
1608 2570 3374
1599 2554 3634
1590 2534 3911
1639 2510 4095
1846 2492 4095
2039 2487 4095
2168 2488 4095
1935 2663 2112
1934 2664 2120
1933 2664 2131
1932 2665 2148
1929 2667 2171
1926 2670 2200
1919 2673 2235
1911 2677 2276
1899 2682 2323
1883 2688 2376
1862 2696 2436
1836 2706 2501
1802 2716 2573
1763 2728 2655
1719 2740 2744
1715 2747 2838
1717 2748 2972
1717 2746 3139
1713 2740 3349
1714 2732 3556
1706 2718 3811
1697 2698 4084
1914 2676 4095
2084 2664 4095
2248 2661 4095
2053 2821 2239
2052 2821 2247
2052 2822 2257
2050 2823 2273
2048 2825 2294
2044 2827 2322
2039 2830 2355
2032 2833 2393
2022 2838 2438
2008 2844 2488
1990 2851 2544
1967 2859 2605
1938 2869 2673
1903 2880 2746
1862 2892 2833
1824 2903 2921
1820 2909 3016
1823 2910 3154
1823 2909 3323
1819 2902 3533
1819 2895 3740
1813 2881 3988
1939 2858 4095
2154 2839 4095
2323 2833 4095
2171 2979 2367
2170 2979 2374
2170 2980 2384
2168 2981 2398
2166 2982 2418
2163 2984 2444
2159 2987 2475
2152 2990 2511
2144 2994 2553
2131 3000 2601
2116 3006 2654
2096 3013 2712
2071 3022 2776
2040 3033 2845
2003 3044 2920
1961 3056 3009
1930 3066 3097
1927 3072 3196
1929 3073 3338
1929 3071 3506
1925 3064 3717
1925 3057 3924
1941 3043 4095
2235 3014 4095
2408 3000 4095
2289 3136 2494
2288 3137 2501
2287 3137 2510
2286 3138 2524
2284 3139 2543
2282 3141 2567
2278 3144 2596
2272 3147 2630
2264 3151 2670
2254 3155 2715
2240 3161 2765
2223 3168 2820
2201 3176 2881
2174 3186 2947
2141 3196 3018
2103 3208 3094
2059 3220 3185
2035 3229 3274
2033 3234 3377
2035 3235 3521
2035 3233 3690
2031 3226 3901
2030 3219 4095
2286 3190 4095
2514 3168 4095
2407 3294 2622
2406 3294 2628
2406 3295 2637
2404 3296 2650
2403 3297 2667
2400 3299 2690
2397 3301 2718
2392 3304 2750
2385 3307 2788
2376 3312 2831
2364 3317 2878
2348 3323 2931
2329 3331 2988
2305 3339 3050
2276 3349 3118
2242 3360 3191
2203 3371 3271
2157 3384 3362
2141 3392 3451
2139 3397 3559
2141 3397 3704
2141 3395 3874
2137 3389 4085
2393 3358 4095
2622 3334 4095
2525 3452 2749
2524 3452 2755
2523 3452 2763
2522 3453 2776
2521 3454 2792
2519 3456 2814
2516 3458 2840
2511 3461 2871
2505 3464 2907
2497 3468 2947
2486 3473 2993
2473 3478 3042
2455 3485 3097
2434 3493 3157
2409 3502 3221
2378 3512 3290
2342 3524 3364
2302 3535 3449
2255 3548 3539
2246 3555 3629
2245 3559 3740
2247 3559 3887
2247 3558 4057
2508 3522 4095
2744 3494 4095
2642 3609 2877
2642 3609 2882
2641 3610 2890
2640 3611 2902
2639 3612 2917
2637 3613 2938
2634 3615 2962
2630 3618 2992
2625 3621 3026
2617 3624 3065
2608 3629 3108
2596 3634 3156
2580 3640 3208
2562 3647 3264
2539 3656 3326
2512 3665 3392
2480 3676 3463
2443 3687 3538
2401 3699 3627
2355 3712 3716
2352 3718 3807
2352 3721 3921
2353 3721 4071
2631 3685 4095
2885 3650 4095
2760 3767 3005
2760 3767 3010
2760 3768 3017
2759 3768 3028
2757 3769 3043
2755 3771 3062
2753 3773 3086
2749 3775 3114
2744 3777 3146
2738 3781 3183
2729 3785 3224
2718 3790 3270
2705 3796 3320
2688 3803 3374
2668 3810 3433
2643 3819 3496
2614 3829 3563
2581 3839 3635
2542 3851 3712
2500 3863 3804
2461 3875 3892
2457 3881 3984
2458 3884 4095
2820 3834 4095
3079 3797 4095
132 10 16
168 0 174
177 0 322
206 0 457
250 0 591
302 0 731
352 0 862
412 0 1001
475 0 1142
537 0 1278
603 0 1422
667 0 1560
733 0 1701
801 0 1845
867 0 1984
935 0 2128
1003 0 2270
1070 0 2411
1139 0 2553
1208 0 2696
1276 0 2839
1344 0 2981
1413 0 3124
1482 0 3267
1551 0 3410
174 165 32
171 171 171
206 158 339
248 145 504
295 129 664
347 110 820
404 90 977
465 65 1134
528 39 1291
592 6 1444
652 0 1572
713 0 1699
775 0 1826
838 0 1957
902 0 2089
967 0 2223
1033 0 2359
1098 0 2494
1164 0 2630
1232 0 2769
1298 0 2906
1366 0 3045
1433 0 3184
1501 0 3323
1569 0 3463
243 318 165
245 318 257
245 324 372
257 308 602
302 267 862
376 222 1033
442 180 1190
505 136 1338
571 90 1484
635 45 1629
700 0 1772
760 0 1880
819 0 1992
880 0 2108
942 0 2229
1004 0 2352
1067 0 2477
1132 0 2605
1196 0 2735
1261 0 2865
1327 0 2998
1393 0 3131
1458 0 3265
1524 0 3399
1592 0 3536
326 471 293
341 471 367
326 478 442
324 481 559
328 468 792
345 431 1087
396 349 1410
496 284 1572
582 222 1721
659 152 1861
732 78 1997
802 10 2130
866 0 2230
928 0 2328
989 0 2432
1051 0 2540
1113 0 2652
1174 0 2767
1238 0 2888
1301 0 3009
1364 0 3132
1429 0 3258
1493 0 3385
1558 0 3514
1623 0 3644
419 629 416
445 625 484
436 629 542
408 640 622
411 642 746
411 631 977
420 603 1254
431 533 1612
497 416 1950
618 337 2104
718 257 2244
807 161 2376
888 61 2506
963 0 2616
1031 0 2698
1095 0 2788
1159 0 2884
1222 0 2986
1285 0 3092
1347 0 3201
1410 0 3314
1473 0 3429
1536 0 3548
1600 0 3668
1664 0 3791
532 784 552
554 780 604
548 783 651
530 791 716
494 802 802
504 803 934
501 793 1154
505 771 1421
509 721 1758
518 616 2163
612 478 2479
744 388 2623
855 291 2757
953 177 2885
1042 45 3009
1121 0 3097
1194 0 3174
1262 0 3256
1328 0 3346
1393 0 3442
1456 0 3541
1520 0 3645
1583 0 3753
1646 0 3863
1710 0 3976
648 939 686
666 936 727
662 939 766
650 944 821
625 954 889
592 965 979
600 965 1119
597 956 1333
596 936 1599
597 898 1911
599 823 2285
603 680 2731
732 537 2996
874 439 3136
994 330 3266
1099 198 3390
1194 32 3511
1278 0 3584
1355 0 3655
1427 0 3732
1496 0 3816
1562 0 3905
1628 0 4000
1692 0 4095
1755 29 4095
765 1095 818
780 1093 852
777 1095 885
768 1099 931
750 1107 992
719 1117 1064
692 1127 1156
698 1126 1304
696 1119 1511
691 1100 1781
693 1069 2069
690 1013 2421
689 913 2828
690 722 3312
859 597 3504
1007 490 3640
1134 372 3768
1244 225 3890
1344 29 4009
1434 0 4075
1515 0 4095
1590 0 4095
1653 299 4095
1712 461 4095
1766 601 4095
882 1252 948
894 1250 977
891 1251 1006
885 1255 1046
873 1261 1099
849 1269 1163
815 1280 1241
792 1289 1334
798 1288 1486
797 1281 1693
791 1264 1955
792 1239 2232
786 1192 2567
782 1116 2948
778 988 3386
797 765 3863
990 657 4008
1143 543 4095
1282 509 4095
1400 562 4095
1497 628 4095
1582 675 4095
1655 748 4095
1720 841 4095
1782 902 4095
999 1409 1079
1010 1407 1103
1007 1409 1128
1003 1411 1164
993 1416 1210
975 1423 1268
948 1432 1336
910 1444 1420
894 1451 1514
899 1450 1670
898 1444 1877
893 1429 2130
891 1405 2402
885 1366 2720
879 1305 3081
874 1209 3488
868 1048 3955
1018 934 4095
1218 937 4095
1361 942 4095
1480 973 4095
1577 1007 4095
1662 1056 4095
1737 1095 4095
1803 1162 4095
1115 1565 1208
1125 1564 1230
1123 1565 1251
1119 1568 1283
1112 1571 1325
1099 1577 1376
1077 1585 1438
1047 1596 1509
1005 1607 1596
998 1614 1695
1002 1612 1854
1000 1606 2061
995 1592 2306
990 1570 2583
988 1538 2878
979 1486 3224
972 1409 3608
965 1290 4039
1128 1225 4095
1325 1235 4095
1470 1256 4095
1580 1273 4095
1676 1303 4095
1759 1335 4095
1833 1371 4095
