Examples/AB - No yellow.3dl
#25pt 3DLUT created by 3D LUT Creator Pro (c) Oleg Sharonov
#Copyright Oleg Sharonov
#IMAGEPROFILE sRGB IEC61966-2.1 v.2.10
#INPUTGAMMA sRGB IEC61966-2.1 v.2.10
#OUTPUTGAMMA sRGB IEC61966-2.1 v.2.10
0 128 256 384 512 640 768 896 1023
0 0 0
0 0 512
0 0 1022
0 0 1534
3 0 2046
3 0 2558
3 0 3070
6 0 3582
10 0 4094
0 512 0
0 512 512
0 512 1023
0 512 1535
0 512 2047
0 510 2560
0 510 3072
0 510 3585
6 510 4095
0 1023 0
0 1023 512
0 1023 1023
0 1023 1535
0 1023 2047
0 1023 2559
0 1023 3072
0 1023 3584
3 1023 4095
0 1535 0
0 1535 512
0 1536 1024
0 1536 1536
0 1536 2047
0 1536 2559
0 1536 3072
0 1535 3583
3 1535 4095
3 2048 0
0 2048 512
0 2047 1023
0 2047 1536
0 2047 2047
0 2048 2559
0 2048 3071
0 2048 3583
0 2048 4095
3 2559 0
0 2559 510
0 2559 1023
0 2559 1536
0 2559 2048
0 2559 2559
0 2559 3071
0 2560 3583
0 2560 4095
3 3071 0
0 3071 510
0 3071 1023
0 3071 1536
0 3071 2048
0 3071 2560
0 3071 3071
0 3071 3583
0 3071 4095
6 3583 0
0 3583 509
0 3583 1023
0 3583 1535
0 3583 2048
0 3583 2560
0 3583 3072
0 3583 3583
0 3583 4095
10 4095 0
3 4095 510
0 4095 1023
0 4095 1535
0 4095 2047
0 4095 2560
0 4095 3072
0 4095 3583
3 4095 4095
512 0 0
512 0 512
512 0 1023
512 0 1534
513 0 2046
513 0 2558
514 0 3070
514 0 3582
516 0 4094
493 514 81
512 512 512
512 512 1023
512 512 1535
513 512 2046
516 512 2557
518 512 3068
518 512 3580
514 510 4095
512 1023 0
512 1023 512
512 1023 1023
512 1023 1535
512 1023 2047
513 1023 2560
513 1023 3072
513 1023 3585
514 1023 4095
513 1535 0
512 1535 512
512 1536 1024
513 1536 1536
512 1536 2047
513 1536 2559
513 1536 3071
513 1535 3583
513 1535 4095
513 2047 0
513 2047 512
512 2047 1023
512 2047 1536
513 2047 2047
512 2048 2558
513 2048 3070
513 2048 3582
513 2048 4095
513 2559 0
516 2559 513
513 2559 1023
513 2559 1536
512 2559 2048
513 2559 2559
512 2560 3070
513 2560 3582
510 2560 4095
514 3071 0
518 3071 513
513 3071 1023
513 3071 1536
513 3071 2048
512 3071 2560
512 3071 3071
512 3071 3582
508 3071 4095
514 3583 0
520 3583 513
513 3583 1022
513 3583 1535
513 3583 2048
513 3583 2560
512 3583 3072
510 3583 3583
508 3583 4095
516 4095 0
513 4095 510
513 4095 1023
512 4095 1535
512 4095 2047
512 4095 2560
512 4095 3072
512 4095 3583
513 4095 4095
1023 0 0
1023 0 512
1023 0 1023
1023 0 1535
1023 0 2046
1024 0 2558
1025 0 3070
1025 0 3582
1026 0 4094
931 547 365
1023 512 512
1024 512 1025
1024 513 1536
1025 512 2048
1026 512 2558
1027 512 3068
1027 512 3580
1025 510 4095
992 1027 267
990 1027 629
1024 1024 1024
1024 1024 1536
1024 1024 2048
1023 1024 2560
1025 1023 3071
1026 1023 3582
1025 1023 4095
1024 1536 0
1024 1536 513
1024 1536 1024
1023 1536 1536
1024 1536 2048
1023 1536 2560
1024 1536 3072
1025 1535 3584
1025 1536 4095
1024 2047 0
1025 2047 512
1023 2047 1023
1024 2048 1536
1024 2048 2048
1023 2048 2560
1023 2048 3071
1023 2047 3583
1024 2047 4095
1025 2559 0
1026 2559 512
1023 2559 1023
1023 2559 1535
1023 2559 2047
1025 2559 2559
1023 2559 3071
1024 2560 3582
1023 2559 4095
1025 3071 0
1028 3071 513
1025 3071 1023
1023 3071 1535
1023 3071 2048
1023 3071 2560
1027 3071 3071
1024 3071 3582
1022 3071 4095
1026 3583 0
1028 3583 513
1027 3583 1024
1024 3583 1535
1023 3583 2048
1024 3583 2560
1024 3583 3072
1027 3583 3583
1021 3583 4095
1026 4095 0
1024 4095 509
1023 4095 1022
1023 4095 1535
1023 4095 2047
1023 4095 2559
1023 4095 3072
1023 4095 3583
1024 4095 4095
1535 0 0
1535 0 512
1535 0 1023
1535 0 1535
1535 0 2047
1535 0 2559
1536 0 3070
1536 0 3582
1537 0 4094
1480 546 370
1535 513 513
1535 512 1023
1535 512 1535
1535 513 2046
1536 512 2559
1537 512 3069
1538 512 3580
1537 510 4095
1375 1068 718
1361 1076 878
1536 1023 1023
1536 1024 1536
1535 1023 2047
1536 1024 2560
1536 1023 3071
1537 1023 3582
1537 1023 4095
1491 1541 468
1491 1541 736
1492 1540 1152
1536 1536 1536
1535 1536 2047
1536 1536 2559
1535 1536 3071
1535 1536 3584
1536 1535 4095
1533 2048 36
1535 2048 517
1536 2047 1024
1535 2048 1536
1536 2047 2047
1536 2048 2559
1536 2048 3071
1535 2048 3584
1536 2047 4095
1536 2559 0
1536 2559 512
1536 2559 1024
1536 2559 1536
1536 2559 2048
1535 2559 2559
1535 2559 3072
1535 2559 3584
1536 2559 4095
1536 3071 0
1538 3071 512
1536 3071 1023
1535 3071 1536
1536 3071 2048
1535 3071 2559
1536 3071 3071
1535 3071 3583
1535 3071 4095
1537 3583 0
1539 3583 513
1538 3583 1024
1535 3583 1535
1535 3583 2047
1535 3583 2559
1535 3583 3071
1537 3583 3583
1534 3583 4095
1538 4095 0
1536 4095 506
1536 4095 1022
1536 4095 1535
1536 4095 2047
1535 4095 2559
1535 4095 3071
1535 4095 3583
1536 4095 4095
2048 0 0
2048 0 512
2048 0 1023
2048 0 1536
2048 0 2048
2048 0 2560
2048 0 3072
2048 0 3583
2048 0 4094
2010 546 370
2047 513 513
2047 513 1023
2048 512 1535
2047 512 2048
2047 512 2560
2048 512 3071
2048 512 3583
2048 512 4095
1908 1083 778
1946 1067 871
2047 1024 1024
2048 1024 1535
2048 1024 2048
2047 1025 2558
2047 1025 3070
2048 1024 3582
2048 1023 4095
1872 1573 1018
1862 1578 1145
1796 1603 1410
2047 1536 1536
2048 1535 2047
2048 1535 2559
2047 1536 3071
2047 1536 3584
2049 1535 4095
1990 2054 669
1990 2054 875
1989 2053 1250
2002 2052 1654
2048 2048 2048
2048 2048 2559
2048 2048 3071
2049 2047 3583
2048 2048 4095
2039 2560 158
2041 2560 562
2045 2560 1036
2048 2559 1535
2048 2560 2048
2048 2559 2559
2048 2559 3071
2048 2559 3583
2048 2559 4095
2048 3071 0
2048 3071 512
2048 3071 1025
2047 3071 1536
2048 3071 2048
2048 3071 2559
2047 3071 3071
2047 3071 3582
2047 3071 4095
2048 3583 0
2048 3583 512
2049 3583 1024
2047 3583 1535
2049 3583 2048
2048 3583 2559
2048 3583 3072
2048 3583 3583
2046 3583 4095
2048 4095 0
2048 4095 506
2048 4095 1023
2048 4095 1535
2048 4095 2048
2048 4095 2559
2047 4095 3071
2047 4095 3583
2047 4095 4095
2559 0 0
2559 0 512
2559 0 1023
2559 0 1535
2559 0 2047
2559 0 2559
2559 0 3071
2559 0 3583
2560 0 4095
2531 546 372
2559 513 513
2559 512 1023
2559 512 1535
2559 513 2047
2559 513 2559
2559 512 3072
2560 510 3583
2560 512 4095
2456 1082 783
2486 1065 867
2558 1025 1025
2559 1024 1536
2560 1023 2048
2560 1023 2559
2559 1025 3070
2559 1025 3581
2560 1023 4095
2312 1621 1180
2337 1612 1248
2410 1588 1396
2560 1536 1536
2560 1536 2047
2559 1536 2560
2559 1536 3071
2559 1536 3582
2560 1535 4095
2366 2082 1318
2361 2084 1417
2341 2091 1643
2199 2138 1970
2559 2048 2048
2559 2048 2559
2560 2047 3072
2560 2047 3583
2560 2047 4095
2489 2568 870
2489 2567 1033
2489 2567 1357
2483 2567 1786
2512 2564 2162
2559 2559 2559
2560 2559 3070
2560 2559 3583
2560 2559 4095
2547 3072 314
2548 3072 630
2550 3072 1073
2554 3072 1550
2559 3071 2047
2561 3071 2560
2560 3071 3071
2559 3071 3583
2559 3071 4095
2559 3583 0
2560 3583 510
2560 3583 1026
2559 3583 1536
2560 3583 2048
2560 3583 2559
2560 3583 3071
2558 3583 3583
2559 3583 4095
2560 4095 0
2560 4095 512
2560 4095 1023
2560 4095 1535
2560 4095 2047
2559 4095 2559
2559 4095 3071
2559 4095 3584
2560 4095 4095
3071 0 0
3071 0 512
3071 0 1023
3071 0 1535
3071 0 2047
3071 0 2559
3071 0 3071
3071 0 3583
3071 0 4095
3049 546 372
3071 512 512
3071 510 1023
3071 512 1534
3071 513 2046
3071 513 2559
3071 513 3071
3071 512 3584
3071 512 4095
2990 1082 784
3014 1064 865
3069 1025 1025
3070 1025 1536
3071 1023 2047
3071 1023 2559
3071 1023 3071
3070 1025 3583
3071 1023 4095
2883 1619 1190
2905 1608 1250
2964 1583 1382
3071 1536 1536
3071 1536 2048
3071 1536 2560
3072 1536 3071
3071 1536 3583
3071 1535 4095
2756 2141 1530
2746 2146 1605
2762 2144 1753
2871 2109 1937
3072 2047 2047
3071 2047 2559
3071 2048 3071
3071 2048 3583
3071 2048 4095
2858 2592 1617
2856 2593 1697
2848 2596 1888
2811 2608 2187
2677 2652 2518
3071 2560 2560
3070 2560 3071
3071 2559 3583
3071 2559 4095
2987 3081 1071
2987 3081 1203
2988 3080 1484
2986 3080 1871
2986 3079 2304
3022 3077 2671
3071 3071 3071
3071 3071 3583
3071 3071 4095
3055 3584 462
3056 3585 716
3057 3584 1122
3060 3584 1583
3065 3584 2063
3071 3583 2558
3071 3583 3072
3072 3583 3583
3071 3583 4095
3076 4092 411
3075 4093 642
3071 4095 1023
3071 4095 1535
3071 4095 2047
3071 4095 2559
3071 4095 3071
3071 4095 3583
3071 4095 4095
3583 0 0
3583 0 512
3583 0 1023
3583 0 1535
3583 0 2047
3583 0 2559
3583 0 3071
3583 0 3583
3583 0 4095
3565 546 372
3584 510 510
3583 510 1023
3583 512 1535
3583 512 2046
3583 513 2558
3583 513 3071
3583 513 3583
3583 513 4095
3518 1082 785
3537 1065 863
3581 1027 1027
3582 1025 1536
3583 1025 2047
3583 1024 2558
3583 1024 3071
3583 1024 3583
3583 1025 4095
3431 1618 1194
3451 1607 1250
3498 1582 1375
3582 1536 1536
3582 1536 2048
3583 1535 2560
3584 1535 3072
3583 1535 3583
3583 1536 4095
3293 2156 1595
3311 2150 1641
3355 2134 1749
3444 2100 1908
3583 2048 2048
3583 2048 2558
3583 2048 3071
3583 2048 3583
3583 2048 4095
3255 2643 1830
3249 2646 1893
3229 2655 2044
3177 2677 2279
3326 2633 2491
3584 2559 2559
3583 2559 3071
3583 2559 3583
3583 2559 4095
3350 3103 1916
3349 3103 1983
3346 3104 2145
3332 3108 2408
3261 3127 2777
3184 3164 3014
3583 3071 3071
3583 3071 3583
3583 3071 4095
3486 3594 1273
3486 3594 1383
3486 3594 1626
3486 3593 1978
3484 3581 2587
3502 3576 2985
3536 3583 3237
3583 3583 3583
3583 3583 4095
3605 4065 1645
3605 4066 1701
3605 4068 1837
3603 4072 2050
3600 4078 2329
3594 4087 2662
3583 4095 3072
3583 4095 3583
3583 4095 4095
4095 0 0
4095 0 512
4095 0 1023
4095 0 1535
4095 0 2047
4095 0 2558
4095 0 3071
4095 0 3583
4095 3 4095
4079 546 372
4095 512 512
4095 513 1024
4095 513 1535
4095 513 2047
4095 513 2559
4095 512 3071
4095 512 3583
4095 512 4095
4039 1083 788
4055 1067 862
4095 1024 1024
4095 1024 1536
4095 1024 2047
4095 1024 2559
4095 1024 3071
4095 1023 3583
4095 1024 4095
3967 1619 1199
3983 1609 1248
4024 1583 1360
4095 1536 1536
4095 1536 2047
4095 1536 2559
4095 1536 3071
4095 1536 3583
4095 1536 4095
3857 2154 1602
3874 2147 1638
3915 2130 1725
3988 2098 1865
4095 2048 2048
4095 2048 2559
4095 2048 3071
4095 2047 3583
4095 2048 4095
3690 2695 1993
3718 2686 2008
3762 2672 2085
3837 2647 2209
3947 2611 2370
4095 2559 2559
4095 2559 3071
4095 2559 3583
4095 2560 4095
3698 3159 2290
3702 3159 2317
3714 3159 2386
3735 3159 2504
3768 3159 2675
3904 3124 2873
4095 3071 3071
4095 3071 3583
4095 3071 4095
3764 3606 2747
3768 3607 2763
3776 3609 2805
3793 3612 2880
3818 3616 2993
3854 3621 3149
3906 3623 3357
4095 3583 3583
4095 3583 4095
3971 4020 3288
3973 4021 3301
3978 4023 3335
3986 4028 3395
3998 4036 3481
4015 4046 3596
4036 4059 3738
4063 4075 3905
4095 4095 4095
