Examples/AB - Lab B=A With Mask.3dl
#25pt 3DLUT created by 3D LUT Creator Pro (c) Oleg Sharonov
#Copyright Oleg Sharonov
#IMAGEPROFILE sRGB IEC61966-2.1 v.2.10
#INPUTGAMMA sRGB IEC61966-2.1 v.2.10
#OUTPUTGAMMA sRGB IEC61966-2.1 v.2.10
0 43 86 128 171 214 256 299 341 384 427 469 512 555 597 640 682 725 768 810 853 896 938 981 1023 
0 0 0
0 0 171
0 0 341
0 0 512
0 0 683
0 0 853
0 0 1024
0 0 1194
0 0 1365
0 0 1536
0 0 1706
0 0 1877
0 0 2048
0 0 2218
0 0 2389
0 0 2559
0 0 2730
0 0 2901
0 0 3071
0 0 3242
0 0 3412
0 0 3583
0 0 3754
0 0 3924
0 0 4095
0 171 0
0 171 171
0 171 341
0 171 512
0 171 683
0 171 853
0 171 1024
0 171 1194
0 171 1365
0 171 1536
0 171 1706
0 171 1877
0 171 2048
0 171 2218
0 171 2389
0 171 2559
0 171 2730
0 171 2901
0 171 3071
0 171 3242
0 171 3412
0 171 3583
0 171 3754
0 171 3924
0 171 4095
0 341 0
0 341 171
0 341 341
0 341 512
0 341 683
0 341 853
0 341 1024
0 341 1194
0 341 1365
0 341 1536
0 341 1706
0 341 1877
0 341 2048
0 341 2218
0 341 2389
0 341 2559
0 341 2730
0 341 2901
0 341 3071
0 341 3242
0 341 3412
0 341 3583
0 341 3754
0 341 3924
0 341 4095
0 512 0
0 512 171
0 512 341
0 512 512
0 512 683
0 512 853
0 512 1024
0 512 1194
0 512 1365
0 512 1536
0 512 1706
0 512 1877
0 512 2048
0 512 2218
0 512 2389
0 512 2559
0 512 2730
0 512 2901
0 512 3071
0 512 3242
0 512 3412
0 512 3583
0 512 3754
0 512 3924
0 512 4095
0 683 0
0 683 171
0 683 341
0 683 512
0 683 683
0 683 853
0 683 1024
0 683 1194
0 683 1365
0 683 1536
0 683 1706
0 683 1877
0 683 2048
0 683 2218
0 683 2389
0 683 2559
0 683 2730
0 683 2901
0 683 3071
0 683 3242
0 683 3412
0 683 3583
0 683 3754
0 683 3924
0 683 4095
0 853 0
0 853 171
0 853 341
0 853 512
0 853 683
0 853 853
0 853 1024
0 853 1194
0 853 1365
0 853 1536
0 853 1706
0 853 1877
0 853 2048
0 853 2218
0 853 2389
0 853 2559
0 853 2730
0 853 2901
0 853 3071
0 853 3242
0 853 3412
0 853 3583
0 853 3754
0 853 3924
0 853 4095
0 1024 0
0 1024 171
0 1024 341
0 1024 512
0 1024 683
0 1024 853
0 1024 1024
0 1024 1194
0 1024 1365
0 1024 1536
0 1024 1706
0 1024 1877
0 1024 2048
0 1024 2218
0 1024 2389
0 1024 2559
0 1024 2730
0 1024 2901
0 1024 3071
0 1024 3242
0 1024 3412
0 1024 3583
0 1024 3754
0 1024 3924
0 1024 4095
0 1194 0
0 1194 171
0 1194 341
0 1194 512
0 1194 683
0 1194 853
0 1194 1024
0 1194 1194
0 1194 1365
0 1194 1536
0 1194 1706
0 1194 1877
0 1194 2048
0 1194 2218
0 1194 2389
0 1194 2559
0 1194 2730
0 1194 2901
0 1194 3071
0 1194 3242
0 1194 3412
0 1194 3583
0 1194 3754
0 1194 3924
0 1194 4095
0 1365 0
0 1365 171
0 1365 341
0 1365 512
0 1365 683
0 1365 853
0 1365 1024
0 1365 1194
0 1365 1365
0 1365 1536
0 1365 1706
0 1365 1877
0 1365 2048
0 1365 2218
0 1365 2389
0 1365 2559
0 1365 2730
0 1365 2901
0 1365 3071
0 1365 3242
0 1365 3412
0 1365 3583
0 1365 3754
0 1365 3924
0 1365 4095
0 1536 0
0 1536 171
0 1536 341
0 1536 512
0 1536 683
0 1536 853
0 1536 1024
0 1536 1194
0 1536 1365
0 1536 1536
0 1536 1706
0 1536 1877
0 1536 2048
0 1536 2218
0 1536 2389
0 1536 2559
0 1536 2730
0 1536 2901
0 1536 3071
0 1536 3242
0 1536 3412
0 1536 3583
0 1536 3754
0 1536 3924
0 1536 4095
0 1706 0
0 1706 171
0 1706 341
0 1706 512
0 1706 683
0 1706 853
0 1706 1024
0 1706 1194
0 1706 1365
0 1706 1536
0 1706 1706
0 1706 1877
0 1706 2048
0 1706 2218
0 1706 2389
0 1706 2559
0 1706 2730
0 1706 2901
0 1706 3071
0 1706 3242
0 1706 3412
0 1706 3583
0 1706 3754
0 1706 3924
0 1706 4095
0 1877 0
0 1877 171
0 1877 341
0 1877 512
0 1877 683
0 1877 853
0 1877 1024
0 1877 1194
0 1877 1365
0 1877 1536
0 1877 1706
0 1877 1877
0 1877 2048
0 1877 2218
0 1877 2389
0 1877 2559
0 1877 2730
0 1877 2901
0 1877 3071
0 1877 3242
0 1877 3412
0 1877 3583
0 1877 3754
0 1877 3924
0 1877 4095
0 2048 0
0 2048 171
0 2048 341
0 2048 512
0 2048 683
0 2048 853
0 2048 1024
0 2048 1194
0 2048 1365
0 2048 1536
0 2048 1706
0 2048 1877
0 2048 2048
0 2048 2218
0 2048 2389
0 2048 2559
0 2048 2730
0 2048 2901
0 2048 3071
0 2048 3242
0 2048 3412
0 2048 3583
0 2048 3754
0 2048 3924
0 2048 4095
0 2218 0
0 2218 171
0 2218 341
0 2218 512
0 2218 683
0 2218 853
0 2218 1024
0 2218 1194
0 2218 1365
0 2218 1536
0 2218 1706
0 2218 1877
0 2218 2048
0 2218 2218
0 2218 2389
0 2218 2559
0 2218 2730
0 2218 2901
0 2218 3071
0 2218 3242
0 2218 3412
0 2218 3583
0 2218 3754
0 2218 3924
0 2218 4095
0 2389 0
0 2389 171
0 2389 341
0 2389 512
0 2389 683
0 2389 853
0 2389 1024
0 2389 1194
0 2389 1365
0 2389 1536
0 2389 1706
0 2389 1877
0 2389 2048
0 2389 2218
0 2389 2389
0 2389 2559
0 2389 2730
0 2389 2901
0 2389 3071
0 2389 3242
0 2389 3412
0 2389 3583
0 2389 3754
0 2389 3924
0 2389 4095
0 2559 0
0 2559 171
0 2559 341
0 2559 512
0 2559 683
0 2559 853
0 2559 1024
0 2559 1194
0 2559 1365
0 2559 1536
0 2559 1706
0 2559 1877
0 2559 2048
0 2559 2218
0 2559 2389
0 2559 2559
0 2559 2730
0 2559 2901
0 2559 3071
0 2559 3242
0 2559 3412
0 2559 3583
0 2559 3754
0 2559 3924
0 2559 4095
0 2730 0
0 2730 171
0 2730 341
0 2730 512
0 2730 683
0 2730 853
0 2730 1024
0 2730 1194
0 2730 1365
0 2730 1536
0 2730 1706
0 2730 1877
0 2730 2048
0 2730 2218
0 2730 2389
0 2730 2559
0 2730 2730
0 2730 2901
0 2730 3071
0 2730 3242
0 2730 3412
0 2730 3583
0 2730 3754
0 2730 3924
0 2730 4095
0 2901 0
0 2901 171
0 2901 341
0 2901 512
0 2901 683
0 2901 853
0 2901 1024
0 2901 1194
0 2901 1365
0 2901 1536
0 2901 1706
0 2901 1877
0 2901 2048
0 2901 2218
0 2901 2389
0 2901 2559
0 2901 2730
0 2901 2901
0 2901 3071
0 2901 3242
0 2901 3412
0 2901 3583
0 2901 3754
0 2901 3924
0 2901 4095
0 3071 0
0 3071 171
0 3071 341
0 3071 512
0 3071 683
0 3071 853
0 3071 1024
0 3071 1194
0 3071 1365
0 3071 1536
0 3071 1706
0 3071 1877
0 3071 2048
0 3071 2218
0 3071 2389
0 3071 2559
0 3071 2730
0 3071 2901
0 3071 3071
0 3071 3242
0 3071 3412
0 3071 3583
0 3071 3754
0 3071 3924
0 3071 4095
0 3242 0
0 3242 171
0 3242 341
0 3242 512
0 3242 683
0 3242 853
0 3242 1024
0 3242 1194
0 3242 1365
0 3242 1536
0 3242 1706
0 3242 1877
0 3242 2048
0 3242 2218
0 3242 2389
0 3242 2559
0 3242 2730
0 3242 2901
0 3242 3071
0 3242 3242
0 3242 3412
0 3242 3583
0 3242 3754
0 3242 3924
0 3242 4095
0 3412 0
0 3412 171
0 3412 341
0 3412 512
0 3412 683
0 3412 853
0 3412 1024
0 3412 1194
0 3412 1365
0 3412 1536
0 3412 1706
0 3412 1877
0 3412 2048
0 3412 2218
0 3412 2389
0 3412 2559
0 3412 2730
0 3412 2901
0 3412 3071
0 3412 3242
0 3412 3412
0 3412 3583
0 3412 3754
0 3412 3924
0 3412 4095
0 3583 0
0 3583 171
0 3583 341
0 3583 512
0 3583 683
0 3583 853
0 3583 1024
0 3583 1194
0 3583 1365
0 3583 1536
0 3583 1706
0 3583 1877
0 3583 2048
0 3583 2218
0 3583 2389
0 3583 2559
0 3583 2730
0 3583 2901
0 3583 3071
0 3583 3242
0 3583 3412
0 3583 3583
0 3583 3754
0 3583 3924
0 3583 4095
0 3754 0
0 3754 171
0 3754 341
0 3754 512
0 3754 683
0 3754 853
0 3754 1024
0 3754 1194
0 3754 1365
0 3754 1536
0 3754 1706
0 3754 1877
0 3754 2048
0 3754 2218
0 3754 2389
0 3754 2559
0 3754 2730
0 3754 2901
0 3754 3071
0 3754 3242
0 3754 3412
0 3754 3583
0 3754 3754
0 3754 3924
0 3754 4095
0 3924 0
0 3924 171
0 3924 341
0 3924 512
0 3924 683
0 3924 853
0 3924 1024
0 3924 1194
0 3924 1365
0 3924 1536
0 3924 1706
0 3924 1877
0 3924 2048
0 3924 2218
0 3924 2389
0 3924 2559
0 3924 2730
0 3924 2901
0 3924 3071
0 3924 3242
0 3924 3412
0 3924 3583
0 3924 3754
0 3924 3924
0 3924 4095
0 4095 0
0 4095 171
0 4095 341
0 4095 512
0 4095 683
0 4095 853
0 4095 1024
0 4095 1194
0 4095 1365
0 4095 1536
0 4095 1706
0 4095 1877
0 4095 2048
0 4095 2218
0 4095 2389
0 4095 2559
0 4095 2730
0 4095 2901
0 4095 3071
0 4095 3242
0 4095 3412
0 4095 3583
0 4095 3754
0 4095 3924
0 4095 4095
170 0 0
170 0 169
171 0 337
171 1 506
172 1 674
173 1 843
174 2 1012
175 2 1180
176 3 1349
177 3 1517
178 3 1686
180 4 1854
181 4 2023
182 4 2192
184 4 2360
185 5 2529
186 5 2697
188 5 2866
189 5 3035
190 5 3203
191 6 3372
193 6 3540
194 6 3709
195 6 3878
196 7 4046
169 171 3
171 171 171
172 170 338
173 170 506
174 170 674
175 171 843
175 171 1012
176 172 1180
177 172 1349
178 172 1517
180 172 1686
181 172 1854
182 173 2023
183 173 2192
184 173 2360
186 173 2529
187 173 2697
188 174 2866
190 174 3035
191 174 3203
192 174 3372
193 175 3540
194 175 3709
196 175 3878
197 175 4046
169 341 5
169 341 174
170 341 342
172 341 510
174 341 678
176 341 845
177 340 1012
178 341 1180
179 341 1349
180 341 1517
181 341 1686
182 341 1854
183 341 2023
185 342 2192
186 342 2360
187 342 2529
188 342 2697
189 342 2866
190 343 3035
192 343 3203
193 343 3372
194 343 3540
195 344 3709
196 344 3878
197 344 4046
169 512 7
169 512 176
169 512 345
169 512 514
172 512 681
175 512 849
176 511 1017
178 511 1184
180 511 1352
181 511 1519
183 510 1686
184 510 1854
185 510 2023
186 510 2192
187 511 2360
188 511 2529
189 511 2697
191 511 2866
192 511 3035
193 511 3203
194 512 3372
195 512 3540
196 512 3709
197 512 3878
198 513 4046
169 682 10
169 682 178
169 682 347
169 682 516
169 682 684
172 682 853
175 682 1020
177 682 1188
179 682 1355
181 682 1523
183 681 1691
184 681 1858
186 681 2026
187 680 2193
189 680 2360
190 680 2529
191 680 2697
192 680 2866
193 680 3035
194 680 3203
195 680 3372
196 681 3540
197 681 3709
198 681 3878
200 682 4046
169 853 12
169 853 180
169 853 349
169 853 518
169 853 687
169 853 855
171 853 1024
175 853 1191
178 853 1359
180 853 1526
182 852 1694
184 852 1862
185 852 2029
187 852 2197
189 851 2365
190 851 2532
192 850 2700
193 850 2867
195 849 3035
196 849 3203
197 849 3372
198 850 3540
199 850 3709
200 850 3878
201 851 4046
169 1023 14
169 1023 183
169 1023 351
169 1023 520
169 1023 689
169 1023 857
169 1024 1026
169 1024 1195
175 1024 1363
178 1023 1530
181 1023 1698
183 1023 1865
185 1023 2033
186 1023 2200
188 1022 2368
190 1022 2536
192 1022 2703
193 1021 2871
195 1021 3038
196 1020 3206
198 1020 3373
199 1019 3541
201 1019 3709
201 1019 3878
202 1020 4046
169 1194 16
169 1194 185
169 1194 353
169 1194 522
169 1194 691
169 1194 860
169 1194 1028
169 1194 1197
169 1194 1366
175 1194 1534
178 1194 1701
181 1194 1869
183 1194 2036
186 1194 2204
187 1193 2372
189 1193 2539
191 1193 2707
193 1192 2874
194 1192 3042
196 1192 3210
198 1191 3377
199 1191 3545
201 1191 3712
202 1190 3879
204 1189 4046
169 1364 18
169 1364 187
169 1364 356
169 1364 524
169 1364 693
169 1364 862
169 1364 1030
169 1365 1199
169 1365 1368
169 1365 1537
174 1365 1705
178 1365 1873
182 1365 2040
184 1364 2208
186 1364 2375
188 1364 2543
190 1364 2710
192 1364 2878
194 1363 3045
196 1363 3213
197 1363 3381
199 1362 3548
200 1362 3716
202 1362 3883
204 1361 4051
169 1535 21
169 1535 189
169 1535 358
169 1535 527
169 1535 695
169 1535 864
169 1535 1033
169 1535 1201
169 1535 1370
169 1535 1539
169 1536 1708
173 1536 1876
178 1535 2044
182 1535 2211
185 1535 2379
187 1535 2546
189 1535 2714
191 1534 2881
193 1534 3049
195 1534 3217
197 1534 3384
198 1533 3552
200 1533 3719
202 1533 3887
203 1532 4055
169 1705 23
169 1705 192
169 1705 360
169 1705 529
169 1705 697
169 1705 866
169 1705 1035
169 1705 1204
169 1706 1372
169 1706 1541
169 1706 1710
169 1706 1879
171 1706 2047
178 1706 2215
182 1706 2382
185 1706 2550
188 1706 2718
190 1705 2885
192 1705 3053
194 1705 3220
196 1705 3388
198 1704 3555
200 1704 3723
201 1704 3891
203 1704 4058
