Examples/AB - All Orange.3dl
#25pt 3DLUT created by 3D LUT Creator Pro (c) Oleg Sharonov
#Copyright Oleg Sharonov
0 128 256 384 512 640 768 896 1023
0 0 0
448 198 0
914 492 0
1382 785 0
1849 1079 0
2316 1372 0
2783 1665 0
3250 1959 0
3717 2252 0
490 183 0
587 362 119
975 587 48
1429 845 0
1888 1119 0
2350 1402 0
2814 1688 0
3278 1977 0
3742 2266 0
987 468 0
997 582 0
1152 768 354
1515 984 318
1946 1226 10
2400 1484 0
2858 1753 0
3318 2029 0
3779 2310 0
1484 753 0
1481 829 0
1507 986 356
1717 1175 591
2078 1384 537
2467 1622 482
2918 1866 0
3372 2124 0
3828 2389 0
1981 1038 0
1972 1094 0
1993 1213 0
2037 1393 682
2281 1582 828
2641 1787 765
3009 2020 771
3438 2259 526
3889 2505 0
2478 1323 0
2471 1365 0
2477 1462 0
2506 1612 186
2599 1796 909
2846 1990 1066
3205 2191 995
3571 2418 982
3960 2658 942
2975 1607 0
2969 1641 0
2963 1722 0
2989 1846 0
3016 2018 741
3160 2202 1147
3410 2397 1301
3769 2597 1227
4095 2817 1202
3472 1892 0
3467 1920 0
3455 1989 0
3473 2094 0
3502 2241 0
3519 2430 1176
3720 2608 1388
3975 2805 1538
4095 3001 1463
3969 2177 0
3965 2200 0
3955 2259 0
3958 2353 0
3984 2479 0
4013 2643 606
4049 2837 1498
4095 3015 1637
4095 3212 1775
490 183 0
587 362 119
975 586 48
1429 844 0
1888 1119 0
2350 1402 0
2813 1688 0
3278 1977 0
3742 2266 0
552 369 201
512 512 512
946 688 458
1402 917 341
1863 1175 55
2327 1446 0
2792 1725 0
3257 2008 0
3723 2293 0
1014 577 0
997 676 351
1117 849 624
1489 1047 607
1938 1273 422
2392 1521 0
2850 1784 0
3310 2056 0
3772 2333 0
1502 823 0
1491 895 0
1507 1043 564
1695 1228 783
2060 1427 748
2462 1655 673
2913 1894 343
3367 2148 0
3824 2410 0
1994 1087 0
1986 1141 0
1990 1259 55
2014 1438 864
2266 1619 971
2628 1819 921
2997 2047 930
3434 2281 707
3886 2525 126
2488 1360 0
2481 1402 0
2474 1499 0
2504 1644 477
2586 1828 1040
2835 2017 1177
3195 2216 1115
3561 2439 1107
3957 2676 1048
2983 1637 0
2977 1670 0
2963 1752 0
2987 1874 0
3016 2042 859
3150 2226 1249
3402 2419 1391
3761 2616 1323
4095 2835 1302
3478 1917 0
3474 1944 0
3462 2011 0
3471 2118 0
3501 2263 13
3521 2449 1243
3712 2628 1470
3968 2823 1612
4095 3018 1542
3974 2197 0
3971 2221 0
3961 2279 0
3957 2373 0
3983 2498 0
4013 2660 751
4039 2856 1582
4095 3031 1704
4095 3227 1838
987 470 0
997 582 0
1152 768 354
1515 984 320
1946 1226 10
2400 1483 0
2858 1753 0
3317 2029 0
3778 2310 0
1014 576 0
997 677 351
1117 849 624
1489 1047 609
1938 1272 423
2392 1521 0
2850 1784 0
3310 2056 0
3771 2333 0
1092 783 494
1073 858 690
1024 1024 1024
1451 1185 979
1898 1387 905
2354 1616 793
2813 1865 611
3275 2125 255
3738 2394 0
1537 979 209
1531 1038 499
1506 1174 899
1640 1348 1124
2011 1531 1112
2448 1736 1004
2899 1964 837
3353 2209 572
3810 2464 0
2023 1205 0
2017 1252 0
1997 1364 660
2017 1530 1099
2228 1708 1256
2594 1896 1225
2977 2113 1208
3425 2336 1028
3877 2575 761
2512 1451 0
2506 1490 0
2491 1583 0
2500 1724 863
2552 1906 1312
2806 2086 1415
3170 2277 1370
3537 2494 1370
3950 2721 1274
3002 1710 0
2997 1742 0
2985 1820 0
2982 1943 381
3015 2103 1105
3126 2286 1473
3379 2473 1593
3741 2666 1538
4095 2881 1523
3494 1977 0
3490 2003 0
3479 2068 0
3466 2178 0
3498 2317 686
3525 2496 1405
3693 2676 1658
3950 2867 1784
4095 3059 1724
3988 2249 0
3985 2271 0
3975 2327 0
3957 2423 0
3980 2547 0
4012 2705 1028
4017 2901 1768
4095 3071 1863
4095 3265 1986
1484 753 0
1481 829 0
1507 986 356
1717 1175 592
2078 1384 540
2467 1622 485
2917 1865 0
3371 2123 0
3828 2389 0
1502 823 0
1491 895 0
1507 1043 564
1695 1228 783
2059 1427 751
2462 1654 676
2913 1894 345
3367 2147 0
3823 2410 0
1537 979 209
1531 1038 500
1506 1174 899
1640 1348 1124
2010 1531 1113
2448 1736 1007
2898 1964 838
3353 2208 575
3809 2464 0
1632 1196 790
1620 1244 923
1590 1357 1187
1536 1536 1536
1959 1690 1494
2400 1876 1434
2850 2087 1352
3306 2317 1240
3764 2560 1087
2059 1389 607
2056 1429 758
2046 1523 1047
2017 1679 1422
2158 1853 1630
2531 2026 1618
2959 2219 1541
3406 2431 1420
3858 2660 1262
2547 1601 0
2542 1634 165
2531 1717 757
2505 1854 1245
2528 2027 1622
2754 2201 1750
3123 2381 1720
3493 2588 1728
3937 2799 1591
3033 1834 0
3029 1863 0
3019 1934 0
2997 2053 957
3010 2208 1437
3080 2391 1795
3338 2567 1890
3705 2751 1849
4071 2959 1843
3521 2080 0
3517 2105 0
3508 2167 0
3490 2271 306
3491 2411 1171
3526 2580 1658
3659 2760 1942
3917 2945 2047
4095 3131 1999
4011 2337 0
4008 2359 0
3999 2411 0
3983 2503 0
3973 2630 721
4008 2782 1382
4032 2967 1935
4095 3142 2111
4095 3331 2221
1981 1038 0
1972 1094 0
1993 1213 0
2037 1393 682
2281 1582 829
2641 1787 766
3009 2019 771
3437 2258 533
3888 2505 0
1994 1087 0
1986 1141 0
1990 1259 55
2014 1438 864
2266 1619 971
2628 1818 924
2997 2047 932
3434 2280 712
3885 2525 155
2023 1205 0
2017 1252 0
1997 1364 660
2017 1530 1099
2228 1709 1256
2594 1897 1227
2977 2112 1212
3425 2336 1028
3876 2574 769
2059 1388 611
2055 1428 761
2045 1524 1048
2017 1679 1422
2158 1853 1630
2529 2027 1620
2958 2220 1542
3406 2431 1421
3857 2659 1265
2171 1608 1086
2163 1642 1182
2142 1725 1392
2105 1862 1691
2048 2048 2048
2469 2198 2008
2905 2374 1955
3351 2572 1886
3803 2788 1796
2580 1802 964
2578 1831 1061
2572 1901 1273
2559 2020 1573
2528 2187 1940
2674 2361 2139
3048 2527 2126
3470 2712 2066
3915 2912 1964
3069 2005 416
3067 2030 620
3060 2093 960
3045 2200 1358
3014 2353 1787
3038 2529 2139
3276 2700 2250
3647 2874 2222
4016 3072 2228
3556 2227 0
3553 2250 0
3545 2306 260
3531 2402 1026
3505 2538 1572
3521 2701 1978
3604 2883 2291
3867 3057 2379
4095 3236 2341
4042 2463 0
4040 2483 0
4033 2532 0
4019 2619 255
3996 2742 1251
4000 2893 1773
4037 3067 2190
4095 3245 2426
4095 3427 2524
2478 1323 0
2471 1365 0
2477 1462 0
2506 1612 186
2599 1796 909
2846 1990 1066
3205 2191 995
3570 2417 984
3959 2657 953
2488 1360 0
2481 1402 0
2474 1499 0
2504 1644 477
2586 1828 1040
2835 2017 1177
3195 2216 1117
3561 2439 1109
3956 2675 1057
2511 1451 0
2506 1490 0
2490 1583 0
2500 1724 863
2552 1906 1312
2806 2086 1415
3169 2276 1372
3537 2493 1371
3949 2720 1280
2546 1601 0
2542 1634 165
2531 1716 758
2505 1854 1245
2528 2027 1622
2754 2201 1750
3122 2381 1721
3492 2587 1731
3937 2798 1593
2579 1801 969
2577 1830 1065
2571 1902 1273
2558 2021 1574
2528 2187 1940
2674 2361 2139
3046 2528 2128
3469 2712 2067
3915 2912 1964
2711 2021 1381
2705 2047 1454
2689 2111 1624
2661 2219 1881
2619 2370 2199
2559 2559 2559
2979 2707 2521
3412 2877 2472
3855 3064 2410
3117 2212 1264
3111 2236 1348
3095 2294 1538
3087 2388 1785
3073 2523 2093
3039 2696 2455
3189 2870 2649
3564 3032 2637
3981 3210 2585
3592 2412 885
3590 2432 994
3585 2483 1223
3576 2569 1540
3558 2693 1909
3524 2855 2316
3549 3035 2654
3796 3203 2755
4095 3372 2728
4079 2625 0
4077 2644 0
4071 2690 681
4061 2769 1189
4043 2883 1663
4014 3032 2133
4032 3200 2506
4095 3381 2792
4095 3553 2876
2975 1607 0
2969 1641 0
2963 1722 0
2989 1846 0
3016 2018 741
3160 2202 1147
3410 2397 1301
3769 2596 1229
4095 2817 1208
2983 1637 0
2977 1670 0
2963 1752 0
2987 1874 0
3016 2042 859
3150 2226 1249
3402 2419 1391
3761 2616 1325
4095 2835 1308
3002 1710 0
2997 1742 0
2984 1820 0
2982 1943 381
3015 2103 1105
3126 2286 1473
3379 2473 1594
3741 2666 1538
4095 2880 1528
3032 1834 0
3029 1862 0
3019 1934 0
2997 2053 957
3010 2208 1437
3080 2391 1795
3338 2567 1890
3704 2751 1850
4071 2958 1846
3069 2004 417
3067 2030 622
3060 2093 961
3044 2200 1360
3014 2353 1787
3038 2529 2139
3276 2700 2251
3647 2874 2224
4016 3072 2228
3117 2211 1268
3110 2235 1352
3094 2294 1541
3086 2389 1785
3072 2523 2094
3039 2696 2455
3189 2870 2649
3563 3033 2637
3981 3210 2586
3251 2433 1677
3247 2454 1735
3234 2505 1873
3212 2593 2094
3178 2718 2379
3133 2879 2708
3071 3071 3071
3490 3217 3033
3921 3381 2986
3661 2622 1549
3656 2641 1615
3643 2688 1770
3620 2770 2012
3601 2883 2296
3585 3028 2609
3551 3206 2970
3703 3379 3160
4079 3539 3147
4095 2822 1276
4095 2839 1349
4095 2880 1515
4095 2952 1769
4090 3056 2084
4071 3192 2443
4036 3360 2840
4061 3542 3169
4095 3708 3262
3472 1893 0
3467 1920 0
3455 1989 0
3473 2094 0
3502 2241 0
3519 2430 1176
3720 2608 1388
3975 2805 1539
4095 3002 1465
3478 1917 0
3474 1944 0
3462 2011 0
3471 2118 0
3501 2263 13
3521 2449 1243
3712 2628 1470
3968 2822 1612
4095 3018 1545
3494 1977 0
3490 2003 0
3479 2068 0
3466 2178 0
3498 2317 686
3525 2496 1405
3693 2676 1658
3950 2867 1784
4095 3059 1726
3520 2080 0
3517 2105 0
3508 2167 0
3490 2271 308
3491 2411 1171
3526 2580 1658
3659 2760 1942
3917 2945 2048
4095 3131 2001
3555 2227 0
3552 2249 0
3545 2305 269
3531 2402 1027
3505 2538 1572
3521 2701 1978
3604 2883 2291
3867 3057 2380
4095 3236 2342
3592 2412 889
3590 2432 996
3585 2482 1223
3575 2569 1541
3558 2693 1911
3524 2856 2316
3549 3035 2654
3796 3203 2755
4095 3372 2729
3661 2622 1550
3656 2641 1616
3643 2688 1772
3620 2769 2015
3600 2884 2297
3585 3029 2610
3550 3206 2970
3703 3379 3160
4079 3539 3148
3792 2846 1971
3788 2862 2019
3778 2904 2136
3760 2977 2326
3732 3084 2578
3694 3222 2881
3645 3389 3219
3583 3583 3583
4001 3727 3546
4095 3033 1833
4095 3048 1887
4095 3088 2016
4095 3156 2225
4095 3255 2500
4095 3383 2808
4095 3536 3124
4063 3717 3483
4095 3890 3670
3968 2177 0
3965 2200 0
3955 2259 0
3958 2353 0
3984 2479 0
4013 2643 606
4049 2837 1498
4095 3015 1637
4095 3212 1776
3974 2197 0
3970 2221 0
3961 2279 0
3957 2373 0
3983 2498 0
4013 2660 751
4039 2856 1582
4095 3031 1704
4095 3227 1838
3988 2249 0
3984 2272 0
3975 2328 0
3957 2423 0
3980 2547 0
4012 2705 1028
4017 2901 1768
4095 3071 1863
4095 3265 1986
4010 2338 0
4007 2359 0
3999 2412 0
3983 2503 0
3973 2630 721
4008 2782 1382
4032 2967 1935
4095 3142 2111
4095 3331 2221
4042 2464 0
4039 2483 0
4032 2533 0
4019 2619 264
3996 2742 1252
4000 2893 1773
4037 3067 2190
4095 3245 2426
4095 3427 2524
4078 2626 0
4076 2644 0
4071 2690 689
4060 2769 1193
4043 2883 1665
4014 3032 2133
4032 3200 2506
4095 3381 2792
4095 3553 2877
4095 2822 1283
4095 2838 1355
4095 2879 1520
4095 2951 1772
4090 3055 2086
4071 3192 2444
4036 3360 2840
4061 3542 3169
4095 3708 3262
4095 3032 1837
4095 3048 1890
4095 3087 2020
4095 3155 2228
4095 3255 2501
4095 3383 2808
4095 3535 3124
4062 3717 3483
4095 3890 3670
4095 3259 2268
4095 3273 2308
4095 3308 2407
4095 3370 2571
4095 3460 2796
4095 3580 3071
4095 3727 3385
4095 3899 3729
4095 4095 4095
