Examples/AB - Saturation decrease.3dl
#25pt 3DLUT created by 3D LUT Creator Pro (c) Oleg Sharonov
#Copyright Oleg Sharonov
#IMAGEPROFILE sRGB IEC61966-2.1 v.2.10
#INPUTGAMMA sRGB IEC61966-2.1 v.2.10
#OUTPUTGAMMA sRGB IEC61966-2.1 v.2.10
0 256 512 768 1023
0 0 0
284 0 822
702 0 1682
1120 0 2542
1538 0 3402
637 928 709
551 962 1119
599 437 3149
1330 0 3655
1741 29 4095
1346 1875 1474
1311 1892 1656
1187 1935 2221
1144 1778 3889
1906 1770 4095
2053 2821 2239
2039 2830 2355
1938 2869 2673
1823 2909 3323
2323 2833 4095
2760 3767 3005
2753 3773 3086
2705 3796 3320
2542 3851 3712
3079 3797 4095
912 136 240
1018 0 1038
1132 0 1893
1397 0 2697
1733 0 3518
1039 1009 388
1024 1024 1024
1250 950 2024
1550 833 2982
1897 649 3919
1489 1926 1373
1531 1923 1608
1481 1955 2194
1547 1808 3757
2063 1798 4095
2092 2864 2143
2166 2851 2317
2093 2884 2659
2015 2919 3315
2425 2852 4095
2789 3796 2944
2839 3788 3058
2804 3808 3302
2655 3861 3704
3170 3807 4095
1846 427 622
1912 339 1134
2038 0 2076
2102 0 2973
2285 0 3772
1992 1045 530
1956 1071 1144
2073 994 2099
2267 759 3232
2463 556 4095
2076 2022 890
2072 2027 1274
2048 2048 2048
2258 1982 3059
2511 1895 4044
2476 2924 2043
2477 2930 2172
2505 2938 2576
2491 2961 3250
2726 2912 4095
2992 3858 2818
2985 3865 2895
3080 3851 3232
2987 3893 3676
3357 3855 4095
2779 720 1003
2815 679 1355
2943 457 2138
3057 0 3111
3101 0 4034
2994 1075 832
2865 1194 1364
2961 1119 2145
3114 933 3162
3198 807 4095
2995 2068 880
3005 2066 1308
2991 2077 2141
3103 2021 3129
3227 1956 4095
3112 3034 1392
3111 3037 1644
3101 3049 2259
3071 3071 3071
3276 3008 4087
3484 3930 2658
3485 3933 2760
3486 3944 3056
3504 3957 3570
3713 3940 4095
3712 1014 1385
3736 988 1642
3824 871 2279
3985 501 3173
4068 110 4095
3985 1133 1156
3778 1375 1649
3850 1313 2289
3994 1142 3176
4066 1050 4095
3990 2091 1203
4001 2086 1524
3909 2149 2298
4005 2094 3173
4076 2054 4095
4004 3092 1199
4010 3090 1535
4025 3088 2257
4020 3095 3154
4095 3064 4095
4095 4035 2309
4095 4037 2474
4095 4048 2776
4095 4065 3399
4095 4095 4095
