Examples/AB - Cooler 2.3dl
#25pt 3DLUT created by 3D LUT Creator Pro (c) Oleg Sharonov
#Copyright Oleg Sharonov
#IMAGEPROFILE sRGB IEC61966-2.1 v.2.10
#INPUTGAMMA sRGB IEC61966-2.1 v.2.10
#OUTPUTGAMMA sRGB IEC61966-2.1 v.2.10
0 256 512 768 1023
0 0 0
13 87 828
61 316 1693
149 562 2558
264 806 3423
482 934 955
0 1008 1163
0 1076 1799
0 1198 2518
0 1362 3287
1063 1884 1921
521 1958 1990
0 2019 2302
0 2075 2898
0 2162 3577
1643 2834 2888
1167 2903 2924
496 2977 3070
0 3031 3440
0 3080 4032
2224 3784 3855
1781 3849 3878
1248 3919 3967
939 3976 4095
2780 3858 4095
430 414 565
520 383 1179
475 370 2161
465 455 3062
562 577 3959
1047 961 1035
855 995 1573
803 1024 2278
765 1086 3074
765 1201 3860
1565 1853 2003
1264 1914 2231
927 1989 2629
527 2076 3179
324 2165 3823
2104 2791 2941
1755 2857 3063
1100 2962 3250
713 3023 3666
652 3080 4095
2660 3736 3895
2302 3800 3976
1567 3912 4071
2135 3898 4095
3040 3835 4095
968 938 1214
1025 920 1572
1132 883 2332
1108 839 3349
1091 946 4095
1393 1261 1366
1274 1274 1849
1273 1267 2544
1263 1222 3523
1349 1334 4095
2092 1933 2068
1846 1983 2456
1741 1996 3046
1696 2028 3663
1781 2103 4095
2595 2805 3065
2457 2840 3199
2154 2893 3688
1983 2943 4095
2199 3035 4095
3131 3723 3998
3007 3755 4064
3019 3777 4095
3191 3801 4095
3476 3825 4095
1505 1462 1862
1538 1443 2146
1638 1429 2636
1742 1381 3483
1774 1469 4095
1753 1690 1913
1703 1688 2263
1756 1660 2868
1792 1651 3615
1883 1739 4095
2421 2204 2250
2239 2239 2629
2181 2219 3330
2181 2219 3975
2331 2331 4095
3135 2904 3100
2888 2959 3407
2703 2983 3949
2778 3021 4095
2933 3106 4095
3640 3763 4095
3587 3788 4095
3607 3815 4095
3719 3845 4095
3829 3908 4095
2042 1985 2510
2067 1965 2760
2140 1953 3141
2255 1935 3738
2348 2030 4095
2219 2154 2501
2182 2149 2791
2238 2118 3307
2325 2103 3896
2412 2222 4095
2792 2542 2784
2613 2592 2984
2572 2572 3609
2601 2580 4095
2711 2701 4095
3471 3161 3206
3239 3209 3560
3157 3213 4041
3200 3266 4095
3309 3349 4095
4095 3904 4081
3955 3959 4095
3956 3989 4095
4012 4030 4095
4088 4094 4095
