Examples/AB - No greens.3dl
#25pt 3DLUT created by 3D LUT Creator Pro (c) Oleg Sharonov
#Copyright Oleg Sharonov
#IMAGEPROFILE 
#INPUTGAMMA 
#OUTPUTGAMMA 
0 256 512 768 1023
0 0 0
0 0 1022
0 0 2046
0 0 3071
0 0 4095
761 902 703
775 916 1120
686 922 2143
458 979 3090
0 1024 4095
1570 1826 1464
1486 1842 1804
1595 1852 2224
1538 1838 3311
1459 1886 4095
2378 2750 2225
2326 2760 2446
2297 2770 2926
2415 2788 3327
2515 2788 4095
3187 3674 2985
3132 3684 3154
3044 3701 3579
3122 3699 4033
3445 3707 4095
1023 0 0
1023 0 1023
1023 0 2046
1023 3 3070
1024 3 4093
1188 961 316
1024 1024 1024
1024 1024 2048
1023 1023 3072
1023 1023 4095
1816 1849 1279
1688 1885 1611
1725 1900 2169
1673 1898 3223
1554 1933 4095
2599 2752 2029
2449 2786 2314
2360 2804 2886
2495 2816 3292
2562 2818 4095
3391 3667 2790
3236 3699 3046
3126 3719 3512
3172 3721 4011
3484 3728 4095
2048 0 0
2048 0 1024
2048 0 2048
2048 3 3071
2047 3 4093
2048 1024 0
2047 1024 1024
2048 1023 2048
2048 1023 3072
2048 1024 4095
2347 1933 759
2259 1964 1307
2048 2048 2048
2048 2048 3070
2047 2047 4095
2973 2801 1790
2912 2823 1994
2674 2894 2587
2725 2907 3199
2723 2914 4095
3629 3711 2645
3607 3721 2751
3390 3776 3239
3315 3792 3937
3592 3795 4095
3071 3 3
3071 3 1024
3071 0 2048
3071 0 3071
3071 3 4094
3071 1024 3
3071 1023 1023
3071 1023 2048
3071 1023 3071
3071 1024 4095
3071 2048 0
3071 2047 1023
3070 2048 2048
3071 2048 3070
3072 2047 4095
3505 2906 1203
3451 2924 1604
3297 2980 2344
3071 3071 3071
3071 3071 4094
4095 3763 2282
4092 3776 2446
3976 3819 2876
3676 3911 3586
3797 3917 4095
4094 3 3
4094 3 1025
4095 0 2048
4095 0 3071
4095 0 4095
4094 1025 3
4095 1024 1024
4095 1023 2048
4095 1023 3072
4095 1023 4095
4095 2048 0
4095 2048 1023
4095 2048 2048
4095 2047 3072
4095 2047 4095
4095 3071 0
4095 3071 1023
4095 3071 2047
4094 3072 3072
4095 3072 4094
4095 3945 3635
4095 3953 3664
4095 3977 3729
4095 4024 3872
4095 4095 4095
