Examples/AB - Lab B=A With Mask.3dl
#25pt 3DLUT created by 3D LUT Creator Pro (c) Oleg Sharonov
#Copyright Oleg Sharonov
#IMAGEPROFILE sRGB IEC61966-2.1 v.2.10
#INPUTGAMMA sRGB IEC61966-2.1 v.2.10
#OUTPUTGAMMA sRGB IEC61966-2.1 v.2.10
0 256 512 768 1023
0 0 0
0 0 1024
0 0 2048
0 0 3071
0 0 4095
0 1024 0
0 1024 1024
0 1024 2048
0 1024 3071
0 1024 4095
0 2048 0
0 2048 1024
0 2048 2048
0 2048 3071
0 2048 4095
0 3071 0
0 3071 1024
0 3071 2048
0 3071 3071
0 3071 4095
0 4095 0
0 4095 1024
0 4095 2048
0 4095 3071
0 4095 4095
983 50 0
1013 56 844
1086 68 1688
1181 84 2532
1281 106 3375
951 1028 206
1024 1024 1024
1139 1010 1808
1261 982 2576
1363 967 3375
844 2036 415
844 2040 1264
847 2051 2121
1192 2038 2886
1357 2019 3645
844 3046 610
844 3048 1457
844 3055 2309
844 3068 3169
1211 3065 3964
1278 4033 720
1284 4034 1563
1302 4037 2407
1332 4042 3251
1372 4051 4095
1932 261 0
1978 258 499
2095 271 999
2273 310 1498
2489 376 1998
2024 1028 329
2082 1017 801
2242 980 1206
2484 901 1505
2681 930 1998
1665 2072 1186
1779 2066 1652
2048 2048 2047
2377 2014 2386
2724 1962 2693
999 3057 1844
999 3063 2353
999 3082 2877
1820 3081 3298
2442 3047 3592
2400 3941 2097
2415 3943 2597
2449 3953 3096
2536 3967 3596
2636 3992 4095
2843 627 0
2891 616 204
2997 644 409
3195 673 613
3446 749 818
3067 1026 149
3118 1009 321
3272 953 409
3459 959 613
3683 1025 818
2915 2069 1393
2975 2061 1570
3157 2035 1682
3456 1987 1724
3840 1910 1706
2203 3127 2770
2316 3121 2943
2624 3104 3048
3071 3071 3071
3580 3022 3035
3137 3928 3277
3156 3932 3482
3204 3946 3686
3312 3968 3891
3469 4002 4095
3720 1098 0
3772 1075 0
3866 1096 0
4032 1142 0
4095 1358 328
3985 1192 0
4037 1165 0
4095 1215 0
4095 1366 304
4095 1676 790
4026 2062 1274
4072 2053 1255
4095 2073 1280
4095 2190 1456
4095 2366 1709
3688 3117 2867
3745 3111 2844
3921 3092 2762
4095 3090 2693
4095 3199 2857
3701 4020 4095
3724 4023 4095
3778 4039 4095
3898 4063 4095
4095 4095 4095
