Examples/AB - No greens.3dl
#25pt 3DLUT created by 3D LUT Creator Pro (c) Oleg Sharonov
#Copyright Oleg Sharonov
#IMAGEPROFILE 
#INPUTGAMMA 
#OUTPUTGAMMA 
0 43 86 128 171 214 256 299 341 384 427 469 512 555 597 640 682 725 768 810 853 896 938 981 1023 
0 0 0
0 0 177
0 0 341
0 0 512
0 0 683
0 0 850
0 0 1022
0 0 1195
0 0 1362
0 0 1534
0 0 1704
0 0 1877
0 0 2046
0 0 2217
0 0 2388
0 0 2558
0 0 2731
0 0 2900
0 0 3071
0 0 3242
0 0 3412
0 0 3583
0 0 3754
0 0 3924
0 0 4095
97 136 84
100 139 203
94 136 384
78 142 542
61 149 698
36 158 857
0 171 1024
0 171 1196
0 171 1364
0 171 1535
0 171 1705
0 171 1878
0 171 2047
0 171 2218
0 171 2389
0 171 2559
0 171 2729
0 171 2901
0 171 3071
0 171 3243
0 171 3413
0 171 3583
0 171 3754
0 171 3925
0 171 4095
222 284 195
209 289 318
228 291 384
222 287 573
203 291 735
180 297 894
152 306 1050
113 316 1207
68 328 1370
13 339 1538
0 341 1707
0 341 1876
0 341 2049
0 341 2219
0 341 2390
0 341 2560
0 341 2730
0 341 2900
0 341 3070
0 341 3242
0 341 3412
0 341 3582
0 341 3753
0 341 3924
0 341 4094
356 440 322
332 445 428
347 445 503
365 448 569
362 442 765
345 443 929
324 448 1087
302 455 1244
271 464 1401
233 474 1557
183 485 1720
116 496 1882
36 506 2048
0 512 2217
0 512 2388
0 512 2559
0 512 2731
0 512 2900
0 512 3071
0 512 3242
0 512 3412
0 512 3583
0 512 3754
0 512 3924
0 512 4095
492 594 449
472 597 533
460 600 617
484 600 687
501 604 752
501 599 953
486 597 1122
468 601 1284
446 607 1441
420 613 1595
391 623 1752
356 631 1909
312 642 2067
252 653 2229
174 664 2393
68 675 2560
0 683 2731
0 682 2900
0 682 3071
0 683 3242
0 683 3412
0 683 3583
0 683 3754
0 683 3924
0 683 4095
626 748 576
611 751 644
591 755 724
599 754 802
619 755 871
639 760 936
640 752 1140
626 752 1314
609 754 1477
588 758 1636
565 765 1791
540 771 1947
510 780 2103
477 789 2260
436 799 2418
386 810 2579
322 821 2743
238 833 2907
110 844 3073
0 853 3242
0 853 3413
0 853 3583
0 853 3754
0 853 3924
0 853 4095
761 902 703
746 905 762
732 907 828
711 912 916
736 909 988
756 911 1055
775 916 1120
778 908 1327
766 907 1504
749 907 1670
731 912 1831
710 916 1987
686 922 2143
660 930 2298
631 938 2454
597 947 2611
559 957 2770
513 967 2929
458 979 3090
389 990 3254
299 1001 3419
168 1013 3586
0 1023 3754
0 1024 3924
0 1024 4095
896 1057 830
878 1060 882
871 1061 937
850 1065 1020
851 1066 1102
874 1064 1172
894 1067 1239
912 1073 1305
917 1063 1513
905 1061 1694
890 1062 1862
872 1065 2024
852 1068 2183
830 1074 2339
807 1080 2495
780 1088 2650
751 1096 2806
718 1106 2963
681 1115 3121
637 1125 3279
588 1136 3440
528 1147 3602
457 1159 3766
362 1170 3932
228 1182 4095
1030 1210 957
1007 1214 1008
1008 1214 1050
991 1217 1124
967 1222 1212
989 1220 1287
1011 1220 1356
1030 1222 1423
1049 1228 1489
1054 1219 1699
1044 1216 1883
1030 1216 2053
1013 1218 2218
994 1221 2378
973 1226 2535
950 1232 2691
926 1239 2847
899 1246 3002
870 1254 3157
838 1263 3314
802 1273 3471
761 1283 3630
714 1294 3790
661 1304 3951
597 1315 4095
1165 1364 1083
1137 1369 1136
1143 1368 1168
1131 1370 1232
1110 1374 1316
1101 1377 1400
1127 1375 1472
1148 1375 1540
1167 1379 1607
1185 1384 1673
1192 1374 1885
1183 1371 2070
1169 1370 2244
1153 1372 2410
1134 1375 2571
1115 1379 2730
1094 1384 2887
1071 1390 3043
1046 1397 3198
1019 1404 3354
990 1412 3509
958 1421 3665
923 1431 3823
884 1441 3981
840 1451 4095
1300 1518 1210
1268 1524 1264
1276 1523 1287
1269 1524 1342
1251 1527 1420
1228 1532 1508
1241 1531 1586
1264 1529 1657
1285 1531 1724
1304 1535 1791
1322 1540 1856
1330 1530 2070
1322 1526 2258
1309 1525 2434
1293 1526 2601
1275 1528 2764
1256 1531 2924
1236 1536 3082
1214 1541 3239
1191 1548 3394
1166 1554 3549
1139 1562 3706
1110 1571 3861
1079 1580 4017
1044 1589 4095
1435 1672 1337
1400 1678 1391
1407 1677 1410
1406 1677 1456
1391 1680 1526
1369 1684 1612
1351 1688 1699
1379 1685 1771
1402 1684 1841
1421 1686 1909
1440 1690 1975
1458 1696 2040
1467 1685 2256
1461 1681 2446
1448 1679 2623
1433 1680 2792
1416 1682 2957
1398 1685 3118
1378 1689 3277
1357 1694 3434
1335 1699 3590
1311 1705 3746
1286 1713 3901
1258 1720 4057
1247 1733 4095
1570 1826 1464
1533 1832 1518
1536 1832 1536
1541 1831 1575
1530 1834 1636
1510 1837 1716
1486 1842 1804
1492 1842 1885
1517 1840 1957
1538 1839 2025
1558 1842 2092
1576 1846 2158
1595 1852 2224
1604 1841 2441
1599 1836 2632
1588 1834 2811
1573 1834 2983
1556 1835 3149
1538 1838 3311
1519 1842 3471
1499 1846 3629
1478 1851 3786
1455 1857 3942
1431 1864 4095
1459 1886 4095
1704 1980 1590
1667 1986 1645
1666 1987 1665
1675 1986 1694
1667 1987 1748
1651 1990 1822
1629 1994 1907
1604 2000 1996
1631 1996 2071
1655 1994 2141
1676 1995 2210
1695 1998 2276
1713 2002 2342
1732 2008 2408
1742 1996 2625
1737 1991 2819
1727 1989 3000
1713 1988 3173
1696 1990 3340
1679 1992 3504
1660 1995 3665
1641 1999 3824
1620 2003 3981
1598 2009 4095
1644 2034 4095
1839 2134 1717
1800 2140 1772
1796 2142 1794
1805 2140 1815
1803 2140 1863
1790 2143 1930
1770 2147 2012
1746 2152 2100
1742 2153 2183
1769 2150 2256
1792 2149 2326
1812 2150 2393
1831 2153 2460
1850 2158 2526
1868 2164 2592
1879 2152 2811
1875 2146 3006
1865 2144 3188
1852 2143 3363
1836 2144 3531
1819 2145 3696
1801 2148 3858
1782 2152 4018
1774 2159 4095
1823 2183 4095
1974 2288 1844
1935 2295 1898
1927 2296 1921
1936 2295 1939
1939 2294 1982
1928 2297 2041
1910 2300 2118
1888 2304 2204
1864 2309 2292
1882 2307 2370
1907 2304 2441
1929 2304 2510
1949 2306 2578
1968 2309 2644
1986 2314 2710
2005 2320 2775
2016 2308 2995
2013 2302 3192
2004 2299 3376
1991 2298 3552
1976 2298 3722
1960 2300 3888
1942 2302 4051
1956 2313 4095
2002 2334 4095
2109 2442 1971
2069 2448 2025
2059 2451 2049
2066 2450 2066
2073 2449 2101
2065 2450 2154
2050 2453 2225
2029 2457 2308
2006 2462 2396
1992 2465 2482
2021 2461 2555
2045 2460 2626
2066 2460 2695
2086 2461 2762
2105 2465 2828
2123 2470 2894
2142 2476 2959
2154 2464 3180
2152 2457 3378
2143 2454 3563
2131 2452 3741
2116 2452 3912
2100 2454 4080
2122 2464 4095
2173 2484 4095
2243 2596 2098
2203 2602 2152
2192 2605 2176
2194 2605 2194
2204 2603 2221
2201 2604 2270
2188 2606 2334
2170 2610 2413
2148 2614 2499
2123 2619 2588
2133 2618 2668
2159 2615 2740
2182 2614 2810
2203 2615 2879
2222 2617 2945
2241 2621 3012
2260 2626 3078
2278 2631 3143
2291 2619 3364
2289 2613 3564
2281 2609 3751
2270 2607 3929
2255 2607 4095
2292 2618 4095
2345 2636 4095
2378 2750 2225
2338 2757 2278
2325 2759 2303
2324 2760 2323
2335 2758 2343
2337 2758 2388
2326 2760 2446
2310 2763 2520
2289 2767 2604
2265 2771 2692
2242 2777 2780
2272 2772 2854
2297 2770 2926
2320 2769 2995
2340 2770 3063
2359 2773 3130
2378 2776 3196
2396 2781 3262
2415 2788 3327
2428 2775 3549
2427 2768 3750
2420 2764 3938
2409 2762 4095
2455 2771 4095
2515 2788 4095
2513 2904 2352
2472 2910 2405
2459 2913 2430
2455 2914 2451
2465 2913 2468
2471 2912 2508
2463 2914 2560
2449 2916 2629
2429 2920 2709
2407 2924 2795
2383 2929 2884
2383 2930 2966
2411 2926 3040
2435 2925 3111
2457 2924 3179
2477 2926 3247
2496 2928 3314
2515 2932 3380
2533 2938 3446
2552 2943 3511
2565 2931 3733
2565 2924 3936
2558 2919 4095
2618 2926 4095
2673 2938 4095
2648 3058 2478
2607 3064 2531
2592 3067 2556
2586 3069 2578
2594 3068 2595
2603 3066 2627
2599 3067 2677
2587 3069 2739
2569 3073 2815
2548 3077 2900
2525 3081 2987
2500 3087 3076
2523 3084 3153
2549 3081 3225
2573 3079 3295
2594 3080 3364
2614 3081 3431
2633 3084 3497
2651 3088 3564
2669 3093 3629
2688 3099 3695
2702 3086 3918
2703 3079 4095
2778 3081 4095
2836 3091 4095
2782 3212 2605
2742 3218 2658
2727 3221 2683
2719 3223 2706
2723 3223 2723
2734 3221 2748
2734 3221 2795
2724 3223 2852
2709 3226 2924
2689 3230 3005
2666 3234 3091
2642 3239 3180
2633 3242 3265
2662 3237 3339
2687 3235 3410
2710 3234 3480
2731 3235 3548
2750 3237 3615
2769 3240 3682
2788 3244 3748
2806 3249 3813
2825 3255 3879
2839 3242 4095
2924 3238 4095
2993 3243 4095
2917 3366 2732
2877 3372 2784
2861 3375 2809
2851 3377 2833
2853 3378 2852
2864 3376 2872
2869 3375 2915
2861 3377 2967
2847 3379 3033
2829 3383 3111
2808 3387 3196
2784 3391 3283
2760 3397 3372
2773 3395 3451
2801 3392 3524
2825 3390 3595
2847 3389 3664
2868 3390 3732
2887 3392 3799
2906 3396 3866
2924 3400 3931
2943 3405 3997
2962 3411 4062
3062 3397 4095
3151 3396 4095
3052 3520 2858
3011 3526 2910
2995 3529 2936
2984 3531 2960
2983 3532 2980
2994 3531 2997
3001 3529 3033
2997 3530 3083
2985 3533 3145
2968 3536 3218
2948 3539 3301
2926 3544 3387
2902 3549 3475
2883 3553 3563
2913 3549 3637
2939 3546 3709
2963 3544 3780
2984 3544 3848
3005 3545 3916
3024 3548 3983
3043 3551 4049
3061 3556 4095
3122 3557 4095
3187 3560 4095
3297 3550 4095
3187 3674 2985
3146 3680 3037
3129 3683 3063
3117 3686 3087
3114 3687 3108
3123 3686 3124
3132 3684 3154
3132 3684 3202
3122 3686 3258
3107 3689 3328
3089 3692 3407
3067 3696 3491
3044 3701 3579
3019 3707 3668
3024 3707 3749
3052 3703 3823
3077 3700 3894
3100 3699 3964
3122 3699 4033
3142 3701 4095
3199 3698 4095
3277 3695 4095
3343 3696 4095
3400 3700 4095
3445 3707 4095
168 0 0
171 0 171
168 0 337
168 0 509
171 0 680
171 0 856
171 0 1020
171 0 1194
171 0 1366
171 0 1533
171 0 1708
171 0 1875
171 0 2045
171 0 2219
171 0 2387
171 0 2560
171 0 2730
171 0 2899
171 0 3070
171 0 3241
171 0 3411
171 0 3582
171 0 3753
171 3 3923
171 3 4094
222 152 23
171 171 171
171 171 341
171 171 512
171 171 683
171 171 852
171 171 1023
171 171 1195
171 171 1367
171 171 1535
171 171 1705
171 171 1877
171 171 2047
171 171 2217
171 171 2388
171 171 2558
171 171 2731
171 171 2900
171 171 3071
171 171 3242
171 171 3412
171 171 3583
171 171 3754
171 171 3924
171 171 4095
328 295 123
273 310 260
284 314 363
278 314 540
262 318 703
243 324 864
217 332 1028
180 339 1194
171 341 1365
171 341 1536
171 341 1707
171 341 1878
171 341 2048
171 341 2219
171 341 2389
171 341 2560
171 341 2730
171 341 2902
171 341 3072
171 341 3242
171 341 3413
171 341 3584
171 341 3755
171 341 3924
171 341 4095
434 446 264
393 458 367
381 461 485
404 462 552
401 460 738
388 462 904
369 468 1064
347 474 1222
320 482 1383
284 492 1546
240 501 1710
177 510 1877
171 512 2049
171 512 2220
171 512 2390
171 512 2561
171 512 2731
171 512 2900
171 512 3073
171 512 3242
171 512 3412
171 512 3583
171 512 3754
171 512 3924
171 512 4095
564 596 388
518 607 484
493 612 591
510 611 675
532 615 739
532 611 934
518 612 1102
500 615 1262
479 622 1421
457 628 1579
428 636 1738
394 645 1897
354 655 2060
302 665 2224
230 676 2391
171 683 2560
168 682 2731
168 683 2902
168 683 3073
168 682 3242
168 682 3412
168 682 3583
168 682 3754
168 682 3924
168 682 4095
696 748 514
648 759 603
627 763 692
617 765 790
643 765 862
663 770 926
664 762 1125
651 763 1297
634 765 1461
615 770 1619
594 776 1778
569 783 1934
541 791 2091
508 800 2250
468 810 2410
420 820 2572
362 831 2738
284 842 2903
171 852 3072
168 853 3243
168 852 3413
168 852 3584
168 852 3754
168 852 3925
168 852 4095
827 900 641
778 911 725
761 914 799
737 919 896
753 917 979
776 919 1048
795 924 1113
798 916 1315
787 915 1491
771 917 1657
752 921 1817
732 925 1974
709 932 2132
684 940 2288
655 948 2445
623 957 2603
585 966 2762
541 976 2923
489 987 3086
423 997 3250
339 1008 3416
222 1020 3584
168 1023 3754
168 1023 3925
168 1023 4095
960 1053 768
911 1064 849
894 1067 914
875 1070 999
862 1073 1092
889 1071 1166
909 1073 1233
928 1079 1297
933 1070 1503
923 1068 1682
907 1069 1850
890 1072 2013
870 1076 2171
849 1081 2329
826 1088 2485
800 1095 2641
771 1104 2798
739 1113 2955
703 1123 3114
661 1133 3274
613 1143 3436
556 1154 3599
485 1165 3763
396 1176 3929
276 1187 4095
1093 1207 895
1043 1216 972
1024 1220 1031
1013 1222 1104
989 1227 1198
1001 1225 1280
1025 1225 1351
1044 1228 1417
1063 1233 1482
1069 1224 1691
1059 1221 1873
1045 1222 2043
1028 1224 2208
1009 1228 2368
988 1233 2525
967 1239 2682
942 1245 2838
917 1253 2994
888 1261 3151
856 1270 3308
820 1279 3465
781 1289 3626
735 1300 3786
683 1310 3947
622 1321 4095
1226 1360 1023
1177 1370 1097
1153 1374 1154
1149 1375 1213
1128 1379 1301
1110 1383 1392
1138 1379 1467
1160 1380 1536
1179 1383 1602
1198 1389 1667
1205 1379 1878
1196 1376 2063
1183 1375 2235
1166 1377 2401
1148 1380 2562
1128 1384 2721
1107 1390 2878
1085 1396 3035
1061 1403 3191
1034 1410 3347
1006 1418 3503
974 1427 3660
940 1436 3818
901 1446 3977
858 1457 4095
1359 1514 1150
1310 1523 1222
1280 1528 1280
1285 1528 1327
1268 1531 1405
1244 1536 1497
1249 1536 1580
1274 1534 1653
1295 1535 1720
1314 1538 1787
1333 1544 1851
1341 1534 2064
1333 1530 2251
1320 1530 2426
1305 1531 2594
1287 1533 2757
1268 1536 2917
1248 1541 3075
1227 1547 3231
1203 1553 3387
1179 1560 3543
1152 1568 3699
1123 1576 3856
1093 1585 4012
1058 1594 4095
