Examples/AB - Only warm (toned).3dl
#25pt 3DLUT created by 3D LUT Creator Pro (c) Oleg Sharonov
#Copyright Oleg Sharonov
#IMAGEPROFILE sRGB IEC61966-2.1 v.2.10
#INPUTGAMMA sRGB IEC61966-2.1 v.2.10
#OUTPUTGAMMA sRGB IEC61966-2.1 v.2.10
0 43 86 128 171 214 256 299 341 384 427 469 512 555 597 640 682 725 768 810 853 896 938 981 1023 
146 24 0
183 56 0
239 102 24
333 176 97
455 261 179
592 369 278
716 508 410
832 652 575
952 777 727
1075 906 872
1202 1039 1021
1331 1177 1175
1464 1319 1333
1599 1467 1493
1735 1619 1655
1874 1775 1818
2012 1934 1979
2149 2092 2139
2285 2249 2295
2418 2404 2448
2549 2554 2595
2675 2701 2736
2798 2842 2871
2917 2977 3001
3032 3106 3125
190 62 0
224 92 10
286 142 59
375 208 125
494 291 204
622 402 303
738 539 439
851 675 600
969 796 745
1090 923 888
1215 1054 1037
1343 1191 1189
1475 1333 1345
1609 1480 1504
1745 1631 1665
1882 1786 1827
2020 1944 1988
2156 2101 2147
2292 2258 2303
2424 2412 2454
2554 2562 2600
2680 2707 2741
2802 2847 2876
2921 2982 3005
3035 3110 3129
257 117 0
288 146 51
343 188 102
432 250 161
545 333 237
661 445 337
766 577 476
876 703 632
990 821 769
1110 945 910
1233 1074 1056
1359 1210 1207
1490 1350 1362
1623 1496 1519
1758 1646 1679
1894 1800 1840
2030 1957 2000
2166 2114 2157
2300 2269 2312
2432 2422 2463
2561 2571 2608
2687 2716 2748
2809 2855 2883
2927 2988 3011
3040 3117 3134
363 197 53
393 221 100
432 255 157
514 313 214
614 398 290
711 511 394
809 632 533
913 744 675
1024 858 805
1140 979 943
1260 1105 1086
1385 1239 1234
1513 1377 1387
1644 1521 1543
1777 1669 1700
1912 1822 1859
2047 1977 2018
2181 2132 2174
2314 2286 2327
2445 2437 2476
2573 2585 2620
2697 2728 2759
2818 2867 2892
2935 2999 3020
3048 3126 3142
498 292 118
524 315 160
561 348 211
612 404 287
690 490 366
772 593 476
863 696 606
962 798 728
1068 907 854
1180 1024 986
1297 1147 1127
1418 1277 1271
1544 1413 1421
1673 1555 1574
1803 1701 1730
1936 1852 1886
2070 2005 2042
2202 2158 2196
2333 2310 2347
2462 2459 2494
2589 2605 2637
2712 2746 2774
2831 2882 2906
2947 3013 3032
3059 3139 3152
642 419 193
660 443 234
686 478 284
721 529 364
771 597 472
844 682 578
929 768 688
1022 864 797
1123 968 915
1230 1081 1042
1343 1200 1178
1461 1327 1318
1584 1460 1464
1709 1599 1614
1838 1742 1766
1968 1891 1919
2098 2041 2072
2228 2191 2224
2358 2340 2372
2485 2486 2517
2609 2630 2657
2730 2769 2792
2848 2903 2922
2962 3032 3047
3073 3156 3166
766 574 282
780 593 325
800 621 379
830 661 465
868 708 583
927 772 685
1005 852 775
1092 942 876
1187 1041 989
1291 1149 1110
1399 1265 1239
1513 1387 1376
1631 1517 1517
1754 1652 1663
1879 1793 1811
2006 1938 1961
2134 2084 2110
2261 2230 2258
2387 2376 2403
2512 2520 2545
2634 2660 2683
2753 2796 2815
2869 2928 2943
2982 3055 3066
3091 3177 3183
891 716 396
902 730 444
919 749 505
947 781 583
982 823 678
1021 874 786
1091 946 873
1172 1031 969
1262 1124 1075
1359 1228 1190
1464 1339 1313
1573 1458 1442
1688 1583 1579
1806 1715 1720
1927 1852 1864
2051 1993 2009
2175 2135 2155
2299 2278 2299
2422 2420 2440
2544 2560 2579
2663 2696 2713
2780 2830 2843
2894 2958 2968
3004 3082 3088
3112 3201 3203
1020 849 538
1030 861 582
1043 878 636
1068 906 697
1100 944 773
1140 992 869
1186 1051 980
1261 1129 1071
1345 1217 1171
1437 1316 1279
1537 1422 1396
1642 1538 1521
1752 1659 1651
1866 1788 1786
1983 1920 1925
2103 2056 2065
2223 2194 2206
2343 2332 2345
2463 2470 2482
2581 2605 2617
2697 2738 2748
2811 2868 2874
2922 2993 2996
3030 3114 3114
3136 3230 3226
1152 988 678
1161 999 710
1173 1014 752
1194 1039 807
1224 1074 878
1261 1118 965
1302 1171 1071
1357 1237 1182
1436 1321 1276
1523 1414 1379
1617 1517 1489
1717 1627 1607
1823 1745 1732
1933 1868 1861
2045 1997 1993
2160 2127 2128
2277 2260 2263
2393 2393 2398
2509 2526 2531
2623 2657 2661
2736 2785 2787
2847 2910 2910
2955 3032 3028
3060 3149 3143
3163 3262 3253
1288 1133 802
1296 1143 832
1307 1156 870
1325 1178 923
1352 1210 988
1386 1251 1069
1426 1301 1167
1469 1359 1284
1534 1433 1389
1615 1522 1487
1704 1619 1592
1800 1725 1703
1900 1838 1821
2006 1957 1943
2113 2079 2069
2224 2205 2197
2336 2333 2327
2447 2461 2456
2559 2588 2583
2670 2714 2708
2779 2837 2831
2886 2958 2949
2991 3075 3064
3094 3189 3175
3194 3298 3283
1427 1282 930
1435 1291 957
1444 1304 993
1459 1324 1045
1485 1353 1105
1517 1391 1180
1554 1438 1271
1597 1493 1377
1639 1555 1505
1714 1637 1600
1798 1730 1700
1888 1831 1805
1984 1939 1916
2084 2052 2032
2187 2169 2152
2292 2289 2274
2399 2411 2397
2507 2533 2519
2614 2655 2641
2720 2775 2761
2826 2894 2878
2929 3010 2993
3031 3122 3104
3130 3232 3211
3227 3337 3315
1570 1438 1062
1577 1447 1087
1586 1458 1120
1599 1475 1169
1621 1502 1227
1651 1538 1296
1686 1582 1381
1726 1634 1480
1771 1693 1593
1819 1762 1718
1897 1849 1813
1982 1944 1913
2072 2046 2018
2167 2153 2127
2265 2264 2240
2366 2378 2355
2467 2494 2471
2570 2610 2587
2673 2726 2703
2775 2841 2817
2876 2954 2930
2976 3065 3039
3074 3173 3146
3170 3278 3250
3264 3380 3351
1714 1598 1197
1721 1606 1220
1729 1617 1250
1741 1634 1296
1760 1658 1353
1787 1691 1418
1820 1732 1496
1858 1780 1589
1901 1837 1694
1946 1900 1813
2002 1974 1930
2081 2063 2025
2165 2158 2125
2255 2259 2227
2348 2364 2332
2443 2472 2440
2539 2581 2550
2637 2691 2660
2735 2801 2770
2833 2911 2878
2930 3018 2985
3026 3124 3089
3121 3227 3192
3213 3328 3292
3303 3426 3389
1860 1763 1334
1866 1770 1355
1873 1781 1384
1885 1796 1426
1900 1817 1484
1926 1848 1544
1956 1887 1617
1992 1932 1703
2032 1984 1801
2076 2043 1910
2119 2108 2034
2183 2185 2139
2262 2274 2233
2346 2369 2329
2433 2467 2428
2523 2569 2529
2615 2672 2632
2707 2775 2735
2800 2879 2839
2894 2983 2942
2986 3085 3043
3079 3186 3143
3169 3284 3240
3258 3380 3336
3345 3474 3429
2007 1931 1474
2012 1938 1494
2018 1947 1521
2029 1961 1560
2043 1981 1613
2065 2008 1673
2093 2044 1740
2126 2085 1821
2163 2134 1912
2205 2188 2013
2249 2248 2126
2289 2313 2253
2362 2394 2343
2439 2482 2434
2521 2573 2527
2606 2668 2621
2692 2765 2717
2780 2863 2814
2868 2960 2911
2957 3058 3008
3046 3154 3104
3133 3250 3199
3220 3343 3292
3306 3435 3382
3389 3524 3472
2152 2098 1616
2157 2105 1634
2163 2113 1658
2172 2126 1695
2185 2144 1745
2204 2169 1804
2229 2201 1867
2260 2239 1941
2295 2283 2026
2333 2334 2120
2375 2389 2224
2418 2450 2336
2464 2516 2453
2535 2596 2539
2611 2681 2626
2691 2769 2714
2772 2860 2803
2855 2951 2894
2939 3043 2985
3023 3135 3076
3107 3226 3167
3191 3315 3257
3273 3404 3345
3355 3491 3432
3435 3576 3517
2296 2265 1758
2300 2270 1775
2305 2278 1798
2314 2290 1832
2326 2306 1878
2341 2327 1936
2364 2357 1995
2393 2392 2064
2425 2433 2142
2460 2479 2230
2499 2529 2325
2541 2585 2428
2582 2645 2539
2633 2712 2644
2703 2790 2726
2777 2871 2808
2853 2955 2892
2932 3041 2975
3011 3127 3060
3090 3213 3146
3170 3298 3231
3249 3383 3316
3328 3467 3400
3406 3549 3483
3482 3629 3564
2436 2428 1901
2440 2433 1916
2445 2440 1937
2453 2451 1969
2464 2466 2012
2477 2485 2066
2497 2511 2123
2523 2542 2187
2553 2579 2259
2586 2621 2340
2622 2668 2429
2660 2719 2524
2701 2773 2625
2739 2832 2735
2796 2899 2825
2864 2974 2902
2936 3051 2980
3009 3131 3058
3084 3212 3137
3159 3292 3217
3234 3372 3297
3310 3452 3377
3384 3530 3457
3458 3608 3535
3531 3683 3613
2574 2587 2042
2577 2592 2056
2582 2598 2076
2589 2607 2105
2599 2621 2144
2611 2638 2195
2627 2660 2252
2651 2689 2310
2678 2723 2377
2708 2761 2451
2742 2803 2533
2777 2849 2621
2816 2899 2714
2855 2953 2812
2890 3009 2921
2952 3076 2995
3019 3148 3068
3087 3221 3141
3158 3296 3214
3229 3371 3289
3300 3446 3364
3371 3521 3439
3442 3595 3514
3512 3667 3589
3581 3737 3662
2707 2740 2182
2710 2744 2195
2714 2750 2213
2720 2758 2240
2729 2770 2276
2740 2786 2322
2754 2805 2378
2775 2831 2432
2800 2861 2494
2828 2896 2562
2858 2934 2637
2892 2976 2718
2928 3022 2804
2965 3071 2895
3002 3122 2990
3041 3178 3086
3102 3243 3155
3166 3311 3223
3232 3380 3292
3299 3451 3361
3366 3521 3431
3433 3590 3502
3500 3659 3573
3567 3726 3643
3632 3791 3712
2835 2887 2320
2838 2891 2332
2842 2896 2348
2848 2904 2373
2856 2915 2406
2866 2928 2448
2878 2946 2500
2896 2968 2553
2918 2996 2609
2944 3027 2672
2972 3061 2742
3003 3100 2816
3037 3141 2895
3072 3185 2979
3108 3232 3066
3143 3282 3157
3186 3338 3240
3245 3399 3305
3306 3464 3369
3369 3529 3433
3432 3595 3498
3496 3660 3565
3559 3723 3631
3622 3785 3697
3683 3846 3761
2959 3028 2455
2962 3031 2466
2966 3036 2481
2971 3043 2503
2978 3052 2533
2987 3065 2572
2999 3080 2619
3013 3100 2671
3034 3124 2723
3057 3153 2781
3083 3184 2845
3112 3218 2913
3142 3256 2986
3175 3296 3063
3209 3339 3143
3244 3385 3227
3276 3433 3315
3324 3487 3385
3381 3546 3445
3440 3607 3505
3499 3667 3566
3559 3727 3628
3618 3785 3690
3677 3843 3750
3734 3900 3811
3079 3161 2586
3081 3164 2596
3084 3168 2609
3089 3175 2630
3096 3184 2657
3104 3195 2693
3115 3209 2736
3127 3226 2786
3145 3248 2834
3166 3273 2888
3190 3301 2946
3216 3333 3009
3244 3367 3077
3275 3403 3148
3307 3442 3222
3339 3484 3298
3373 3528 3378
3402 3574 3462
3455 3627 3520
3510 3682 3576
3565 3738 3633
3621 3792 3690
3677 3847 3747
3731 3901 3804
3784 3954 3861
3193 3288 2714
3195 3291 2723
3198 3295 2735
3203 3301 2754
3209 3308 2779
3217 3319 2811
3226 3331 2850
3237 3346 2896
3253 3366 2943
3272 3388 2992
3294 3414 3046
3318 3442 3104
3343 3473 3166
3371 3506 3232
3401 3542 3301
3432 3580 3371
3463 3620 3445
3495 3661 3520
3528 3706 3593
3579 3756 3647
3631 3806 3698
3683 3857 3751
3734 3907 3804
3785 3958 3857
3835 4009 3910
238 24 0
226 90 10
288 140 59
378 206 125
496 289 204
624 398 303
740 537 439
852 673 600
970 795 745
1091 921 888
1215 1054 1037
1344 1190 1189
1476 1332 1345
1610 1478 1504
1746 1630 1665
1883 1786 1827
2020 1943 1988
2157 2100 2147
2292 2257 2303
2425 2411 2454
2554 2561 2600
2680 2707 2741
2803 2847 2876
2921 2981 3005
3036 3110 3129
259 106 0
273 132 41
331 174 90
422 238 151
535 320 229
653 432 327
761 566 465
871 694 622
987 814 762
1106 938 903
1229 1069 1050
1357 1204 1202
1487 1345 1356
1620 1491 1515
1756 1642 1675
1892 1796 1836
2029 1953 1996
2164 2110 2154
2299 2266 2309
2431 2419 2460
2560 2568 2606
2686 2713 2746
2808 2853 2880
2926 2987 3009
3040 3115 3132
320 163 7
345 185 72
390 220 128
476 279 186
581 362 262
688 476 363
789 603 502
896 722 652
1008 838 786
1126 961 925
1247 1089 1070
1373 1222 1220
1502 1362 1374
1634 1508 1530
1768 1657 1689
1903 1811 1849
2039 1967 2008
2174 2122 2165
2308 2277 2319
2439 2429 2469
2567 2577 2614
2693 2721 2753
2814 2860 2887
2931 2993 3015
3045 3121 3137
422 235 64
446 256 116
483 286 174
553 341 239
644 430 314
735 539 422
829 655 557
932 762 693
1040 874 822
1155 994 957
1274 1120 1100
1398 1251 1247
1524 1389 1398
1655 1532 1553
1787 1680 1710
1921 1832 1868
2055 1987 2026
2189 2141 2181
2321 2294 2334
2452 2445 2482
2579 2592 2626
2703 2734 2764
2823 2872 2897
2940 3004 3024
3053 3130 3145
549 329 127
571 350 174
601 383 228
644 435 310
714 519 394
793 617 504
883 715 629
980 815 747
1085 923 870
1195 1038 1002
1310 1161 1140
1431 1290 1283
1555 1425 1432
1683 1566 1585
1813 1712 1739
1945 1862 1894
2078 2014 2050
2210 2166 2203
2340 2317 2353
2469 2466 2500
2594 2611 2642
2717 2752 2779
2836 2888 2910
2952 3018 3035
3064 3144 3156
679 459 202
694 479 246
715 511 300
747 559 382
792 623 499
864 701 603
947 785 707
1038 881 813
1139 984 931
1244 1094 1057
1357 1214 1190
1473 1339 1330
1595 1471 1475
1720 1610 1624
1847 1753 1776
1977 1900 1928
2106 2050 2080
2236 2199 2231
2364 2347 2379
2491 2493 2523
2615 2636 2662
2735 2775 2797
2853 2908 2927
2967 3037 3051
3078 3160 3170
795 607 291
807 624 334
824 648 399
854 683 483
891 729 599
946 790 702
1021 868 793
1108 957 894
1202 1055 1003
1304 1162 1124
1412 1277 1252
1524 1399 1387
1642 1527 1528
1764 1663 1673
1888 1803 1820
2014 1947 1969
2142 2093 2118
2268 2239 2265
2394 2384 2410
2518 2527 2551
2639 2666 2688
2758 2802 2820
2874 2933 2947
2986 3060 3069
3095 3181 3186
916 740 408
927 752 456
941 771 521
967 800 600
1002 842 691
1040 892 799
1107 962 890
1187 1045 985
1275 1138 1089
1373 1240 1202
1476 1351 1325
1585 1469 1454
1699 1594 1590
1816 1726 1730
1937 1862 1873
2059 2002 2017
2183 2144 2162
2306 2286 2305
2429 2427 2446
2550 2566 2584
2669 2703 2718
2785 2835 2847
2898 2963 2972
3009 3087 3092
3115 3205 3207
1041 871 549
1051 882 592
1064 898 646
1086 924 710
1118 962 785
1157 1008 880
1201 1066 995
1274 1143 1086
1357 1231 1185
1449 1328 1292
1548 1434 1408
1652 1548 1531
1762 1670 1661
1876 1798 1796
1992 1930 1934
2111 2065 2073
2230 2202 2213
2350 2340 2352
2469 2477 2489
2587 2612 2623
2703 2744 2752
2816 2873 2879
2927 2998 3000
3035 3118 3117
3139 3234 3230
1171 1008 685
1180 1018 717
1192 1032 760
1210 1055 818
1240 1090 888
1276 1133 976
1318 1186 1082
1370 1250 1194
1447 1333 1289
1534 1426 1391
1628 1527 1501
1728 1637 1618
1832 1755 1742
1942 1878 1870
2054 2005 2001
2168 2136 2136
2284 2268 2270
2400 2401 2404
2515 2533 2536
2629 2663 2666
2741 2791 2792
2852 2916 2914
2960 3037 3033
3065 3153 3146
3167 3266 3256
1305 1150 809
1313 1160 839
1324 1173 877
1340 1193 935
1367 1225 998
1401 1265 1079
1441 1314 1176
1484 1373 1292
1545 1445 1400
1626 1532 1498
1715 1629 1602
1810 1735 1713
1910 1848 1830
2014 1966 1952
2122 2088 2077
2232 2213 2205
2343 2340 2334
2454 2467 2462
2565 2594 2589
2675 2720 2714
2784 2843 2835
2891 2963 2954
2996 3080 3068
3098 3193 3179
3197 3302 3286
