Examples/AB - No greens 2.3dl
#25pt 3DLUT created by 3D LUT Creator Pro (c) Oleg Sharonov
#Copyright Oleg Sharonov
#IMAGEPROFILE 
#INPUTGAMMA 
#OUTPUTGAMMA 
0 128 256 384 512 640 768 896 1023
0 0 0
0 0 512
0 0 1023
0 0 1536
0 0 2048
0 0 2559
0 0 3071
0 0 3583
0 0 4095
214 295 206
287 420 465
278 477 980
217 509 1510
36 513 2044
0 512 2559
0 512 3071
0 512 3583
0 512 4095
522 652 510
542 746 649
647 868 943
640 932 1454
617 978 1978
558 1009 2508
440 1027 3041
171 1028 3575
0 1023 4095
828 1010 813
872 1043 909
894 1208 1084
1004 1316 1422
983 1379 1939
981 1434 2452
937 1470 2984
870 1498 3515
772 1520 4046
1134 1370 1114
1164 1394 1183
1178 1504 1334
1238 1650 1564
1356 1765 1903
1318 1825 2430
1313 1879 2942
1259 1911 3479
1223 1954 4000
1437 1734 1412
1455 1755 1466
1511 1798 1593
1495 1984 1761
1574 2100 2048
1694 2214 2393
1622 2265 2941
1566 2300 3478
1648 2384 3940
1735 2109 1702
1742 2127 1751
1796 2157 1851
1783 2285 2020
1808 2470 2202
1877 2560 2547
1995 2667 2903
1835 2694 3503
2043 2793 3884
2020 2509 1972
2016 2524 2022
2061 2548 2106
2088 2606 2274
1988 2828 2452
2028 2981 2689
2077 3038 3093
2179 3126 3474
2415 3182 3844
2268 2972 2187
2247 2986 2245
2281 3008 2322
2315 3041 2481
2160 3214 2709
1992 3460 2912
1842 3544 3341
2216 3522 3658
2754 3564 3832
512 0 0
512 0 512
512 0 1023
512 0 1536
512 0 2048
512 0 2559
513 0 3071
513 0 3583
514 0 4095
490 451 192
512 512 512
512 512 1023
512 512 1536
512 512 2048
512 512 2559
514 514 3071
514 514 3583
514 514 4095
665 752 513
694 797 684
771 916 969
763 967 1475
736 1001 2000
681 1022 2529
576 1027 3062
514 1025 3583
514 1025 4095
919 1079 813
942 1109 926
972 1240 1118
1084 1346 1439
1067 1405 1951
1059 1452 2466
1020 1486 2995
959 1511 3525
872 1530 4055
1203 1420 1109
1215 1442 1196
1258 1512 1359
1294 1680 1577
1413 1785 1915
1379 1844 2438
1379 1896 2948
1324 1925 3486
1285 1963 4009
1495 1773 1402
1499 1790 1474
1553 1829 1603
1535 2001 1784
1617 2120 2060
1739 2230 2401
1673 2280 2946
1624 2315 3480
1686 2393 3949
1787 2141 1686
1785 2153 1751
1825 2186 1859
1835 2289 2035
1844 2483 2216
1914 2574 2555
2035 2679 2908
1884 2706 3504
2073 2802 3892
2072 2535 1948
2060 2545 2013
2084 2575 2110
2136 2618 2272
2023 2836 2466
2063 2993 2695
2114 3049 3097
2219 3136 3475
2441 3191 3851
2333 2995 2142
2303 3003 2221
2301 3032 2324
2343 3060 2479
2215 3211 2716
2030 3468 2919
1888 3558 3339
2234 3535 3665
2779 3572 3837
1024 0 0
1024 0 512
1024 0 1024
1023 0 1536
1024 0 2047
1024 0 2559
1024 0 3071
1024 0 3583
1025 3 4095
976 513 230
1024 512 512
1023 512 1024
1024 513 1535
1024 513 2047
1024 512 2559
1025 513 3071
1025 513 3583
1025 513 4095
984 919 492
996 950 688
1024 1024 1024
1023 1023 1536
1024 1024 2048
1023 1023 2560
1023 1023 3071
1025 1025 3583
1025 1025 4094
1143 1210 812
1164 1241 914
1186 1304 1175
1265 1418 1476
1256 1466 1980
1235 1496 2502
1200 1519 3028
1145 1533 3556
1061 1538 4088
1351 1530 1120
1371 1553 1191
1402 1600 1383
1431 1747 1612
1550 1837 1942
1525 1890 2458
1516 1934 2971
1475 1960 3503
1429 1986 4031
1609 1862 1409
1625 1880 1464
1647 1917 1622
1672 2020 1834
1724 2169 2086
1850 2269 2421
1795 2317 2958
1762 2353 3484
1789 2415 3971
1882 2214 1686
1894 2229 1732
1904 2258 1871
1966 2307 2057
1931 2515 2253
2006 2610 2575
2131 2709 2921
2003 2737 3507
2151 2825 3912
2158 2598 1935
2167 2609 1977
2161 2633 2113
2209 2671 2280
2145 2835 2497
2152 3021 2712
2204 3076 3108
2317 3160 3480
2505 3214 3868
2423 3051 2104
2425 3059 2149
2388 3079 2305
2407 3113 2476
2355 3201 2729
2126 3485 2938
2005 3604 3315
2291 3565 3683
2838 3593 3849
1536 0 0
1536 0 512
1536 0 1024
1535 0 1536
1536 0 2048
1536 0 2559
1536 0 3071
1536 0 3583
1536 0 4095
1493 565 206
1535 513 513
1536 512 1024
1536 512 1536
1535 512 2048
1535 513 2559
1536 512 3071
1536 512 3583
1536 510 4095
1451 986 558
1476 1006 710
1536 1023 1023
1536 1024 1535
1536 1024 2048
1536 1025 2559
1536 1026 3070
1537 1025 3582
1537 1025 4094
1480 1387 786
1488 1407 917
1506 1455 1183
1536 1536 1536
1535 1535 2048
1536 1536 2559
1535 1535 3071
1535 1535 3584
1535 1535 4095
1626 1677 1109
1641 1697 1183
1673 1746 1358
1688 1815 1675
1767 1925 1987
1754 1969 2491
1734 1995 3012
1703 2015 3537
1663 2031 4063
1830 1988 1399
1839 2007 1456
1854 2055 1603
1883 2107 1861
1903 2261 2118
2030 2337 2452
1992 2381 2979
1972 2415 3497
1958 2454 4008
2046 2330 1686
2057 2344 1731
2083 2377 1844
2103 2421 2071
2099 2548 2323
2161 2675 2605
2293 2763 2942
2194 2790 3513
2287 2864 3946
2303 2699 1921
2311 2710 1962
2330 2737 2065
2330 2773 2283
2364 2829 2535
2300 3063 2749
2357 3125 3125
2482 3202 3485
2619 3254 3897
2567 3143 2052
2571 3152 2094
2577 3173 2204
2534 3202 2452
2557 3240 2703
2313 3493 2979
2204 3657 3299
2406 3610 3710
2940 3632 3871
2048 0 0
2048 0 512
2048 0 1023
2048 0 1536
2047 0 2048
2047 0 2560
2047 0 3071
2048 0 3583
2048 3 4095
2005 592 264
2047 513 513
2048 512 1023
2048 512 1536
2047 512 2048
2047 512 2560
2047 510 3072
2047 509 3583
2048 510 4095
1968 1043 541
1989 1055 693
2047 1024 1024
2048 1024 1536
2048 1024 2048
2048 1024 2559
2048 1026 3071
2048 1028 3582
2048 1026 4094
1925 1459 885
1943 1473 982
1983 1507 1199
2047 1536 1536
2048 1536 2047
2047 1536 2560
2048 1536 3071
2048 1537 3582
2049 1538 4094
1980 1858 1068
1985 1871 1167
1997 1905 1380
2018 1963 1686
2048 2048 2048
2048 2048 2559
2047 2047 3071
2048 2048 3583
2048 2048 4095
2117 2152 1388
2128 2166 1447
2153 2200 1588
2188 2258 1822
2194 2328 2179
2272 2434 2500
2253 2473 3008
2229 2495 3530
2200 2511 4055
2322 2466 1645
2330 2479 1694
2348 2512 1813
2354 2573 2029
2372 2623 2346
2379 2780 2629
2512 2842 2971
2449 2871 3519
2477 2923 3993
2542 2826 1868
2534 2841 1924
2542 2870 2035
2566 2911 2218
2566 2953 2523
2514 3100 2822
2570 3200 3145
2707 3267 3492
2782 3314 3937
2777 3268 1966
2780 3276 2010
2787 3298 2122
2796 3331 2315
2743 3365 2664
2684 3436 3020
2477 3708 3300
2566 3681 3746
3086 3690 3903
2559 0 0
2559 0 512
2560 0 1023
2559 0 1536
2559 0 2048
2559 0 2560
2559 0 3071
2559 0 3583
2559 0 4095
2517 620 320
2559 513 513
2560 512 1023
2559 513 1535
2559 513 2048
2559 513 2560
2559 510 3072
2559 509 3584
2559 510 4095
2486 1101 497
2502 1091 696
2559 1025 1025
2560 1023 1536
2560 1023 2047
2560 1023 2559
2559 1024 3071
2559 1025 3583
2560 1027 4094
2445 1514 865
2460 1524 965
2492 1551 1187
2560 1535 1535
2559 1536 2048
2559 1536 2559
2560 1536 3071
2560 1537 3583
2560 1540 4093
2426 1921 1169
2430 1936 1253
2446 1970 1437
2494 2012 1697
2559 2048 2048
2559 2048 2559
2559 2047 3072
2559 2048 3583
2560 2048 4095
2491 2332 1319
2493 2342 1399
2500 2367 1581
2512 2410 1855
2531 2474 2190
2559 2559 2559
2560 2560 3071
2559 2559 3583
2560 2560 4095
2624 2643 1614
2631 2652 1667
2650 2676 1793
2678 2717 2003
2709 2776 2289
2701 2843 2684
2776 2944 3014
2746 2975 3534
2730 2999 4047
2853 2977 1769
2858 2986 1820
2869 3009 1939
2885 3048 2140
2874 3111 2437
2861 3155 2828
2838 3313 3149
2976 3351 3507
2996 3392 3985
3130 3401 1716
3129 3408 1777
3125 3429 1923
3086 3475 2187
3078 3518 2493
3011 3549 2941
2815 3742 3329
2776 3781 3784
3282 3765 3940
3071 0 0
3071 0 512
3071 0 1023
3071 0 1535
3071 0 2048
3071 0 2559
3071 0 3071
3071 0 3583
3071 0 4095
3029 650 374
3071 512 512
3072 512 1023
3072 512 1535
3071 513 2047
3071 514 2559
3071 513 3072
3071 509 3584
3071 512 4095
2998 1132 552
3012 1116 738
3070 1026 1026
3072 1023 1535
3071 1023 2047
3071 1023 2559
3071 1023 3071
3071 1024 3583
3071 1025 4095
2962 1571 842
2974 1579 944
3004 1596 1169
3071 1536 1536
3071 1535 2048
3071 1536 2559
3071 1536 3071
3071 1535 3583
3071 1538 4094
2932 1983 1166
2942 1991 1241
2965 2013 1417
3003 2050 1685
3072 2047 2047
3071 2048 2559
3071 2048 3071
3071 2048 3583
3072 2048 4094
2949 2382 1404
2951 2393 1476
2956 2421 1644
2965 2469 1900
3010 2519 2196
3071 2560 2560
3070 2560 3071
3072 2559 3583
3071 2559 4095
3029 2817 1481
3029 2824 1556
3031 2842 1729
3034 2874 1994
3038 2921 2324
3047 2986 2691
3071 3071 3071
3072 3072 3583
3071 3071 4095
3172 3173 1666
3176 3179 1725
3188 3193 1861
3206 3219 2081
3225 3255 2381
3242 3306 2735
3207 3364 3187
3274 3456 3534
3258 3487 4041
3508 3588 1259
3508 3593 1351
3509 3605 1557
3509 3626 1862
3497 3656 2255
3429 3709 2734
3332 3736 3280
3175 3906 3712
3526 3856 3980
3583 0 0
3583 0 512
3583 0 1023
3583 0 1535
3583 0 2047
3583 0 2559
3583 0 3071
3583 0 3583
3583 6 4095
3539 684 428
3583 510 510
3583 510 1023
3584 512 1534
3583 513 2047
3583 514 2559
3583 513 3071
3583 512 3583
3583 516 4095
3507 1164 619
3521 1144 784
3582 1027 1027
3583 1024 1535
3583 1023 2047
3583 1024 2559
3583 1023 3071
3583 1024 3583
3583 1026 4095
3477 1633 813
3488 1638 919
3511 1619 1205
3582 1537 1537
3583 1535 2047
3583 1535 2559
3583 1535 3071
3583 1535 3583
3583 1536 4095
3452 2035 1136
3460 2042 1215
3478 2062 1399
3510 2094 1673
3583 2048 2048
3583 2048 2559
3583 2047 3071
3583 2048 3583
3584 2046 4095
3437 2449 1420
3444 2456 1483
3460 2474 1633
3486 2506 1872
3519 2552 2181
3583 2559 2559
3583 2559 3071
3583 2560 3583
3583 2560 4095
3513 2845 1525
3512 2853 1598
3511 2874 1767
3508 2912 2026
3503 2968 2351
3532 3026 2690
3582 3072 3072
3582 3073 3583
3584 3071 4094
3649 3330 1294
3646 3335 1396
3639 3346 1622
3627 3367 1947
3607 3399 2338
3588 3442 2756
3571 3501 3182
3583 3583 3583
3583 3583 4094
3734 3726 1563
3749 3743 1554
3765 3760 1676
3795 3792 1858
3845 3845 2072
3868 3875 2486
3834 3887 3044
3702 3913 3671
3801 3968 4029
4095 0 0
4095 0 512
4095 0 1024
4095 0 1535
4095 0 2047
4095 3 2559
4095 0 3071
4095 0 3583
4095 3 4095
4049 725 492
4095 510 510
4095 512 1023
4095 512 1535
4095 512 2047
4095 513 2559
4095 516 3071
4095 516 3583
4095 516 4095
4015 1203 696
4028 1179 838
4094 1027 1027
4095 1024 1535
4095 1024 2047
4095 1025 2559
4095 1025 3071
4094 1027 3583
4094 1028 4095
3984 1680 861
3993 1671 987
4017 1647 1248
4093 1538 1538
4095 1536 2047
4095 1536 2559
4095 1535 3071
4095 1535 3583
4095 1536 4095
3966 2093 1113
3971 2100 1199
3985 2119 1391
4013 2126 1696
4094 2048 2048
4095 2047 2560
4095 2048 3071
4095 2048 3583
4095 2048 4095
3973 2487 1345
3977 2493 1417
3987 2511 1586
4001 2545 1849
4022 2593 2176
4095 2559 2559
4095 2560 3071
4094 2561 3583
4094 2561 4095
3962 2922 1606
3967 2927 1662
3981 2939 1797
4004 2961 2015
4035 2993 2303
4048 3051 2669
4094 3072 3072
4095 3071 3583
4095 3073 4094
3909 3314 2071
3916 3322 2101
3933 3341 2186
3961 3374 2326
3996 3418 2540
4038 3477 2809
4070 3531 3169
4094 3584 3584
4093 3585 4095
3810 3674 2627
3816 3682 2650
3828 3698 2723
3849 3728 2840
3882 3775 3003
3919 3833 3225
3959 3901 3499
4014 3989 3795
4095 4095 4095
