Examples/AB - Saturation decrease.3dl
#25pt 3DLUT created by 3D LUT Creator Pro (c) Oleg Sharonov
#Copyright Oleg Sharonov
#IMAGEPROFILE sRGB IEC61966-2.1 v.2.10
#INPUTGAMMA sRGB IEC61966-2.1 v.2.10
#OUTPUTGAMMA sRGB IEC61966-2.1 v.2.10
0 128 256 384 512 640 768 896 1023
0 0 0
87 0 394
284 0 822
493 0 1252
702 0 1682
911 0 2112
1120 0 2542
1329 0 2972
1538 0 3402
284 455 326
233 475 568
203 287 1571
602 0 1994
829 0 2224
1024 0 2532
1217 0 2880
1412 0 3252
1610 0 3638
637 928 709
613 940 826
551 962 1119
531 894 1928
599 437 3149
1057 0 3482
1330 0 3655
1544 0 3904
1741 29 4095
992 1402 1091
981 1408 1168
924 1430 1338
869 1449 1670
854 1403 2410
817 1203 3509
1186 938 4095
1559 1007 4095
1791 1153 4095
1346 1875 1474
1340 1879 1530
1311 1892 1656
1224 1921 1860
1187 1935 2221
1171 1898 2934
1144 1778 3889
1589 1714 4095
1906 1770 4095
1699 2348 1857
1695 2351 1899
1679 2360 1999
1629 2380 2160
1521 2413 2391
1505 2422 2772
1493 2391 3458
1634 2317 4095
2091 2311 4095
2053 2821 2239
2050 2823 2273
2039 2830 2355
2008 2844 2488
1938 2869 2673
1824 2903 2921
1823 2909 3323
1813 2881 3988
2323 2833 4095
2407 3294 2622
2404 3296 2650
2397 3301 2718
2376 3312 2831
2329 3331 2988
2242 3360 3191
2141 3392 3451
2141 3395 3874
2622 3334 4095
2760 3767 3005
2759 3768 3028
2753 3773 3086
2738 3781 3183
2705 3796 3320
2643 3819 3496
2542 3851 3712
2457 3881 3984
3079 3797 4095
446 39 71
509 0 521
557 0 953
679 0 1352
835 0 1761
1013 0 2174
1202 0 2592
1396 0 3013
1595 0 3437
521 504 139
512 512 512
620 477 1012
765 423 1496
931 347 1967
1111 228 2434
1304 19 2900
1484 0 3279
1670 0 3663
739 959 650
758 960 798
737 975 1101
773 911 1854
971 722 2616
1206 554 3075
1420 351 3498
1624 0 3911
1804 29 4095
1017 1431 1022
1068 1422 1144
1028 1440 1329
997 1456 1662
1004 1412 2380
1034 1225 3422
1325 935 4095
1639 1011 4095
1846 1159 4095
1365 1895 1431
1399 1889 1511
1380 1900 1644
1303 1928 1854
1280 1940 2220
1273 1902 2928
1279 1786 3850
1657 1723 4095
1952 1780 4095
1715 2363 1826
1740 2359 1884
1728 2367 1988
1683 2385 2155
1582 2417 2391
1576 2425 2773
1568 2394 3454
1667 2318 4095
2129 2319 4095
2065 2833 2215
2085 2830 2261
2077 2835 2345
2050 2849 2481
1983 2873 2669
1871 2908 2921
1880 2911 3323
1872 2884 3985
2360 2839 4095
2417 3304 2602
2433 3301 2640
2427 3306 2709
2408 3316 2824
2364 3334 2985
2280 3363 3188
2180 3396 3451
2188 3397 3874
2644 3338 4095
2769 3775 2988
2783 3773 3020
2778 3777 3078
2764 3785 3177
2733 3799 3315
2673 3822 3493
2575 3854 3710
2491 3883 3984
3104 3800 4095
912 136 240
955 87 562
1018 0 1038
1046 0 1491
1132 0 1893
1253 0 2291
1397 0 2697
1558 0 3107
1733 0 3518
993 522 192
979 532 568
1036 500 1049
1132 403 1614
1246 262 2124
1374 58 2593
1502 0 2979
1648 0 3349
1809 0 3729
1039 1009 388
1036 1013 632
1024 1024 1024
1129 991 1531
1250 950 2024
1395 896 2509
1550 833 2982
1719 752 3451
1897 649 3919
1236 1460 979
1237 1464 1068
1250 1469 1283
1246 1479 1628
1284 1435 2314
1411 1313 3091
1631 1192 3611
1826 1070 4087
1978 1196 4095
1489 1926 1373
1485 1930 1428
1531 1923 1608
1484 1945 1840
1481 1955 2194
1494 1917 2890
1547 1808 3757
1812 1740 4095
2063 1798 4095
1763 2399 1740
1774 2398 1797
1842 2386 1954
1814 2400 2139
1729 2430 2381
1739 2436 2755
1739 2403 3445
1816 2328 4095
2208 2334 4095
2092 2864 2143
2114 2860 2197
2166 2851 2317
2150 2862 2461
2093 2884 2659
1985 2918 2920
2015 2919 3315
2011 2891 3978
2425 2852 4095
2440 3329 2549
2458 3326 2589
2500 3319 2686
2488 3327 2806
2450 3344 2974
2373 3372 3181
2276 3404 3450
2301 3403 3872
2708 3349 4095
2789 3796 2944
2804 3793 2977
2839 3788 3058
2829 3795 3160
2804 3808 3302
2748 3830 3486
2655 3861 3704
2573 3890 3983
3170 3807 4095
1379 280 431
1405 250 662
1473 126 1069
1528 0 1557
1548 0 2020
1611 0 2434
1708 0 2833
1829 0 3231
1967 0 3636
1493 536 343
1434 586 668
1483 551 1072
1559 470 1583
1648 291 2162
1746 0 2677
1817 0 3060
1919 0 3442
2042 0 3826
1495 1034 363
1502 1033 643
1496 1038 1068
1554 1010 1567
1646 945 2128
1744 877 2643
1861 793 3132
1993 693 3605
2143 554 4071
1558 1516 639
1557 1518 806
1551 1524 1126
1536 1536 1536
1637 1504 2044
1747 1470 2540
1880 1423 3034
2026 1369 3519
2176 1310 3994
1741 1963 1282
1741 1966 1353
1743 1971 1515
1750 1978 1783
1758 1985 2152
1796 1947 2822
1893 1859 3564
2081 1767 4095
2255 1828 4095
1979 2424 1715
1981 2426 1757
1975 2432 1868
2014 2429 2091
1964 2452 2360
1982 2457 2722
1999 2423 3404
2058 2346 4095
2354 2365 4095
2241 2892 2096
2239 2894 2128
2228 2902 2207
2306 2887 2420
2272 2904 2640
2183 2935 2908
2225 2935 3287
2229 2904 3967
2557 2878 4095
2514 3365 2462
2510 3368 2488
2540 3363 2590
2616 3349 2766
2595 3362 2950
2530 3387 3167
2437 3419 3449
2484 3416 3849
2824 3368 4095
2819 3835 2847
2835 3832 2887
2874 3825 2980
2937 3814 3126
2923 3824 3276
2875 3844 3473
2793 3874 3693
2713 3903 3982
3245 3826 4095
1846 427 622
1864 409 796
1912 339 1134
1995 142 1589
2038 0 2076
2055 0 2543
2102 0 2973
2182 0 3376
2285 0 3772
1996 554 496
1890 667 801
1928 636 1139
2000 559 1590
2076 433 2111
2178 26 2711
2209 0 3147
2273 0 3543
2363 0 3932
1992 1045 530
2000 1043 744
1956 1071 1144
2004 1044 1587
2073 994 2099
2163 895 2677
2267 759 3232
2381 584 3752
2463 556 4095
2000 1546 521
2004 1545 746
2012 1544 1124
2010 1547 1576
2064 1524 2077
2163 1467 2642
2250 1417 3156
2360 1355 3656
2483 1284 4095
2076 2022 890
2075 2023 1013
2072 2027 1274
2064 2035 1633
2048 2048 2048
2146 2018 2556
2258 1982 3059
2371 1945 3551
2511 1895 4044
2251 2468 1564
2252 2470 1620
2252 2474 1764
2252 2481 1984
2255 2489 2289
2270 2494 2664
2308 2461 3316
2390 2388 4047
2574 2408 4095
2476 2924 2043
2477 2926 2078
2477 2930 2172
2472 2938 2328
2505 2938 2576
2452 2961 2873
2491 2961 3250
2509 2929 3923
2726 2912 4095
2727 3389 2442
2728 3390 2469
2725 3395 2539
2713 3404 2657
2784 3392 2901
2746 3410 3143
2654 3442 3435
2723 3436 3816
2984 3396 4095
2992 3858 2818
2991 3860 2839
2985 3865 2895
2985 3870 3003
3080 3851 3232
3056 3865 3444
2987 3893 3676
2909 3921 3979
3357 3855 4095
2313 573 812
2325 560 949
2360 517 1233
2425 409 1629
2514 132 2111
2548 0 2593
2562 0 3065
2599 0 3506
2666 0 3916
2456 635 701
2348 766 953
2377 741 1238
2435 679 1634
2517 558 2111
2594 376 2638
2663 0 3195
2685 0 3641
2742 0 4046
2492 1059 681
2500 1055 854
2411 1123 1244
2453 1098 1639
2521 1044 2109
2597 963 2634
2688 819 3221
2788 606 3791
2814 676 4095
2492 1556 709
2497 1555 880
2509 1552 1203
2475 1571 1639
2522 1549 2100
2583 1512 2610
2683 1428 3195
2769 1351 3735
2823 1350 4095
2505 2058 668
2508 2058 855
2514 2057 1198
2524 2055 1621
2524 2058 2086
2574 2038 2587
2673 1986 3151
2766 1939 3673
2852 1907 4095
2594 2528 1141
2593 2529 1236
2592 2532 1446
2586 2538 1767
2576 2547 2143
2559 2559 2559
2657 2530 3068
2769 2494 3575
2875 2461 4069
2764 2974 1836
2765 2975 1883
2764 2978 2007
2764 2983 2202
2761 2991 2469
2762 3000 2795
2781 3005 3176
2820 2974 3816
2951 2960 4095
2978 3427 2357
2978 3428 2390
2980 3431 2468
2979 3436 2609
2976 3446 2798
3003 3448 3068
2948 3471 3386
3003 3466 3776
3174 3440 4095
3220 3888 2778
3221 3889 2802
3222 3892 2862
3217 3898 2971
3206 3909 3120
3270 3899 3384
3231 3918 3651
3137 3952 3953
3524 3891 4095
2779 720 1003
2789 711 1114
2815 679 1355
2868 605 1706
2943 457 2138
3034 97 2635
3057 0 3111
3070 0 3585
3101 0 4034
2893 770 924
2808 879 1116
2831 858 1359
2879 807 1710
2949 713 2140
3035 547 2634
3111 289 3165
3152 0 3687
3173 0 4095
2994 1075 832
3001 1069 976
2865 1194 1364
2901 1169 1717
2961 1119 2145
3037 1039 2632
3114 933 3162
3216 709 3763
3198 807 4095
2991 1568 866
2995 1566 1006
3008 1561 1291
2933 1610 1721
2974 1588 2146
3039 1546 2626
3111 1487 3149
3197 1391 3729
3206 1411 4095
2995 2068 880
2997 2067 1022
3005 2066 1308
3018 2062 1688
2991 2077 2141
3037 2057 2613
3103 2021 3129
3208 1946 3716
3227 1956 4095
3011 2571 809
3013 2571 968
3017 2570 1279
3025 2569 1679
3036 2566 2124
3037 2568 2596
3086 2550 3099
3185 2502 3662
3253 2481 4095
3112 3034 1392
3112 3035 1469
3111 3037 1644
3108 3042 1917
3101 3049 2259
3089 3058 2652
3071 3071 3071
3172 3041 3582
3276 3008 4087
3278 3480 2102
3279 3481 2142
3278 3483 2247
3277 3487 2429
3278 3494 2656
3272 3502 2961
3270 3512 3299
3293 3515 3688
3384 3497 4095
3484 3930 2658
3484 3931 2688
3485 3933 2760
3486 3938 2883
3486 3944 3056
3480 3954 3280
3504 3957 3570
3447 3982 3898
3713 3940 4095
3246 867 1194
3254 859 1286
3275 836 1493
3316 783 1805
3380 680 2197
3465 484 2654
3554 32 3161
3567 0 3630
3579 0 4095
3340 908 1133
3270 1000 1287
3289 982 1496
3327 942 1809
3388 865 2200
3468 733 2656
3554 525 3159
3630 139 3692
3612 343 4095
3497 1093 984
3491 1101 1120
3321 1279 1501
3352 1256 1816
3405 1210 2207
3475 1135 2658
3555 1030 3157
3632 894 3689
3621 935 4095
3491 1582 1018
3496 1579 1136
3508 1572 1388
3387 1662 1821
3425 1641 2212
3484 1599 2658
3555 1540 3151
3636 1455 3685
3616 1494 4095
3491 2079 1049
3494 2078 1165
3503 2075 1415
3517 2070 1762
3452 2107 2212
3493 2088 2656
3554 2053 3141
3617 2011 3657
3632 2008 4095
3499 2579 1042
3501 2579 1163
3506 2579 1420
3514 2577 1774
3530 2573 2184
3506 2585 2647
3551 2567 3126
3621 2532 3646
3655 2519 4095
3516 3084 946
3518 3083 1083
3521 3083 1364
3527 3082 1743
3535 3081 2173
3548 3078 2630
3549 3080 3107
3603 3060 3615
3671 3035 4095
3630 3540 1643
3630 3540 1706
3629 3542 1855
3628 3546 2088
3621 3552 2408
3616 3560 2758
3602 3570 3159
3583 3583 3583
3686 3552 4095
3793 3986 2363
3794 3986 2398
3794 3988 2489
3792 3992 2650
3791 3997 2868
3790 4004 3133
3784 4014 3454
3779 4024 3805
3880 4013 4095
3712 1014 1385
3719 1007 1462
3736 988 1642
3769 948 1921
3824 871 2279
3896 741 2698
3985 501 3173
4066 0 3681
4068 110 4095
3791 1048 1335
3732 1127 1464
3749 1112 1645
3781 1079 1924
3832 1017 2282
3901 915 2701
3987 744 3174
4072 488 3684
4077 513 4095
3985 1133 1156
3922 1213 1331
3778 1375 1649
3805 1353 1930
3850 1313 2289
3913 1246 2706
3994 1142 3176
4072 1013 3681
4066 1050 4095
3992 1597 1169
3997 1594 1271
4009 1586 1495
3841 1728 1936
3876 1707 2295
3930 1666 2712
3999 1606 3175
4072 1531 3677
4078 1539 4095
3990 2091 1203
3993 2090 1303
4001 2086 1524
4017 2079 1844
3909 2149 2298
3947 2129 2714
4005 2094 3173
4072 2046 3668
4076 2054 4095
3992 2591 1224
3994 2590 1325
4000 2588 1546
4011 2585 1866
4027 2580 2249
3969 2610 2711
4011 2592 3166
4068 2563 3655
4079 2564 4095
4004 3092 1199
4005 3091 1304
4010 3090 1535
4016 3089 1865
4025 3088 2257
4041 3084 2685
4020 3095 3154
4065 3077 3638
4095 3064 4095
4022 3596 1079
4023 3596 1199
4026 3596 1455
4030 3595 1812
4038 3594 2226
4046 3593 2672
4060 3590 3138
4062 3591 3619
4095 3576 4095
4095 4035 2309
4095 4037 2311
4095 4037 2474
4095 4040 2628
4095 4048 2776
4095 4058 3021
4095 4065 3399
4095 4082 3668
4095 4095 4095
