Examples/AB - Only warm (toned).3dl
#25pt 3DLUT created by 3D LUT Creator Pro (c) Oleg Sharonov
#Copyright Oleg Sharonov
#IMAGEPROFILE sRGB IEC61966-2.1 v.2.10
#INPUTGAMMA sRGB IEC61966-2.1 v.2.10
#OUTPUTGAMMA sRGB IEC61966-2.1 v.2.10
0 128 256 384 512 640 768 896 1023
146 24 0
333 176 97
716 508 410
1075 906 872
1464 1319 1333
1874 1775 1818
2285 2249 2295
2675 2701 2736
3032 3106 3125
363 197 53
514 313 214
809 632 533
1140 979 943
1513 1377 1387
1912 1822 1859
2314 2286 2327
2697 2728 2759
3048 3126 3142
766 574 282
830 661 465
1005 852 775
1291 1149 1110
1631 1517 1517
2006 1938 1961
2387 2376 2403
2753 2796 2815
3091 3177 3183
1152 988 678
1194 1039 807
1302 1171 1071
1523 1414 1379
1823 1745 1732
2160 2127 2128
2509 2526 2531
2847 2910 2910
3163 3262 3253
1570 1438 1062
1599 1475 1169
1686 1582 1381
1819 1762 1718
2072 2046 2018
2366 2378 2355
2673 2726 2703
2976 3065 3039
3264 3380 3351
2007 1931 1474
2029 1961 1560
2093 2044 1740
2205 2188 2013
2362 2394 2343
2606 2668 2621
2868 2960 2911
3133 3250 3199
3389 3524 3472
2436 2428 1901
2453 2451 1969
2497 2511 2123
2586 2621 2340
2701 2773 2625
2864 2974 2902
3084 3212 3137
3310 3452 3377
3531 3683 3613
2835 2887 2320
2848 2904 2373
2878 2946 2500
2944 3027 2672
3037 3141 2895
3143 3282 3157
3306 3464 3369
3496 3660 3565
3683 3846 3761
3193 3288 2714
3203 3301 2754
3226 3331 2850
3272 3388 2992
3343 3473 3166
3432 3580 3371
3528 3706 3593
3683 3857 3751
3835 4009 3910
467 50 0
524 304 214
815 625 533
1144 974 943
1516 1373 1387
1914 1820 1859
2316 2284 2327
2699 2727 2759
3050 3125 3142
618 346 46
670 452 313
897 722 641
1206 1044 1008
1565 1430 1437
1953 1866 1898
2346 2320 2356
2722 2754 2780
3067 3145 3157
887 702 320
933 759 539
1079 923 850
1349 1208 1171
1679 1566 1565
2044 1978 1998
2417 2409 2432
2776 2821 2836
3109 3195 3198
1235 1071 709
1271 1114 846
1371 1236 1114
1573 1465 1432
1865 1789 1775
2195 2164 2162
2536 2555 2556
2868 2933 2929
3180 3279 3267
1632 1503 1087
1662 1538 1193
1738 1636 1418
1863 1808 1758
2108 2084 2056
2396 2410 2384
2697 2752 2726
2996 3085 3057
3279 3395 3364
2055 1983 1495
2077 2011 1579
2134 2087 1771
2243 2228 2039
2392 2426 2373
2631 2694 2646
2889 2982 2931
3150 3267 3214
3403 3537 3484
2473 2467 1917
2489 2489 1985
2530 2545 2146
2615 2652 2362
2728 2800 2643
2885 2995 2922
3101 3229 3153
3324 3466 3390
3543 3694 3623
2862 2916 2333
2875 2932 2386
2905 2972 2512
2966 3050 2690
3057 3162 2910
3163 3300 3168
3321 3478 3383
3508 3671 3576
3693 3855 3770
3213 3309 2725
3223 3321 2764
3246 3351 2860
3289 3405 3006
3359 3489 3178
3446 3594 3382
3540 3717 3604
3693 3866 3760
3843 4017 3918
897 167 72
1011 280 227
1022 834 775
1304 1134 1110
1642 1504 1517
2014 1928 1961
2394 2369 2403
2758 2790 2815
3095 3172 3183
1000 396 56
1102 441 276
1091 911 850
1359 1197 1171
1687 1558 1565
2050 1972 1998
2422 2403 2432
2780 2817 2836
3112 3192 3198
1153 905 270
1209 985 511
1256 1096 1009
1489 1347 1320
1795 1687 1683
2138 2079 2089
2491 2488 2500
2833 2882 2887
3153 3241 3236
1431 1255 766
1466 1304 905
1535 1398 1209
1697 1593 1556
1967 1898 1884
2279 2255 2247
2603 2627 2621
2921 2989 2977
3221 3322 3303
1787 1661 1142
1811 1695 1247
1872 1775 1492
1989 1930 1825
2197 2178 2146
2469 2488 2459
2757 2815 2783
3043 3134 3101
3317 3434 3397
2172 2111 1542
2192 2138 1626
2242 2202 1825
2337 2326 2103
2467 2506 2444
2693 2759 2708
2941 3035 2980
3192 3309 3252
3437 3571 3514
2560 2565 1957
2576 2585 2023
2616 2634 2182
2686 2728 2416
2796 2868 2686
2937 3048 2971
3145 3272 3195
3360 3502 3423
3573 3723 3649
2928 2988 2366
2940 3002 2417
2970 3039 2541
3021 3107 2732
3109 3213 2946
3212 3345 3197
3357 3513 3416
3538 3700 3604
3718 3878 3791
3263 3361 2751
3272 3372 2789
3294 3400 2884
3332 3448 3037
3398 3528 3208
3483 3629 3406
3573 3745 3627
3717 3889 3782
3863 4036 3936
1334 345 228
1431 400 371
1584 794 797
1549 1385 1379
1845 1719 1732
2178 2107 2128
2523 2510 2531
2858 2898 2910
3172 3253 3253
1421 547 224
1508 574 400
1651 858 832
1596 1440 1432
1884 1767 1775
2210 2147 2162
2548 2541 2556
2878 2922 2929
3187 3271 3267
1587 974 180
1657 1012 375
1792 1079 929
1710 1577 1556
1979 1884 1884
2289 2244 2247
2611 2619 2621
2927 2982 2977
3226 3316 3303
1756 1505 670
1793 1562 819
1875 1698 1182
1905 1812 1740
2137 2078 2057
2418 2404 2389
2716 2748 2728
3011 3082 3058
3292 3393 3364
2028 1895 1204
2058 1939 1314
2109 2022 1559
2187 2137 1936
2346 2338 2291
2590 2618 2584
2856 2920 2880
3124 3218 3175
3381 3499 3454
2366 2310 1610
2386 2340 1696
2426 2401 1890
2496 2496 2197
2610 2649 2531
2797 2869 2810
3027 3124 3064
3264 3382 3317
3494 3628 3565
2710 2722 2020
2723 2741 2085
2756 2787 2240
2814 2862 2486
2907 2982 2760
3025 3139 3052
3218 3346 3266
3422 3562 3479
3623 3770 3693
3039 3105 2420
3050 3119 2470
3076 3153 2590
3123 3210 2783
3195 3300 3009
3293 3422 3246
3418 3573 3473
3590 3748 3651
3760 3918 3828
3346 3448 2795
3354 3459 2833
3375 3484 2925
3411 3527 3074
3465 3594 3259
3545 3687 3450
3633 3795 3659
3759 3928 3820
3899 4071 3968
1840 625 486
1916 633 639
2071 845 888
2119 1475 1551
2107 2006 2018
2394 2345 2355
2696 2700 2703
2994 3045 3040
3279 3364 3351
1908 755 485
1979 768 643
2124 906 930
2181 1492 1554
2140 2047 2056
2422 2380 2385
2718 2728 2726
3012 3066 3057
3293 3381 3364
2054 1073 458
2114 1095 632
2243 1136 998
2335 1533 1538
2222 2149 2146
2489 2464 2459
2773 2796 2783
3056 3120 3101
3328 3422 3397
2236 1630 347
2280 1663 553
2375 1732 972
2492 1809 1651
2360 2322 2291
2602 2605 2584
2866 2909 2880
3131 3209 3175
3387 3492 3454
2383 2182 1065
2406 2221 1179
2461 2316 1457
2531 2455 1904
2554 2561 2467
2758 2796 2746
2993 3062 3016
3236 3332 3278
3472 3590 3533
2616 2554 1675
2635 2583 1759
2680 2653 1960
2732 2742 2261
2805 2851 2637
2943 3022 2945
3147 3247 3180
3363 3482 3410
3575 3707 3638
2904 2915 2090
2918 2936 2156
2952 2986 2313
2996 3054 2551
3063 3142 2851
3163 3271 3139
3321 3449 3361
3508 3647 3559
3694 3837 3755
3189 3254 2485
3201 3269 2535
3226 3304 2656
3264 3357 2842
3320 3427 3080
3403 3530 3317
3505 3658 3551
3663 3816 3718
3820 3975 3881
3459 3559 2850
3467 3571 2888
3488 3598 2982
3519 3638 3126
3566 3691 3314
3631 3768 3512
3713 3865 3708
3818 3984 3875
3950 4095 4014
2376 888 793
2431 894 894
2553 1006 1106
2696 1351 1476
2627 2155 2238
2645 2623 2621
2901 2924 2911
3160 3221 3199
3410 3501 3472
2426 989 793
2478 998 896
2594 1058 1142
2730 1399 1505
2662 2187 2260
2668 2652 2646
2920 2947 2931
3175 3239 3214
3423 3516 3484
2538 1249 782
2584 1264 893
2687 1292 1175
2811 1523 1583
2756 2261 2306
2724 2723 2709
2967 3005 2980
3214 3286 3252
3454 3552 3514
2693 1715 733
2729 1737 855
2811 1782 1160
2927 1833 1679
2950 2299 2284
2821 2843 2810
3046 3102 3064
3280 3364 3317
3507 3614 3565
2847 2362 603
2874 2386 750
2934 2440 1091
3017 2510 1657
3098 2572 2390
2955 3008 2945
3157 3235 3180
3371 3472 3410
3582 3700 3638
2955 2828 1504
2970 2853 1593
3004 2913 1810
3056 3010 2164
3109 3124 2608
3127 3212 3093
3296 3398 3317
3485 3604 3526
3676 3804 3727
3140 3137 2148
3151 3155 2214
3178 3199 2373
3225 3272 2616
3272 3351 2908
3335 3442 3230
3450 3579 3478
3615 3750 3660
3781 3921 3833
3371 3426 2558
3380 3439 2606
3403 3472 2722
3440 3527 2910
3484 3591 3140
3542 3666 3399
3625 3767 3633
3753 3901 3801
3895 4049 3950
3599 3691 2918
3606 3701 2954
3624 3725 3043
3654 3764 3187
3692 3814 3371
3741 3872 3580
3809 3954 3771
3893 4056 3944
4016 4095 4076
2883 1178 1108
2921 1183 1192
3009 1228 1390
3127 1491 1667
3219 1964 2135
3081 2775 2831
3125 3166 3137
3343 3415 3378
3559 3654 3613
2918 1264 1109
2955 1271 1194
3040 1283 1415
3153 1535 1696
3242 1999 2154
3103 2798 2848
3141 3186 3154
3357 3430 3391
3570 3667 3623
2999 1485 1105
3031 1495 1193
3108 1516 1421
3214 1647 1768
3296 2090 2204
3158 2856 2888
3180 3233 3195
3389 3470 3424
3597 3698 3649
3117 1880 1080
3145 1894 1175
3208 1925 1416
3303 1963 1831
3381 2254 2297
3260 2947 2948
3246 3314 3266
3445 3537 3480
3643 3750 3693
3249 2430 1013
3270 2446 1119
3320 2482 1380
3395 2532 1818
3479 2578 2403
3459 2999 2949
3341 3427 3361
3524 3629 3559
3707 3823 3755
3372 3000 1000
3386 3023 1090
3420 3079 1306
3475 3132 1771
3536 3184 2388
3588 3223 3037
3460 3567 3478
3623 3741 3660
3788 3914 3833
3440 3371 1983
3449 3387 2051
3470 3424 2217
3504 3485 2487
3547 3568 2834
3588 3660 3213
3603 3728 3600
3737 3867 3772
3881 4019 3926
3581 3614 2609
3588 3625 2657
3605 3652 2774
3633 3697 2962
3672 3760 3198
3715 3828 3452
3766 3898 3710
3857 4002 3895
3984 4095 4032
3756 3832 2999
3762 3840 3033
3776 3860 3115
3799 3895 3251
3832 3943 3430
3873 4001 3637
3921 4062 3841
3989 4095 4018
4095 4095 4095
3328 1509 1465
3354 1514 1535
3416 1524 1716
3504 1717 1945
3594 2070 2285
3624 2618 2783
3480 3301 3325
3536 3617 3565
3716 3812 3761
3352 1584 1467
3377 1589 1538
3437 1602 1720
3523 1757 1970
3610 2106 2306
3642 2636 2791
3494 3317 3337
3547 3630 3576
3725 3822 3770
3408 1774 1469
3431 1782 1542
3485 1799 1728
3568 1855 2034
3648 2194 2359
3682 2689 2815
3530 3357 3367
3574 3662 3604
3747 3848 3791
3494 2107 1464
3514 2117 1540
3561 2140 1734
3634 2171 2066
3709 2348 2453
3743 2792 2869
3594 3423 3415
3621 3716 3651
3785 3892 3828
3596 2564 1440
3612 2575 1522
3650 2601 1727
3709 2638 2072
3779 2676 2534
3819 2951 2960
3689 3511 3478
3687 3791 3718
3839 3954 3882
3696 3079 1393
3708 3090 1482
3737 3114 1702
3782 3151 2064
3837 3193 2539
3893 3226 3059
3858 3559 3490
3769 3884 3801
3908 4034 3950
3786 3512 1572
3794 3526 1641
3813 3560 1812
3844 3618 2097
3885 3673 2533
3928 3709 3061
3961 3731 3566
3865 3994 3895
3991 4095 4032
3826 3799 2502
3831 3808 2550
3844 3831 2669
3865 3869 2863
3893 3921 3117
3925 3985 3408
3959 4059 3708
3974 4095 3995
4086 4095 4095
3927 3978 3062
3931 3985 3095
3941 4003 3175
3959 4032 3308
3984 4075 3485
4016 4095 3687
4058 4095 3890
4095 4095 4089
4095 4095 4095
3695 1894 1873
3713 1900 1932
3753 1913 2078
3815 2024 2285
3884 2299 2541
3940 2680 2884
3885 3278 3391
3815 3729 3728
3871 3970 3911
3711 1957 1877
3728 1964 1936
3767 1978 2084
3828 2059 2307
3894 2330 2561
3949 2705 2899
3899 3284 3394
3824 3740 3736
3879 3978 3918
3748 2117 1887
3763 2124 1947
3800 2141 2096
3858 2165 2352
3920 2409 2610
3972 2769 2936
3953 3268 3375
3847 3766 3757
3897 4000 3936
3806 2389 1901
3819 2397 1962
3851 2416 2115
3902 2446 2374
3963 2545 2696
4010 2879 3003
4012 3305 3386
3887 3810 3792
3929 4038 3968
3877 2758 1917
3889 2767 1980
3915 2788 2138
3958 2820 2402
4014 2858 2756
4062 3037 3101
4073 3399 3438
3947 3871 3841
3975 4093 4014
3952 3182 1936
3961 3190 2002
3983 3209 2166
4018 3240 2436
4064 3278 2791
4095 3317 3192
4095 3538 3525
4028 3942 3898
4036 4095 4076
4021 3603 1978
4028 3610 2046
4046 3627 2213
4074 3653 2484
4095 3687 2837
4095 3722 3230
4095 3753 3622
4095 3983 3921
4095 4095 4095
4087 3901 2342
4092 3909 2390
4095 3930 2509
4095 3966 2705
4095 4016 2965
4095 4067 3290
4095 4095 3660
4095 4095 3996
4095 4095 4095
4095 4095 3082
4095 4095 3113
4095 4095 3190
4095 4095 3317
4095 4095 3489
4095 4095 3690
4095 4095 3899
4095 4095 4095
4095 4095 4095
