Examples/CameraCalibration - SqueezeColors.3dl
#25pt 3DLUT created by 3D LUT Creator Pro (c) Oleg Sharonov
#Copyright Oleg Sharonov
#IMAGEPROFILE sRGB IEC61966-2.1 v.2.10
#INPUTGAMMA sRGB IEC61966-2.1 v.2.10
#OUTPUTGAMMA sRGB IEC61966-2.1 v.2.10
0 256 512 768 1023
0 0 0
0 386 1256
0 879 2448
0 1310 3492
0 1622 4095
0 948 0
0 1045 1255
0 1296 2448
0 1604 3492
0 1859 4095
0 1910 0
0 1953 1254
0 2083 2448
0 2269 3492
0 2442 4095
0 2871 0
0 2898 1254
0 2977 2448
0 3099 3492
3 3217 4095
0 3833 0
0 3851 1255
0 3907 2448
0 3992 3492
0 4078 4095
904 19 0
832 396 1230
552 883 2437
0 1312 3484
0 1623 4095
902 951 0
832 1048 1229
552 1298 2437
0 1607 3484
0 1861 4095
902 1911 0
832 1955 1229
552 2084 2437
0 2271 3484
3 2443 4095
902 2872 0
831 2898 1229
552 2978 2437
0 3100 3484
0 3218 4095
902 3834 0
831 3852 1229
552 3907 2437
0 3993 3484
0 4079 4095
1846 78 0
1818 425 1138
1723 896 2399
1558 1321 3461
1364 1630 4095
1846 964 0
1817 1060 1138
1723 1307 2399
1558 1614 3461
1364 1866 4095
1846 1917 0
1817 1960 1138
1723 2089 2399
1558 2275 3461
1364 2447 4095
1846 2875 0
1817 2902 1138
1723 2981 2399
1558 3103 3461
1364 3221 4095
1846 3836 0
1817 3854 1138
1723 3909 2399
1558 3995 3461
1364 4081 4095
2934 212 0
2918 488 889
2868 927 2310
2784 1341 3406
2697 1645 4095
2934 992 0
2918 1084 890
2868 1327 2310
2785 1629 3406
2696 1879 4095
2934 1929 0
2918 1972 890
2867 2100 2310
2784 2285 3406
2696 2456 4095
2934 2883 0
2918 2909 890
2867 2988 2310
2785 3110 3406
2697 3227 4095
2934 3841 0
2918 3859 890
2868 3914 2310
2784 4000 3406
2697 4086 4095
4095 391 0
4095 594 0
4095 984 2115
4095 1379 3292
4095 1676 4095
4095 1046 0
4095 1133 0
4095 1365 2115
4095 1660 3292
4095 1904 4095
4095 1954 0
4095 1997 0
4095 2122 2115
4095 2305 3292
4095 2475 4095
4095 2898 0
4095 2924 0
4095 3003 2115
4095 3123 3292
4095 3240 4095
4095 3851 3
4095 3869 6
4095 3924 2115
4095 4010 3292
4095 4095 4095
