Examples/CameraCalibration - Saturate Blues.3dl
#25pt 3DLUT created by 3D LUT Creator Pro (c) Oleg Sharonov
#Copyright Oleg Sharonov
#INPUTGAMMA sRGB IEC61966-2.1 v.2.10
#IMAGEPROFILE sRGB IEC61966-2.1 v.2.10
#OUTPUTGAMMA sRGB IEC61966-2.1 v.2.10
0 128 256 384 512 640 768 896 1023
0 0 0
0 0 512
0 0 1022
0 0 1535
0 0 2047
0 0 2559
0 0 3071
0 0 3583
0 0 4095
0 617 0
0 512 512
0 23 1020
0 0 1535
0 0 2047
0 0 2559
0 0 3071
0 0 3583
0 0 4095
0 1203 0
0 1156 512
0 1023 1023
0 720 1536
0 0 2047
0 0 2559
0 0 3071
0 0 3583
0 0 4095
0 1789 0
0 1760 512
0 1684 1024
0 1536 1536
0 1273 2048
0 742 2559
0 0 3071
0 0 3583
0 0 4095
0 2374 0
0 2354 512
0 2302 1024
0 2205 1536
0 2047 2047
0 1803 2559
0 1407 3071
0 512 3583
0 0 4095
0 2960 0
0 2945 512
0 2906 1024
0 2835 1536
0 2723 2048
0 2559 2559
0 2325 3071
0 1984 3583
0 1434 4095
0 3545 0
0 3533 512
0 3503 1024
0 3447 1536
0 3362 2048
0 3239 2559
0 3071 3071
0 2844 3583
0 2534 4095
3 4095 3
3 4095 513
0 4095 1024
0 4051 1536
0 3982 2048
0 3885 2559
0 3755 3071
0 3583 3583
0 3361 4095
3 4095 3
3 4095 513
0 4095 1024
0 4095 1536
0 4095 2048
0 4095 2559
0 4095 3071
3 4095 3583
3 4095 4095
633 0 0
512 0 512
0 0 1022
0 0 1535
0 0 2047
0 0 2559
0 0 3071
0 0 3583
0 0 4095
635 618 0
512 512 512
0 23 1020
0 0 1535
0 0 2047
0 0 2559
0 0 3071
0 0 3583
0 0 4095
635 1203 0
512 1156 512
0 1023 1023
0 720 1536
0 0 2047
0 0 2559
0 0 3071
0 0 3583
0 0 4095
635 1789 0
512 1760 512
0 1684 1024
0 1536 1536
0 1273 2048
0 742 2559
0 0 3071
0 0 3583
0 0 4095
635 2374 0
512 2354 512
0 2302 1024
0 2205 1536
0 2047 2047
0 1803 2559
0 1407 3071
0 512 3583
0 0 4095
635 2960 0
512 2945 512
0 2906 1024
0 2835 1536
0 2723 2048
0 2559 2559
0 2325 3071
0 1984 3583
0 1434 4095
635 3545 0
512 3533 512
0 3503 1024
0 3447 1536
0 3362 2048
0 3239 2559
0 3071 3071
0 2844 3583
0 2534 4095
635 4095 0
513 4095 513
0 4095 1024
0 4051 1536
0 3982 2048
0 3885 2559
0 3755 3071
0 3583 3583
0 3361 4095
635 4095 0
513 4095 513
0 4095 1024
0 4095 1536
0 4095 2048
0 4095 2559
0 4095 3071
3 4095 3583
3 4095 4095
1233 0 0
1177 0 512
1023 0 1023
650 0 1537
0 0 2047
0 0 2559
0 0 3071
0 0 3583
0 0 4095
1233 618 0
1177 512 512
1025 23 1025
650 0 1537
0 0 2047
0 0 2559
0 0 3071
0 0 3583
0 0 4095
1233 1203 0
1178 1156 512
1024 1024 1024
649 720 1535
0 0 2047
0 0 2559
0 0 3071
0 0 3583
0 0 4095
1233 1788 0
1178 1760 512
1023 1684 1023
649 1536 1536
0 1273 2048
0 742 2559
0 0 3071
0 0 3583
0 0 4095
1233 2374 0
1178 2354 512
1024 2302 1024
649 2205 1536
0 2047 2047
0 1803 2559
0 1407 3071
0 512 3583
0 0 4095
1233 2960 0
1178 2945 512
1023 2906 1023
649 2835 1536
0 2723 2048
0 2559 2559
0 2325 3071
0 1984 3583
0 1434 4095
1233 3545 0
1178 3533 512
1024 3503 1024
649 3447 1536
0 3362 2048
0 3239 2559
0 3071 3071
0 2844 3583
0 2534 4095
1233 4095 6
1178 4095 512
1023 4095 1023
649 4051 1536
0 3982 2048
0 3885 2559
0 3755 3071
0 3583 3583
0 3361 4095
1233 4095 6
1178 4095 512
1023 4095 1023
648 4095 1535
0 4095 2048
0 4095 2559
0 4095 3071
3 4095 3583
3 4095 4095
1830 0 0
1796 0 512
1708 0 1023
1535 0 1535
1218 0 2048
449 0 2560
0 0 3071
0 0 3583
0 0 4095
1830 618 0
1796 512 512
1708 23 1023
1535 0 1535
1218 0 2048
449 0 2560
0 0 3071
0 0 3583
0 0 4095
1830 1203 0
1797 1156 512
1708 1023 1023
1536 720 1536
1218 0 2048
449 0 2560
0 0 3071
0 0 3583
0 0 4095
1830 1789 0
1797 1760 512
1709 1684 1024
1536 1536 1536
1218 1273 2048
449 742 2559
0 0 3071
0 0 3583
0 0 4095
1830 2374 0
1797 2354 512
1709 2302 1024
1536 2205 1536
1218 2048 2048
449 1803 2559
0 1407 3071
0 512 3583
0 0 4095
1830 2960 0
1797 2945 512
1709 2906 1024
1536 2835 1536
1218 2723 2048
449 2559 2559
0 2325 3071
0 1984 3583
0 1434 4095
1830 3545 0
1797 3533 512
1709 3503 1024
1536 3447 1536
1218 3362 2048
449 3239 2559
0 3071 3071
0 2844 3583
0 2534 4095
1830 4095 6
1797 4095 512
1709 4095 1023
1535 4051 1535
1217 3982 2047
449 3885 2559
0 3755 3071
0 3583 3583
0 3361 4095
1830 4095 6
1797 4095 512
1709 4095 1023
1535 4095 1535
1218 4095 2048
446 4095 2559
0 4095 3071
3 4095 3583
3 4095 4095
2427 0 0
2404 0 512
2344 0 1024
2232 0 1536
2048 0 2048
1754 0 2559
1247 0 3071
0 0 3583
0 0 4095
2428 618 0
2404 512 512
2344 23 1023
2232 0 1536
2048 0 2048
1754 0 2559
1247 0 3071
0 0 3583
0 0 4095
2428 1203 0
2404 1156 512
2344 1023 1023
2232 720 1536
2048 0 2048
1754 0 2559
1247 0 3071
0 0 3583
0 0 4095
2427 1789 0
2405 1760 512
2344 1684 1024
2232 1536 1536
2047 1273 2047
1754 742 2559
1247 0 3071
0 0 3583
0 0 4095
2427 2374 0
2404 2354 512
2344 2302 1024
2232 2205 1536
2048 2048 2048
1754 1803 2559
1247 1407 3071
0 512 3583
0 0 4095
2427 2960 0
2404 2945 512
2344 2906 1024
2232 2835 1536
2048 2723 2048
1754 2559 2559
1247 2325 3071
0 1984 3583
0 1434 4095
2427 3545 0
2404 3533 512
2344 3503 1024
2232 3447 1536
2048 3362 2048
1754 3239 2559
1247 3071 3071
0 2844 3583
0 2534 4095
2427 4095 0
2404 4095 513
2344 4095 1024
2231 4051 1535
2047 3982 2047
1754 3885 2559
1247 3755 3071
0 3583 3583
0 3361 4095
2427 4095 0
2404 4095 513
2344 4095 1024
2232 4095 1536
2048 4095 2048
1754 4095 2559
1247 4095 3071
3 4095 3583
3 4095 4095
3025 0 0
3008 0 512
2963 0 1024
2881 0 1536
2751 0 2047
2559 0 2559
2280 0 3072
1855 0 3583
1074 0 4095
3025 618 0
3008 512 512
2963 23 1024
2881 0 1536
2751 0 2047
2559 0 2559
2280 0 3072
1855 0 3583
1074 0 4095
3025 1203 0
3008 1156 512
2963 1024 1024
2881 720 1536
2751 0 2047
2559 0 2559
2280 0 3072
1855 0 3583
1074 0 4095
3025 1789 0
3007 1760 512
2963 1684 1024
2881 1536 1536
2751 1273 2048
2559 742 2559
2280 0 3072
1855 0 3583
1074 0 4095
3025 2374 0
3007 2354 512
2963 2302 1023
2881 2205 1536
2751 2048 2048
2559 1803 2559
2279 1406 3071
1855 512 3583
1074 0 4095
3025 2960 0
3007 2945 512
2963 2906 1024
2881 2835 1536
2751 2723 2048
2559 2559 2559
2280 2326 3071
1855 1984 3583
1074 1434 4095
3025 3545 0
3007 3533 512
2963 3503 1024
2881 3447 1536
2751 3362 2048
2559 3239 2559
2280 3071 3071
1856 2844 3583
1073 2534 4095
3025 4095 3
3008 4095 516
2963 4095 1025
2881 4051 1535
2751 3982 2048
2560 3885 2560
2280 3755 3071
1856 3583 3583
1074 3361 4095
3025 4095 3
3008 4095 516
2963 4095 1025
2881 4095 1536
2751 4095 2047
2559 4095 2559
2280 4095 3071
1855 4095 3583
1073 4095 4095
3623 0 0
3609 0 512
3573 0 1024
3509 0 1536
3411 0 2048
3269 0 2560
3071 0 3071
2801 0 3583
2420 0 4095
3623 618 0
3609 512 512
3573 23 1023
3509 0 1536
3411 0 2048
3269 0 2560
3071 0 3071
2801 0 3583
2420 0 4095
3622 1203 0
3609 1156 512
3573 1024 1024
3510 720 1536
3411 0 2048
3269 0 2560
3071 0 3071
2801 0 3583
2420 0 4095
3622 1789 0
3609 1760 512
3573 1684 1024
3510 1536 1536
3411 1273 2047
3268 742 2559
3071 0 3071
2801 0 3583
2420 0 4095
3622 2374 0
3609 2354 512
3574 2302 1024
3510 2205 1536
3411 2048 2048
3268 1803 2559
3071 1407 3071
2801 512 3583
2420 0 4095
3622 2960 0
3609 2945 512
3573 2906 1024
3510 2835 1536
3411 2723 2048
3268 2559 2559
3071 2325 3071
2801 1984 3583
2420 1434 4095
3622 3545 0
3609 3533 512
3573 3503 1024
3510 3447 1536
3411 3362 2048
3268 3239 2559
3071 3071 3071
2801 2844 3583
2420 2534 4095
3623 4095 13
3609 4095 513
3573 4095 1025
3509 4051 1535
3411 3982 2047
3268 3885 2559
3071 3755 3071
2800 3583 3583
2420 3361 4095
3623 4095 13
3609 4095 513
3573 4095 1025
3510 4095 1535
3411 4095 2048
3269 4095 2560
3071 4095 3071
2801 4095 3583
2420 4095 4095
4095 0 0
4095 0 512
4095 0 1023
4095 0 1536
4049 0 2048
3937 0 2559
3784 0 3071
3583 0 3583
3318 0 4095
4095 618 0
4095 512 512
4095 26 1024
4095 0 1536
4049 0 2048
3937 0 2559
3784 0 3071
3583 0 3583
3318 0 4095
4095 1203 0
4095 1156 512
4095 1024 1024
4095 720 1536
4049 0 2048
3937 0 2559
3784 0 3071
3583 0 3583
3318 0 4095
4095 1789 0
4095 1760 513
4095 1684 1023
4095 1536 1536
4049 1273 2048
3937 742 2560
3784 0 3071
3583 0 3583
3318 0 4095
4095 2374 0
4095 2354 513
4095 2302 1024
4095 2205 1535
4049 2048 2048
3937 1803 2559
3784 1407 3071
3583 512 3583
3318 0 4095
4095 2960 0
4095 2945 510
4095 2906 1023
4095 2835 1536
4049 2723 2048
3936 2559 2559
3784 2325 3071
3583 1984 3583
3318 1434 4095
4095 3545 0
4095 3533 512
4095 3503 1024
4095 3447 1536
4049 3362 2048
3937 3239 2559
3784 3071 3071
3583 2844 3583
3319 2534 4095
4095 4095 0
4095 4095 510
4095 4095 1022
4095 4051 1537
4049 3982 2048
3937 3885 2559
3784 3755 3071
3583 3583 3583
3318 3361 4095
4095 4095 0
4095 4095 510
4095 4095 1022
4095 4095 1534
4049 4095 2046
3937 4095 2560
3784 4095 3071
3583 4095 3583
3319 4095 4095
4095 0 0
4095 0 512
4095 0 1023
4095 0 1536
4095 0 2047
4095 0 2559
4095 0 3071
4095 0 3583
4095 0 4095
4095 618 0
4095 512 512
4095 26 1024
4095 0 1536
4095 0 2047
4095 0 2559
4095 0 3071
4095 0 3583
4095 0 4095
4095 1203 0
4095 1156 512
4095 1024 1024
4095 720 1536
4095 0 2047
4095 0 2559
4095 0 3071
4095 0 3583
4095 0 4095
4095 1789 0
4095 1760 513
4095 1684 1023
4095 1536 1536
4095 1273 2048
4095 742 2559
4095 0 3071
4095 0 3583
4095 0 4095
4095 2374 0
4095 2354 513
4095 2302 1024
4095 2205 1535
4095 2048 2048
4095 1803 2559
4095 1407 3071
4095 512 3583
4095 0 4095
4095 2960 0
4095 2945 510
4095 2906 1023
4095 2835 1536
4095 2723 2047
4095 2559 2559
4095 2326 3071
4095 1984 3583
4095 1434 4095
4095 3545 0
4095 3533 512
4095 3503 1024
4095 3447 1536
4095 3362 2048
4095 3239 2559
4095 3071 3071
4095 2844 3583
4095 2534 4095
4095 4095 0
4095 4095 510
4095 4095 1022
4095 4051 1537
4095 3982 2048
4095 3885 2560
4095 3755 3071
4095 3583 3583
4095 3361 4095
4095 4095 0
4095 4095 510
4095 4095 1022
4095 4095 1534
4095 4095 2046
4095 4095 2558
4095 4095 3071
4095 4095 3583
4095 4095 4095
