Examples/CameraCalibration - Saturate Blues.3dl
#25pt 3DLUT created by 3D LUT Creator Pro (c) Oleg Sharonov
#Copyright Oleg Sharonov
#INPUTGAMMA sRGB IEC61966-2.1 v.2.10
#IMAGEPROFILE sRGB IEC61966-2.1 v.2.10
#OUTPUTGAMMA sRGB IEC61966-2.1 v.2.10
0 256 512 768 1023
0 0 0
0 0 1022
0 0 2047
0 0 3071
0 0 4095
0 1203 0
0 1023 1023
0 0 2047
0 0 3071
0 0 4095
0 2374 0
0 2302 1024
0 2047 2047
0 1407 3071
0 0 4095
0 3545 0
0 3503 1024
0 3362 2048
0 3071 3071
0 2534 4095
3 4095 3
0 4095 1024
0 4095 2048
0 4095 3071
3 4095 4095
1233 0 0
1023 0 1023
0 0 2047
0 0 3071
0 0 4095
1233 1203 0
1024 1024 1024
0 0 2047
0 0 3071
0 0 4095
1233 2374 0
1024 2302 1024
0 2047 2047
0 1407 3071
0 0 4095
1233 3545 0
1024 3503 1024
0 3362 2048
0 3071 3071
0 2534 4095
1233 4095 6
1023 4095 1023
0 4095 2048
0 4095 3071
3 4095 4095
2427 0 0
2344 0 1024
2048 0 2048
1247 0 3071
0 0 4095
2428 1203 0
2344 1023 1023
2048 0 2048
1247 0 3071
0 0 4095
2427 2374 0
2344 2302 1024
2048 2048 2048
1247 1407 3071
0 0 4095
2427 3545 0
2344 3503 1024
2048 3362 2048
1247 3071 3071
0 2534 4095
2427 4095 0
2344 4095 1024
2048 4095 2048
1247 4095 3071
3 4095 4095
3623 0 0
3573 0 1024
3411 0 2048
3071 0 3071
2420 0 4095
3622 1203 0
3573 1024 1024
3411 0 2048
3071 0 3071
2420 0 4095
3622 2374 0
3574 2302 1024
3411 2048 2048
3071 1407 3071
2420 0 4095
3622 3545 0
3573 3503 1024
3411 3362 2048
3071 3071 3071
2420 2534 4095
3623 4095 13
3573 4095 1025
3411 4095 2048
3071 4095 3071
2420 4095 4095
4095 0 0
4095 0 1023
4095 0 2047
4095 0 3071
4095 0 4095
4095 1203 0
4095 1024 1024
4095 0 2047
4095 0 3071
4095 0 4095
4095 2374 0
4095 2302 1024
4095 2048 2048
4095 1407 3071
4095 0 4095
4095 3545 0
4095 3503 1024
4095 3362 2048
4095 3071 3071
4095 2534 4095
4095 4095 0
4095 4095 1022
4095 4095 2046
4095 4095 3071
4095 4095 4095
