Examples/CameraCalibration - Saturate Blues.3dl
#25pt 3DLUT created by 3D LUT Creator Pro (c) Oleg Sharonov
#Copyright Oleg Sharonov
#INPUTGAMMA sRGB IEC61966-2.1 v.2.10
#IMAGEPROFILE sRGB IEC61966-2.1 v.2.10
#OUTPUTGAMMA sRGB IEC61966-2.1 v.2.10
0 43 86 128 171 214 256 299 341 384 427 469 512 555 597 640 682 725 768 810 853 896 938 981 1023 
0 0 0
0 0 177
0 0 341
0 0 512
0 0 683
0 0 850
0 0 1022
0 0 1196
0 0 1362
0 0 1535
0 0 1704
0 0 1877
0 0 2047
0 0 2217
0 0 2388
0 0 2559
0 0 2731
0 0 2900
0 0 3071
0 0 3243
0 0 3413
0 0 3583
0 0 3754
0 0 3925
0 0 4095
0 228 0
0 171 171
0 81 339
0 0 512
0 0 683
0 0 850
0 0 1022
0 0 1196
0 0 1362
0 0 1535
0 0 1704
0 0 1877
0 0 2047
0 0 2217
0 0 2388
0 0 2559
0 0 2731
0 0 2900
0 0 3071
0 0 3243
0 0 3413
0 0 3583
0 0 3754
0 0 3925
0 0 4095
0 422 0
0 391 171
0 339 339
0 252 510
0 81 683
0 0 850
0 0 1022
0 0 1196
0 0 1362
0 0 1535
0 0 1704
0 0 1877
0 0 2047
0 0 2217
0 0 2388
0 0 2559
0 0 2731
0 0 2900
0 0 3071
0 0 3243
0 0 3413
0 0 3583
0 0 3754
0 0 3925
0 0 4095
0 617 0
0 596 171
0 564 341
0 512 512
0 431 683
0 295 853
0 23 1020
0 0 1196
0 0 1362
0 0 1535
0 0 1704
0 0 1877
0 0 2047
0 0 2217
0 0 2388
0 0 2559
0 0 2731
0 0 2900
0 0 3071
0 0 3243
0 0 3413
0 0 3583
0 0 3754
0 0 3925
0 0 4095
0 814 0
0 797 171
0 774 341
0 737 512
0 682 682
0 603 852
0 489 1023
0 299 1194
0 0 1362
0 0 1535
0 0 1704
0 0 1877
0 0 2047
0 0 2217
0 0 2388
0 0 2559
0 0 2731
0 0 2900
0 0 3071
0 0 3243
0 0 3413
0 0 3583
0 0 3754
0 0 3925
0 0 4095
0 1009 0
0 995 171
0 978 341
0 950 512
0 909 683
0 852 852
0 777 1024
0 673 1195
0 522 1365
0 257 1534
0 0 1704
0 0 1877
0 0 2047
0 0 2217
0 0 2388
0 0 2559
0 0 2731
0 0 2900
0 0 3071
0 0 3243
0 0 3413
0 0 3583
0 0 3754
0 0 3925
0 0 4095
0 1203 0
0 1193 171
0 1178 341
0 1156 512
0 1124 682
0 1081 853
0 1023 1023
0 949 1194
0 852 1364
0 720 1536
0 528 1708
0 142 1878
0 0 2047
0 0 2217
0 0 2388
0 0 2559
0 0 2731
0 0 2900
0 0 3071
0 0 3243
0 0 3413
0 0 3583
0 0 3754
0 0 3925
0 0 4095
0 1399 0
0 1390 171
0 1378 341
0 1359 512
0 1333 683
0 1298 853
0 1252 1023
0 1195 1195
0 1121 1364
0 1028 1535
0 909 1707
0 748 1878
0 505 2048
0 0 2217
0 0 2388
0 0 2559
0 0 2731
0 0 2900
0 0 3071
0 0 3243
0 0 3413
0 0 3583
0 0 3754
0 0 3925
0 0 4095
0 1593 0
0 1586 171
0 1576 341
0 1561 512
0 1538 683
0 1508 853
0 1471 1024
0 1424 1195
0 1365 1365
0 1293 1536
0 1204 1707
0 1093 1877
0 950 2047
0 756 2218
0 446 2390
0 0 2559
0 0 2731
0 0 2900
0 0 3071
0 0 3243
0 0 3413
0 0 3583
0 0 3754
0 0 3925
0 0 4095
0 1789 0
0 1782 171
0 1774 341
0 1760 512
0 1741 683
0 1715 853
0 1684 1024
0 1644 1195
0 1595 1365
0 1536 1536
0 1464 1706
0 1378 1877
0 1273 2048
0 1143 2219
0 975 2389
0 742 2559
0 328 2730
0 0 2900
0 0 3071
0 0 3243
0 0 3413
0 0 3583
0 0 3754
0 0 3925
0 0 4095
0 1984 0
0 1978 171
0 1970 341
0 1959 512
0 1942 683
0 1920 853
0 1893 1024
0 1858 1195
0 1816 1365
0 1766 1536
0 1707 1707
0 1636 1877
0 1551 2048
0 1451 2218
0 1329 2388
0 1179 2560
0 983 2730
0 703 2900
0 61 3070
0 0 3243
0 0 3413
0 0 3583
0 0 3754
0 0 3925
0 0 4095
0 2179 0
0 2174 171
0 2167 341
0 2157 512
0 2142 683
0 2123 853
0 2098 1024
0 2068 1195
0 2031 1365
0 1988 1536
0 1937 1707
0 1877 1877
0 1807 2048
0 1724 2218
0 1627 2389
0 1513 2560
0 1374 2730
0 1201 2900
0 975 3071
0 631 3242
0 0 3413
0 0 3583
0 0 3754
0 0 3925
0 0 4095
0 2374 0
0 2370 171
0 2364 341
0 2354 512
0 2341 683
0 2324 853
0 2302 1024
0 2275 1195
0 2243 1365
0 2205 1536
0 2160 1707
0 2108 1877
0 2047 2047
0 1977 2218
0 1897 2389
0 1803 2559
0 1694 2730
0 1563 2900
0 1407 3071
0 1210 3242
0 946 3412
0 512 3583
0 0 3754
0 0 3925
0 0 4095
0 2569 0
0 2565 171
0 2560 341
0 2551 512
0 2539 683
0 2524 853
0 2504 1024
0 2480 1195
0 2451 1365
0 2417 1536
0 2378 1706
0 2332 1877
0 2279 2048
0 2218 2218
0 2149 2389
0 2069 2560
0 1978 2730
0 1872 2901
0 1750 3071
0 1604 3242
0 1428 3412
0 1205 3583
0 896 3754
0 291 3924
0 0 4095
0 2765 0
0 2761 171
0 2756 341
0 2748 512
0 2737 683
0 2723 853
0 2706 1024
0 2684 1195
0 2658 1365
0 2627 1536
0 2592 1707
0 2550 1877
0 2504 2048
0 2449 2218
0 2389 2389
0 2320 2559
0 2241 2730
0 2152 2900
0 2050 3071
0 1933 3242
0 1796 3412
0 1634 3583
0 1437 3754
0 1184 3924
0 815 4095
0 2960 0
0 2957 171
0 2952 341
0 2945 512
0 2935 683
0 2922 853
0 2906 1024
0 2886 1195
0 2862 1365
0 2835 1536
0 2802 1706
0 2765 1877
0 2723 2048
0 2675 2218
0 2621 2389
0 2559 2559
0 2491 2730
0 2413 2900
0 2325 3071
0 2226 3242
0 2113 3412
0 1984 3583
0 1834 3754
0 1654 3924
0 1434 4095
0 3155 0
0 3152 171
0 3148 341
0 3141 512
0 3132 683
0 3120 853
0 3105 1024
0 3087 1195
0 3066 1365
0 3040 1536
0 3011 1706
0 2977 1877
0 2939 2048
0 2895 2218
0 2846 2389
0 2791 2559
0 2730 2730
0 2661 2900
0 2585 3071
0 2499 3242
0 2402 3412
0 2293 3583
0 2169 3754
0 2027 3925
0 1862 4095
0 3350 0
0 3347 171
0 3343 341
0 3337 512
0 3329 683
0 3318 853
0 3304 1024
0 3288 1195
0 3268 1365
0 3245 1536
0 3217 1706
0 3187 1877
0 3152 2048
0 3112 2218
0 3067 2389
0 3018 2559
0 2962 2730
0 2900 2900
0 2832 3071
0 2756 3242
0 2671 3412
0 2577 3583
0 2471 3754
0 2352 3924
0 2217 4095
0 3545 0
0 3543 171
0 3539 341
0 3533 512
0 3526 683
0 3515 853
0 3503 1024
0 3487 1195
0 3469 1365
0 3447 1536
0 3422 1706
0 3394 1877
0 3362 2048
0 3325 2218
0 3285 2389
0 3239 2559
0 3189 2730
0 3133 2901
0 3071 3071
0 3003 3242
0 2928 3412
0 2844 3583
0 2752 3754
0 2649 3924
0 2534 4095
0 3740 0
0 3738 171
0 3735 341
0 3729 512
0 3722 683
0 3713 853
0 3701 1024
0 3687 1195
0 3669 1365
0 3649 1536
0 3626 1707
0 3600 1877
0 3570 2048
0 3537 2218
0 3499 2389
0 3458 2559
0 3411 2730
0 3360 2901
0 3304 3071
0 3242 3242
0 3174 3412
0 3099 3583
0 3017 3754
0 2926 3924
0 2825 4095
0 3936 0
0 3933 171
0 3930 341
0 3925 512
0 3919 683
0 3910 853
0 3899 1024
0 3885 1195
0 3869 1365
0 3850 1536
0 3829 1706
0 3804 1877
0 3777 2048
0 3746 2218
0 3711 2389
0 3672 2559
0 3630 2730
0 3583 2900
0 3531 3071
0 3475 3242
0 3412 3412
0 3344 3583
0 3270 3754
0 3189 3924
0 3099 4095
3 4095 3
3 4095 174
0 4095 343
3 4095 513
3 4095 683
0 4095 853
0 4095 1024
0 4084 1195
0 4069 1365
0 4051 1536
0 4031 1706
0 4008 1877
0 3982 2048
0 3953 2218
0 3921 2389
0 3885 2559
0 3846 2730
0 3802 2900
0 3755 3071
0 3702 3242
0 3645 3412
0 3583 3583
0 3515 3754
0 3441 3924
0 3361 4095
3 4095 3
3 4095 174
0 4095 343
3 4095 513
3 4095 683
0 4095 853
0 4095 1024
3 4095 1195
0 4095 1365
0 4095 1536
0 4095 1706
3 4095 1877
0 4095 2048
0 4095 2218
0 4095 2389
0 4095 2559
0 4059 2730
0 4018 2900
0 3974 3071
0 3926 3242
0 3873 3412
0 3816 3583
0 3754 3754
0 3686 3924
0 3613 4095
3 4095 3
3 4095 174
0 4095 343
3 4095 513
3 4095 683
0 4095 853
0 4095 1024
3 4095 1195
0 4095 1365
0 4095 1536
0 4095 1706
3 4095 1877
0 4095 2048
0 4095 2218
0 4095 2389
0 4095 2559
0 4095 2730
0 4095 2901
0 4095 3071
6 4095 3242
3 4095 3412
0 4044 3583
0 3987 3754
0 3924 3924
3 3857 4095
3 4095 3
3 4095 174
0 4095 343
3 4095 513
3 4095 683
0 4095 853
0 4095 1024
3 4095 1195
0 4095 1365
0 4095 1536
0 4095 1706
3 4095 1877
0 4095 2048
0 4095 2218
0 4095 2389
0 4095 2559
0 4095 2730
0 4095 2901
0 4095 3071
6 4095 3242
3 4095 3412
3 4095 3583
3 4095 3754
6 4095 3924
3 4095 4095
233 0 0
171 0 171
65 0 334
0 0 512
0 0 683
0 0 850
0 0 1022
0 0 1196
0 0 1362
0 0 1535
0 0 1704
0 0 1877
0 0 2047
0 0 2217
0 0 2388
0 0 2559
0 0 2731
0 0 2900
0 0 3071
0 0 3243
0 0 3413
0 0 3583
0 0 3754
0 0 3925
0 0 4095
235 225 0
171 171 171
68 84 345
0 0 512
0 0 683
0 0 850
0 0 1022
0 0 1196
0 0 1362
0 0 1535
0 0 1704
0 0 1877
0 0 2047
0 0 2217
0 0 2388
0 0 2559
0 0 2731
0 0 2900
0 0 3071
0 0 3243
0 0 3413
0 0 3583
0 0 3754
0 0 3925
0 0 4095
238 423 0
171 389 171
68 341 341
0 252 510
0 81 683
0 0 850
0 0 1022
0 0 1196
0 0 1362
0 0 1535
0 0 1704
0 0 1877
0 0 2047
0 0 2217
0 0 2388
0 0 2559
0 0 2731
0 0 2900
0 0 3071
0 0 3243
0 0 3413
0 0 3583
0 0 3754
0 0 3925
0 0 4095
235 617 0
171 596 171
68 565 341
0 512 512
0 431 683
0 295 853
0 23 1020
0 0 1196
0 0 1362
0 0 1535
0 0 1704
0 0 1877
0 0 2047
0 0 2217
0 0 2388
0 0 2559
0 0 2731
0 0 2900
0 0 3071
0 0 3243
0 0 3413
0 0 3583
0 0 3754
0 0 3925
0 0 4095
238 813 0
171 796 171
68 773 341
0 737 512
0 682 682
0 603 852
0 489 1023
0 299 1194
0 0 1362
0 0 1535
0 0 1704
0 0 1877
0 0 2047
0 0 2217
0 0 2388
0 0 2559
0 0 2731
0 0 2900
0 0 3071
0 0 3243
0 0 3413
0 0 3583
0 0 3754
0 0 3925
0 0 4095
238 1008 0
171 995 171
68 977 341
0 950 512
0 909 683
0 852 852
0 777 1024
0 673 1195
0 522 1365
0 257 1534
0 0 1704
0 0 1877
0 0 2047
0 0 2217
0 0 2388
0 0 2559
0 0 2731
0 0 2900
0 0 3071
0 0 3243
0 0 3413
0 0 3583
0 0 3754
0 0 3925
0 0 4095
238 1203 0
171 1193 171
68 1178 341
0 1156 512
0 1124 682
0 1081 853
0 1023 1023
0 949 1194
0 852 1364
0 720 1536
0 528 1708
0 142 1878
0 0 2047
0 0 2217
0 0 2388
0 0 2559
0 0 2731
0 0 2900
0 0 3071
0 0 3243
0 0 3413
0 0 3583
0 0 3754
0 0 3925
0 0 4095
238 1398 0
171 1390 171
68 1378 341
0 1359 512
0 1333 683
0 1298 853
0 1252 1023
0 1195 1195
0 1121 1364
0 1028 1535
0 909 1707
0 748 1878
0 505 2048
0 0 2217
0 0 2388
0 0 2559
0 0 2731
0 0 2900
0 0 3071
0 0 3243
0 0 3413
0 0 3583
0 0 3754
0 0 3925
0 0 4095
238 1594 0
171 1586 171
68 1576 341
0 1561 512
0 1538 683
0 1508 853
0 1471 1024
0 1424 1195
0 1365 1365
0 1293 1536
0 1204 1707
0 1093 1877
0 950 2047
0 756 2218
0 446 2390
0 0 2559
0 0 2731
0 0 2900
0 0 3071
0 0 3243
0 0 3413
0 0 3583
0 0 3754
0 0 3925
0 0 4095
238 1789 0
171 1782 171
68 1773 341
0 1760 512
0 1741 683
0 1715 853
0 1684 1024
0 1644 1195
0 1595 1365
0 1536 1536
0 1464 1706
0 1378 1877
0 1273 2048
0 1143 2219
0 975 2389
0 742 2559
0 328 2730
0 0 2900
0 0 3071
0 0 3243
0 0 3413
0 0 3583
0 0 3754
0 0 3925
0 0 4095
238 1984 0
171 1978 171
68 1970 341
0 1959 512
0 1942 683
0 1920 853
0 1893 1024
0 1858 1195
0 1816 1365
0 1766 1536
0 1707 1707
0 1636 1877
0 1551 2048
0 1451 2218
0 1329 2388
0 1179 2560
0 983 2730
0 703 2900
0 61 3070
0 0 3243
0 0 3413
0 0 3583
0 0 3754
0 0 3925
0 0 4095
