Examples/CameraCalibration - SqueezeColors.3dl
#25pt 3DLUT created by 3D LUT Creator Pro (c) Oleg Sharonov
#Copyright Oleg Sharonov
#IMAGEPROFILE sRGB IEC61966-2.1 v.2.10
#INPUTGAMMA sRGB IEC61966-2.1 v.2.10
#OUTPUTGAMMA sRGB IEC61966-2.1 v.2.10
0 128 256 384 512 640 768 896 1023
0 0 0
0 136 650
0 386 1256
0 635 1858
0 879 2448
0 1108 3004
0 1310 3492
0 1471 3882
0 1622 4095
0 468 0
0 523 648
0 647 1254
0 819 1858
0 1017 2448
0 1217 3005
0 1400 3492
0 1551 3882
3 1693 4095
0 948 0
0 977 649
0 1045 1255
0 1154 1858
0 1296 2448
0 1453 3005
0 1604 3492
0 1733 3882
0 1859 4095
0 1429 0
0 1446 649
0 1491 1255
0 1565 1858
0 1666 2448
0 1785 3005
0 1905 3492
0 2011 3882
0 2116 4095
0 1910 0
0 1922 649
0 1953 1254
0 2007 1858
0 2083 2448
0 2174 3005
0 2269 3492
0 2355 3882
0 2442 4095
0 2391 0
0 2400 649
0 2424 1255
0 2465 1858
0 2523 2448
0 2596 3005
0 2672 3492
0 2742 3882
0 2814 4095
0 2871 0
0 2879 649
0 2898 1254
0 2930 1858
0 2977 2448
0 3036 3005
0 3099 3492
0 3157 3882
3 3217 4095
0 3352 0
0 3358 649
0 3374 1254
0 3400 1858
0 3439 2448
0 3488 3005
0 3541 3492
0 3590 3882
3 3641 4095
0 3833 0
0 3838 649
0 3851 1255
0 3874 1858
0 3907 2448
0 3948 3005
0 3992 3492
0 4034 3882
0 4078 4095
439 6 0
398 142 632
271 389 1248
0 636 1853
0 880 2445
0 1110 3003
0 1310 3489
0 1472 3880
0 1622 4095
440 470 0
398 526 633
271 649 1248
0 821 1854
0 1018 2445
0 1218 3002
0 1401 3490
0 1551 3880
0 1693 4095
440 949 0
398 977 633
271 1046 1248
0 1155 1853
0 1296 2445
0 1454 3003
0 1605 3489
0 1734 3880
0 1859 4095
440 1429 0
398 1447 633
271 1491 1248
0 1565 1853
0 1666 2445
0 1785 3002
0 1906 3489
0 2011 3880
0 2117 4095
440 1910 0
398 1923 633
271 1954 1248
0 2008 1853
0 2083 2445
0 2174 3002
0 2270 3490
0 2355 3880
0 2442 4095
440 2391 0
398 2400 633
271 2424 1248
0 2465 1853
0 2524 2445
0 2596 3002
0 2673 3490
0 2742 3880
0 2814 4095
440 2872 0
398 2879 633
271 2898 1248
0 2930 1853
0 2978 2445
0 3036 3002
0 3099 3490
0 3157 3880
0 3217 4095
440 3352 0
398 3359 633
271 3374 1248
0 3401 1853
0 3440 2445
0 3488 3002
0 3541 3490
0 3590 3880
0 3641 4095
440 3833 0
398 3838 633
271 3851 1248
0 3874 1853
0 3907 2445
0 3948 3002
0 3993 3490
0 4035 3880
0 4078 4095
904 19 0
883 155 593
832 396 1230
732 641 1842
552 883 2437
149 1112 2996
0 1312 3484
0 1473 3876
0 1623 4095
902 475 0
883 532 593
831 653 1229
732 823 1841
552 1020 2437
149 1220 2996
0 1403 3484
0 1553 3876
0 1695 4095
902 951 0
883 980 592
832 1048 1229
732 1157 1842
552 1298 2437
149 1455 2996
0 1607 3484
0 1735 3876
0 1861 4095
902 1431 0
883 1449 592
832 1493 1229
732 1567 1842
552 1668 2437
149 1787 2996
0 1907 3484
0 2012 3875
0 2118 4095
902 1911 0
883 1924 593
832 1955 1229
732 2008 1842
552 2084 2437
149 2175 2996
0 2271 3484
0 2356 3876
3 2443 4095
902 2392 0
883 2401 593
831 2425 1229
732 2466 1842
552 2525 2437
149 2597 2996
0 2673 3484
0 2743 3875
0 2815 4095
902 2872 0
883 2880 593
831 2898 1229
732 2931 1842
552 2978 2437
149 3037 2996
0 3100 3484
0 3158 3876
0 3218 4095
902 3353 0
883 3359 593
831 3374 1229
732 3401 1842
552 3440 2437
149 3489 2996
0 3542 3484
0 3590 3876
3 3641 4095
902 3834 0
883 3839 593
831 3852 1229
732 3874 1842
552 3907 2437
149 3949 2996
0 3993 3484
0 4035 3876
0 4079 4095
1368 42 0
1357 177 510
1325 408 1194
1270 648 1820
1182 888 2422
1058 1116 2985
898 1316 3475
711 1476 3868
423 1626 4095
1368 485 0
1356 540 510
1326 660 1194
1270 830 1821
1182 1025 2422
1058 1224 2985
899 1406 3476
711 1555 3868
423 1697 4095
1368 957 0
1355 984 510
1325 1052 1194
1270 1161 1820
1182 1302 2422
1058 1458 2985
898 1609 3475
711 1738 3867
423 1863 4095
1368 1434 0
1356 1452 510
1325 1496 1194
1270 1569 1820
1182 1670 2422
1058 1789 2985
898 1909 3475
711 2015 3867
423 2120 4095
1368 1914 0
1356 1926 510
1326 1957 1194
1270 2011 1821
1182 2086 2422
1058 2177 2985
899 2272 3475
711 2358 3868
422 2445 4095
1368 2394 0
1356 2403 510
1326 2426 1194
1270 2467 1820
1182 2526 2422
1058 2598 2985
898 2674 3475
711 2745 3868
423 2816 4095
1368 2874 0
1356 2881 510
1326 2900 1194
1270 2933 1821
1182 2979 2422
1058 3038 2985
899 3101 3475
711 3159 3868
423 3219 4095
1368 3354 0
1356 3360 510
1326 3375 1194
1270 3402 1821
1182 3441 2422
1058 3490 2985
899 3543 3475
711 3591 3867
423 3642 4095
1368 3835 0
1356 3840 510
1326 3853 1194
1270 3875 1821
1182 3908 2422
1058 3949 2985
899 3994 3475
711 4036 3868
423 4079 4095
1846 78 0
1838 212 349
1818 425 1138
1780 660 1788
1723 896 2399
1647 1122 2968
1558 1321 3461
1468 1480 3855
1364 1630 4095
1846 501 0
1838 554 349
1817 671 1137
1780 838 1788
1723 1031 2399
1647 1230 2967
1558 1411 3461
1468 1559 3855
1364 1701 4095
1846 964 0
1838 992 349
1817 1060 1138
1780 1167 1787
1723 1307 2399
1647 1463 2968
1558 1614 3461
1468 1742 3855
1364 1866 4095
1846 1439 0
1838 1456 349
1817 1500 1138
1780 1574 1788
1723 1674 2399
1647 1793 2967
1558 1912 3461
1468 2018 3855
1364 2122 4095
1846 1917 0
1838 1929 349
1817 1960 1138
1780 2014 1788
1723 2089 2399
1647 2180 2967
1558 2275 3461
1468 2361 3855
1364 2447 4095
1846 2396 0
1838 2405 349
1817 2429 1138
1780 2470 1788
1723 2528 2399
1647 2600 2967
1558 2677 3461
1468 2747 3855
1364 2819 4095
1846 2875 0
1838 2883 349
1817 2902 1138
1780 2934 1788
1723 2981 2399
1647 3040 2967
1558 3103 3461
1468 3161 3855
1364 3221 4095
1846 3356 0
1838 3362 349
1817 3377 1138
1780 3404 1788
1723 3443 2399
1647 3491 2967
1558 3544 3461
1468 3593 3855
1364 3644 4095
1846 3836 0
1838 3841 349
1817 3854 1138
1780 3877 1788
1723 3909 2399
1647 3951 2967
1558 3995 3461
1467 4037 3855
1364 4081 4095
2359 132 0
2352 255 0
2337 451 1047
2310 677 1736
2269 909 2364
2216 1132 2941
2156 1329 3439
2097 1487 3836
2032 1636 4095
2358 522 0
2352 575 0
2337 689 1047
2310 852 1736
2269 1042 2364
2217 1238 2941
2156 1418 3439
2097 1566 3836
2032 1707 4095
2359 976 0
2352 1003 0
2337 1069 1047
2310 1176 1736
2269 1315 2364
2216 1470 2941
2156 1620 3439
2097 1747 3837
2032 1871 4095
2359 1446 0
2352 1463 0
2337 1507 1047
2310 1580 1736
2269 1680 2364
2216 1798 2941
2156 1917 3439
2097 2022 3837
2032 2127 4095
2358 1922 0
2353 1934 0
2337 1965 1047
2310 2018 1736
2270 2093 2364
2216 2184 2941
2156 2279 3439
2097 2364 3837
2032 2451 4095
2358 2400 0
2352 2409 0
2337 2432 1047
2310 2473 1736
2269 2532 2364
2217 2604 2941
2156 2680 3439
2097 2750 3837
2032 2821 4095
2359 2879 0
2352 2886 0
2337 2904 1047
2310 2937 1736
2270 2984 2364
2216 3043 2941
2156 3105 3439
2097 3163 3837
2032 3223 4095
2359 3358 0
2352 3364 0
2337 3379 1047
2310 3406 1736
2270 3445 2364
2216 3494 2941
2156 3546 3439
2097 3595 3837
2032 3646 4095
2359 3838 0
2352 3843 0
2337 3856 1047
2310 3879 1736
2270 3911 2364
2216 3953 2941
2156 3997 3439
2097 4039 3837
2031 4083 4095
2934 212 0
2930 310 0
2918 488 889
2897 701 1655
2868 927 2310
2828 1145 2900
2784 1341 3406
2742 1498 3808
2697 1645 4095
2934 554 0
2930 603 0
2918 713 889
2898 871 1655
2867 1057 2310
2828 1251 2900
2785 1429 3406
2742 1576 3808
2697 1715 4095
2934 992 0
2930 1019 0
2918 1084 890
2897 1189 1655
2868 1327 2310
2828 1480 2900
2785 1629 3406
2742 1756 3808
2696 1879 4095
2934 1457 0
2930 1474 0
2918 1517 889
2898 1589 1655
2868 1689 2310
2828 1806 2900
2784 1925 3406
2742 2029 3808
2696 2133 4095
2934 1929 0
2929 1941 0
2918 1972 890
2898 2025 1655
2867 2100 2310
2828 2191 2900
2784 2285 3406
2742 2370 3808
2696 2456 4095
2934 2405 0
2930 2415 0
2918 2438 890
2898 2479 1655
2868 2537 2310
2828 2609 2900
2784 2685 3406
2742 2755 3808
2697 2826 4095
2934 2883 0
2930 2890 0
2918 2909 890
2897 2941 1655
2867 2988 2310
2828 3047 2900
2785 3110 3406
2742 3167 3808
2697 3227 4095
2934 3362 0
2930 3368 0
2918 3383 890
2898 3410 1656
2868 3449 2310
2828 3497 2900
2785 3550 3406
2742 3598 3808
2696 3649 4095
2934 3841 0
2930 3846 0
2918 3859 890
2898 3882 1655
2868 3914 2310
2828 3956 2900
2784 4000 3406
2743 4042 3808
2697 4086 4095
3583 299 0
3580 381 0
3571 536 573
3556 736 1526
3532 953 2227
3502 1166 2839
3470 1357 3357
3438 1512 3765
3404 1659 4095
3583 599 0
3580 644 0
3571 747 573
3555 899 1526
3532 1080 2227
3503 1270 2839
3470 1445 3357
3438 1590 3765
3404 1728 4095
3583 1017 0
3580 1043 0
3571 1106 573
3555 1209 1526
3532 1344 2227
3502 1495 2839
3470 1642 3357
3438 1768 3765
3404 1890 4095
3583 1472 0
3580 1489 0
3571 1531 573
3556 1603 1526
3532 1702 2227
3502 1818 2839
3470 1936 3357
3438 2039 3765
3404 2143 4095
3583 1940 0
3580 1952 0
3571 1983 573
3555 2036 1526
3532 2110 2227
3503 2200 2839
3470 2294 3357
3438 2379 3765
3404 2464 4095
3583 2414 0
3580 2423 0
3571 2446 573
3555 2487 1526
3532 2545 2227
3503 2616 2839
3470 2692 3357
3438 2762 3765
3404 2833 4095
3583 2889 0
3580 2897 0
3571 2916 573
3555 2948 1526
3532 2995 2227
3503 3053 2839
3470 3116 3357
3438 3173 3765
3404 3233 4095
3583 3367 0
3580 3373 0
3571 3388 573
3555 3415 1526
3532 3454 2227
3503 3502 2839
3470 3555 3357
3438 3603 3765
3404 3654 4095
3583 3846 0
3580 3851 0
3571 3864 573
3555 3886 1527
3532 3919 2227
3503 3960 2839
3470 4004 3357
3438 4046 3765
3404 4090 4095
4095 391 0
4095 457 0
4095 594 0
4095 778 1338
4095 984 2115
4095 1192 2758
4095 1379 3292
4095 1531 3710
4095 1676 4095
4095 650 0
4095 692 0
4095 789 3
4095 933 1338
4095 1108 2115
4095 1293 2758
4095 1465 3292
4095 1607 3710
4095 1744 4095
4095 1046 0
4095 1072 0
4095 1133 0
4095 1234 1338
4095 1365 2115
4095 1514 2758
4095 1660 3292
4095 1783 3710
4095 1904 4095
4095 1492 3
4095 1508 0
4095 1550 0
4095 1621 1338
4095 1718 2115
4095 1833 2758
4095 1950 3292
4095 2052 3710
4095 2155 4095
4095 1954 0
4095 1966 3
4095 1997 0
4095 2049 1338
4095 2122 2115
4095 2212 2758
4095 2305 3292
4095 2389 3710
4095 2475 4095
4095 2424 0
4095 2433 3
4095 2457 0
4095 2497 1338
4095 2555 2115
4095 2626 2758
4095 2701 3292
4095 2770 3710
4095 2841 4095
4095 2898 0
4095 2905 0
4095 2924 0
4095 2956 1338
4095 3003 2115
4095 3061 2758
4095 3123 3292
4095 3181 3710
4095 3240 4095
4095 3374 0
4095 3380 0
4095 3395 3
4095 3422 1338
4095 3460 2115
4095 3509 2758
4095 3561 3292
4095 3610 3710
4095 3660 4095
4095 3851 3
4095 3856 0
4095 3869 6
4095 3892 1337
4095 3924 2115
4095 3965 2758
4095 4010 3292
4095 4052 3710
4095 4095 4095
