Examples/CameraCalibration - SqueezeColors.3dl
#25pt 3DLUT created by 3D LUT Creator Pro (c) Oleg Sharonov
#Copyright Oleg Sharonov
#IMAGEPROFILE sRGB IEC61966-2.1 v.2.10
#INPUTGAMMA sRGB IEC61966-2.1 v.2.10
#OUTPUTGAMMA sRGB IEC61966-2.1 v.2.10
0 43 86 128 171 214 256 299 341 384 427 469 512 555 597 640 682 725 768 810 853 896 938 981 1023 
0 0 0
0 32 250
0 74 449
0 136 650
0 220 851
0 302 1053
0 386 1256
0 470 1457
0 552 1657
0 635 1858
0 717 2057
0 798 2254
0 879 2448
0 957 2639
0 1034 2825
0 1108 3004
0 1179 3177
0 1247 3339
0 1310 3492
0 1368 3632
0 1421 3761
0 1471 3882
0 1518 3997
0 1567 4095
0 1622 4095
0 149 0
0 177 243
0 214 445
0 264 647
0 322 849
0 388 1054
0 457 1254
0 530 1456
0 605 1658
0 681 1857
0 758 2056
0 835 2253
0 912 2449
0 988 2639
0 1062 2825
0 1134 3005
0 1203 3177
0 1269 3340
0 1331 3492
0 1387 3632
0 1440 3762
0 1489 3882
0 1536 3997
0 1584 4095
3 1638 4095
0 308 0
0 328 245
0 352 448
0 386 649
0 430 851
0 482 1053
0 541 1255
0 603 1455
0 670 1657
0 739 1858
0 811 2057
0 883 2254
0 955 2448
0 1027 2639
0 1098 2825
0 1168 3005
0 1235 3177
0 1299 3339
0 1359 3492
0 1415 3632
0 1466 3761
0 1514 3882
0 1560 3997
0 1607 4095
3 1660 4095
0 468 0
0 481 243
0 497 445
0 523 648
0 558 851
0 600 1053
0 647 1254
0 700 1456
0 758 1658
0 819 1858
0 883 2056
0 949 2253
0 1017 2448
0 1084 2639
0 1151 2825
0 1217 3005
0 1282 3177
0 1343 3340
0 1400 3492
0 1454 3632
0 1504 3762
0 1551 3882
0 1595 3997
0 1641 4095
3 1693 4095
0 627 0
0 637 243
0 651 446
0 670 648
0 697 850
0 730 1052
0 770 1254
0 815 1456
0 865 1658
0 918 1857
0 975 2056
0 1034 2254
0 1096 2449
0 1158 2639
0 1220 2825
0 1282 3005
0 1343 3177
0 1400 3339
0 1456 3491
0 1507 3632
0 1555 3762
0 1600 3882
0 1643 3997
0 1687 4095
0 1737 4095
0 788 0
0 796 243
0 806 446
0 822 648
0 845 851
0 871 1053
0 904 1254
0 942 1456
0 984 1658
0 1031 1858
0 1081 2056
0 1134 2254
0 1189 2448
0 1247 2639
0 1304 2825
0 1361 3005
0 1418 3177
0 1472 3340
0 1524 3492
0 1573 3632
0 1618 3762
0 1661 3882
0 1702 3997
0 1745 4095
0 1792 4095
0 948 0
0 955 245
0 963 446
0 977 649
0 994 851
0 1017 1053
0 1045 1255
0 1077 1456
0 1113 1657
0 1154 1858
0 1198 2057
0 1246 2254
0 1296 2448
0 1347 2639
0 1400 2825
0 1453 3005
0 1505 3177
0 1556 3339
0 1604 3492
0 1650 3632
0 1693 3761
0 1733 3882
0 1772 3997
0 1813 4095
0 1859 4095
0 1109 0
0 1114 243
0 1121 446
0 1133 649
0 1148 851
0 1167 1053
0 1190 1254
0 1218 1456
0 1250 1658
0 1285 1857
0 1325 2056
0 1367 2253
0 1412 2448
0 1458 2639
0 1506 2825
0 1555 3005
0 1603 3177
0 1650 3340
0 1696 3492
0 1739 3632
0 1779 3762
0 1817 3882
0 1854 3997
0 1892 4095
0 1936 4095
0 1269 0
0 1273 245
0 1280 446
0 1289 649
0 1302 851
0 1318 1053
0 1339 1255
0 1364 1456
0 1391 1657
0 1423 1858
0 1458 2056
0 1495 2254
0 1535 2448
0 1578 2639
0 1622 2825
0 1666 3005
0 1711 3177
0 1754 3339
0 1796 3492
0 1836 3632
0 1874 3762
0 1910 3882
0 1945 3997
0 1981 4095
0 2022 4095
0 1429 0
0 1433 245
0 1439 446
0 1446 649
0 1458 851
0 1472 1053
0 1491 1255
0 1512 1456
0 1536 1658
0 1565 1858
0 1596 2057
0 1629 2254
0 1666 2448
0 1704 2639
0 1744 2825
0 1785 3005
0 1826 3177
0 1866 3339
0 1905 3492
0 1942 3632
0 1977 3761
0 2011 3882
0 2043 3997
0 2078 4095
0 2116 4095
0 1589 0
0 1593 245
0 1597 446
0 1604 649
0 1615 851
0 1628 1053
0 1644 1255
0 1662 1456
0 1685 1657
0 1710 1858
0 1737 2056
0 1768 2254
0 1801 2448
0 1836 2639
0 1872 2825
0 1910 3005
0 1948 3177
0 1985 3339
0 2021 3492
0 2056 3632
0 2088 3762
0 2120 3882
0 2150 3997
0 2182 4095
0 2219 4095
0 1750 0
0 1753 245
0 1757 446
0 1763 649
0 1772 851
0 1784 1053
0 1798 1254
0 1815 1456
0 1835 1658
0 1857 1858
0 1883 2057
0 1910 2254
0 1940 2448
0 1972 2639
0 2005 2825
0 2040 3005
0 2075 3177
0 2109 3339
0 2143 3492
0 2175 3632
0 2206 3762
0 2235 3882
0 2263 3997
0 2293 4095
3 2327 4095
0 1910 0
0 1912 245
0 1916 446
0 1922 649
0 1930 851
0 1941 1053
0 1953 1254
0 1969 1456
0 1987 1658
0 2007 1858
0 2030 2056
0 2055 2254
0 2083 2448
0 2112 2639
0 2142 2825
0 2174 3005
0 2206 3177
0 2238 3339
0 2269 3492
0 2299 3632
0 2328 3762
0 2355 3882
0 2382 3997
0 2410 4095
0 2442 4095
0 2070 0
0 2073 245
0 2076 446
0 2081 649
0 2088 851
0 2098 1053
0 2110 1255
0 2124 1456
0 2140 1657
0 2158 1858
0 2179 2056
0 2202 2254
0 2227 2448
0 2254 2639
0 2283 2825
0 2312 3005
0 2342 3177
0 2371 3339
0 2400 3492
0 2428 3632
0 2455 3761
0 2480 3882
0 2505 3997
0 2532 4095
3 2562 4095
0 2230 0
0 2233 245
0 2236 446
0 2240 649
0 2247 851
0 2256 1053
0 2266 1254
0 2279 1456
0 2294 1657
0 2311 1858
0 2330 2057
0 2352 2254
0 2374 2448
0 2399 2639
0 2425 2825
0 2452 3005
0 2480 3177
0 2508 3339
0 2535 3492
0 2561 3632
0 2586 3762
0 2610 3882
0 2633 3997
0 2658 4095
0 2686 4095
0 2391 0
0 2393 245
0 2396 446
0 2400 649
0 2406 851
0 2414 1053
0 2424 1255
0 2435 1456
0 2449 1658
0 2465 1858
0 2483 2057
0 2502 2254
0 2523 2448
0 2546 2639
0 2571 2825
0 2596 3005
0 2621 3177
0 2647 3339
0 2672 3492
0 2697 3632
0 2720 3762
0 2742 3882
0 2764 3997
0 2788 4095
0 2814 4095
0 2551 0
0 2553 245
0 2555 446
0 2559 649
0 2565 851
0 2572 1053
0 2581 1254
0 2592 1456
0 2605 1658
0 2619 1858
0 2636 2056
0 2653 2254
0 2674 2448
0 2695 2639
0 2717 2825
0 2741 3005
0 2765 3177
0 2789 3339
0 2812 3492
0 2835 3632
0 2857 3762
0 2878 3882
0 2899 3997
0 2920 4095
0 2945 4095
0 2711 0
0 2713 245
0 2715 446
0 2719 649
0 2724 851
0 2731 1053
0 2740 1255
0 2749 1456
0 2761 1657
0 2774 1858
0 2790 2056
0 2806 2254
0 2825 2448
0 2845 2639
0 2866 2825
0 2888 3005
0 2910 3177
0 2932 3339
0 2955 3492
0 2976 3632
0 2996 3762
0 3016 3882
0 3036 3997
0 3056 4095
0 3080 4095
0 2871 0
0 2873 245
0 2875 446
0 2879 649
0 2883 851
0 2890 1053
0 2898 1254
0 2907 1456
0 2918 1658
0 2930 1858
0 2945 2056
0 2960 2254
0 2977 2448
0 2996 2639
0 3015 2825
0 3036 3005
0 3057 3177
0 3078 3339
0 3099 3492
0 3119 3632
0 3138 3762
0 3157 3882
0 3175 3997
3 3195 4095
3 3217 4095
0 3032 0
0 3033 245
0 3035 446
0 3038 649
0 3043 851
0 3049 1053
0 3056 1255
0 3065 1456
0 3075 1658
0 3086 1858
0 3100 2056
0 3114 2254
0 3131 2448
0 3148 2639
0 3167 2825
0 3186 3005
0 3206 3177
0 3225 3339
0 3245 3492
0 3264 3632
0 3282 3762
0 3299 3882
0 3317 3997
0 3335 4095
0 3356 4095
0 3192 0
0 3194 245
0 3196 446
0 3199 649
0 3202 851
0 3208 1053
0 3215 1254
0 3223 1456
0 3232 1657
0 3243 1858
0 3256 2056
0 3270 2254
0 3285 2448
0 3301 2639
0 3318 2825
0 3336 3005
0 3355 3177
0 3374 3339
0 3392 3492
0 3410 3632
0 3427 3762
0 3444 3882
0 3460 3997
0 3478 4095
3 3498 4095
0 3352 0
0 3354 245
0 3356 446
0 3358 649
0 3362 851
0 3367 1053
0 3374 1254
0 3381 1456
0 3390 1658
0 3400 1858
0 3412 2056
0 3425 2254
0 3439 2448
0 3455 2639
0 3471 2825
0 3488 3005
0 3506 3177
0 3523 3339
0 3541 3492
0 3558 3632
0 3574 3762
0 3590 3882
0 3605 3997
0 3622 4095
3 3641 4095
0 3513 0
0 3514 245
0 3516 446
0 3518 649
0 3522 851
0 3527 1053
0 3533 1254
0 3540 1456
0 3548 1658
0 3558 1858
0 3569 2056
0 3581 2254
0 3595 2448
0 3609 2639
0 3625 2825
0 3641 3005
0 3657 3177
0 3674 3339
0 3691 3492
0 3707 3632
0 3722 3762
0 3737 3882
0 3752 3997
0 3767 4095
3 3785 4095
0 3673 0
0 3674 245
0 3676 446
0 3678 649
0 3682 851
0 3686 1053
0 3692 1254
0 3699 1456
0 3707 1658
0 3716 1858
0 3726 2056
0 3738 2254
0 3750 2448
0 3764 2639
0 3779 2825
0 3794 3005
0 3810 3177
0 3826 3339
0 3841 3492
0 3856 3632
0 3871 3762
0 3885 3882
0 3899 3997
0 3914 4095
3 3931 4095
0 3833 0
0 3834 245
0 3836 446
0 3838 649
0 3841 851
0 3846 1053
0 3851 1255
0 3857 1456
0 3865 1657
0 3874 1858
0 3884 2056
0 3894 2254
0 3907 2448
0 3920 2639
0 3933 2825
0 3948 3005
0 3963 3177
0 3978 3339
0 3992 3492
0 4007 3632
0 4021 3762
0 4034 3882
0 4048 3997
6 4062 4095
0 4078 4095
132 0 0
113 32 235
87 74 437
48 139 645
0 220 849
0 304 1051
0 388 1254
0 470 1456
0 552 1656
0 635 1857
0 717 2056
0 799 2253
0 879 2447
0 958 2638
0 1035 2824
0 1109 3004
0 1179 3176
0 1247 3339
0 1310 3491
0 1368 3632
0 1421 3761
0 1471 3881
0 1518 3997
0 1567 4095
0 1622 4095
136 149 0
116 180 238
87 214 442
48 267 647
0 324 850
0 389 1052
0 458 1252
0 530 1455
0 605 1657
0 681 1856
0 758 2055
0 835 2252
0 912 2448
0 988 2639
0 1063 2824
0 1134 3004
0 1203 3177
0 1269 3338
0 1331 3491
0 1388 3632
0 1440 3761
0 1489 3881
0 1536 3997
0 1584 4095
3 1638 4095
132 308 0
113 326 235
87 351 440
48 386 645
0 431 849
0 482 1051
0 541 1254
0 603 1454
0 670 1656
0 740 1857
0 811 2056
0 883 2253
0 955 2447
0 1027 2638
0 1098 2824
0 1168 3005
0 1235 3176
0 1299 3339
0 1359 3491
0 1415 3632
0 1466 3761
0 1514 3881
0 1560 3997
0 1607 4095
0 1660 4095
132 468 0
113 481 235
87 499 440
48 525 646
0 559 849
0 600 1051
0 647 1252
0 700 1454
0 758 1656
0 820 1857
0 883 2055
0 949 2252
0 1017 2448
0 1084 2638
0 1151 2824
0 1217 3004
0 1282 3176
0 1343 3339
0 1401 3491
0 1454 3632
0 1504 3761
0 1551 3881
0 1595 3997
3 1642 4095
3 1693 4095
132 628 0
113 639 235
87 651 442
48 672 646
0 698 849
0 731 1050
0 771 1253
0 815 1455
0 865 1656
0 918 1856
0 975 2055
0 1035 2253
0 1096 2448
0 1159 2638
0 1221 2824
0 1283 3004
0 1343 3176
0 1401 3339
0 1456 3492
0 1508 3632
0 1555 3761
0 1600 3881
0 1643 3997
0 1687 4095
0 1737 4095
132 788 0
113 797 235
87 807 442
48 823 646
0 845 849
0 871 1051
0 904 1252
0 942 1455
0 984 1656
0 1031 1857
0 1081 2055
0 1134 2252
0 1190 2448
0 1247 2638
0 1304 2824
0 1361 3004
0 1418 3176
0 1472 3339
0 1524 3491
0 1573 3632
0 1618 3761
0 1661 3881
0 1702 3997
0 1745 4095
0 1792 4095
132 948 0
113 955 235
87 964 442
48 977 645
0 994 848
0 1017 1050
0 1045 1253
0 1077 1455
0 1114 1656
0 1154 1857
0 1199 2056
0 1246 2253
0 1296 2447
0 1347 2638
0 1400 2824
0 1453 3004
0 1505 3176
0 1556 3339
0 1604 3491
0 1650 3632
0 1693 3761
0 1734 3881
0 1773 3997
0 1813 4095
0 1859 4095
132 1109 0
113 1114 235
87 1121 442
48 1133 646
0 1148 849
0 1167 1051
0 1190 1252
0 1218 1455
0 1250 1656
0 1286 1857
0 1325 2055
0 1367 2253
0 1412 2448
0 1458 2638
0 1506 2824
0 1555 3004
0 1603 3176
0 1651 3339
0 1696 3491
0 1739 3632
0 1779 3761
0 1817 3881
0 1854 3997
0 1892 4095
0 1936 4095
132 1269 0
113 1273 235
87 1280 442
48 1289 645
0 1302 848
0 1319 1050
0 1339 1253
0 1364 1455
0 1391 1656
0 1423 1857
0 1458 2056
0 1496 2253
0 1536 2447
0 1578 2638
0 1622 2824
0 1667 3004
0 1711 3176
0 1754 3339
0 1796 3491
0 1836 3632
0 1874 3761
0 1910 3881
0 1944 3997
0 1981 4095
0 2022 4095
132 1429 0
113 1433 235
87 1438 442
48 1447 645
0 1458 848
0 1473 1050
0 1491 1253
0 1512 1455
0 1536 1656
0 1565 1857
0 1596 2056
0 1630 2253
0 1666 2448
0 1704 2638
0 1744 2824
0 1785 3004
0 1826 3176
0 1866 3339
0 1905 3491
0 1943 3632
0 1978 3761
0 2011 3881
0 2044 3997
0 2078 4095
0 2116 4095
132 1589 0
113 1593 235
87 1597 442
48 1605 645
0 1615 848
0 1628 1050
0 1643 1253
0 1662 1455
0 1685 1656
0 1709 1856
0 1738 2056
0 1768 2253
0 1801 2448
0 1836 2638
0 1872 2824
0 1910 3004
0 1948 3176
0 1985 3339
0 2021 3491
0 2056 3632
0 2088 3761
0 2119 3881
0 2150 3997
0 2182 4095
0 2219 4095
