Examples/Channels - Only Green Channel.3dl
#25pt 3DLUT created by 3D LUT Creator Pro (c) Oleg Sharonov
#Copyright Oleg Sharonov
#IMAGEPROFILE 
#INPUTGAMMA 
#OUTPUTGAMMA 
0 128 256 384 512 640 768 896 1023
0 0 0
0 0 0
0 0 0
0 0 0
0 0 0
0 0 0
0 0 0
0 0 0
0 0 0
0 512 0
0 512 0
0 512 0
0 512 0
0 512 0
0 512 0
0 512 0
0 512 0
0 512 0
0 1023 0
0 1023 0
0 1023 0
0 1023 0
0 1023 0
0 1023 0
0 1023 0
0 1023 0
0 1023 0
0 1535 0
0 1535 0
0 1535 0
0 1535 0
0 1535 0
0 1535 0
0 1535 0
0 1535 0
0 1535 0
0 2048 0
0 2048 0
0 2048 0
0 2048 0
0 2048 0
0 2048 0
0 2048 0
0 2048 0
0 2048 0
0 2559 0
0 2559 0
0 2559 0
0 2559 0
0 2559 0
0 2559 0
0 2559 0
0 2559 0
0 2559 0
0 3071 0
0 3071 0
0 3071 0
0 3071 0
0 3071 0
0 3071 0
0 3071 0
0 3071 0
0 3071 0
0 3583 0
0 3583 0
0 3583 0
0 3583 0
0 3583 0
0 3583 0
0 3583 0
0 3583 0
0 3583 0
3 4095 3
3 4095 3
3 4095 3
3 4095 3
3 4095 3
3 4095 3
3 4095 3
3 4095 3
3 4095 3
0 0 0
0 0 0
0 0 0
0 0 0
0 0 0
0 0 0
0 0 0
0 0 0
0 0 0
0 512 0
0 512 0
0 512 0
0 512 0
0 512 0
0 512 0
0 512 0
0 512 0
0 512 0
0 1023 0
0 1023 0
0 1023 0
0 1023 0
0 1023 0
0 1023 0
0 1023 0
0 1023 0
0 1023 0
0 1535 0
0 1535 0
0 1535 0
0 1535 0
0 1535 0
0 1535 0
0 1535 0
0 1535 0
0 1535 0
0 2048 0
0 2048 0
0 2048 0
0 2048 0
0 2048 0
0 2048 0
0 2048 0
0 2048 0
0 2048 0
0 2559 0
0 2559 0
0 2559 0
0 2559 0
0 2559 0
0 2559 0
0 2559 0
0 2559 0
0 2559 0
0 3071 0
0 3071 0
0 3071 0
0 3071 0
0 3071 0
0 3071 0
0 3071 0
0 3071 0
0 3071 0
0 3583 0
0 3583 0
0 3583 0
0 3583 0
0 3583 0
0 3583 0
0 3583 0
0 3583 0
0 3583 0
3 4095 3
3 4095 3
3 4095 3
3 4095 3
3 4095 3
3 4095 3
3 4095 3
3 4095 3
3 4095 3
0 0 0
0 0 0
0 0 0
0 0 0
0 0 0
0 0 0
0 0 0
0 0 0
0 0 0
0 512 0
0 512 0
0 512 0
0 512 0
0 512 0
0 512 0
0 512 0
0 512 0
0 512 0
0 1023 0
0 1023 0
0 1023 0
0 1023 0
0 1023 0
0 1023 0
0 1023 0
0 1023 0
0 1023 0
0 1535 0
0 1535 0
0 1535 0
0 1535 0
0 1535 0
0 1535 0
0 1535 0
0 1535 0
0 1535 0
0 2048 0
0 2048 0
0 2048 0
0 2048 0
0 2048 0
0 2048 0
0 2048 0
0 2048 0
0 2048 0
0 2559 0
0 2559 0
0 2559 0
0 2559 0
0 2559 0
0 2559 0
0 2559 0
0 2559 0
0 2559 0
0 3071 0
0 3071 0
0 3071 0
0 3071 0
0 3071 0
0 3071 0
0 3071 0
0 3071 0
0 3071 0
0 3583 0
0 3583 0
0 3583 0
0 3583 0
0 3583 0
0 3583 0
0 3583 0
0 3583 0
0 3583 0
3 4095 3
3 4095 3
3 4095 3
3 4095 3
3 4095 3
3 4095 3
3 4095 3
3 4095 3
3 4095 3
0 0 0
0 0 0
0 0 0
0 0 0
0 0 0
0 0 0
0 0 0
0 0 0
0 0 0
0 512 0
0 512 0
0 512 0
0 512 0
0 512 0
0 512 0
0 512 0
0 512 0
0 512 0
0 1023 0
0 1023 0
0 1023 0
0 1023 0
0 1023 0
0 1023 0
0 1023 0
0 1023 0
0 1023 0
0 1535 0
0 1535 0
0 1535 0
0 1535 0
0 1535 0
0 1535 0
0 1535 0
0 1535 0
0 1535 0
0 2048 0
0 2048 0
0 2048 0
0 2048 0
0 2048 0
0 2048 0
0 2048 0
0 2048 0
0 2048 0
0 2559 0
0 2559 0
0 2559 0
0 2559 0
0 2559 0
0 2559 0
0 2559 0
0 2559 0
0 2559 0
0 3071 0
0 3071 0
0 3071 0
0 3071 0
0 3071 0
0 3071 0
0 3071 0
0 3071 0
0 3071 0
0 3583 0
0 3583 0
0 3583 0
0 3583 0
0 3583 0
0 3583 0
0 3583 0
0 3583 0
0 3583 0
3 4095 3
3 4095 3
3 4095 3
3 4095 3
3 4095 3
3 4095 3
3 4095 3
3 4095 3
3 4095 3
0 0 0
0 0 0
0 0 0
0 0 0
0 0 0
0 0 0
0 0 0
0 0 0
0 0 0
0 512 0
0 512 0
0 512 0
0 512 0
0 512 0
0 512 0
0 512 0
0 512 0
0 512 0
0 1023 0
0 1023 0
0 1023 0
0 1023 0
0 1023 0
0 1023 0
0 1023 0
0 1023 0
0 1023 0
0 1535 0
0 1535 0
0 1535 0
0 1535 0
0 1535 0
0 1535 0
0 1535 0
0 1535 0
0 1535 0
0 2048 0
0 2048 0
0 2048 0
0 2048 0
0 2048 0
0 2048 0
0 2048 0
0 2048 0
0 2048 0
0 2559 0
0 2559 0
0 2559 0
0 2559 0
0 2559 0
0 2559 0
0 2559 0
0 2559 0
0 2559 0
0 3071 0
0 3071 0
0 3071 0
0 3071 0
0 3071 0
0 3071 0
0 3071 0
0 3071 0
0 3071 0
0 3583 0
0 3583 0
0 3583 0
0 3583 0
0 3583 0
0 3583 0
0 3583 0
0 3583 0
0 3583 0
3 4095 3
3 4095 3
3 4095 3
3 4095 3
3 4095 3
3 4095 3
3 4095 3
3 4095 3
3 4095 3
0 0 0
0 0 0
0 0 0
0 0 0
0 0 0
0 0 0
0 0 0
0 0 0
0 0 0
0 512 0
0 512 0
0 512 0
0 512 0
0 512 0
0 512 0
0 512 0
0 512 0
0 512 0
0 1023 0
0 1023 0
0 1023 0
0 1023 0
0 1023 0
0 1023 0
0 1023 0
0 1023 0
0 1023 0
0 1535 0
0 1535 0
0 1535 0
0 1535 0
0 1535 0
0 1535 0
0 1535 0
0 1535 0
0 1535 0
0 2048 0
0 2048 0
0 2048 0
0 2048 0
0 2048 0
0 2048 0
0 2048 0
0 2048 0
0 2048 0
0 2559 0
0 2559 0
0 2559 0
0 2559 0
0 2559 0
0 2559 0
0 2559 0
0 2559 0
0 2559 0
0 3071 0
0 3071 0
0 3071 0
0 3071 0
0 3071 0
0 3071 0
0 3071 0
0 3071 0
0 3071 0
0 3583 0
0 3583 0
0 3583 0
0 3583 0
0 3583 0
0 3583 0
0 3583 0
0 3583 0
0 3583 0
3 4095 3
3 4095 3
3 4095 3
3 4095 3
3 4095 3
3 4095 3
3 4095 3
3 4095 3
3 4095 3
0 0 0
0 0 0
0 0 0
0 0 0
0 0 0
0 0 0
0 0 0
0 0 0
0 0 0
0 512 0
0 512 0
0 512 0
0 512 0
0 512 0
0 512 0
0 512 0
0 512 0
0 512 0
0 1023 0
0 1023 0
0 1023 0
0 1023 0
0 1023 0
0 1023 0
0 1023 0
0 1023 0
0 1023 0
0 1535 0
0 1535 0
0 1535 0
0 1535 0
0 1535 0
0 1535 0
0 1535 0
0 1535 0
0 1535 0
0 2048 0
0 2048 0
0 2048 0
0 2048 0
0 2048 0
0 2048 0
0 2048 0
0 2048 0
0 2048 0
0 2559 0
0 2559 0
0 2559 0
0 2559 0
0 2559 0
0 2559 0
0 2559 0
0 2559 0
0 2559 0
0 3071 0
0 3071 0
0 3071 0
0 3071 0
0 3071 0
0 3071 0
0 3071 0
0 3071 0
0 3071 0
0 3583 0
0 3583 0
0 3583 0
0 3583 0
0 3583 0
0 3583 0
0 3583 0
0 3583 0
0 3583 0
3 4095 3
3 4095 3
3 4095 3
3 4095 3
3 4095 3
3 4095 3
3 4095 3
3 4095 3
3 4095 3
0 0 0
0 0 0
0 0 0
0 0 0
0 0 0
0 0 0
0 0 0
0 0 0
0 0 0
0 512 0
0 512 0
0 512 0
0 512 0
0 512 0
0 512 0
0 512 0
0 512 0
0 512 0
0 1023 0
0 1023 0
0 1023 0
0 1023 0
0 1023 0
0 1023 0
0 1023 0
0 1023 0
0 1023 0
0 1535 0
0 1535 0
0 1535 0
0 1535 0
0 1535 0
0 1535 0
0 1535 0
0 1535 0
0 1535 0
0 2048 0
0 2048 0
0 2048 0
0 2048 0
0 2048 0
0 2048 0
0 2048 0
0 2048 0
0 2048 0
0 2559 0
0 2559 0
0 2559 0
0 2559 0
0 2559 0
0 2559 0
0 2559 0
0 2559 0
0 2559 0
0 3071 0
0 3071 0
0 3071 0
0 3071 0
0 3071 0
0 3071 0
0 3071 0
0 3071 0
0 3071 0
0 3583 0
0 3583 0
0 3583 0
0 3583 0
0 3583 0
0 3583 0
0 3583 0
0 3583 0
0 3583 0
3 4095 3
3 4095 3
3 4095 3
3 4095 3
3 4095 3
3 4095 3
3 4095 3
3 4095 3
3 4095 3
0 0 0
0 0 0
0 0 0
0 0 0
0 0 0
0 0 0
0 0 0
0 0 0
0 0 0
0 512 0
0 512 0
0 512 0
0 512 0
0 512 0
0 512 0
0 512 0
0 512 0
0 512 0
0 1023 0
0 1023 0
0 1023 0
0 1023 0
0 1023 0
0 1023 0
0 1023 0
0 1023 0
0 1023 0
0 1535 0
0 1535 0
0 1535 0
0 1535 0
0 1535 0
0 1535 0
0 1535 0
0 1535 0
0 1535 0
0 2048 0
0 2048 0
0 2048 0
0 2048 0
0 2048 0
0 2048 0
0 2048 0
0 2048 0
0 2048 0
0 2559 0
0 2559 0
0 2559 0
0 2559 0
0 2559 0
0 2559 0
0 2559 0
0 2559 0
0 2559 0
0 3071 0
0 3071 0
0 3071 0
0 3071 0
0 3071 0
0 3071 0
0 3071 0
0 3071 0
0 3071 0
0 3583 0
0 3583 0
0 3583 0
0 3583 0
0 3583 0
0 3583 0
0 3583 0
0 3583 0
0 3583 0
3 4095 3
3 4095 3
3 4095 3
3 4095 3
3 4095 3
3 4095 3
3 4095 3
3 4095 3
3 4095 3
