Examples/Channels-CMY.3dl
#25pt 3DLUT created by 3D LUT Creator Pro (c) Oleg Sharonov
#Copyright Oleg Sharonov
#IMAGEPROFILE sRGB IEC61966-2.1 v.2.10
#INPUTGAMMA sRGB IEC61966-2.1 v.2.10
#OUTPUTGAMMA sRGB IEC61966-2.1 v.2.10
0 128 256 384 512 640 768 896 1023
0 0 0
295 100 248
593 203 496
893 306 745
1189 408 994
1486 508 1241
1783 610 1490
2081 712 1738
2378 813 1986
0 306 422
0 318 475
521 354 627
849 416 831
1160 492 1055
1464 575 1288
1766 664 1528
2067 758 1769
2366 852 2013
0 613 844
0 617 867
0 634 948
662 666 1084
1042 711 1254
1379 767 1451
1700 832 1662
2012 904 1883
2320 982 2110
0 919 1266
0 921 1280
0 933 1332
0 953 1424
758 982 1551
1197 1020 1706
1564 1066 1882
1904 1120 2075
2230 1182 2279
0 1225 1688
0 1227 1698
0 1235 1735
0 1249 1802
0 1270 1898
821 1298 2022
1323 1332 2167
1723 1374 2331
2085 1422 2510
0 1531 2110
0 1533 2118
0 1539 2146
0 1550 2198
0 1566 2274
0 1588 2374
856 1614 2494
1428 1647 2633
1862 1686 2789
0 1838 2532
0 1839 2538
0 1844 2561
0 1852 2603
0 1865 2665
0 1882 2747
0 1905 2848
866 1931 2967
1515 1963 3102
0 2144 2954
0 2145 2959
0 2149 2978
0 2156 3013
0 2167 3065
0 2181 3134
0 2200 3220
0 2222 3323
849 2249 3441
0 2451 3376
0 2451 3380
0 2455 3396
0 2461 3426
0 2470 3470
0 2482 3530
0 2498 3605
0 2517 3694
0 2540 3797
526 425 225
586 433 322
764 460 531
1004 505 767
1270 566 1008
1548 639 1253
1833 718 1498
2122 803 1745
2413 892 1992
439 505 464
512 512 512
712 533 654
968 572 850
1243 625 1069
1528 690 1300
1817 763 1536
2108 843 1777
2401 927 2019
0 721 863
0 724 885
454 739 966
815 765 1098
1137 802 1267
1447 852 1460
1753 909 1670
2056 975 1889
2357 1046 2116
0 988 1278
0 991 1292
0 1001 1344
302 1019 1434
891 1045 1560
1277 1080 1714
1622 1124 1889
1950 1175 2081
2269 1233 2284
0 1274 1696
0 1276 1706
0 1283 1743
0 1297 1810
0 1317 1906
944 1344 2029
1395 1377 2173
1775 1417 2336
2126 1463 2515
0 1569 2116
0 1570 2124
0 1576 2152
0 1587 2204
0 1602 2280
0 1623 2379
974 1650 2499
1493 1682 2638
1910 1719 2793
0 1868 2537
0 1869 2543
0 1873 2565
0 1882 2608
0 1894 2669
0 1912 2751
0 1934 2852
982 1960 2971
1576 1991 3106
0 2169 2958
0 2170 2963
0 2174 2982
0 2181 3016
0 2191 3068
0 2206 3138
0 2224 3224
0 2246 3326
967 2272 3444
0 2472 3380
0 2473 3384
0 2476 3400
0 2482 3429
0 2491 3473
0 2503 3533
0 2519 3608
0 2537 3697
0 2560 3800
1052 850 448
1079 853 497
1173 865 644
1329 887 842
1528 919 1064
1758 960 1296
2007 1010 1533
2269 1068 1774
2539 1132 2016
1018 888 593
1047 891 628
1143 902 744
1304 922 917
1508 953 1121
1740 992 1341
1993 1040 1570
2256 1096 1804
2528 1159 2043
877 1012 929
910 1014 950
1024 1024 1024
1203 1041 1148
1426 1067 1309
1673 1102 1496
1936 1145 1700
2208 1195 1915
2487 1251 2138
468 1205 1319
536 1207 1332
729 1215 1382
979 1229 1470
1252 1251 1593
1534 1279 1743
1822 1314 1915
2112 1356 2104
2405 1405 2305
0 1441 1726
0 1443 1735
0 1449 1771
354 1460 1837
906 1477 1931
1286 1500 2052
1629 1530 2195
1956 1565 2356
2273 1606 2533
0 1701 2139
0 1702 2146
0 1708 2174
0 1716 2225
0 1731 2300
792 1750 2398
1308 1774 2517
1712 1803 2655
2076 1838 2809
0 1976 2555
0 1977 2561
0 1981 2583
0 1989 2625
0 2000 2686
0 2016 2768
604 2037 2868
1313 2062 2986
1782 2091 3120
0 2259 2973
0 2260 2978
0 2264 2996
0 2270 3031
0 2280 3082
0 2294 3152
0 2311 3237
0 2333 3339
1303 2357 3456
0 2549 3392
0 2550 3396
0 2553 3412
0 2558 3441
0 2567 3486
0 2579 3545
0 2594 3619
0 2612 3708
0 2634 3811
1579 1275 673
1595 1277 703
1655 1285 807
1759 1298 966
1906 1318 1159
2086 1345 1372
2293 1378 1595
2519 1418 1826
2760 1464 2061
1559 1298 769
1575 1300 795
1635 1307 885
1742 1320 1030
1890 1340 1211
2072 1366 1414
2280 1399 1630
2508 1438 1856
2750 1483 2087
1480 1379 1040
1497 1381 1058
1562 1387 1123
1674 1399 1235
1829 1418 1384
2018 1442 1560
2232 1473 1754
2465 1510 1963
2712 1552 2180
1315 1518 1393
1336 1519 1406
1409 1525 1453
1536 1536 1536
1707 1552 1652
1911 1574 1796
2138 1601 1963
2383 1635 2147
2638 1673 2343
998 1702 1780
1027 1703 1789
1126 1708 1824
1288 1718 1887
1495 1732 1979
1731 1751 2096
1984 1775 2235
2249 1804 2393
2522 1839 2567
0 1920 2180
0 1921 2187
409 1926 2215
795 1934 2265
1124 1946 2338
1437 1962 2435
1745 1983 2551
2049 2009 2687
2351 2039 2839
0 2161 2588
0 2162 2594
0 2166 2616
0 2173 2657
0 2183 2717
883 2198 2798
1359 2216 2897
1749 2238 3013
2105 2265 3146
0 2418 3001
0 2419 3005
0 2422 3024
0 2428 3058
0 2438 3109
0 2450 3177
416 2466 3262
1253 2485 3363
1742 2509 3479
0 2687 3416
0 2688 3420
0 2691 3435
0 2696 3465
0 2704 3508
0 2715 3567
0 2729 3641
0 2746 3729
1110 2767 3832
2105 1701 896
2116 1702 919
2158 1707 995
2235 1716 1123
2346 1730 1287
2488 1750 1478
2657 1774 1685
2848 1803 1902
3057 1838 2127
2091 1717 966
2102 1718 986
2145 1723 1057
2222 1732 1176
2334 1746 1333
2477 1765 1516
2646 1789 1717
2838 1818 1930
3048 1852 2152
2037 1775 1185
2049 1776 1200
2093 1781 1256
2173 1789 1355
2287 1803 1489
2434 1821 1652
2607 1844 1834
2802 1872 2032
3015 1905 2242
1931 1878 1498
1944 1880 1510
1990 1884 1553
2075 1892 1629
2196 1905 1738
2349 1922 1874
2529 1943 2033
2732 1970 2209
2951 2000 2399
1754 2023 1858
1768 2024 1867
1820 2029 1900
1914 2036 1960
2048 2048 2048
2214 2063 2160
2407 2083 2295
2621 2107 2448
2851 2135 2617
1467 2203 2242
1484 2204 2249
1549 2208 2275
1663 2214 2323
1819 2225 2395
2009 2239 2488
2224 2257 2602
2458 2279 2735
2706 2304 2883
935 2410 2638
967 2411 2644
1073 2414 2665
1244 2420 2705
1458 2429 2764
1700 2442 2843
1958 2458 2940
2227 2478 3055
2503 2501 3185
0 2638 3042
0 2639 3047
0 2641 3065
0 2647 3099
723 2655 3149
1177 2666 3216
1550 2681 3300
1893 2698 3399
2222 2719 3514
0 2882 3451
0 2882 3455
0 2885 3471
0 2889 3499
0 2897 3543
0 2907 3601
710 2920 3673
1357 2936 3761
1812 2955 3863
2631 2126 1120
2640 2127 1138
2672 2131 1197
2731 2138 1301
2818 2149 1441
2933 2163 1610
3072 2182 1798
3233 2205 2001
3413 2231 2213
2620 2138 1175
2629 2139 1190
2661 2142 1247
2721 2150 1346
2809 2161 1481
2923 2175 1644
3063 2193 1828
3225 2216 2027
3406 2243 2237
2580 2182 1353
2589 2183 1366
2622 2187 1415
2683 2194 1500
2772 2205 1620
2889 2219 1768
3030 2237 1937
3194 2259 2123
3377 2285 2322
2502 2264 1628
2511 2264 1638
2546 2268 1677
2609 2274 1747
2701 2284 1847
2821 2298 1974
2967 2316 2124
3135 2337 2291
3322 2361 2474
2378 2380 1959
2387 2381 1968
2424 2385 1998
2490 2391 2055
2588 2400 2138
2714 2413 2245
2867 2429 2374
3041 2449 2521
3236 2473 2684
2192 2529 2323
2203 2530 2329
2243 2533 2354
2316 2539 2401
2423 2548 2469
2559 2559 2559
2723 2575 2670
2908 2593 2798
3113 2615 2943
1920 2706 2704
1933 2707 2710
1980 2709 2731
2065 2715 2770
2187 2723 2827
2341 2734 2904
2522 2748 2999
2725 2765 3110
2945 2785 3238
1499 2905 3098
1516 2906 3103
1579 2909 3120
1690 2913 3153
1844 2921 3202
2031 2931 3268
2244 2944 3350
2475 2959 3448
2721 2978 3561
556 3124 3499
613 3124 3503
783 3127 3518
1018 3131 3546
1280 3138 3589
1556 3147 3646
1840 3158 3718
2127 3173 3804
2418 3190 3904
3157 2551 1345
3164 2552 1358
3190 2555 1407
3237 2561 1493
3309 2569 1613
3403 2581 1761
3519 2596 1932
3656 2614 2119
3812 2636 2318
3149 2561 1388
3156 2561 1401
3181 2564 1448
3230 2570 1531
3301 2579 1648
3395 2590 1793
3512 2605 1959
3649 2624 2143
3806 2645 2340
3117 2596 1537
3124 2597 1548
3150 2600 1590
3198 2606 1664
3271 2614 1770
3366 2626 1904
3484 2640 2059
3623 2658 2233
3781 2679 2421
3056 2662 1778
3063 2663 1787
3090 2665 1821
3139 2671 1885
3213 2679 1977
3311 2690 2094
3431 2705 2234
3572 2722 2392
3733 2742 2566
2960 2758 2080
2967 2759 2088
2995 2762 2117
3047 2767 2170
3123 2775 2247
3224 2785 2348
3348 2799 2470
3494 2816 2611
3658 2835 2767
2822 2884 2422
2829 2884 2428
2859 2887 2452
2914 2891 2496
2994 2899 2561
3101 2909 2647
3231 2922 2753
3382 2938 2877
3554 2956 3017
2630 3035 2787
2639 3036 2792
2671 3038 2813
2731 3043 2850
2818 3050 2905
2932 3059 2979
3071 3071 3071
3232 3086 3180
3413 3104 3304
2368 3210 3168
2378 3210 3173
2414 3213 3190
2482 3217 3222
2580 3223 3269
2706 3232 3334
2859 3243 3414
3035 3257 3509
3229 3274 3620
1997 3404 3559
2009 3405 3563
2053 3407 3578
2135 3411 3606
2252 3417 3647
2401 3425 3703
2577 3435 3774
2775 3448 3859
2990 3464 3957
3683 2976 1569
3689 2977 1580
3710 2979 1620
3750 2984 1693
3809 2991 1797
3889 3001 1928
3988 3013 2082
4095 3029 2253
4095 3046 2439
3676 2984 1605
3682 2985 1616
3703 2987 1655
3743 2992 1726
3803 2999 1828
3882 3009 1956
3981 3021 2107
4095 3036 2276
4095 3054 2460
3650 3014 1731
3656 3014 1741
3678 3017 1777
3718 3021 1842
3778 3029 1936
3858 3038 2056
3958 3050 2199
4077 3065 2360
4095 3083 2537
3600 3069 1943
3606 3069 1951
3628 3072 1982
3669 3076 2039
3730 3083 2123
3811 3092 2231
3913 3104 2361
4033 3119 2509
4095 3136 2673
3522 3150 2218
3528 3150 2225
3551 3152 2252
3593 3157 2301
3655 3163 2373
3739 3172 2467
3843 3184 2583
3966 3198 2716
4095 3215 2866
3412 3256 2537
3419 3257 2543
3442 3259 2565
3485 3263 2607
3550 3270 2669
3637 3278 2751
3744 3290 2852
3872 3303 2971
4017 3320 3106
3264 3387 2885
3271 3388 2890
3295 3390 2909
3341 3394 2945
3409 3400 2998
3500 3409 3069
3613 3419 3158
3746 3432 3263
3897 3448 3384
3069 3541 3251
3076 3541 3256
3102 3543 3272
3152 3547 3303
3225 3553 3350
3322 3561 3412
3442 3571 3490
3583 3583 3583
3743 3598 3691
2813 3714 3632
2821 3715 3636
2850 3716 3650
2905 3720 3677
2986 3725 3718
3093 3733 3772
3223 3742 3841
3376 3754 3924
3547 3768 4021
4095 3401 1793
4095 3402 1802
4095 3404 1837
4095 3408 1900
4095 3414 1990
4095 3422 2107
4095 3433 2245
4095 3446 2403
4095 3461 2575
4095 3408 1824
4095 3409 1833
4095 3411 1867
4095 3415 1928
4095 3421 2017
4095 3429 2132
4095 3439 2269
4095 3452 2424
4095 3468 2595
4095 3433 1933
4095 3434 1941
4095 3436 1973
4095 3440 2030
4095 3446 2114
4095 3454 2222
4095 3464 2353
4095 3477 2502
4095 3492 2667
4095 3480 2120
4095 3480 2127
4095 3482 2155
4095 3486 2207
4095 3492 2283
4095 3500 2382
4095 3510 2502
4095 3523 2641
4095 3538 2795
4075 3549 2370
4079 3550 2377
4095 3552 2401
4095 3556 2446
4095 3561 2513
4095 3569 2602
4095 3579 2710
4095 3591 2836
4095 3606 2978
3983 3642 2667
3988 3642 2672
4007 3644 2694
4043 3648 2733
4095 3654 2792
4095 3661 2869
4095 3671 2965
4095 3683 3079
4095 3697 3208
3862 3757 2996
3867 3757 3001
3887 3759 3019
3925 3762 3054
3981 3768 3104
4056 3775 3173
4095 3784 3258
4095 3796 3359
4095 3809 3475
3706 3892 3348
3711 3893 3353
3732 3894 3368
3772 3898 3398
3831 3903 3443
3909 3910 3503
4008 3918 3579
4095 3930 3669
4095 3943 3773
3507 4047 3716
3513 4047 3720
3536 4049 3734
3578 4052 3760
3641 4057 3799
3725 4064 3853
3829 4072 3920
3953 4083 4001
4095 4095 4095
