Examples/Channels-CMY.3dl
#25pt 3DLUT created by 3D LUT Creator Pro (c) Oleg Sharonov
#Copyright Oleg Sharonov
#IMAGEPROFILE sRGB IEC61966-2.1 v.2.10
#INPUTGAMMA sRGB IEC61966-2.1 v.2.10
#OUTPUTGAMMA sRGB IEC61966-2.1 v.2.10
0 256 512 768 1023
0 0 0
593 203 496
1189 408 994
1783 610 1490
2378 813 1986
0 613 844
0 634 948
1042 711 1254
1700 832 1662
2320 982 2110
0 1225 1688
0 1235 1735
0 1270 1898
1323 1332 2167
2085 1422 2510
0 1838 2532
0 1844 2561
0 1865 2665
0 1905 2848
1515 1963 3102
0 2451 3376
0 2455 3396
0 2470 3470
0 2498 3605
0 2540 3797
1052 850 448
1173 865 644
1528 919 1064
2007 1010 1533
2539 1132 2016
877 1012 929
1024 1024 1024
1426 1067 1309
1936 1145 1700
2487 1251 2138
0 1441 1726
0 1449 1771
906 1477 1931
1629 1530 2195
2273 1606 2533
0 1976 2555
0 1981 2583
0 2000 2686
604 2037 2868
1782 2091 3120
0 2549 3392
0 2553 3412
0 2567 3486
0 2594 3619
0 2634 3811
2105 1701 896
2158 1707 995
2346 1730 1287
2657 1774 1685
3057 1838 2127
2037 1775 1185
2093 1781 1256
2287 1803 1489
2607 1844 1834
3015 1905 2242
1754 2023 1858
1820 2029 1900
2048 2048 2048
2407 2083 2295
2851 2135 2617
935 2410 2638
1073 2414 2665
1458 2429 2764
1958 2458 2940
2503 2501 3185
0 2882 3451
0 2885 3471
0 2897 3543
710 2920 3673
1812 2955 3863
3157 2551 1345
3190 2555 1407
3309 2569 1613
3519 2596 1932
3812 2636 2318
3117 2596 1537
3150 2600 1590
3271 2614 1770
3484 2640 2059
3781 2679 2421
2960 2758 2080
2995 2762 2117
3123 2775 2247
3348 2799 2470
3658 2835 2767
2630 3035 2787
2671 3038 2813
2818 3050 2905
3071 3071 3071
3413 3104 3304
1997 3404 3559
2053 3407 3578
2252 3417 3647
2577 3435 3774
2990 3464 3957
4095 3401 1793
4095 3404 1837
4095 3414 1990
4095 3433 2245
4095 3461 2575
4095 3433 1933
4095 3436 1973
4095 3446 2114
4095 3464 2353
4095 3492 2667
4075 3549 2370
4095 3552 2401
4095 3561 2513
4095 3579 2710
4095 3606 2978
3862 3757 2996
3887 3759 3019
3981 3768 3104
4095 3784 3258
4095 3809 3475
3507 4047 3716
3536 4049 3734
3641 4057 3799
3829 4072 3920
4095 4095 4095
