Examples/Channels - No green 2.3dl
#25pt 3DLUT created by 3D LUT Creator Pro (c) Oleg Sharonov
#Copyright Oleg Sharonov
#IMAGEPROFILE 
#INPUTGAMMA 
#OUTPUTGAMMA 
0 128 256 384 512 640 768 896 1023
0 0 0
0 0 314
0 0 683
0 0 1064
0 0 1434
0 0 1809
0 0 2183
0 0 2556
0 0 2929
0 42 0
0 374 513
0 512 839
0 512 1160
0 512 1506
0 512 1863
0 512 2224
0 512 2592
0 512 2959
0 145 0
0 427 512
0 788 1023
0 1024 1378
0 1023 1671
0 1024 1993
0 1024 2331
0 1023 2679
0 1023 3033
0 295 0
0 508 512
0 835 1023
0 1203 1536
0 1535 1926
0 1536 2202
0 1536 2506
0 1536 2827
0 1535 3160
0 448 0
0 612 512
0 900 1023
0 1247 1535
0 1619 2048
0 2001 2477
0 2048 2742
0 2048 3032
0 2048 3339
0 600 0
0 728 512
0 981 1024
0 1304 1536
0 1661 2047
0 2034 2559
0 2416 3029
0 2559 3287
0 2559 3567
0 751 0
0 856 512
0 1077 1024
0 1374 1535
0 1714 2048
0 2075 2559
0 2449 3071
0 2831 3582
0 3071 3834
0 902 0
0 991 512
0 1183 1024
0 1456 1536
0 1777 2048
0 2125 2559
0 2490 3071
0 2864 3583
0 3245 4095
0 1053 0
0 1129 512
0 1298 1024
0 1547 1536
0 1849 2047
0 2183 2559
0 2538 3071
0 2905 3583
0 3280 4095
345 0 0
189 0 195
0 0 641
0 0 1031
0 0 1411
0 0 1791
0 0 2169
0 0 2544
0 0 2919
510 302 0
512 512 512
180 512 798
0 512 1133
0 512 1485
0 512 1847
0 512 2213
0 512 2581
0 512 2950
510 363 0
512 552 512
512 862 1023
446 1024 1355
0 1024 1654
0 1023 1978
0 1023 2319
0 1023 2668
0 1024 3025
513 458 0
512 618 512
512 904 1024
512 1250 1535
512 1535 1910
0 1535 2189
0 1536 2495
0 1535 2817
0 1536 3152
512 569 0
512 705 512
512 964 1023
512 1292 1535
512 1652 2048
512 2027 2465
479 2047 2732
0 2048 3023
0 2048 3332
512 695 0
512 809 512
512 1040 1023
512 1347 1535
512 1693 2047
512 2059 2559
512 2436 3020
512 2559 3279
0 2559 3560
512 828 0
512 925 512
512 1129 1024
512 1415 1536
512 1744 2047
512 2099 2559
512 2469 3071
512 2847 3575
512 3071 3828
512 966 0
512 1049 512
512 1231 1023
512 1493 1535
512 1806 2048
512 2149 2559
512 2509 3071
512 2881 3583
512 3259 4095
512 1108 0
512 1179 512
512 1341 1024
512 1582 1536
512 1877 2047
512 2206 2559
512 2557 3071
512 2920 3583
512 3293 4095
746 0 0
681 0 0
472 0 479
0 0 940
0 0 1356
0 0 1751
0 0 2134
0 0 2519
0 0 2898
887 512 0
834 512 299
677 512 680
198 512 1056
0 512 1432
0 512 1807
0 512 2180
0 512 2555
0 512 2928
1024 669 0
1023 787 512
1024 1024 1024
796 1024 1295
107 1023 1607
0 1024 1941
0 1024 2289
0 1024 2644
0 1023 3003
1024 725 0
1023 834 512
1024 1059 1024
1024 1361 1536
1023 1535 1871
433 1536 2157
0 1536 2467
0 1536 2794
0 1536 3132
1024 799 0
1023 899 512
1024 1110 1024
1024 1399 1536
1024 1733 2048
1023 2047 2437
815 2048 2708
0 2047 3002
0 2048 3313
1023 891 0
1024 981 512
1023 1175 1023
1023 1449 1536
1024 1772 2048
1024 2121 2560
1024 2487 2999
1023 2559 3260
0 2559 3542
1023 996 0
1024 1076 512
1024 1253 1024
1024 1511 1536
1023 1820 2047
1024 2160 2560
1024 2519 3071
1024 2889 3558
1024 3071 3813
1024 1111 0
1023 1182 512
1024 1344 1024
1023 1584 1535
1024 1879 2048
1024 2208 2559
1024 2558 3071
1024 2922 3583
1023 3294 4095
1023 1234 0
1024 1297 512
1023 1443 1023
1023 1667 1535
1024 1947 2048
1024 2263 2559
1023 2604 3071
1024 2961 3583
1024 3328 4095
1142 0 0
1102 0 0
994 0 0
756 0 767
0 0 1245
0 0 1671
0 0 2076
0 0 2469
0 0 2857
1235 512 0
1199 512 0
1101 512 389
896 512 904
406 512 1328
0 512 1731
0 512 2120
0 512 2507
0 512 2888
1441 1000 0
1411 1024 512
1331 1023 864
1175 1024 1178
874 1024 1519
0 1024 1872
0 1024 2233
0 1023 2597
0 1023 2964
1536 1036 0
1536 1113 512
1536 1284 1024
1536 1536 1536
1334 1536 1799
977 1536 2097
0 1536 2417
0 1536 2751
0 1535 3095
1536 1087 0
1535 1160 512
1536 1325 1024
1536 1569 1536
1536 1866 2048
1536 2048 2386
1187 2048 2663
183 2048 2963
0 2048 3279
1535 1154 0
1536 1222 512
1536 1378 1024
1535 1612 1535
1536 1902 2048
1536 2227 2559
1536 2559 2960
1464 2559 3225
731 2559 3511
1536 1234 0
1536 1297 512
1536 1443 1024
1536 1667 1536
1536 1947 2048
1536 2263 2559
1536 2604 3071
1536 2961 3527
1536 3071 3784
1535 1325 0
1536 1384 512
1536 1521 1024
1536 1732 1536
1536 2001 2047
1536 2308 2559
1536 2642 3071
1536 2993 3583
1536 3355 4091
1536 1428 0
1535 1481 512
1535 1607 1023
1536 1807 1536
1536 2063 2048
1536 2361 2559
1536 2686 3071
1536 3030 3583
1535 3388 4095
1539 0 0
1512 0 0
1439 0 0
1297 0 345
1039 0 1052
464 0 1542
0 0 1978
0 0 2394
0 0 2795
1606 512 0
1580 512 0
1511 512 0
1379 512 594
1143 512 1154
673 512 1609
0 512 2027
0 512 2431
0 512 2827
1761 1024 0
1738 1024 0
1678 1024 530
1562 1023 971
1366 1024 1373
1021 1024 1762
0 1023 2146
0 1024 2527
0 1023 2905
2003 1364 0
1984 1420 512
1933 1536 1024
1836 1535 1392
1679 1536 1683
1429 1536 2002
990 1536 2338
0 1536 2685
0 1536 3039
2047 1402 0
2047 1456 512
2048 1585 1023
2048 1788 1536
2048 2048 2048
1858 2047 2306
1571 2048 2594
1083 2047 2903
0 2047 3227
2047 1452 0
2048 1504 512
2047 1629 1023
2048 1825 1536
2048 2079 2048
2048 2374 2559
2048 2559 2900
1780 2559 3172
1285 2559 3463
2048 1514 0
2048 1564 512
2048 1683 1024
2048 1872 1536
2048 2120 2048
2048 2408 2559
2048 2726 3071
2048 3065 3480
2036 3071 3741
2047 1586 0
2048 1634 512
2047 1747 1023
2047 1929 1536
2048 2168 2048
2048 2450 2559
2048 2762 3071
2048 3095 3583
2047 3444 4052
2048 1669 0
2048 1714 512
2047 1821 1023
2047 1995 1536
2048 2225 2048
2048 2499 2559
2048 2804 3071
2048 3132 3583
2047 3476 4095
1936 0 0
1916 0 0
1862 0 0
1762 0 0
1596 0 695
1325 0 1341
823 0 1838
0 0 2284
0 0 2705
1987 512 0
1967 512 0
1916 512 0
1819 512 0
1659 512 845
1404 512 1419
953 512 1890
0 512 2325
0 512 2739
2109 1024 0
2091 1023 0
2043 1024 0
1954 1023 554
1810 1024 1136
1584 1023 1595
1216 1024 2019
320 1023 2424
0 1023 2820
2307 1536 0
2290 1536 512
2248 1536 838
2170 1536 1160
2044 1536 1505
1855 1536 1862
1567 1536 2225
1076 1536 2591
0 1536 2959
2559 1730 0
2554 1772 512
2518 1875 1024
2450 2043 1536
2344 2048 1912
2187 2048 2191
1960 2048 2496
1622 2048 2818
1035 2048 3153
2560 1769 0
2559 1810 512
2560 1911 1024
2559 2075 1536
2559 2295 2048
2559 2559 2559
2378 2559 2815
2124 2559 3096
1753 2559 3396
2559 1817 0
2559 1858 512
2559 1955 1023
2559 2115 1536
2559 2331 2048
2559 2590 2559
2559 2883 3071
2559 3071 3413
2334 3071 3681
2560 1876 0
2559 1914 512
2559 2009 1024
2559 2164 1536
2559 2374 2048
2559 2628 2559
2559 2916 3071
2559 3230 3583
2559 3562 3998
2560 1944 0
2559 1981 512
2560 2071 1024
2559 2221 1536
2559 2425 2048
2559 2673 2559
2559 2956 3071
2559 3264 3583
2559 3592 4095
2334 0 0
2317 0 0
2276 0 0
2198 0 0
2076 0 0
1891 0 1011
1610 0 1630
1143 0 2129
0 0 2584
2374 512 0
2358 512 0
2317 512 0
2242 512 0
2122 512 0
1942 512 1115
1673 512 1691
1236 512 2175
0 512 2619
2472 1023 0
2457 1023 0
2419 1023 0
2347 1023 0
2235 1024 696
2067 1023 1341
1822 1024 1837
1441 1023 2283
681 1023 2705
2637 1536 0
2623 1536 0
2587 1536 0
2522 1536 735
2420 1536 1228
2270 1536 1659
2055 1536 2066
1740 1536 2462
1224 1536 2852
2861 2048 0
2849 2048 512
2817 2048 1024
2759 2048 1434
2668 2048 1716
2537 2048 2029
2353 2048 2360
2095 2048 2703
1717 2048 3055
3071 2095 0
3071 2129 512
3071 2212 1023
3046 2350 1536
2966 2541 2048
2853 2559 2428
2696 2559 2700
2484 2559 2995
2192 2559 3307
3071 2135 0
3071 2168 512
3071 2249 1023
3071 2385 1536
3071 2572 2048
3071 2804 2559
3071 3071 3071
2894 3071 3325
2660 3071 3601
3071 2183 0
3071 2215 512
3071 2294 1024
3071 2427 1536
3071 2610 2048
3071 2838 2559
3071 3102 3071
3071 3393 3583
3071 3583 3926
3071 2239 0
3071 2270 512
3071 2347 1024
3071 2476 1536
3071 2656 2048
3071 2879 2559
3071 3138 3071
3071 3425 3583
3071 3735 4095
2732 0 0
2718 0 0
2684 0 0
2622 0 0
2525 0 0
2384 0 123
2183 0 1315
1895 0 1918
1450 0 2422
2764 512 0
2752 512 0
2718 512 0
2657 512 0
2561 512 0
2423 512 484
2227 512 1394
1948 512 1969
1521 512 2459
2846 1024 0
2833 1024 0
2801 1024 0
2743 1024 0
2651 1023 0
2519 1024 909
2333 1024 1574
2072 1024 2091
1687 1024 2553
2984 1536 0
2972 1536 0
2942 1536 0
2887 1536 0
2802 1536 718
2679 1536 1352
2509 1535 1844
2274 1536 2289
1940 1536 2710
3178 2047 0
3167 2048 264
3139 2048 665
3089 2048 1047
3011 2048 1425
2900 2048 1801
2747 2048 2177
2540 2048 2551
2257 2048 2926
3421 2428 0
3411 2456 512
3386 2525 1024
3340 2559 1536
3270 2559 1984
3170 2559 2252
3036 2559 2548
2855 2559 2863
2617 2559 3192
3583 2461 0
3583 2489 512
3583 2557 1024
3583 2673 1536
3570 2837 2048
3482 3043 2559
3363 3071 2943
3207 3071 3210
3004 3071 3498
3583 2501 0
3583 2528 512
3583 2595 1024
3583 2710 1536
3583 2871 2048
3583 3074 2559
3583 3314 3071
3583 3583 3583
3410 3583 3835
3583 2549 0
3583 2575 512
3583 2641 1024
3583 2753 1536
3583 2910 2048
3583 3111 2559
3583 3347 3071
3583 3613 3583
3583 3904 4095
3129 0 0
3117 0 0
3089 0 0
3038 0 0
2958 0 0
2844 0 0
2687 0 735
2474 0 1614
2180 0 2206
3156 512 0
3145 512 0
3117 512 0
3067 512 0
2988 512 0
2876 512 0
2721 512 878
2511 512 1676
2223 512 2248
3225 1024 0
3215 1024 0
3187 1024 0
3138 1023 0
3062 1024 0
2953 1023 0
2804 1024 1159
2603 1024 1824
2330 1024 2353
3344 1536 0
3334 1536 0
3308 1536 0
3261 1536 0
3188 1536 0
3085 1536 805
2945 1536 1522
2757 1536 2054
2506 1536 2525
3512 2048 0
3503 2048 0
3478 2048 0
3434 2048 0
3367 2048 930
3271 2048 1467
3142 2048 1924
2970 2048 2350
2745 2048 2760
3727 2559 0
3718 2559 512
3696 2559 1024
3655 2559 1407
3593 2559 1695
3506 2559 2012
3388 2559 2346
3234 2559 2692
3033 2559 3044
3983 2793 0
3975 2816 512
3955 2875 1024
3918 2975 1536
3861 3071 2048
3782 3071 2518
3676 3071 2779
3538 3071 3064
3361 3071 3368
4095 2827 0
4095 2850 512
4095 2908 1024
4095 3007 1536
4095 3149 2047
4091 3331 2560
3996 3548 3071
3873 3583 3458
3717 3583 3721
4095 2868 0
4095 2890 512
4095 2947 1023
4095 3045 1536
4095 3184 2048
4095 3364 2560
4095 3578 3071
4095 3824 3583
4095 4095 4095
