Examples/Channels-CMY-Corrected.3dl
#25pt 3DLUT created by 3D LUT Creator Pro (c) Oleg Sharonov
#Copyright Oleg Sharonov
#IMAGEPROFILE sRGB IEC61966-2.1 v.2.10
#INPUTGAMMA sRGB IEC61966-2.1 v.2.10
#OUTPUTGAMMA sRGB IEC61966-2.1 v.2.10
0 43 86 128 171 214 256 299 341 384 427 469 512 555 597 640 682 725 768 810 853 896 938 981 1023 
0 0 0
78 0 0
155 0 0
238 0 0
314 0 10
388 0 23
460 0 39
528 0 65
595 0 94
665 0 126
728 0 161
788 0 198
843 0 230
895 0 262
947 0 291
1001 0 322
1057 0 354
1114 0 386
1176 0 419
1239 0 452
1304 0 486
1371 0 522
1440 0 558
1509 0 594
1580 0 631
0 0 74
0 0 74
129 0 6
203 13 0
284 16 0
391 3 0
470 0 19
542 0 42
612 0 71
679 0 107
738 0 145
796 0 183
849 0 217
901 0 250
952 0 282
1006 0 314
1061 0 347
1119 0 379
1179 0 412
1242 0 446
1307 0 482
1375 0 518
1443 0 554
1512 0 591
1582 0 628
0 0 152
0 0 152
0 0 174
90 0 155
257 0 19
369 0 3
460 0 3
545 0 10
631 0 16
702 0 39
763 0 78
822 0 116
872 0 161
921 0 206
970 0 245
1022 0 282
1077 0 320
1134 0 356
1194 0 393
1257 0 428
1322 0 465
1388 0 504
1455 0 541
1524 0 578
1593 0 616
0 0 240
0 0 240
0 3 276
0 3 310
113 0 257
195 0 55
376 0 48
494 0 39
591 0 42
678 0 52
753 0 58
823 0 71
885 0 84
944 0 107
998 0 155
1052 0 206
1106 0 257
1161 0 302
1220 0 347
1282 0 389
1346 0 431
1411 0 471
1477 0 512
1544 0 552
1614 0 593
0 3 326
0 3 339
0 3 369
0 3 408
0 3 420
129 0 379
222 0 299
312 0 97
492 0 97
613 0 94
710 0 97
791 0 103
859 0 113
924 0 126
986 0 139
1053 0 158
1120 0 177
1191 0 198
1257 0 252
1317 0 310
1379 0 363
1443 0 412
1508 0 460
1574 0 505
1642 0 550
0 3 420
0 3 433
0 3 443
0 3 478
0 3 530
0 6 538
132 0 499
248 0 423
339 0 110
420 0 152
607 0 158
723 0 165
810 0 168
885 0 174
953 0 180
1023 0 192
1093 0 206
1166 0 225
1241 0 245
1318 0 267
1396 0 291
1476 0 316
1547 0 365
1612 0 423
1679 0 478
0 3 520
0 3 520
0 6 538
0 6 568
0 6 603
0 6 660
0 6 652
132 0 617
276 0 535
365 0 445
452 0 171
533 0 217
716 0 228
819 0 230
900 0 235
975 0 240
1049 0 250
1123 0 264
1201 0 280
1281 0 299
1363 0 320
1444 0 343
1526 0 365
1610 0 389
1694 0 416
0 6 611
0 6 619
0 6 628
0 6 652
0 6 691
0 10 735
0 10 782
0 10 769
129 0 734
291 0 659
389 0 586
501 0 341
565 0 235
649 0 284
815 0 287
906 0 291
988 0 297
1068 0 306
1148 0 318
1232 0 336
1316 0 354
1401 0 374
1485 0 394
1571 0 419
1657 0 442
0 6 706
0 6 713
0 10 720
0 10 742
0 10 769
0 10 808
0 10 857
0 13 909
0 13 886
123 0 849
302 0 783
420 0 700
512 0 593
596 0 255
681 0 304
783 0 337
903 0 341
995 0 347
1082 0 358
1169 0 370
1256 0 388
1345 0 406
1434 0 427
1522 0 448
1611 0 470
0 10 802
0 10 802
0 10 815
0 10 833
0 10 857
0 13 892
0 13 937
0 16 984
0 16 1039
0 16 1005
103 0 975
310 0 911
445 0 815
530 0 747
646 0 503
710 0 320
782 0 362
885 0 388
992 0 394
1089 0 406
1183 0 420
1277 0 437
1370 0 457
1463 0 477
1555 0 499
0 13 898
0 13 898
0 13 909
0 13 921
0 13 948
0 16 979
0 16 1015
0 16 1064
0 19 1115
0 19 1172
0 19 1124
71 0 1097
316 0 1035
461 0 946
559 0 864
654 0 738
737 0 336
809 0 377
874 0 416
977 0 436
1087 0 449
1189 0 465
1290 0 485
1390 0 505
1486 0 526
0 16 990
0 16 995
0 16 1000
0 16 1015
0 16 1035
0 16 1064
0 19 1101
0 19 1142
0 23 1189
0 23 1243
0 26 1297
0 23 1243
0 19 1172
320 0 1152
470 0 1067
585 0 969
659 0 902
777 0 646
833 0 393
898 0 430
961 0 467
1075 0 489
1188 0 508
1297 0 528
1403 0 551
0 19 1087
0 19 1092
0 19 1097
0 19 1110
0 19 1128
0 19 1155
0 23 1189
0 23 1227
0 26 1269
0 26 1315
0 29 1364
0 29 1403
0 29 1354
0 26 1291
318 0 1262
475 0 1183
600 0 1080
681 0 1004
777 0 862
865 0 527
921 0 443
986 0 481
1053 0 521
1178 0 546
1297 0 570
0 23 1185
0 23 1185
0 23 1194
0 23 1206
0 23 1222
0 23 1246
0 26 1273
0 26 1308
0 29 1345
0 29 1385
0 32 1429
0 32 1471
0 36 1502
0 32 1456
0 29 1397
314 0 1367
475 0 1291
605 0 1191
703 0 1100
771 0 1034
891 0 772
944 0 457
1012 0 496
1081 0 536
1150 0 577
0 26 1280
0 26 1280
0 26 1287
0 26 1297
0 26 1312
0 26 1331
0 29 1354
0 29 1385
0 29 1417
0 32 1453
0 36 1492
0 36 1531
0 39 1574
0 39 1597
0 36 1549
0 36 1496
306 0 1465
474 0 1395
611 0 1302
721 0 1200
796 0 1132
895 0 982
990 0 667
1037 0 510
1108 0 552
0 29 1367
0 29 1370
0 29 1373
0 29 1382
0 29 1394
0 29 1412
0 32 1434
0 32 1458
0 32 1486
0 36 1519
0 36 1554
0 39 1593
0 42 1635
0 45 1681
0 45 1693
0 42 1644
0 39 1590
287 0 1568
474 0 1497
615 0 1412
735 0 1310
820 0 1234
887 0 1172
1013 0 902
1061 0 525
0 32 1450
0 32 1450
0 32 1456
0 32 1461
0 32 1474
0 32 1486
0 36 1506
0 36 1528
0 36 1554
0 39 1583
0 42 1617
0 42 1655
0 45 1695
0 48 1740
0 48 1787
0 52 1793
0 48 1742
0 45 1687
264 0 1671
475 0 1600
618 0 1523
744 0 1427
845 0 1333
920 0 1266
1022 0 1112
0 36 1526
0 36 1528
0 36 1531
0 36 1538
0 36 1547
0 39 1561
0 39 1579
0 39 1599
0 42 1624
0 42 1652
0 45 1685
0 45 1721
0 48 1760
0 52 1803
0 55 1850
0 58 1901
0 58 1897
0 55 1843
0 48 1785
240 0 1778
475 0 1705
622 0 1634
754 0 1543
867 0 1445
944 0 1379
0 39 1604
0 39 1604
0 39 1606
0 39 1613
0 42 1624
0 42 1635
0 42 1652
0 42 1672
0 45 1695
0 45 1723
0 48 1754
0 48 1789
0 52 1827
0 55 1869
0 58 1916
0 61 1964
0 65 2018
0 65 2004
0 61 1949
0 55 1889
206 0 1885
475 0 1814
627 0 1748
765 0 1661
884 0 1564
0 45 1681
0 45 1683
0 45 1685
0 45 1691
0 45 1700
0 45 1712
0 45 1729
0 48 1748
0 48 1771
0 52 1797
0 52 1827
0 55 1861
0 58 1899
0 58 1939
0 61 1983
0 65 2033
0 71 2085
0 74 2140
0 71 2114
0 68 2059
0 65 1997
161 0 1996
475 0 1923
634 0 1862
774 0 1782
0 48 1760
0 48 1762
0 48 1764
0 48 1771
0 48 1779
0 52 1791
0 52 1807
0 52 1825
0 55 1847
0 55 1873
0 58 1903
0 58 1936
0 61 1972
0 65 2012
0 68 2057
0 71 2103
0 74 2154
0 78 2209
0 84 2268
0 81 2230
0 74 2171
0 71 2107
107 0 2111
471 0 2038
642 0 1978
0 55 1843
0 55 1843
0 55 1847
0 55 1854
0 55 1861
0 55 1873
0 55 1887
0 58 1906
0 58 1928
0 61 1953
0 61 1982
0 65 2014
0 68 2049
0 71 2088
0 74 2133
0 78 2178
0 81 2229
0 84 2282
0 90 2340
0 94 2400
0 90 2353
0 84 2289
0 81 2223
39 0 2227
462 0 2158
0 58 1928
0 58 1928
0 58 1932
0 58 1937
0 61 1945
0 61 1957
0 61 1970
0 61 1989
0 65 2010
0 65 2035
0 68 2063
0 71 2094
0 74 2129
0 74 2169
0 78 2210
0 84 2257
0 87 2305
0 90 2360
0 97 2415
0 100 2474
0 107 2534
0 100 2476
0 97 2412
0 90 2344
0 84 2270
0 65 2016
0 65 2016
0 65 2019
0 65 2023
0 65 2033
0 68 2044
0 68 2057
0 68 2075
0 71 2096
0 71 2120
0 74 2147
0 78 2178
0 78 2212
0 81 2252
0 84 2293
0 90 2339
0 94 2387
0 97 2439
0 103 2493
0 107 2551
0 113 2612
0 119 2663
0 113 2602
0 107 2538
0 100 2468
0 71 2105
0 71 2105
0 71 2109
0 71 2114
0 71 2121
0 74 2133
0 74 2147
0 74 2164
0 78 2184
0 78 2207
0 81 2234
0 84 2266
0 87 2300
0 90 2337
0 94 2379
0 97 2422
0 100 2469
0 107 2521
0 110 2573
0 116 2630
0 123 2690
0 129 2751
0 132 2791
0 126 2730
0 119 2664
139 55 19
132 55 0
168 42 0
250 19 0
345 6 0
419 0 10
485 0 32
554 0 55
620 0 84
683 0 119
744 0 155
799 0 192
853 0 225
904 0 257
956 0 289
1010 0 320
1064 0 352
1122 0 384
1183 0 417
1245 0 451
1311 0 486
1378 0 522
1445 0 558
1515 0 594
1585 0 631
65 103 58
100 100 100
161 97 0
212 71 0
299 32 0
406 13 0
494 0 10
563 0 36
631 0 65
695 0 97
753 0 136
807 0 177
859 0 212
909 0 248
961 0 280
1014 0 312
1069 0 345
1127 0 377
1187 0 412
1250 0 446
1314 0 482
1381 0 518
1449 0 554
1518 0 591
1588 0 628
0 58 155
0 61 171
0 13 612
145 81 119
262 45 0
360 32 0
455 26 0
548 19 0
647 3 0
716 0 32
775 0 71
831 0 110
881 0 155
929 0 201
979 0 243
1030 0 280
1085 0 318
1142 0 354
1201 0 391
1263 0 428
1328 0 465
1393 0 503
1461 0 540
1529 0 578
1599 0 616
0 0 240
0 0 240
0 3 276
0 3 310
145 0 284
347 0 6
443 0 3
535 0 10
622 0 16
698 0 26
770 0 36
835 0 48
896 0 61
950 0 100
1004 0 152
1060 0 203
1112 0 252
1168 0 299
1227 0 345
1288 0 388
1351 0 430
1416 0 471
1482 0 512
1550 0 552
1619 0 592
0 3 326
0 3 339
0 3 369
0 3 408
0 3 420
161 0 384
248 0 308
436 0 65
553 0 58
651 0 65
733 0 71
806 0 81
872 0 94
935 0 107
997 0 123
1061 0 139
1128 0 161
1197 0 195
1262 0 250
1323 0 308
1385 0 362
1448 0 411
1514 0 458
1580 0 504
1647 0 550
0 3 420
0 3 433
0 3 443
0 3 488
0 3 530
0 6 538
168 0 509
267 0 437
360 0 161
525 0 129
654 0 132
751 0 136
831 0 139
902 0 145
968 0 158
1035 0 174
1103 0 192
1175 0 212
1250 0 233
1326 0 257
1404 0 282
1482 0 306
1552 0 363
1617 0 422
1684 0 477
0 3 520
0 3 520
0 6 538
0 6 568
0 6 611
0 6 660
0 6 652
165 0 628
293 0 545
383 0 451
464 0 177
624 0 203
750 0 206
839 0 212
917 0 214
989 0 225
1061 0 235
1136 0 250
1213 0 267
1293 0 287
1372 0 308
1454 0 332
1536 0 354
1619 0 381
1702 0 406
0 6 611
0 6 619
0 6 628
0 6 652
0 6 691
0 10 735
0 10 782
0 10 769
161 0 744
310 0 665
399 0 592
510 0 351
575 0 240
728 0 269
838 0 273
923 0 276
1003 0 282
1082 0 293
1162 0 308
1244 0 324
1327 0 343
1410 0 363
1495 0 386
1580 0 409
1666 0 433
0 6 706
0 6 713
0 10 720
0 10 742
0 10 769
0 10 815
0 10 857
0 13 915
0 13 886
155 0 858
320 0 789
430 0 707
522 0 596
604 0 260
688 0 308
820 0 328
921 0 330
1010 0 337
1096 0 349
1181 0 362
1268 0 379
1357 0 398
1444 0 419
1532 0 440
1620 0 462
0 10 802
0 10 802
0 10 815
0 10 833
0 10 857
0 13 892
0 13 937
0 16 984
0 16 1039
0 16 1005
142 0 973
326 0 912
457 0 823
540 0 757
653 0 509
715 0 324
787 0 365
907 0 379
1009 0 386
1103 0 398
1195 0 412
1288 0 431
1381 0 449
1473 0 471
1565 0 492
0 13 898
0 13 898
0 13 909
0 13 926
0 13 948
0 16 979
0 16 1015
0 16 1064
0 19 1115
0 19 1172
0 19 1124
116 0 1098
330 0 1037
472 0 948
566 0 869
661 0 740
741 0 337
814 0 381
877 0 417
996 0 431
1102 0 443
1202 0 461
1303 0 479
1401 0 500
1497 0 521
