Examples/Channels - Colds to cyan.3dl
#25pt 3DLUT created by 3D LUT Creator Pro (c) Oleg Sharonov
#Copyright Oleg Sharonov
#IMAGEPROFILE sRGB IEC61966-2.1 v.2.10
#INPUTGAMMA sRGB IEC61966-2.1 v.2.10
#OUTPUTGAMMA sRGB IEC61966-2.1 v.2.10
0 256 512 768 1023
0 0 0
337 934 1115
673 1868 2229
1010 2802 3344
1347 3736 4095
225 1024 738
386 1052 1272
694 1916 2294
1022 2829 3381
1355 3754 4095
452 2047 1477
535 2047 1753
771 2105 2544
1069 2943 3533
1387 3832 4095
678 3071 2215
728 3071 2384
902 3071 2966
1157 3158 3816
1450 3983 4095
904 4095 2954
938 4095 3069
1068 4095 3506
1280 4095 4095
1542 4095 4095
1023 0 0
1023 899 1023
1131 1855 2128
1330 2795 3288
1580 3731 4095
1023 1023 0
1024 1024 1024
1141 1904 2197
1337 2822 3326
1587 3750 4095
1043 2048 1285
1071 2048 1607
1182 2094 2460
1371 2936 3481
1613 3827 4095
1133 3071 2113
1159 3071 2292
1259 3071 2900
1434 3152 3769
1664 3979 4095
1260 4095 2887
1282 4095 3006
1370 4095 3454
1528 4095 4095
1741 4095 4095
2048 0 0
2048 727 1024
2048 1800 2048
2120 2764 3071
2262 3710 4095
2048 1024 0
2048 1024 1024
2047 1850 2047
2125 2792 3073
2266 3729 4095
2048 2048 0
2048 2048 1024
2048 2048 2048
2142 2908 3245
2282 3807 4095
2048 3071 1565
2048 3071 1824
2085 3071 2586
2177 3125 3560
2313 3960 4095
2085 4095 2571
2096 4095 2710
2142 4095 3215
2230 4095 3995
2363 4095 4095
3071 0 0
3071 0 1023
3071 1678 2048
3071 2699 3071
3125 3668 4095
3071 1023 0
3071 1023 1023
3071 1734 2048
3071 2728 3071
3127 3687 4095
3071 2048 0
3071 2048 1023
3071 2048 2048
3071 2848 3071
3137 3767 4095
3071 3071 0
3071 3071 1024
3071 3071 2048
3071 3071 3071
3158 3921 4095
3071 4095 1657
3071 4095 1898
3071 4095 2633
3105 4095 3590
3190 4095 4095
4095 0 0
4095 0 1023
4095 1454 2048
4095 2592 3071
4095 3599 4095
4095 1023 0
4095 1024 1024
4095 1521 2048
4095 2622 3071
4095 3619 4095
4095 2048 0
4095 2048 1024
4095 2048 2048
4095 2748 3071
4095 3700 4095
4095 3071 0
4095 3071 1024
4095 3071 2048
4095 3071 3071
4095 3859 4095
4095 4095 0
4095 4095 1024
4095 4095 2048
4095 4095 3071
4095 4095 4095
