Examples/Channels - Fix Skin Tone.3dl
#25pt 3DLUT created by 3D LUT Creator Pro (c) Oleg Sharonov
#Copyright Oleg Sharonov
#IMAGEPROFILE sRGB IEC61966-2.1 v.2.10
#INPUTGAMMA sRGB IEC61966-2.1 v.2.10
#OUTPUTGAMMA sRGB IEC61966-2.1 v.2.10
0 256 512 768 1023
0 0 0
0 0 1023
0 0 2047
0 0 3071
0 0 4095
1099 820 119
712 953 928
0 1024 2047
0 1023 3071
0 1024 4095
2183 1678 417
2093 1728 851
1479 1918 1873
0 2048 3071
0 2048 4095
2965 2647 838
3007 2642 1077
3013 2664 1701
2247 2883 2818
0 3071 4095
3606 3618 2062
3610 3621 2192
3624 3630 2561
3646 3647 3132
3215 3799 3800
1023 0 0
1023 0 1023
1024 0 2047
1024 0 3071
1024 0 4095
1338 902 158
1024 1024 1024
1024 1024 2048
1024 1024 3071
1024 1023 4095
2290 1717 437
2202 1766 881
1622 1953 1918
1024 2048 3071
1023 2048 4095
3014 2678 857
3055 2672 1098
3080 2687 1722
2333 2905 2845
1024 3071 4095
3630 3642 2068
3635 3645 2199
3648 3654 2571
3670 3671 3144
3264 3816 3816
2048 0 0
2048 0 1024
2048 0 2048
2048 0 3071
2048 0 4095
2048 1024 0
2047 1024 1024
2047 1024 2047
2047 1024 3071
2047 1024 4095
2619 1826 474
2539 1872 956
2048 2048 2048
2048 2048 3071
2048 2048 4095
3166 2772 917
3206 2765 1163
3291 2755 1784
2600 2968 2928
2047 3071 4095
3708 3719 2086
3713 3722 2221
3725 3730 2601
3744 3745 3184
3418 3868 3868
3071 0 0
3071 0 1023
3071 0 2047
3071 0 3071
3071 0 4095
3071 1024 0
3071 1024 1023
3071 1024 2048
3071 1024 3071
3071 1023 4095
3200 1975 393
3135 2015 1023
3071 2048 2048
3071 2048 3071
3071 2048 4095
3443 2935 998
3483 2927 1265
3604 2896 1911
3071 3071 3071
3071 3071 4095
3851 3859 2110
3855 3861 2252
3864 3868 2649
3880 3881 3251
3695 3961 3961
4095 0 0
4095 0 1023
4095 0 2047
4095 0 3071
4095 0 4095
4095 1024 0
4095 1024 1024
4095 1024 2048
4095 1024 3071
4095 1023 4095
4095 2048 0
4095 2048 1024
4095 2048 2048
4095 2047 3071
4095 2047 4095
3855 3156 1049
3893 3144 1366
4012 3104 2092
4095 3071 3071
4095 3071 4095
4062 4063 2118
4064 4065 2274
4070 4070 2702
4080 4080 3337
4095 4095 4095
