Examples/Channels - Red saturation.3dl
#25pt 3DLUT created by 3D LUT Creator Pro (c) Oleg Sharonov
#Copyright Oleg Sharonov
#IMAGEPROFILE sRGB IEC61966-2.1 v.2.10
#INPUTGAMMA sRGB IEC61966-2.1 v.2.10
#OUTPUTGAMMA sRGB IEC61966-2.1 v.2.10
0 128 256 384 512 640 768 896 1023
0 0 0
8 13 524
28 45 1045
57 81 1565
86 118 2086
115 154 2606
145 190 3127
174 227 3647
203 263 4095
0 515 0
8 520 524
27 532 1045
57 551 1565
86 574 2085
115 602 2606
145 631 3126
174 663 3647
203 696 4095
0 1029 0
8 1032 524
27 1038 1045
57 1048 1565
86 1063 2085
115 1081 2606
145 1103 3126
174 1127 3647
203 1154 4095
0 1543 0
8 1545 524
27 1549 1045
57 1556 1565
86 1565 2086
115 1578 2606
145 1594 3126
174 1612 3647
203 1633 4095
0 2058 0
8 2059 524
27 2061 1045
57 2066 1565
86 2073 2086
115 2082 2606
145 2094 3126
174 2108 3647
203 2124 4095
0 2572 0
8 2573 524
27 2575 1045
57 2578 1565
86 2584 2086
115 2591 2606
145 2600 3127
174 2611 3647
203 2624 4095
0 3086 0
8 3087 524
27 3088 1045
57 3091 1565
86 3095 2086
115 3101 2606
145 3108 3126
174 3117 3647
203 3128 4095
0 3600 0
8 3601 524
27 3602 1045
57 3604 1565
86 3608 2086
115 3613 2606
145 3619 3126
174 3626 3647
203 3635 4095
0 4095 1
8 4095 524
27 4095 1045
57 4095 1565
86 4095 2086
115 4095 2606
145 4095 3126
174 4095 3647
203 4095 4095
508 0 0
512 0 512
520 25 1039
532 70 1562
549 110 2083
569 148 2604
591 186 3125
615 223 3646
640 260 4095
509 507 0
512 512 512
551 577 1102
595 646 1644
643 714 2174
688 777 2699
734 838 3222
778 895 3745
668 733 4095
509 1025 0
512 1044 512
551 1076 1102
596 1110 1644
643 1150 2174
688 1193 2699
734 1238 3223
778 1285 3745
668 1180 4095
509 1541 0
512 1565 512
544 1581 1088
596 1609 1644
643 1632 2174
688 1661 2699
734 1693 3223
778 1728 3745
668 1652 4095
509 2056 0
512 2081 512
539 2091 1077
584 2108 1628
643 2132 2174
688 2151 2699
734 2174 3223
778 2201 3745
668 2140 4095
509 2571 0
512 2597 512
536 2603 1071
575 2614 1617
626 2631 2158
688 2653 2699
734 2670 3223
778 2690 3745
668 2637 4095
509 3085 0
512 3112 512
533 3116 1067
569 3124 1609
616 3136 2148
671 3152 2685
734 3173 3223
778 3188 3745
668 3139 4095
509 3599 0
512 3626 512
532 3630 1063
564 3636 1603
607 3645 2140
658 3657 2675
716 3673 3210
778 3692 3745
668 3645 4095
509 4095 0
512 4095 512
521 4095 1042
537 4095 1567
557 4095 2091
581 4095 2614
608 4095 3137
637 4095 3659
668 4095 4095
1018 0 0
1020 0 471
1024 0 1024
1031 30 1553
1040 88 2077
1052 133 2599
1067 174 3121
1085 214 3643
1104 252 4095
1018 480 0
1004 384 302
1024 467 1024
1052 572 1606
1081 662 2152
1113 740 2684
1147 810 3212
1181 873 3737
1121 724 4095
1018 1015 0
1004 990 302
1024 1024 1024
1058 1080 1622
1107 1160 2198
1156 1237 2745
1206 1311 3280
1205 1304 3760
1143 1205 4095
1018 1535 0
1007 1538 340
1023 1558 1023
1058 1593 1622
1107 1644 2198
1156 1695 2745
1206 1747 3280
1205 1741 3760
1143 1670 4095
1018 2052 0
1010 2066 366
1024 2087 1024
1058 2112 1622
1107 2148 2197
1156 2183 2745
1206 2219 3280
1205 2212 3760
1143 2154 4095
1018 2567 0
1012 2586 383
1024 2609 1024
1055 2625 1614
1099 2651 2184
1156 2684 2745
1206 2710 3280
1205 2700 3760
1143 2649 4095
1018 3082 0
1013 3104 396
1024 3127 1024
1052 3139 1607
1092 3157 2170
1143 3181 2727
1206 3212 3280
1205 3198 3760
1143 3151 4095
1018 3597 0
1014 3621 405
1024 3630 1024
1044 3637 1586
1072 3648 2135
1109 3662 2679
1154 3680 3220
1205 3702 3760
1143 3656 4095
1018 4095 1
1019 4095 462
1024 4095 1024
1034 4095 1561
1048 4095 2091
1067 4095 2619
1089 4095 3146
1115 4095 3672
1143 4095 4095
1528 0 0
1529 0 411
1531 0 993
1536 0 1536
1542 22 2065
1550 99 2591
1561 150 3115
1573 195 3637
1587 237 4095
1528 411 0
1508 93 93
1517 222 893
1536 398 1536
1558 553 2111
1581 666 2658
1606 756 3194
1632 832 3723
1599 708 4095
1528 993 0
1508 910 93
1514 922 865
1536 986 1536
1567 1073 2139
1603 1166 2706
1640 1254 3253
1647 1268 3744
1612 1189 4095
1528 1523 0
1508 1488 93
1514 1499 865
1536 1536 1536
1567 1589 2139
1610 1659 2721
1653 1728 3276
1664 1743 3770
1630 1686 4095
1528 2043 0
1512 2037 157
1514 2046 865
1536 2071 1536
1567 2108 2139
1610 2158 2721
1653 2207 3276
1664 2214 3770
1630 2167 4095
1528 2561 0
1515 2568 199
1516 2581 880
1536 2602 1536
1567 2630 2139
1610 2668 2721
1653 2704 3277
1664 2703 3770
1630 2660 4095
1528 3078 0
1517 3091 229
1518 3108 894
1536 3126 1536
1565 3146 2132
1604 3174 2709
1653 3209 3276
1664 3203 3770
1630 3161 4095
1528 3593 0
1518 3611 252
1523 3619 931
1536 3633 1536
1557 3645 2109
1586 3661 2668
1621 3683 3221
1664 3708 3770
1630 3666 4095
1528 4095 0
1528 4095 389
1530 4095 978
1536 4095 1536
1547 4095 2080
1562 4095 2617
1581 4095 3151
1604 4095 3682
1630 4095 4095
2038 0 0
2038 0 411
2040 0 928
2043 0 1508
2048 0 2048
2054 0 2578
2061 103 3105
2070 163 3629
2081 213 4095
2038 411 0
2015 157 157
2021 157 683
2032 157 1437
2047 273 2047
2066 520 2618
2086 660 3165
2107 763 3702
2089 681 4095
2038 955 0
2015 794 157
2010 741 534
2025 820 1393
2047 925 2047
2075 1048 2645
2104 1161 3210
2115 1209 3720
2098 1163 4095
2038 1504 0
2015 1428 157
2010 1404 535
2025 1444 1393
2047 1500 2047
2078 1575 2654
2112 1656 3228
2126 1694 3741
2109 1661 4095
2038 2031 0
2015 1992 157
2010 1983 535
2025 2009 1393
2048 2048 2048
2078 2099 2654
2117 2163 3241
2140 2200 3769
2124 2172 4095
2038 2552 0
2019 2539 199
2013 2539 580
2025 2556 1393
2048 2584 2048
2078 2623 2654
2117 2671 3241
2140 2694 3769
2124 2666 4095
2038 3070 0
2022 3071 229
2016 3078 623
2026 3092 1404
2048 3116 2048
2078 3146 2654
2117 3185 3241
2140 3198 3769
2124 3168 4095
2038 3588 0
2024 3596 252
2025 3602 739
2032 3613 1439
2048 3632 2048
2072 3652 2634
2103 3677 3206
2140 3708 3769
2124 3674 4095
2038 4095 1
2036 4095 389
2036 4095 881
2039 4095 1485
2048 4095 2048
2061 4095 2602
2079 4095 3147
2100 4095 3688
2124 4095 4095
2547 0 0
2548 0 411
2549 0 823
2551 0 1462
2555 0 2021
2559 0 2559
2565 0 3090
2572 102 3618
2581 172 4095
2547 411 0
2523 199 199
2527 199 398
2534 199 1307
2545 199 1965
2559 199 2559
2576 468 3125
2593 646 3673
2586 639 4095
2547 861 0
2524 549 199
2512 420 95
2522 551 1197
2538 697 1925
2560 851 2560
2584 1012 3151
2598 1120 3686
2591 1125 4095
2547 1474 0
2524 1351 199
2512 1284 95
2519 1304 1162
2536 1368 1912
2559 1451 2559
2587 1549 3161
2604 1622 3702
2599 1627 4095
2547 2013 0
2524 1943 199
2512 1906 95
2519 1919 1162
2536 1960 1913
2560 2014 2560
2589 2081 3169
2612 2138 3723
2608 2139 4095
2547 2539 0
2523 2498 199
2512 2479 95
2519 2490 1162
2536 2520 1913
2559 2559 2559
2589 2610 3169
2622 2664 3749
2621 2662 4095
2547 3060 0
2527 3043 229
2517 3036 186
2522 3045 1190
2536 3066 1913
2559 3097 2559
2589 3136 3169
2622 3177 3749
2621 3167 4095
2547 3579 0
2530 3575 252
2529 3578 427
2532 3585 1284
2541 3600 1941
2560 3627 2560
2588 3657 3163
2622 3694 3749
2621 3676 4095
2547 4095 1
2545 4095 389
2544 4095 726
2545 4095 1402
2549 4095 1987
2559 4095 2559
2576 4095 3126
2597 4095 3682
2621 4095 4095
3057 0 0
3057 0 411
3058 0 823
3060 0 1380
3063 0 1983
3067 0 2534
3071 0 3071
3077 0 3603
3084 93 4095
3057 411 0
3032 229 229
3035 229 459
3040 229 1098
3048 229 1866
3058 229 2488
3071 229 3071
3086 378 3633
3087 568 4095
3057 823 0
3032 459 229
3017 186 186
3025 186 887
3036 186 1778
3052 504 2453
3071 756 3071
3088 978 3641
3090 1067 4095
3057 1428 0
3033 1241 229
3018 1126 186
3019 1124 802
3032 1196 1742
3049 1288 2439
3071 1394 3071
3091 1520 3650
3094 1577 4095
3057 1987 0
3032 1881 229
3018 1815 186
3019 1813 802
3029 1838 1718
3047 1897 2429
3071 1970 3071
3095 2054 3662
3100 2094 4095
3057 2521 0
3032 2455 229
3018 2414 186
3019 2414 802
3029 2433 1718
3047 2474 2429
3071 2527 3071
3099 2588 3677
3108 2618 4095
3057 3047 0
3032 3005 229
3018 2980 186
3019 2983 803
3029 2999 1718
3047 3031 2429
3071 3071 3071
3101 3120 3682
3118 3150 4095
3057 3569 0
3035 3547 252
3033 3546 427
3033 3549 1002
3038 3558 1787
3049 3577 2437
3071 3609 3071
3101 3649 3682
3118 3666 4095
3057 4088 0
3054 4087 389
3052 4087 725
3051 4089 1253
3052 4095 1901
3058 4095 2486
3071 4095 3071
3093 4095 3656
3118 4095 4095
3567 0 0
3567 0 411
3568 0 823
3569 0 1234
3572 0 1926
3575 0 2499
3578 0 3046
3583 0 3583
3589 0 4095
3567 411 0
3541 252 252
3544 252 504
3547 252 756
3553 252 1734
3561 252 2404
3571 252 3007
3583 252 3583
3590 389 4095
3567 823 0
3541 504 252
3538 427 427
3542 427 641
3549 427 1688
3558 427 2381
3569 427 2997
3583 701 3583
3592 972 4095
3567 1343 0
3541 1051 252
3538 1012 427
3536 991 499
3543 1070 1631
3553 1163 2353
3567 1264 2986
3583 1372 3583
3594 1508 4095
3567 1952 0
3541 1804 252
3538 1780 427
3536 1760 499
3536 1750 1559
3548 1802 2318
3564 1866 2971
3583 1941 3583
3596 2035 4095
3567 2498 0
3541 2403 252
3538 2387 427
3536 2375 499
3536 2369 1559
3541 2374 2271
3560 2427 2952
3583 2490 3583
3599 2562 4095
3567 3030 0
3541 2966 252
3538 2955 427
3536 2948 499
3536 2946 1559
3542 2953 2271
3559 2988 2944
3583 3039 3583
3604 3092 4095
3567 3555 0
3541 3512 252
3538 3506 427
3536 3502 499
3536 3503 1559
3542 3513 2271
3559 3542 2944
3583 3583 3583
3612 3631 4095
3567 4077 0
3563 4074 389
3560 4071 725
3558 4069 985
3557 4070 1773
3558 4075 2388
3566 4089 2979
3583 4095 3583
3612 4095 4095
4076 0 0
4077 0 411
4077 0 823
4079 0 1234
4080 0 1830
4083 0 2453
4086 0 3014
4090 0 3559
4095 0 4095
4076 411 0
4073 389 389
4073 389 779
4075 389 1168
4077 389 1783
4080 389 2429
4084 389 3002
4089 389 3553
4095 389 4095
4076 823 0
4073 779 389
4069 725 725
4070 725 1087
4073 725 1725
4077 725 2401
4082 725 2986
4088 725 3547
4095 725 4095
4076 1234 0
4073 1168 389
4069 1087 725
4065 985 985
4068 985 1651
4073 1128 2364
4079 1236 2967
4086 1325 3538
4095 1405 4095
4076 1901 0
4073 1872 389
4069 1840 725
4065 1808 985
4062 1777 1555
4068 1811 2317
4075 1853 2942
4084 1901 3528
4095 1955 4095
4076 2468 0
4073 2449 389
4069 2429 725
4065 2408 985
4062 2387 1555
4060 2368 2254
4070 2402 2908
4081 2442 3513
4095 2489 4095
4076 3008 0
4073 2995 389
4069 2981 725
4065 2967 985
4062 2953 1555
4060 2941 2254
4062 2934 2859
4077 2973 3492
4095 3019 4095
4076 3538 0
4073 3529 389
4069 3519 725
4065 3509 985
4062 3500 1555
4060 3494 2254
4062 3493 2859
4071 3502 3460
4095 3552 4095
4076 4063 0
4073 4057 389
4069 4050 725
4065 4044 985
4062 4039 1556
4060 4036 2254
4062 4039 2859
4071 4054 3459
4095 4095 4095
