Examples/Channels - Pale colds.3dl
#25pt 3DLUT created by 3D LUT Creator Pro (c) Oleg Sharonov
#Copyright Oleg Sharonov
#IMAGEPROFILE sRGB IEC61966-2.1 v.2.10
#INPUTGAMMA sRGB IEC61966-2.1 v.2.10
#OUTPUTGAMMA sRGB IEC61966-2.1 v.2.10
0 43 86 128 171 214 256 299 341 384 427 469 512 555 597 640 682 725 768 810 853 896 938 981 1023 
0 0 0
107 149 171
214 297 341
322 445 512
430 593 683
536 741 852
644 889 1024
751 1038 1195
859 1185 1365
966 1334 1536
1073 1482 1706
1180 1631 1877
1288 1779 2048
1396 1927 2218
1503 2075 2389
1610 2223 2560
1717 2371 2730
1825 2520 2901
1932 2668 3071
2039 2816 3242
2147 2964 3412
2254 3112 3583
2361 3260 3754
2469 3409 3924
2576 3557 4095
107 171 139
145 177 180
230 308 341
332 451 512
436 597 682
541 744 853
648 891 1023
754 1039 1194
861 1187 1364
968 1336 1536
1075 1483 1706
1183 1632 1877
1289 1780 2048
1396 1928 2218
1504 2076 2389
1611 2224 2560
1718 2372 2730
1826 2520 2901
1933 2668 3071
2040 2816 3242
2147 2964 3412
2255 3113 3583
2362 3261 3754
2469 3409 3924
2577 3557 4095
217 341 280
233 341 297
287 352 358
369 479 513
462 616 682
562 758 853
663 902 1023
767 1049 1195
871 1195 1365
977 1341 1535
1083 1489 1707
1189 1636 1877
1296 1783 2047
1402 1931 2218
1509 2079 2389
1615 2227 2560
1722 2375 2730
1829 2523 2900
1936 2670 3071
2043 2818 3242
2151 2967 3412
2257 3115 3583
2365 3263 3754
2472 3411 3924
2579 3559 4095
324 512 419
334 513 430
370 512 470
431 528 537
510 653 683
599 787 853
694 925 1024
792 1066 1195
892 1210 1365
995 1354 1536
1098 1500 1707
1202 1646 1877
1307 1792 2047
1413 1939 2218
1518 2086 2389
1624 2233 2559
1730 2380 2730
1837 2528 2900
1943 2676 3071
2050 2823 3242
2156 2971 3412
2263 3119 3583
2370 3266 3754
2477 3414 3924
2584 3562 4095
433 683 559
439 682 566
465 683 594
510 682 645
576 706 717
652 827 853
737 959 1024
829 1094 1194
924 1233 1365
1022 1374 1536
1122 1517 1706
1223 1661 1877
1326 1806 2047
1430 1951 2218
1534 2097 2389
1638 2243 2559
1743 2390 2730
1849 2536 2901
1954 2683 3071
2060 2830 3242
2166 2977 3412
2272 3125 3583
2378 3272 3754
2484 3420 3924
2591 3567 4095
541 853 699
545 853 704
564 853 725
601 853 765
654 853 823
719 883 896
795 1003 1024
878 1132 1195
967 1265 1365
1060 1402 1536
1155 1541 1706
1253 1683 1877
1353 1825 2048
1454 1968 2218
1555 2112 2389
1658 2257 2559
1761 2402 2730
1865 2548 2900
1970 2694 3071
2074 2841 3242
2179 2987 3412
2284 3134 3583
2390 3281 3754
2495 3428 3924
2601 3575 4095
649 1023 839
652 1023 842
667 1023 859
696 1024 891
740 1023 938
796 1024 1000
862 1058 1075
938 1179 1195
1020 1306 1365
1106 1437 1536
1197 1572 1707
1290 1710 1877
1386 1850 2048
1484 1990 2218
1583 2133 2389
1683 2275 2559
1785 2419 2730
1887 2564 2900
1990 2709 3071
2093 2854 3242
2196 3000 3412
2301 3145 3583
2405 3291 3754
2510 3438 3924
2615 3584 4095
757 1194 979
759 1194 982
772 1195 995
796 1195 1022
832 1194 1061
880 1194 1114
939 1194 1178
1006 1235 1254
1081 1355 1365
1162 1480 1535
1247 1610 1706
1336 1744 1877
1427 1880 2048
1521 2018 2218
1617 2157 2389
1715 2298 2559
1814 2440 2730
1914 2583 2900
2015 2727 3071
2116 2871 3242
2218 3015 3412
2321 3160 3583
2424 3305 3754
2528 3451 3924
2632 3597 4095
865 1365 1119
868 1365 1122
877 1365 1132
898 1365 1154
929 1365 1188
971 1365 1233
1022 1365 1290
1082 1365 1357
1150 1412 1434
1224 1531 1536
1304 1655 1706
1388 1784 1877
1475 1916 2047
1565 2051 2218
1658 2188 2389
1752 2326 2560
1848 2466 2730
1946 2607 2900
2045 2748 3071
2144 2891 3242
2244 3034 3412
2346 3178 3583
2448 3322 3754
2550 3466 3924
2652 3611 4095
973 1536 1259
975 1536 1261
984 1536 1270
1001 1536 1289
1028 1536 1318
1064 1536 1357
1110 1536 1407
1164 1536 1467
1226 1536 1536
1295 1588 1613
1368 1707 1706
1447 1830 1877
1530 1959 2048
1615 2089 2218
1704 2223 2389
1795 2358 2559
1888 2496 2730
1983 2634 2901
2079 2774 3071
2177 2915 3242
2275 3057 3412
2375 3199 3583
2475 3342 3754
2576 3485 3924
2677 3629 4095
1081 1707 1399
1083 1707 1401
1090 1706 1409
1105 1706 1425
1129 1706 1450
1161 1706 1484
1202 1707 1529
1251 1706 1583
1306 1706 1645
1369 1706 1715
1438 1764 1792
1512 1883 1877
1589 2006 2048
1671 2133 2218
1756 2263 2389
1844 2395 2559
1934 2530 2730
2026 2666 2900
2119 2804 3071
2214 2943 3242
2310 3082 3412
2408 3223 3583
2506 3364 3754
2605 3507 3924
2705 3649 4095
1189 1877 1538
1191 1877 1540
1197 1877 1547
1211 1877 1561
1231 1877 1583
1259 1877 1614
1296 1877 1654
1340 1877 1702
1391 1877 1758
1449 1877 1823
1513 1877 1894
1582 1940 1971
1655 2059 2054
1733 2182 2218
1814 2308 2389
1898 2437 2559
1984 2568 2730
2073 2702 2900
2164 2837 3071
2256 2974 3242
2350 3112 3412
2445 3251 3583
2541 3390 3754
2639 3531 3924
2737 3673 4095
1297 2048 1678
1299 2048 1680
1305 2048 1686
1317 2048 1699
1335 2048 1718
1360 2048 1746
1393 2048 1781
1433 2048 1825
1480 2048 1877
1533 2048 1935
1592 2048 2001
1656 2048 2072
1725 2117 2150
1799 2235 2233
1876 2357 2389
1956 2483 2560
2039 2611 2730
2125 2742 2901
2213 2875 3071
2302 3009 3242
2394 3145 3412
2487 3281 3583
2581 3420 3754
2676 3559 3924
2773 3699 4095
1406 2218 1818
1406 2218 1820
1412 2218 1825
1423 2218 1836
1439 2218 1854
1462 2218 1879
1492 2218 1911
1528 2218 1951
1571 2218 1998
1620 2218 2052
1675 2218 2112
1735 2218 2179
1800 2218 2251
1870 2294 2329
1943 2411 2412
2019 2533 2559
2099 2658 2730
2181 2786 2900
2266 2915 3071
2353 3047 3242
2442 3181 3412
2532 3316 3583
2624 3452 3754
2717 3589 3924
2812 3728 4095
1514 2389 1958
1515 2389 1959
1519 2389 1964
1529 2389 1975
1544 2389 1990
1565 2389 2013
1592 2389 2042
1625 2389 2078
1665 2389 2121
1710 2389 2171
1761 2389 2227
1817 2389 2289
1878 2389 2357
1944 2389 2431
2013 2470 2509
2086 2588 2591
2163 2710 2730
2242 2834 2900
2323 2961 3071
2407 3090 3242
2493 3221 3412
2581 3353 3583
2671 3488 3754
2762 3623 3924
2854 3760 4095
1622 2559 2098
1623 2559 2099
1627 2559 2104
1636 2559 2113
1649 2559 2127
1668 2559 2148
1693 2559 2175
1724 2559 2208
1760 2559 2248
1802 2559 2294
1850 2559 2346
1903 2559 2404
1960 2559 2467
2022 2559 2536
2088 2559 2610
2157 2646 2688
2230 2764 2770
2306 2885 2900
2384 3009 3071
2466 3136 3242
2549 3264 3412
2634 3394 3583
2722 3526 3754
2810 3660 3924
2900 3795 4095
1730 2730 2238
1731 2730 2239
1735 2730 2243
1743 2730 2251
1755 2730 2265
1773 2730 2284
1796 2730 2308
1824 2730 2339
1858 2730 2375
1897 2730 2418
1941 2730 2466
1990 2730 2521
2044 2730 2580
2103 2730 2645
2165 2730 2715
2231 2730 2789
2301 2823 2867
2374 2940 2949
2449 3061 3071
2528 3185 3242
2608 3311 3412
2691 3439 3583
2776 3568 3754
2862 3700 3924
2950 3833 4095
1838 2900 2378
1839 2900 2379
1842 2901 2383
1850 2900 2390
1861 2900 2403
1877 2900 2420
1898 2900 2443
1925 2900 2471
1956 2900 2505
1993 2900 2544
2034 2900 2590
2080 2900 2640
2131 2901 2696
2186 2901 2757
2245 2901 2823
2308 2900 2893
2375 2901 2968
2445 2999 3046
2517 3117 3128
2593 3237 3242
2670 3360 3412
2751 3486 3583
2833 3613 3754
2917 3743 3924
3003 3873 4095
1946 3071 2518
1947 3071 2519
1950 3071 2522
1957 3071 2529
1968 3071 2541
1983 3071 2557
2002 3071 2578
2027 3071 2604
2055 3071 2635
2090 3071 2672
2128 3071 2715
2172 3071 2762
2220 3071 2815
2272 3071 2872
2328 3071 2934
2388 3071 3001
2452 3071 3072
2519 3071 3147
2588 3175 3225
2661 3293 3307
2736 3413 3412
2814 3536 3583
2894 3661 3754
2975 3788 3924
3059 3917 4095
2054 3242 2658
2055 3242 2658
2058 3242 2662
2064 3242 2668
2074 3242 2679
2088 3242 2694
2106 3242 2713
2129 3242 2738
2156 3242 2767
2188 3242 2802
2224 3242 2841
2265 3242 2886
2311 3242 2935
2360 3242 2990
2413 3242 3049
2471 3242 3112
2531 3242 3179
2595 3242 3251
2662 3242 3326
2732 3352 3404
2805 3469 3486
2880 3590 3583
2957 3712 3754
3037 3837 3924
3118 3963 4095
2163 3412 2797
2163 3412 2798
2166 3412 2801
2172 3412 2807
2181 3412 2817
2194 3412 2831
2211 3412 2849
2232 3412 2872
2258 3412 2900
2287 3412 2932
2322 3412 2969
2360 3412 3011
2403 3412 3058
2450 3412 3109
2501 3412 3165
2555 3412 3225
2613 3412 3289
2674 3412 3358
2739 3412 3430
2806 3413 3505
2876 3528 3584
2949 3646 3666
3023 3766 3754
3100 3888 3924
3179 4012 4095
2270 3583 2937
2271 3583 2938
2274 3583 2941
2279 3583 2947
2288 3583 2956
2300 3583 2969
2316 3583 2986
2336 3583 3007
2360 3583 3033
2388 3583 3064
2420 3583 3098
2457 3583 3138
2497 3583 3182
2542 3583 3231
2590 3583 3284
2642 3583 3341
2697 3583 3402
2756 3583 3467
2818 3583 3536
2882 3583 3608
2950 3590 3684
3020 3705 3763
3092 3822 3845
3167 3942 3929
3244 4064 4095
2379 3754 3077
2379 3754 3078
2382 3754 3081
2387 3754 3086
2395 3754 3095
2406 3754 3107
2421 3754 3123
2440 3754 3143
2463 3754 3167
2489 3754 3196
2520 3754 3229
2554 3754 3266
2592 3754 3308
2635 3754 3354
2681 3754 3404
2730 3754 3459
2783 3754 3517
2839 3754 3579
2899 3754 3645
2961 3754 3715
3026 3754 3787
3093 3766 3863
3164 3881 3942
3236 3998 4024
3310 4095 4095
2487 3924 3217
2487 3924 3218
2490 3924 3220
2494 3924 3225
2502 3924 3233
2513 3924 3245
2527 3924 3260
2544 3924 3279
2566 3924 3302
2591 3924 3329
2620 3924 3360
2652 3924 3396
2689 3924 3435
2729 3924 3479
2773 3924 3527
2820 3924 3578
2871 3924 3634
2925 3924 3694
2981 3924 3757
3042 3924 3823
3104 3924 3893
3169 3924 3966
3237 3942 4042
3307 4058 4095
3380 4095 4095
2595 4095 3357
2595 4095 3358
2598 4095 3360
2602 4095 3365
2609 4095 3372
2619 4095 3383
2633 4095 3397
2649 4095 3415
2669 4095 3437
2693 4095 3462
2721 4095 3492
2752 4095 3526
2786 4095 3563
2824 4095 3605
2866 4095 3650
2911 4095 3700
2960 4095 3753
3011 4095 3810
3066 4095 3870
3124 4095 3934
3185 4095 4002
3248 4095 4072
3313 4095 4095
3381 4095 4095
3451 4095 4095
168 0 0
171 139 171
230 293 341
332 442 512
436 592 683
542 741 853
648 888 1023
754 1037 1194
861 1185 1365
969 1334 1536
1076 1482 1707
1182 1630 1877
1289 1778 2048
1397 1927 2218
1504 2075 2389
1611 2223 2559
1718 2371 2730
1825 2519 2900
1933 2668 3071
2040 2816 3242
2147 2964 3412
2255 3112 3583
2362 3260 3754
2469 3409 3924
2577 3557 4095
171 171 129
171 171 171
248 306 341
341 451 513
443 597 683
546 744 853
651 891 1023
757 1039 1194
863 1187 1365
971 1335 1536
1077 1483 1706
1184 1631 1877
1291 1780 2048
1398 1927 2218
1505 2075 2389
1612 2224 2559
1719 2372 2730
1827 2520 2901
1934 2668 3071
2041 2816 3242
2148 2965 3412
2255 3113 3583
2363 3261 3754
2470 3409 3924
2577 3557 4095
233 341 276
248 341 293
299 351 356
377 478 512
468 616 683
565 758 853
667 903 1024
770 1048 1195
874 1195 1365
979 1341 1536
1085 1489 1707
1190 1636 1877
1297 1784 2048
1403 1931 2218
1510 2079 2389
1617 2227 2560
1723 2374 2730
1830 2522 2900
1937 2671 3071
2044 2819 3242
2151 2967 3412
2258 3114 3583
2365 3263 3754
2472 3411 3924
2579 3559 4095
334 512 417
343 513 428
379 513 467
437 527 536
516 652 683
603 785 853
696 924 1024
794 1066 1194
895 1209 1365
997 1354 1536
1100 1499 1707
1204 1645 1877
1309 1792 2047
1414 1939 2218
1520 2086 2389
1625 2233 2559
1731 2381 2730
1838 2528 2901
1944 2675 3071
2051 2823 3242
2157 2971 3412
2264 3119 3583
2370 3267 3754
2477 3414 3924
2584 3562 4095
439 683 558
445 683 564
470 682 592
516 683 644
579 705 715
655 827 853
741 958 1024
831 1094 1195
926 1233 1365
1024 1374 1535
1124 1517 1706
1225 1661 1877
1328 1805 2047
1431 1951 2218
1535 2097 2389
1639 2243 2559
1744 2389 2730
1849 2536 2900
1955 2683 3071
2060 2830 3242
2167 2978 3412
2272 3125 3583
2379 3272 3754
2485 3420 3924
2591 3567 4095
546 853 698
550 853 703
569 853 724
605 853 764
657 853 821
723 882 895
798 1003 1024
881 1131 1195
969 1265 1365
1061 1401 1535
1156 1541 1706
1254 1682 1877
1354 1825 2048
1455 1968 2218
1556 2112 2389
1659 2257 2559
1762 2402 2730
1866 2548 2900
1970 2694 3071
2075 2840 3242
2180 2987 3412
2285 3134 3583
2391 3281 3754
2496 3428 3924
2602 3575 4095
652 1023 838
656 1023 842
671 1024 859
699 1023 890
743 1023 937
799 1024 1000
865 1058 1074
940 1178 1195
1022 1305 1365
1108 1437 1536
1198 1572 1706
1292 1710 1877
1387 1849 2048
1485 1990 2218
1584 2132 2389
1684 2275 2559
1786 2419 2730
1888 2564 2901
1990 2708 3071
2094 2854 3242
2197 2999 3412
2301 3145 3583
2406 3291 3754
2510 3438 3924
2615 3584 4095
759 1195 978
763 1195 981
775 1195 995
799 1195 1021
835 1195 1060
883 1195 1113
942 1195 1178
1008 1235 1253
1083 1355 1365
1163 1480 1536
1248 1610 1706
1337 1744 1877
1429 1880 2047
1523 2018 2218
1618 2157 2389
1716 2298 2559
1814 2440 2730
1914 2583 2900
2015 2727 3071
2117 2871 3242
2219 3015 3412
2322 3160 3583
2425 3305 3754
2529 3451 3924
2633 3597 4095
868 1365 1118
870 1365 1121
880 1365 1132
900 1365 1154
931 1365 1187
973 1365 1233
1024 1365 1289
1084 1365 1357
1152 1411 1433
1226 1530 1536
1305 1655 1707
1389 1784 1877
1476 1916 2048
1566 2051 2218
1659 2187 2389
1753 2326 2559
1849 2466 2730
1947 2607 2901
2045 2748 3071
2145 2891 3242
2245 3034 3412
2346 3178 3583
2448 3322 3754
2550 3466 3924
2653 3611 4095
975 1536 1258
977 1536 1261
986 1536 1270
1003 1536 1288
1030 1536 1318
1066 1536 1357
1112 1536 1407
1166 1536 1467
1228 1535 1535
1296 1588 1612
1369 1706 1706
1448 1830 1877
1531 1958 2048
1616 2089 2218
1705 2223 2389
1796 2358 2559
1889 2495 2730
1984 2634 2900
2080 2774 3071
2177 2915 3242
2276 3056 3412
2375 3199 3583
2475 3342 3754
2576 3485 3924
2678 3629 4095
1083 1706 1398
1084 1706 1400
1093 1707 1409
1107 1707 1424
1131 1707 1449
1162 1706 1484
1203 1706 1529
1252 1707 1582
1308 1707 1644
1371 1707 1714
1439 1764 1791
1513 1883 1877
1591 2006 2048
1673 2133 2218
1757 2263 2389
1845 2395 2560
1935 2530 2730
2026 2666 2901
2120 2804 3071
2215 2942 3242
2311 3082 3412
2408 3223 3583
2507 3365 3754
2606 3507 3924
2706 3649 4095
