Examples/Channels - Saturate with darken.3dl
#25pt 3DLUT created by 3D LUT Creator Pro (c) Oleg Sharonov
#Copyright !UNREGISTERED VERSION OF 3D LUT CREATOR!
#IMAGEPROFILE sRGB IEC61966-2.1 v.2.10
#INPUTGAMMA sRGB IEC61966-2.1 v.2.10
#OUTPUTGAMMA sRGB IEC61966-2.1 v.2.10
0 128 256 384 512 640 768 896 1023
0 0 0
0 0 512
0 0 1024
0 0 1536
0 0 2048
0 0 2559
0 0 3071
0 0 3583
0 0 4095
0 512 0
0 512 512
0 512 1024
0 512 1536
0 512 2048
0 512 2559
0 512 3071
0 512 3583
0 512 4095
0 1024 0
0 1024 512
0 1024 1024
0 1024 1536
0 1024 2048
0 1024 2559
0 1024 3071
0 1024 3583
0 1024 4095
0 1536 0
0 1536 512
0 1536 1024
0 1536 1536
0 1536 2048
0 1536 2559
0 1536 3071
0 1536 3583
0 1536 4095
0 2048 0
0 2048 512
0 2048 1024
0 2048 1536
0 2048 2048
0 2048 2559
0 2048 3071
0 2048 3583
0 2048 4095
0 2559 0
0 2559 512
0 2559 1024
0 2559 1536
0 2559 2048
0 2559 2559
0 2559 3071
0 2559 3583
0 2559 4095
0 3071 0
0 3071 512
0 3071 1024
0 3071 1536
0 3071 2048
0 3071 2559
0 3071 3071
0 3071 3583
0 3071 4095
0 3583 0
0 3583 512
0 3583 1024
0 3583 1536
0 3583 2048
0 3583 2559
0 3583 3071
0 3583 3583
0 3583 4095
0 4095 0
0 4095 512
0 4095 1024
0 4095 1536
0 4095 2048
0 4095 2559
0 4095 3071
0 4095 3583
0 4095 4095
512 0 0
512 0 512
512 0 1024
512 0 1536
512 0 2048
512 0 2559
512 0 3071
512 0 3583
512 0 4095
512 512 0
512 512 512
374 467 1057
328 450 1579
341 455 2088
387 468 2591
450 484 3091
497 504 3589
512 512 4095
512 1024 0
351 1052 376
212 1046 1040
219 1035 1568
300 1028 2081
387 1025 2587
450 1024 3089
497 1023 3588
512 1024 4095
512 1536 0
296 1573 330
203 1569 1023
169 1566 1557
300 1552 2074
387 1544 2583
450 1539 3087
497 1536 3588
512 1536 4095
512 2048 0
311 2082 343
300 2080 967
300 2078 1542
300 2075 2068
387 2063 2579
450 2054 3085
497 2049 3587
512 2048 4095
512 2559 0
387 2587 387
387 2585 958
387 2584 1535
387 2583 2055
387 2581 2575
450 2570 3083
497 2562 3587
512 2559 4095
512 3071 0
450 3088 450
450 3088 974
450 3087 1519
450 3086 2049
450 3086 2565
450 3085 3081
497 3074 3587
512 3071 4095
512 3583 0
497 3588 497
497 3588 1007
497 3588 1527
497 3588 2047
497 3587 2560
497 3587 3073
497 3587 3586
512 3583 4095
512 4095 0
512 4095 512
512 4095 1024
512 4095 1536
512 4095 2048
512 4095 2559
512 4095 3071
512 4095 3583
512 4095 4095
1024 0 0
1024 0 512
1024 0 1024
1024 0 1536
1024 0 2048
1024 0 2559
1024 0 3071
1024 0 3583
1024 0 4095
1024 512 0
1060 324 377
1043 278 1039
1025 325 1568
977 377 2081
963 422 2587
977 462 3089
1008 498 3588
1024 512 4095
1024 1024 0
1040 1029 243
1024 1024 1024
886 978 1568
749 932 2112
671 906 2642
655 901 3158
897 982 3613
1024 1024 4095
1024 1536 0
1007 1558 240
862 1564 888
725 1558 1552
587 1553 2096
534 1546 2629
547 1540 3147
867 1536 3610
1024 1536 4095
1024 2048 0
947 2073 300
700 2104 752
563 2098 1535
425 2093 2080
395 2081 2615
437 2070 3136
837 2053 3607
1024 2048 4095
1024 2559 0
939 2581 387
610 2631 676
492 2626 1419
376 2622 2061
258 2617 2601
338 2601 3125
835 2570 3604
1024 2559 4095
1024 3071 0
962 3086 450
589 3146 660
497 3143 1353
405 3139 2046
338 3135 2581
338 3131 3114
835 3087 3601
1024 3071 4095
1024 3583 0
1004 3587 497
874 3609 899
849 3608 1460
835 3607 2022
835 3606 2562
835 3605 3080
835 3604 3598
1024 3583 4095
1024 4095 0
1024 4095 512
1024 4095 1024
1024 4095 1536
1024 4095 2048
1024 4095 2559
1024 4095 3071
1024 4095 3583
1024 4095 4095
1536 0 0
1536 0 512
1536 0 1024
1536 0 1536
1536 0 2048
1536 0 2559
1536 0 3071
1536 0 3583
1536 0 4095
1536 512 0
1584 260 331
1573 229 1024
1561 199 1557
1545 300 2074
1537 387 2583
1525 450 3087
1529 497 3588
1536 512 4095
1536 1024 0
1571 929 240
1571 836 889
1555 790 1552
1538 744 2096
1439 747 2629
1368 775 3147
1464 947 3610
1536 1024 4095
1536 1536 0
1558 1543 169
1552 1541 753
1536 1536 1536
1398 1490 2080
1260 1444 2624
1168 1414 3158
1330 1467 3632
1536 1536 4095
1536 2048 0
1541 2064 300
1512 2081 618
1374 2076 1400
1236 2070 2064
1099 2064 2608
1023 2058 3143
1269 2050 3626
1536 2048 4095
1536 2559 0
1524 2576 387
1377 2612 562
1212 2615 1264
1074 2610 2046
937 2604 2592
879 2595 3129
1208 2572 3620
1536 2559 4095
1536 3071 0
1510 3083 450
1303 3131 570
1103 3146 1173
980 3141 1925
858 3136 2574
735 3131 3114
1148 3094 3613
1536 3071 4095
1536 3583 0
1525 3587 497
1442 3605 874
1293 3625 1332
1241 3623 1945
1190 3621 2559
1138 3619 3083
1087 3617 3607
1536 3583 4095
1536 4095 0
1536 4095 512
1536 4095 1024
1536 4095 1536
1536 4095 2048
1536 4095 2559
1536 4095 3071
1536 4095 3583
1536 4095 4095
2048 0 0
2048 0 512
2048 0 1024
2048 0 1536
2048 0 2048
2048 0 2559
2048 0 3071
2048 0 3583
2048 0 4095
2048 512 0
2092 300 345
2085 300 969
2078 300 1542
2072 300 2068
2058 387 2579
2051 450 3085
2048 497 3587
2048 512 4095
2048 1024 0
2084 887 300
2119 649 755
2103 603 1536
2086 557 2080
2067 587 2615
2051 649 3137
2031 912 3607
2048 1024 4095
2048 1536 0
2076 1496 300
2100 1393 619
2084 1348 1401
2067 1302 2064
2050 1256 2608
1947 1246 3143
1954 1397 3626
2048 1536 4095
2048 2048 0
2068 2054 300
2081 2059 484
2064 2053 1265
2048 2048 2048
1910 2002 2592
1772 1956 3136
1794 1963 3643
2048 2048 4095
2048 2559 0
2055 2570 387
2059 2593 446
2023 2593 1129
1886 2587 1912
1748 2582 2576
1611 2576 3120
1694 2566 3633
2048 2559 4095
2048 3071 0
2049 3080 450
2015 3116 479
1882 3126 1053
1724 3127 1776
1586 3122 2558
1449 3116 3104
1595 3095 3623
2048 3071 4095
2048 3583 0
2045 3586 497
2009 3601 849
1917 3617 1282
1749 3635 1797
1664 3631 2475
1580 3628 3081
1496 3625 3613
2048 3583 4095
2048 4095 0
2048 4095 512
2048 4095 1024
2048 4095 1536
2048 4095 2048
2048 4095 2559
2048 4095 3071
2048 4095 3583
2048 4095 4095
2559 0 0
2559 0 512
2559 0 1024
2559 0 1536
2559 0 2048
2559 0 2559
2559 0 3071
2559 0 3583
2559 0 4095
2559 512 0
2594 387 387
2590 387 959
2586 387 1536
2582 387 2056
2578 387 2575
2567 450 3083
2561 497 3587
2559 512 4095
2559 1024 0
2590 898 387
2651 544 680
2637 505 1422
2623 465 2062
2609 427 2601
2587 524 3126
2564 878 3604
2559 1024 4095
2559 1536 0
2585 1466 387
2635 1254 564
2631 1161 1267
2615 1115 2048
2598 1069 2592
2579 1079 3129
2561 1327 3620
2559 1536 4095
2559 2048 0
2580 2035 387
2618 1965 448
2612 1906 1131
2595 1860 1913
2579 1814 2576
2562 1769 3120
2490 1848 3633
2559 2048 4095
2559 2559 0
2575 2565 387
2602 2573 333
2592 2570 996
2576 2565 1777
2559 2559 2559
2422 2514 3104
2304 2475 3643
2500 2540 4095
2559 3071 0
2565 3077 450
2579 3101 390
2571 3106 933
2535 3105 1642
2397 3099 2424
2260 3094 3088
2155 3087 3628
2477 3073 4095
2559 3583 0
2560 3585 497
2561 3597 835
2541 3608 1231
2445 3621 1715
2260 3635 2308
2132 3630 3070
2005 3625 3613
2454 3589 4095
2559 4095 0
2559 4095 512
2559 4095 1024
2559 4095 1536
2559 4095 2048
2490 4095 2501
2470 4095 3052
2451 4095 3585
2431 4095 4095
3071 0 0
3071 0 512
3071 0 1024
3071 0 1536
3071 0 2048
3071 0 2559
3071 0 3071
3071 0 3583
3071 0 4095
3071 512 0
3093 450 450
3091 450 975
3089 450 1520
3087 450 2049
3085 450 2565
3083 450 3081
3074 497 3587
3071 512 4095
3071 1024 0
3091 938 450
3168 521 664
3157 490 1356
3145 460 2048
3135 428 2581
3124 398 3115
3083 843 3601
3071 1024 4095
3071 1536 0
3088 1478 450
3155 1189 573
3167 1034 1176
3153 993 1929
3138 952 2574
3123 912 3115
3087 1256 3614
3071 1536 4095
3071 2048 0
3086 2019 450
3142 1857 481
3150 1754 1055
3143 1672 1779
3127 1627 2560
3110 1581 3104
3085 1732 3623
3071 2048 4095
3071 2559 0
3084 2559 450
3128 2525 390
3133 2474 934
3124 2417 1643
3107 2372 2425
3091 2326 3088
3074 2301 3628
3055 2513 4095
3071 3071 0
3081 3075 450
3115 3086 338
3115 3086 814
3104 3082 1507
3088 3077 2289
3071 3071 3071
2934 3026 3616
2937 3027 4095
3071 3583 0
3073 3585 497
3080 3592 835
3082 3600 1181
3080 3607 1632
3049 3614 2183
2909 3611 2936
2772 3606 3599
2858 3591 4095
3071 4095 0
3071 4095 512
3071 4095 1024
3071 4095 1536
3071 4095 2048
3045 4095 2482
2913 4095 2939
2847 4095 3583
2780 4095 4095
3583 0 0
3583 0 512
3583 0 1024
3583 0 1536
3583 0 2048
3583 0 2559
3583 0 3071
3583 0 3583
3583 0 4095
3583 512 0
3590 497 497
3589 497 1008
3589 497 1528
3588 497 2048
3588 497 2560
3587 497 3073
3587 497 3586
3583 512 4095
3583 1024 0
3589 997 497
3616 851 900
3613 842 1461
3610 835 2023
3607 835 2562
3604 835 3080
3601 835 3598
3583 1024 4095
3583 1536 0
3588 1516 497
3613 1406 874
3637 1254 1334
3631 1237 1947
3625 1220 2560
3618 1203 3084
3612 1186 3608
3583 1536 4095
3583 2048 0
3588 2035 497
3609 1961 850
3630 1854 1283
3649 1701 1799
3639 1674 2478
3629 1645 3081
3619 1617 3613
3583 2048 4095
3583 2559 0
3587 2554 497
3606 2515 835
3622 2453 1232
3638 2357 1716
3650 2212 2310
3634 2169 3071
3619 2127 3613
3586 2486 4095
3583 3071 0
3587 3071 497
3602 3070 835
3615 3052 1182
3626 3012 1633
3632 2940 2184
3619 2884 2937
3603 2838 3599
3585 2935 4095
3583 3583 0
3586 3584 497
3598 3588 835
3608 3591 1131
3614 3593 1549
3614 3593 2059
3600 3589 2801
3583 3583 3583
3446 3537 4095
3583 4095 0
3583 4095 512
3583 4095 1024
3583 4095 1536
3583 4095 2048
3585 4095 2463
3571 4095 2873
3421 4095 3448
3284 4095 4095
4095 0 0
4095 0 512
4095 0 1024
4095 0 1536
4095 0 2048
4095 0 2559
4095 0 3071
4095 0 3583
4095 0 4095
4095 512 0
4095 512 512
4095 512 1024
4095 512 1536
4095 512 2048
4095 512 2559
4095 512 3071
4095 512 3583
4095 512 4095
4095 1024 0
4095 1024 512
4095 1024 1024
4095 1024 1536
4095 1024 2048
4095 1024 2559
4095 1024 3071
4095 1024 3583
4095 1024 4095
4095 1536 0
4095 1536 512
4095 1536 1024
4095 1536 1536
4095 1536 2048
4095 1536 2559
4095 1536 3071
4095 1536 3583
4095 1536 4095
4095 2048 0
4095 2048 512
4095 2048 1024
4095 2048 1536
4095 2048 2048
4095 2048 2559
4095 2048 3071
4095 2048 3583
4095 2048 4095
4095 2559 0
4095 2559 512
4095 2559 1024
4095 2559 1536
4095 2559 2048
4095 2479 2502
4095 2472 3052
4095 2466 3585
4095 2459 4095
4095 3071 0
4095 3071 512
4095 3071 1024
4095 3071 1536
4095 3071 2048
4095 3024 2482
4095 2888 2940
4095 2866 3583
4095 2844 4095
4095 3583 0
4095 3583 512
4095 3583 1024
4095 3583 1536
4095 3583 2048
4095 3569 2463
4095 3514 2874
4095 3396 3449
4095 3350 4095
4095 4095 0
4095 4095 512
4095 4095 1024
4095 4095 1536
4095 4095 2048
4095 4095 2444
4095 4095 2808
4095 4095 3314
4095 4095 4095
