Examples/Channels-CMY.3dl
#25pt 3DLUT created by 3D LUT Creator Pro (c) Oleg Sharonov
#Copyright Oleg Sharonov
#IMAGEPROFILE sRGB IEC61966-2.1 v.2.10
#INPUTGAMMA sRGB IEC61966-2.1 v.2.10
#OUTPUTGAMMA sRGB IEC61966-2.1 v.2.10
0 43 86 128 171 214 256 299 341 384 427 469 512 555 597 640 682 725 768 810 853 896 938 981 1023 
0 0 0
100 36 84
198 68 165
295 100 248
398 136 332
496 171 414
593 203 496
695 238 579
793 271 662
893 306 745
992 339 828
1090 372 910
1189 408 994
1288 440 1076
1386 474 1158
1486 508 1241
1585 542 1324
1685 576 1407
1783 610 1490
1883 644 1572
1981 678 1655
2081 712 1738
2180 745 1820
2278 779 1903
2378 813 1986
0 103 142
0 107 158
171 116 206
282 139 278
388 165 352
489 192 430
590 222 509
690 252 591
789 284 671
888 316 752
988 349 835
1088 383 917
1187 416 999
1286 448 1080
1385 481 1162
1484 514 1245
1583 548 1328
1683 582 1410
1782 615 1493
1881 649 1575
1981 682 1658
2080 715 1741
2179 750 1823
2278 783 1905
2377 816 1988
0 203 282
0 206 291
0 212 316
220 220 360
347 235 417
461 257 484
568 278 554
671 302 628
772 328 703
875 354 780
977 384 860
1077 412 939
1178 443 1019
1278 474 1099
1378 505 1180
1478 536 1260
1577 569 1342
1677 601 1423
1776 632 1505
1876 665 1586
1975 697 1669
2075 730 1751
2174 764 1833
2274 796 1914
2373 829 1997
0 306 422
0 308 428
0 312 445
0 318 475
252 328 517
399 341 570
521 354 627
634 374 692
744 394 760
849 416 831
955 440 904
1058 465 979
1160 492 1055
1262 518 1132
1363 546 1210
1464 575 1288
1565 604 1368
1666 634 1448
1766 664 1528
1866 695 1608
1966 726 1688
2067 758 1769
2167 789 1850
2266 820 1932
2366 852 2013
0 409 563
0 408 565
0 411 578
0 417 601
0 423 632
273 433 674
442 445 723
573 458 777
696 474 837
809 492 901
919 510 967
1027 532 1036
1133 554 1108
1238 578 1181
1341 603 1254
1445 628 1330
1547 655 1406
1649 682 1484
1750 710 1561
1851 737 1639
1953 767 1718
2053 796 1797
2154 826 1877
2255 855 1957
2355 886 2037
0 510 703
0 510 705
0 513 715
0 517 734
0 522 758
0 528 790
284 538 831
475 548 877
620 562 929
749 576 986
868 592 1046
983 610 1109
1094 629 1175
1203 650 1243
1311 671 1313
1416 694 1384
1521 716 1457
1624 741 1531
1729 766 1606
1831 792 1682
1934 819 1758
2035 845 1835
2137 873 1913
2238 901 1991
2339 929 2069
0 613 844
0 614 846
0 614 853
0 617 867
0 622 888
0 628 916
0 634 948
289 644 989
505 654 1034
662 666 1084
798 680 1137
923 695 1195
1042 711 1254
1157 728 1318
1269 747 1383
1379 767 1451
1487 788 1520
1594 810 1590
1700 832 1662
1805 855 1734
1908 879 1808
2012 904 1883
2115 929 1957
2218 955 2033
2320 982 2110
0 714 984
0 715 987
0 716 992
0 718 1004
0 722 1022
0 727 1046
0 734 1074
0 741 1107
282 750 1147
528 759 1190
697 771 1239
842 784 1291
973 798 1345
1098 813 1404
1216 830 1465
1331 846 1526
1444 865 1592
1554 885 1659
1663 904 1726
1770 926 1796
1877 948 1867
1983 971 1939
2087 994 2011
2192 1018 2084
2296 1043 2159
0 817 1126
0 817 1127
0 819 1132
0 820 1142
0 823 1156
0 827 1177
0 833 1201
0 839 1232
0 846 1266
267 855 1305
547 865 1348
729 876 1394
883 889 1445
1020 902 1498
1149 917 1554
1272 932 1613
1390 948 1673
1506 965 1736
1618 983 1800
1729 1003 1867
1838 1022 1934
1947 1043 2003
2054 1065 2073
2161 1087 2144
2266 1109 2215
0 919 1266
0 919 1268
0 920 1272
0 921 1280
0 924 1293
0 928 1310
0 933 1332
0 938 1359
0 944 1389
0 953 1424
235 961 1463
562 971 1505
758 982 1551
919 994 1600
1063 1006 1652
1197 1020 1706
1324 1035 1763
1446 1050 1822
1564 1066 1882
1679 1084 1945
1793 1102 2009
1904 1120 2075
2014 1140 2142
2123 1161 2210
2230 1182 2279
0 1021 1406
0 1022 1408
0 1022 1412
0 1024 1420
0 1026 1431
0 1029 1446
0 1033 1465
0 1038 1489
0 1044 1516
0 1050 1548
0 1058 1583
180 1067 1621
571 1077 1663
782 1087 1708
952 1098 1756
1102 1110 1806
1241 1123 1859
1373 1138 1915
1498 1153 1972
1619 1168 2031
1737 1185 2091
1853 1202 2154
1966 1220 2218
2079 1239 2283
2189 1258 2350
0 1123 1547
0 1123 1548
0 1124 1552
0 1126 1559
0 1127 1568
0 1131 1583
0 1134 1600
0 1138 1620
0 1143 1645
0 1149 1674
0 1156 1705
0 1164 1740
0 1173 1780
577 1182 1821
802 1193 1865
982 1203 1911
1140 1215 1961
1284 1229 2013
1419 1242 2067
1548 1256 2122
1673 1271 2181
1793 1287 2240
1911 1304 2301
2027 1321 2363
2141 1338 2427
0 1225 1688
0 1225 1689
0 1226 1692
0 1227 1698
0 1230 1707
0 1232 1720
0 1235 1735
0 1239 1754
0 1244 1776
0 1249 1802
0 1255 1832
0 1262 1863
0 1270 1898
0 1278 1937
577 1288 1978
821 1298 2022
1010 1308 2068
1174 1320 2117
1323 1332 2167
1463 1346 2220
1596 1359 2275
1723 1374 2331
1847 1390 2390
1967 1405 2449
2085 1422 2510
0 1328 1829
0 1328 1829
0 1328 1833
0 1330 1838
0 1331 1846
0 1333 1857
0 1336 1871
0 1340 1889
0 1344 1909
0 1349 1933
0 1355 1960
0 1360 1989
0 1368 2022
0 1375 2057
0 1384 2095
573 1393 2136
836 1403 2179
1035 1414 2224
1206 1425 2272
1360 1437 2322
1504 1450 2374
1641 1463 2427
1771 1478 2483
1898 1492 2540
2021 1508 2598
0 1430 1970
0 1429 1970
0 1430 1973
0 1431 1978
0 1433 1985
0 1435 1996
0 1437 2008
0 1441 2024
0 1445 2043
0 1449 2065
0 1454 2089
0 1460 2117
0 1466 2147
0 1474 2179
0 1481 2215
0 1490 2253
565 1499 2294
848 1509 2337
1057 1519 2381
1235 1530 2428
1396 1542 2478
1544 1555 2528
1684 1568 2581
1818 1582 2636
1947 1596 2691
0 1531 2110
0 1532 2111
0 1533 2113
0 1533 2118
0 1535 2125
0 1536 2134
0 1539 2146
0 1542 2161
0 1545 2178
0 1550 2198
0 1554 2221
0 1560 2246
0 1566 2274
0 1572 2305
0 1579 2338
0 1588 2374
0 1596 2411
552 1605 2452
856 1614 2494
1077 1625 2539
1262 1636 2585
1428 1647 2633
1581 1660 2683
1725 1673 2735
1862 1686 2789
0 1634 2251
0 1634 2252
0 1634 2253
0 1635 2258
0 1637 2264
0 1638 2273
0 1641 2284
0 1643 2297
0 1646 2314
0 1650 2332
0 1655 2353
0 1660 2377
0 1665 2403
0 1671 2432
0 1678 2463
0 1685 2496
0 1693 2532
0 1701 2569
532 1711 2610
863 1720 2652
1094 1731 2696
1287 1741 2742
1459 1753 2790
1617 1765 2839
1764 1777 2890
0 1736 2391
0 1736 2392
0 1736 2394
0 1737 2398
0 1738 2404
0 1740 2412
0 1742 2422
0 1745 2435
0 1748 2449
0 1751 2467
0 1755 2487
0 1760 2509
0 1765 2533
0 1771 2560
0 1777 2589
0 1784 2621
0 1791 2655
0 1799 2690
0 1807 2728
505 1816 2768
866 1826 2809
1110 1836 2853
1311 1847 2899
1488 1858 2945
1650 1869 2994
0 1838 2532
0 1838 2533
0 1838 2534
0 1839 2538
0 1840 2544
0 1842 2551
0 1844 2561
0 1846 2573
0 1849 2586
0 1852 2603
0 1856 2621
0 1860 2642
0 1865 2665
0 1871 2690
0 1876 2717
0 1882 2747
0 1890 2778
0 1897 2812
0 1905 2848
0 1913 2886
471 1922 2926
866 1931 2967
1123 1941 3010
1331 1952 3055
1515 1963 3102
0 1940 2673
0 1940 2673
0 1941 2675
0 1941 2679
0 1942 2683
0 1944 2691
0 1946 2699
0 1948 2710
0 1950 2723
0 1954 2739
0 1957 2756
0 1961 2775
0 1965 2797
0 1970 2821
0 1976 2847
0 1982 2875
0 1988 2905
0 1995 2937
0 2003 2971
0 2011 3007
0 2019 3044
423 2028 3084
864 2037 3125
1133 2047 3168
1351 2058 3213
0 2042 2814
0 2042 2814
0 2043 2816
0 2043 2819
0 2044 2824
0 2045 2830
0 2047 2839
0 2049 2849
0 2052 2861
0 2055 2875
0 2058 2892
0 2062 2910
0 2066 2931
0 2071 2953
0 2076 2977
0 2081 3004
0 2088 3032
0 2094 3062
0 2101 3095
0 2108 3129
0 2117 3165
0 2125 3202
360 2134 3242
858 2143 3283
1142 2153 3325
0 2144 2954
0 2145 2955
0 2145 2956
0 2145 2959
0 2146 2964
0 2148 2970
0 2149 2978
0 2151 2987
0 2153 2999
0 2156 3013
0 2159 3028
0 2163 3045
0 2167 3065
0 2171 3086
0 2176 3109
0 2181 3134
0 2187 3161
0 2193 3190
0 2200 3220
0 2207 3253
0 2214 3287
0 2222 3323
0 2230 3361
262 2239 3400
849 2249 3441
0 2247 3095
0 2247 3095
0 2247 3097
0 2248 3100
0 2248 3104
0 2250 3110
0 2251 3117
0 2253 3127
0 2255 3137
0 2258 3150
0 2260 3165
0 2264 3181
0 2268 3199
0 2272 3219
0 2276 3241
0 2282 3265
0 2287 3291
0 2293 3318
0 2299 3347
0 2305 3378
0 2313 3411
0 2320 3445
0 2328 3481
0 2337 3519
0 2345 3558
0 2348 3236
0 2349 3236
0 2349 3237
0 2349 3240
0 2350 3244
0 2351 3250
0 2353 3257
0 2354 3265
0 2357 3276
0 2359 3288
0 2362 3302
0 2365 3317
0 2369 3335
0 2373 3353
0 2377 3374
0 2382 3397
0 2387 3422
0 2392 3448
0 2398 3475
0 2404 3505
0 2411 3536
0 2418 3569
0 2426 3603
0 2434 3639
0 2442 3677
0 2451 3376
0 2451 3377
0 2451 3378
0 2451 3380
0 2452 3384
0 2454 3389
0 2455 3396
0 2456 3404
0 2458 3414
0 2461 3426
0 2463 3439
0 2467 3454
0 2470 3470
0 2473 3488
0 2478 3508
0 2482 3530
0 2487 3553
0 2492 3578
0 2498 3605
0 2504 3633
0 2510 3663
0 2517 3694
0 2524 3727
0 2532 3762
0 2540 3797
177 142 74
195 142 107
255 155 177
334 168 255
425 189 337
516 212 417
612 240 501
707 267 582
805 297 664
902 328 747
1001 360 830
1098 391 912
1196 423 994
1294 455 1077
1393 488 1159
1491 521 1242
1590 554 1325
1688 587 1407
1788 620 1491
1887 653 1573
1985 687 1655
2084 720 1738
2183 753 1821
2282 787 1904
2381 820 1987
145 168 152
171 171 171
238 177 220
322 189 282
414 209 356
508 230 433
606 255 513
703 280 593
799 308 672
898 337 753
997 369 836
1095 399 918
1194 431 999
1292 462 1081
1390 494 1163
1490 527 1247
1589 559 1329
1687 592 1411
1786 625 1493
1885 657 1576
1984 691 1658
2083 724 1741
2182 757 1824
2281 790 1906
2380 823 1989
0 240 289
0 240 293
152 248 322
273 257 367
377 267 420
482 284 486
585 304 557
684 324 629
787 349 706
885 374 783
985 401 861
1085 430 940
1185 458 1020
1285 488 1101
1383 517 1180
1483 548 1262
1582 579 1342
1682 611 1424
1781 643 1506
1881 674 1588
1979 706 1669
2079 738 1751
2178 771 1833
2277 803 1915
2376 836 1997
0 328 425
0 330 431
0 334 448
100 337 477
295 347 520
425 360 571
541 376 630
650 391 694
757 411 762
861 433 833
963 454 905
1066 479 981
1167 504 1056
1268 530 1133
1369 558 1211
1470 586 1290
1570 614 1368
1670 644 1448
1770 673 1528
1871 704 1609
1970 734 1689
2070 765 1770
2170 796 1851
2269 827 1932
2369 859 2013
0 423 564
0 425 569
0 428 582
0 431 602
0 440 636
314 448 675
465 460 725
592 472 779
709 488 838
820 505 902
928 523 968
1035 543 1037
1140 565 1109
1244 588 1181
1348 613 1256
1450 637 1331
1552 664 1407
1653 691 1484
1754 718 1562
1856 746 1641
1956 774 1719
2057 803 1798
2157 832 1877
2258 862 1957
2358 892 2038
0 523 705
0 525 709
0 525 717
0 530 735
0 535 760
0 541 792
324 550 833
499 562 880
636 572 931
762 587 987
879 603 1047
992 620 1110
1103 639 1176
1210 658 1244
1317 679 1314
1422 702 1386
1526 725 1458
1630 749 1532
1733 774 1607
1835 799 1682
1937 825 1759
2039 852 1836
2141 880 1914
2241 907 1991
2343 935 2070
0 623 845
0 623 847
0 625 855
0 627 868
0 631 890
0 637 917
0 644 950
328 654 991
525 663 1035
676 675 1084
810 689 1139
933 704 1196
1050 719 1256
1165 736 1319
1276 755 1384
1385 774 1451
1493 795 1520
1599 816 1590
1704 838 1662
1809 862 1735
1913 886 1809
2016 910 1883
2119 935 1958
2221 961 2034
2323 988 2110
0 724 986
0 724 988
0 725 994
0 727 1006
0 731 1023
0 735 1046
0 741 1074
0 749 1109
322 757 1148
547 767 1192
712 779 1240
852 791 1291
983 806 1346
1105 820 1404
1223 836 1465
1338 854 1528
1449 872 1593
1559 891 1659
1668 911 1727
1775 932 1796
1881 954 1867
1987 977 1939
2091 999 2011
2195 1023 2085
2299 1047 2159
0 823 1127
0 824 1128
0 825 1133
0 827 1143
0 831 1158
0 834 1177
0 839 1202
0 845 1232
0 853 1266
308 862 1305
566 872 1349
743 883 1396
893 895 1446
1028 908 1498
1156 922 1555
1278 937 1614
1396 954 1674
1511 971 1737
1623 989 1801
1734 1008 1867
1843 1028 1934
1951 1048 2003
2057 1069 2073
2164 1091 2144
2269 1114 2216
0 925 1266
0 926 1268
0 926 1273
0 928 1282
0 931 1294
0 933 1311
0 939 1334
0 944 1359
0 950 1390
0 958 1425
282 967 1464
579 977 1506
770 987 1552
928 999 1600
1071 1011 1652
1204 1025 1707
1330 1039 1763
1451 1055 1822
1568 1071 1883
1684 1089 1946
1797 1106 2010
1908 1125 2075
2018 1145 2142
2126 1165 2210
2234 1186 2279
0 1027 1408
0 1027 1409
0 1028 1413
0 1029 1420
0 1031 1431
0 1034 1446
0 1038 1466
0 1043 1489
0 1049 1517
0 1056 1548
0 1064 1583
243 1072 1622
588 1081 1663
794 1092 1709
961 1103 1756
1110 1115 1806
1249 1129 1860
1378 1142 1914
1504 1157 1972
1624 1173 2031
1742 1189 2092
1857 1206 2154
1970 1224 2219
2082 1243 2284
2192 1262 2350
