Examples/Channels - Pale colds + warmth.3dl
#25pt 3DLUT created by 3D LUT Creator Pro (c) Oleg Sharonov
#Copyright Oleg Sharonov
#IMAGEPROFILE sRGB IEC61966-2.1 v.2.10
#INPUTGAMMA sRGB IEC61966-2.1 v.2.10
#OUTPUTGAMMA sRGB IEC61966-2.1 v.2.10
0 256 512 768 1023
0 0 0
663 915 906
1392 1921 1901
2245 2896 2795
3065 3673 3495
668 1061 735
896 1100 954
1517 2002 1901
2322 2937 2795
3109 3695 3495
1404 2228 1541
1526 2228 1642
1966 2306 2000
2617 3097 2795
3282 3784 3495
2264 3275 2340
2339 3275 2393
2626 3275 2595
3079 3364 2907
3557 3954 3495
3086 4095 2999
3129 4095 3027
3296 4095 3140
3564 4095 3344
3846 4095 3495
1075 0 0
1075 866 906
1518 1902 1901
2323 2887 2795
3109 3668 3495
1076 1062 668
1076 1062 906
1634 1984 1901
2397 2928 2795
3152 3690 3495
1529 2228 1515
1642 2228 1618
2057 2291 1982
2679 3089 2795
3319 3780 3495
2341 3275 2327
2413 3275 2381
2688 3275 2585
3123 3358 2900
3585 3950 3495
3130 4095 2992
3172 4095 3020
3332 4095 3133
3591 4095 3339
3860 4095 3495
2401 0 0
2400 608 906
2400 1818 1901
2619 2846 2795
3283 3647 3495
2400 1062 0
2400 1062 906
2400 1905 1901
2680 2888 2795
3320 3669 3495
2400 2228 1394
2400 2228 1508
2400 2228 1901
2917 3055 2795
3460 3760 3495
2634 3275 2267
2694 3275 2323
2925 3275 2538
3295 3331 2866
3691 3932 3495
3301 4095 2962
3336 4095 2991
3472 4095 3106
3696 4095 3315
3913 4095 3495
3568 0 0
3568 0 906
3568 1628 1901
3568 2758 2795
3568 3604 3495
3568 1061 0
3568 1061 906
3568 1728 1901
3568 2804 2795
3587 3626 3495
3568 2228 1096
3569 2228 1246
3568 2228 1901
3568 2982 2795
3692 3719 3495
3568 3275 2135
3568 3275 2198
3568 3275 2436
3568 3275 2795
3849 3894 3495
3573 4095 2897
3599 4095 2928
3701 4095 3050
3852 4095 3266
3995 4095 3495
4095 0 0
4095 0 906
4095 1250 1901
4095 2604 2795
4095 3531 3495
4095 1061 0
4095 1062 906
4095 1384 1901
4095 2655 2795
4095 3554 3495
4095 2228 0
4095 2228 906
4095 2228 1901
4095 2854 2795
4095 3652 3495
4095 3275 1888
4095 3275 1965
4095 3275 2249
4095 3275 2795
4095 3833 3495
4095 4095 2785
4095 4095 2819
4095 4095 2953
4095 4095 3184
4095 4095 3495
