Examples/Channels - 2-Strip.3dl
#25pt 3DLUT created by 3D LUT Creator Pro (c) Oleg Sharonov
#Copyright Oleg Sharonov
#INPUTGAMMA sRGB IEC61966-2.1 v.2.10
#IMAGEPROFILE sRGB IEC61966-2.1 v.2.10
#OUTPUTGAMMA sRGB IEC61966-2.1 v.2.10
0 256 512 768 1023
0 0 0
436 785 880
872 1570 1759
1308 2355 2638
1745 3141 3517
0 337 510
116 1123 1390
552 1909 2270
988 2693 3149
1424 3479 4029
0 677 1023
0 1461 1902
233 2247 2782
667 3032 3661
1103 3817 4095
0 1015 1535
0 1800 2413
0 2585 3293
347 3370 4095
784 4095 4095
0 1353 2046
0 2138 2925
0 2923 3804
23 3708 4095
462 4095 4095
907 0 0
1344 686 512
1780 1471 1392
2216 2256 2271
2652 3041 3150
588 240 145
1024 1024 1024
1460 1809 1903
1896 2594 2782
2332 3379 3662
267 577 656
703 1362 1535
1139 2147 2414
1576 2932 3294
2012 3717 4095
0 915 1167
383 1700 2046
819 2485 2926
1255 3271 3805
1691 4056 4095
0 1253 1678
61 2038 2558
499 2824 3437
935 3609 4095
1371 4095 4095
1816 0 0
2252 586 145
2688 1371 1025
3124 2156 1904
3560 2941 2783
1495 139 0
1932 924 657
2368 1709 1536
2804 2495 2415
3240 3280 3295
1175 477 289
1611 1262 1168
2048 2048 2048
2484 2832 2927
2920 3618 3806
855 815 800
1291 1601 1679
1727 2386 2559
2163 3171 3438
2600 3956 4095
535 1154 1312
971 1939 2191
1407 2724 3070
1843 3509 3950
2279 4095 4095
2724 0 0
3160 486 0
3596 1271 658
4032 2057 1537
4095 2842 2417
2404 39 0
2840 824 289
3276 1610 1169
3712 2395 2049
4095 3180 2928
2083 377 0
2519 1163 801
2955 1948 1681
3392 2733 2560
3828 3518 3439
1763 716 433
2199 1501 1313
2635 2286 2192
3071 3071 3071
3507 3856 3951
1443 1054 945
1878 1839 1824
2315 2624 2703
2751 3409 3583
3187 4095 4095
3632 0 0
4068 386 0
4095 1171 289
4095 1957 1170
4095 2742 2049
3312 0 0
3748 725 0
4095 1510 802
4095 2295 1681
4095 3080 2561
2991 278 0
3427 1063 434
3864 1848 1313
4095 2633 2193
4095 3418 3072
2670 616 68
3107 1401 946
3543 2187 1825
3979 2972 2704
4095 3757 3583
2350 955 578
2787 1740 1457
3223 2525 2337
3659 3310 3216
4095 4095 4095
