Examples/Channels - Black and White from Red Channel.3dl
#25pt 3DLUT created by 3D LUT Creator Pro (c) Oleg Sharonov
#Copyright Oleg Sharonov
#IMAGEPROFILE 
#INPUTGAMMA 
#OUTPUTGAMMA 
0 128 256 384 512 640 768 896 1023
0 0 0
0 0 0
0 0 0
0 0 0
0 0 0
0 0 0
0 0 0
0 0 0
0 0 0
0 0 0
0 0 0
0 0 0
0 0 0
0 0 0
0 0 0
0 0 0
0 0 0
0 0 0
0 0 0
0 0 0
0 0 0
0 0 0
0 0 0
0 0 0
0 0 0
0 0 0
0 0 0
0 0 0
0 0 0
0 0 0
0 0 0
0 0 0
0 0 0
0 0 0
0 0 0
0 0 0
0 0 0
0 0 0
0 0 0
0 0 0
0 0 0
0 0 0
0 0 0
0 0 0
0 0 0
0 0 0
0 0 0
0 0 0
0 0 0
0 0 0
0 0 0
0 0 0
0 0 0
0 0 0
0 0 0
0 0 0
0 0 0
0 0 0
0 0 0
0 0 0
0 0 0
0 0 0
0 0 0
0 0 0
0 0 0
0 0 0
0 0 0
0 0 0
0 0 0
0 0 0
0 0 0
0 0 0
0 0 0
0 0 0
0 0 0
0 0 0
0 0 0
0 0 0
0 0 0
0 0 0
0 0 0
512 512 512
512 512 512
512 512 512
512 512 512
512 512 512
512 512 512
512 512 512
512 512 512
512 512 512
512 512 512
512 512 512
512 512 512
512 512 512
512 512 512
512 512 512
512 512 512
512 512 512
512 512 512
512 512 512
512 512 512
512 512 512
512 512 512
512 512 512
512 512 512
512 512 512
512 512 512
512 512 512
512 512 512
512 512 512
512 512 512
512 512 512
512 512 512
512 512 512
512 512 512
512 512 512
512 512 512
512 512 512
512 512 512
512 512 512
512 512 512
512 512 512
512 512 512
512 512 512
512 512 512
512 512 512
512 512 512
512 512 512
512 512 512
512 512 512
512 512 512
512 512 512
512 512 512
512 512 512
512 512 512
512 512 512
512 512 512
512 512 512
512 512 512
512 512 512
512 512 512
512 512 512
512 512 512
512 512 512
512 512 512
512 512 512
512 512 512
512 512 512
512 512 512
512 512 512
512 512 512
512 512 512
512 512 512
512 512 512
512 512 512
512 512 512
512 512 512
512 512 512
512 512 512
512 512 512
512 512 512
512 512 512
1024 1024 1024
1024 1024 1024
1024 1024 1024
1024 1024 1024
1024 1024 1024
1024 1024 1024
1024 1024 1024
1024 1024 1024
1024 1024 1024
1024 1024 1024
1024 1024 1024
1024 1024 1024
1024 1024 1024
1024 1024 1024
1024 1024 1024
1024 1024 1024
1024 1024 1024
1024 1024 1024
1024 1024 1024
1024 1024 1024
1024 1024 1024
1024 1024 1024
1024 1024 1024
1024 1024 1024
1024 1024 1024
1024 1024 1024
1024 1024 1024
1024 1024 1024
1024 1024 1024
1024 1024 1024
1024 1024 1024
1024 1024 1024
1024 1024 1024
1024 1024 1024
1024 1024 1024
1024 1024 1024
1024 1024 1024
1024 1024 1024
1024 1024 1024
1024 1024 1024
1024 1024 1024
1024 1024 1024
1024 1024 1024
1024 1024 1024
1024 1024 1024
1024 1024 1024
1024 1024 1024
1024 1024 1024
1024 1024 1024
1024 1024 1024
1024 1024 1024
1024 1024 1024
1024 1024 1024
1024 1024 1024
1024 1024 1024
1024 1024 1024
1024 1024 1024
1024 1024 1024
1024 1024 1024
1024 1024 1024
1024 1024 1024
1024 1024 1024
1024 1024 1024
1024 1024 1024
1024 1024 1024
1024 1024 1024
1024 1024 1024
1024 1024 1024
1024 1024 1024
1024 1024 1024
1024 1024 1024
1024 1024 1024
1024 1024 1024
1024 1024 1024
1024 1024 1024
1024 1024 1024
1024 1024 1024
1024 1024 1024
1024 1024 1024
1024 1024 1024
1024 1024 1024
1536 1536 1536
1536 1536 1536
1536 1536 1536
1536 1536 1536
1536 1536 1536
1536 1536 1536
1536 1536 1536
1536 1536 1536
1536 1536 1536
1536 1536 1536
1536 1536 1536
1536 1536 1536
1536 1536 1536
1536 1536 1536
1536 1536 1536
1536 1536 1536
1536 1536 1536
1536 1536 1536
1536 1536 1536
1536 1536 1536
1536 1536 1536
1536 1536 1536
1536 1536 1536
1536 1536 1536
1536 1536 1536
1536 1536 1536
1536 1536 1536
1536 1536 1536
1536 1536 1536
1536 1536 1536
1536 1536 1536
1536 1536 1536
1536 1536 1536
1536 1536 1536
1536 1536 1536
1536 1536 1536
1536 1536 1536
1536 1536 1536
1536 1536 1536
1536 1536 1536
1536 1536 1536
1536 1536 1536
1536 1536 1536
1536 1536 1536
1536 1536 1536
1536 1536 1536
1536 1536 1536
1536 1536 1536
1536 1536 1536
1536 1536 1536
1536 1536 1536
1536 1536 1536
1536 1536 1536
1536 1536 1536
1536 1536 1536
1536 1536 1536
1536 1536 1536
1536 1536 1536
1536 1536 1536
1536 1536 1536
1536 1536 1536
1536 1536 1536
1536 1536 1536
1536 1536 1536
1536 1536 1536
1536 1536 1536
1536 1536 1536
1536 1536 1536
1536 1536 1536
1536 1536 1536
1536 1536 1536
1536 1536 1536
1536 1536 1536
1536 1536 1536
1536 1536 1536
1536 1536 1536
1536 1536 1536
1536 1536 1536
1536 1536 1536
1536 1536 1536
1536 1536 1536
2048 2048 2048
2048 2048 2048
2048 2048 2048
2048 2048 2048
2048 2048 2048
2048 2048 2048
2048 2048 2048
2048 2048 2048
2048 2048 2048
2048 2048 2048
2048 2048 2048
2048 2048 2048
2048 2048 2048
2048 2048 2048
2048 2048 2048
2048 2048 2048
2048 2048 2048
2048 2048 2048
2048 2048 2048
2048 2048 2048
2048 2048 2048
2048 2048 2048
2048 2048 2048
2048 2048 2048
2048 2048 2048
2048 2048 2048
2048 2048 2048
2048 2048 2048
2048 2048 2048
2048 2048 2048
2048 2048 2048
2048 2048 2048
2048 2048 2048
2048 2048 2048
2048 2048 2048
2048 2048 2048
2048 2048 2048
2048 2048 2048
2048 2048 2048
2048 2048 2048
2048 2048 2048
2048 2048 2048
2048 2048 2048
2048 2048 2048
2048 2048 2048
2048 2048 2048
2048 2048 2048
2048 2048 2048
2048 2048 2048
2048 2048 2048
2048 2048 2048
2048 2048 2048
2048 2048 2048
2048 2048 2048
2048 2048 2048
2048 2048 2048
2048 2048 2048
2048 2048 2048
2048 2048 2048
2048 2048 2048
2048 2048 2048
2048 2048 2048
2048 2048 2048
2048 2048 2048
2048 2048 2048
2048 2048 2048
2048 2048 2048
2048 2048 2048
2048 2048 2048
2048 2048 2048
2048 2048 2048
2048 2048 2048
2048 2048 2048
2048 2048 2048
2048 2048 2048
2048 2048 2048
2048 2048 2048
2048 2048 2048
2048 2048 2048
2048 2048 2048
2048 2048 2048
2559 2559 2559
2559 2559 2559
2559 2559 2559
2559 2559 2559
2559 2559 2559
2559 2559 2559
2559 2559 2559
2559 2559 2559
2559 2559 2559
2559 2559 2559
2559 2559 2559
2559 2559 2559
2559 2559 2559
2559 2559 2559
2559 2559 2559
2559 2559 2559
2559 2559 2559
2559 2559 2559
2559 2559 2559
2559 2559 2559
2559 2559 2559
2559 2559 2559
2559 2559 2559
2559 2559 2559
2559 2559 2559
2559 2559 2559
2559 2559 2559
2559 2559 2559
2559 2559 2559
2559 2559 2559
2559 2559 2559
2559 2559 2559
2559 2559 2559
2559 2559 2559
2559 2559 2559
2559 2559 2559
2559 2559 2559
2559 2559 2559
2559 2559 2559
2559 2559 2559
2559 2559 2559
2559 2559 2559
2559 2559 2559
2559 2559 2559
2559 2559 2559
2559 2559 2559
2559 2559 2559
2559 2559 2559
2559 2559 2559
2559 2559 2559
2559 2559 2559
2559 2559 2559
2559 2559 2559
2559 2559 2559
2559 2559 2559
2559 2559 2559
2559 2559 2559
2559 2559 2559
2559 2559 2559
2559 2559 2559
2559 2559 2559
2559 2559 2559
2559 2559 2559
2559 2559 2559
2559 2559 2559
2559 2559 2559
2559 2559 2559
2559 2559 2559
2559 2559 2559
2559 2559 2559
2559 2559 2559
2559 2559 2559
2559 2559 2559
2559 2559 2559
2559 2559 2559
2559 2559 2559
2559 2559 2559
2559 2559 2559
2559 2559 2559
2559 2559 2559
2559 2559 2559
3071 3071 3071
3071 3071 3071
3071 3071 3071
3071 3071 3071
3071 3071 3071
3071 3071 3071
3071 3071 3071
3071 3071 3071
3071 3071 3071
3071 3071 3071
3071 3071 3071
3071 3071 3071
3071 3071 3071
3071 3071 3071
3071 3071 3071
3071 3071 3071
3071 3071 3071
3071 3071 3071
3071 3071 3071
3071 3071 3071
3071 3071 3071
3071 3071 3071
3071 3071 3071
3071 3071 3071
3071 3071 3071
3071 3071 3071
3071 3071 3071
3071 3071 3071
3071 3071 3071
3071 3071 3071
3071 3071 3071
3071 3071 3071
3071 3071 3071
3071 3071 3071
3071 3071 3071
3071 3071 3071
3071 3071 3071
3071 3071 3071
3071 3071 3071
3071 3071 3071
3071 3071 3071
3071 3071 3071
3071 3071 3071
3071 3071 3071
3071 3071 3071
3071 3071 3071
3071 3071 3071
3071 3071 3071
3071 3071 3071
3071 3071 3071
3071 3071 3071
3071 3071 3071
3071 3071 3071
3071 3071 3071
3071 3071 3071
3071 3071 3071
3071 3071 3071
3071 3071 3071
3071 3071 3071
3071 3071 3071
3071 3071 3071
3071 3071 3071
3071 3071 3071
3071 3071 3071
3071 3071 3071
3071 3071 3071
3071 3071 3071
3071 3071 3071
3071 3071 3071
3071 3071 3071
3071 3071 3071
3071 3071 3071
3071 3071 3071
3071 3071 3071
3071 3071 3071
3071 3071 3071
3071 3071 3071
3071 3071 3071
3071 3071 3071
3071 3071 3071
3071 3071 3071
3583 3583 3583
3583 3583 3583
3583 3583 3583
3583 3583 3583
3583 3583 3583
3583 3583 3583
3583 3583 3583
3583 3583 3583
3583 3583 3583
3583 3583 3583
3583 3583 3583
3583 3583 3583
3583 3583 3583
3583 3583 3583
3583 3583 3583
3583 3583 3583
3583 3583 3583
3583 3583 3583
3583 3583 3583
3583 3583 3583
3583 3583 3583
3583 3583 3583
3583 3583 3583
3583 3583 3583
3583 3583 3583
3583 3583 3583
3583 3583 3583
3583 3583 3583
3583 3583 3583
3583 3583 3583
3583 3583 3583
3583 3583 3583
3583 3583 3583
3583 3583 3583
3583 3583 3583
3583 3583 3583
3583 3583 3583
3583 3583 3583
3583 3583 3583
3583 3583 3583
3583 3583 3583
3583 3583 3583
3583 3583 3583
3583 3583 3583
3583 3583 3583
3583 3583 3583
3583 3583 3583
3583 3583 3583
3583 3583 3583
3583 3583 3583
3583 3583 3583
3583 3583 3583
3583 3583 3583
3583 3583 3583
3583 3583 3583
3583 3583 3583
3583 3583 3583
3583 3583 3583
3583 3583 3583
3583 3583 3583
3583 3583 3583
3583 3583 3583
3583 3583 3583
3583 3583 3583
3583 3583 3583
3583 3583 3583
3583 3583 3583
3583 3583 3583
3583 3583 3583
3583 3583 3583
3583 3583 3583
3583 3583 3583
3583 3583 3583
3583 3583 3583
3583 3583 3583
3583 3583 3583
3583 3583 3583
3583 3583 3583
3583 3583 3583
3583 3583 3583
3583 3583 3583
4095 4095 4095
4095 4095 4095
4095 4095 4095
4095 4095 4095
4095 4095 4095
4095 4095 4095
4095 4095 4095
4095 4095 4095
4095 4095 4095
4095 4095 4095
4095 4095 4095
4095 4095 4095
4095 4095 4095
4095 4095 4095
4095 4095 4095
4095 4095 4095
4095 4095 4095
4095 4095 4095
4095 4095 4095
4095 4095 4095
4095 4095 4095
4095 4095 4095
4095 4095 4095
4095 4095 4095
4095 4095 4095
4095 4095 4095
4095 4095 4095
4095 4095 4095
4095 4095 4095
4095 4095 4095
4095 4095 4095
4095 4095 4095
4095 4095 4095
4095 4095 4095
4095 4095 4095
4095 4095 4095
4095 4095 4095
4095 4095 4095
4095 4095 4095
4095 4095 4095
4095 4095 4095
4095 4095 4095
4095 4095 4095
4095 4095 4095
4095 4095 4095
4095 4095 4095
4095 4095 4095
4095 4095 4095
4095 4095 4095
4095 4095 4095
4095 4095 4095
4095 4095 4095
4095 4095 4095
4095 4095 4095
4095 4095 4095
4095 4095 4095
4095 4095 4095
4095 4095 4095
4095 4095 4095
4095 4095 4095
4095 4095 4095
4095 4095 4095
4095 4095 4095
4095 4095 4095
4095 4095 4095
4095 4095 4095
4095 4095 4095
4095 4095 4095
4095 4095 4095
4095 4095 4095
4095 4095 4095
4095 4095 4095
4095 4095 4095
4095 4095 4095
4095 4095 4095
4095 4095 4095
4095 4095 4095
4095 4095 4095
4095 4095 4095
4095 4095 4095
4095 4095 4095
