Examples/Channels - More green.3dl
#25pt 3DLUT created by 3D LUT Creator Pro (c) Oleg Sharonov
#Copyright Oleg Sharonov
#IMAGEPROFILE sRGB IEC61966-2.1 v.2.10
#INPUTGAMMA sRGB IEC61966-2.1 v.2.10
#OUTPUTGAMMA sRGB IEC61966-2.1 v.2.10
0 128 256 384 512 640 768 896 1023
0 0 0
291 291 590
458 458 1255
537 537 1952
623 623 2643
813 813 3299
909 909 3693
1101 1101 3824
706 706 4095
0 336 0
0 493 493
458 458 1255
537 537 1952
623 623 2643
813 823 3299
909 1050 3693
1101 1373 3824
706 1108 4095
0 670 0
0 778 396
0 981 981
514 717 1915
623 623 2643
813 834 3299
909 1191 3693
1101 1644 3824
706 1509 4095
0 999 0
0 1074 374
0 1250 840
0 1455 1455
525 1361 2428
813 844 3299
909 1331 3693
1101 1915 3824
706 1911 4095
0 1316 0
0 1371 367
0 1519 772
0 1688 1272
0 1900 1900
630 1935 2885
896 1611 3658
1101 2187 3824
706 2313 4095
0 1631 0
0 1672 368
0 1788 732
0 1941 1175
0 2074 1664
0 2299 2299
613 2475 3246
957 2510 3824
706 2715 4095
0 2204 0
0 2227 402
0 2293 781
0 2388 1204
0 2478 1659
0 2536 2116
0 2731 2731
464 2986 3634
631 3107 4095
0 2879 0
0 2890 435
0 2922 847
0 2969 1280
0 3016 1729
0 3045 2178
0 3043 2610
0 3217 3217
82 3517 4088
0 3692 0
0 3695 473
0 3705 932
0 3720 1399
0 3734 1870
0 3741 2340
0 3735 2803
0 3714 3250
0 3841 3841
518 132 132
585 278 562
716 446 1244
801 530 1937
883 623 2630
1033 822 3288
1153 921 3686
1395 1107 3824
1113 710 4095
113 341 0
512 512 512
716 446 1244
801 530 1937
883 623 2630
1033 832 3288
1153 1062 3686
1395 1379 3824
1113 1111 4095
0 670 0
0 778 396
477 997 997
770 680 1930
883 623 2630
1033 842 3288
1153 1202 3686
1395 1650 3824
1113 1513 4095
0 999 0
0 1074 374
0 1250 840
433 1470 1470
756 1348 2454
1033 852 3288
1153 1343 3686
1395 1921 3824
1113 1915 4095
0 1316 0
0 1371 367
0 1519 772
0 1688 1272
330 1916 1916
801 1935 2916
1124 1599 3684
1395 2193 3824
1113 2317 4095
10 1631 0
10 1672 368
10 1788 732
10 1941 1175
10 2074 1664
10 2311 2311
831 2481 3269
1277 2526 3824
1113 2719 4095
141 2204 0
141 2227 402
141 2293 781
141 2388 1204
141 2478 1659
141 2536 2116
141 2737 2737
780 2990 3645
1046 3114 4095
271 2879 0
271 2890 435
271 2922 847
271 2969 1280
271 3016 1729
271 3045 2178
271 3043 2610
271 3219 3219
544 3519 4092
402 3692 0
402 3695 473
402 3705 932
402 3720 1399
402 3734 1870
402 3741 2340
402 3735 2803
402 3714 3250
402 3842 3842
1058 214 214
1076 248 406
1203 404 1160
1310 510 1895
1390 628 2592
1493 852 3257
1550 959 3667
1733 1126 3824
1532 721 4095
854 489 0
1041 482 377
1206 408 1174
1310 510 1895
1390 628 2592
1493 863 3257
1550 1100 3667
1733 1397 3824
1532 1123 4095
297 688 0
461 819 0
1024 1024 1024
1298 618 1895
1390 628 2592
1493 873 3257
1550 1240 3667
1733 1669 3824
1532 1525 4095
0 999 0
0 1074 374
0 1250 840
984 1495 1495
1276 1324 2444
1493 883 3257
1550 1381 3667
1733 1940 3824
1532 1927 4095
0 1316 0
0 1371 367
0 1519 772
0 1688 1272
930 1940 1940
1271 1929 2919
1526 1615 3671
1733 2211 3824
1532 2329 4095
21 1631 0
21 1672 368
21 1788 732
21 1941 1175
21 2074 1664
803 2344 2344
1250 2485 3278
1638 2545 3824
1532 2730 4095
282 2204 0
282 2227 402
282 2293 781
282 2388 1204
282 2478 1659
282 2536 2116
282 2780 2780
1202 2998 3656
1475 3126 4095
543 2879 0
543 2890 435
543 2922 847
543 2969 1280
543 3016 1729
543 3045 2178
543 3043 2610
543 3242 3242
1070 3523 4095
804 3692 0
804 3695 473
804 3705 932
804 3720 1399
804 3734 1870
804 3741 2340
804 3735 2803
804 3714 3250
804 3850 3850
1614 267 267
1614 267 267
1704 362 989
1838 488 1772
1945 657 2541
2038 925 3211
2041 1040 3634
2123 1167 3824
1966 745 4095
1494 556 186
1591 452 238
1708 365 1005
1839 490 1782
1945 657 2541
2038 935 3211
2041 1181 3634
2123 1438 3824
1966 1147 4095
1057 864 0
1164 891 0
1562 1004 921
1850 523 1813
1945 657 2541
2038 945 3211
2041 1322 3634
2123 1710 3824
1966 1549 4095
479 1028 0
584 1064 0
906 1238 726
1536 1536 1536
1847 1287 2432
2038 956 3211
2041 1463 3634
2123 1981 3824
1966 1951 4095
0 1316 0
0 1362 339
0 1519 772
654 1697 1254
1476 1984 1984
1820 1925 2927
2030 1665 3644
2123 2252 3824
1966 2353 4095
31 1631 0
31 1672 368
31 1788 732
31 1941 1175
31 2082 1663
1379 2393 2393
1759 2497 3293
2050 2575 3824
1966 2755 4095
422 2204 0
422 2227 402
422 2293 781
422 2388 1204
422 2478 1659
422 2536 2116
1214 2828 2828
1701 3012 3667
1917 3146 4095
814 2879 0
814 2890 435
814 2922 847
814 2969 1280
814 3016 1729
814 3045 2178
814 3043 2610
814 3303 3303
1612 3531 4095
1206 3692 0
1206 3695 473
1206 3705 932
1206 3720 1399
1206 3734 1870
1206 3741 2340
1206 3735 2803
1206 3714 3250
1206 3881 3881
2190 328 328
2190 328 328
2225 362 746
2359 497 1606
2487 710 2402
2594 1056 3151
2564 1186 3596
2554 1242 3824
2413 786 4095
2111 580 295
2184 384 324
2227 363 765
2361 500 1616
2488 712 2409
2594 1069 3155
2564 1327 3596
2554 1513 3824
2413 1188 4095
1808 1004 0
1876 1013 0
2129 971 719
2366 504 1641
2491 718 2427
2597 1088 3167
2564 1468 3596
2554 1785 3824
2413 1590 4095
1207 1170 0
1291 1202 0
1599 1351 607
2092 1535 1459
2423 1246 2384
2597 1098 3167
2564 1609 3596
2554 2056 3824
2413 1992 4095
652 1353 0
731 1361 0
937 1515 503
1394 1734 1228
2048 2048 2048
2397 1934 2946
2562 1781 3604
2554 2327 3824
2413 2393 4095
41 1631 0
41 1646 241
41 1774 694
419 1974 1139
1142 2075 1637
1952 2464 2464
2305 2526 3316
2505 2636 3824
2413 2795 4095
563 2204 0
563 2227 402
563 2293 781
563 2388 1204
563 2478 1659
995 2545 2093
1830 2891 2891
2231 3040 3684
2375 3181 4095
1085 2879 0
1085 2890 435
1085 2922 847
1085 2969 1280
1085 3016 1729
1085 3045 2178
1085 3044 2603
1545 3381 3381
2152 3546 4095
1607 3692 0
1607 3695 473
1607 3705 932
1607 3720 1399
1607 3734 1870
1607 3741 2340
1607 3735 2803
1607 3714 3250
1607 3927 3927
2787 434 434
2787 434 445
2787 434 455
2890 564 1419
3019 816 2256
3132 1237 3035
3077 1395 3546
3010 1372 3824
2869 850 4095
2749 522 423
2787 445 445
2787 445 455
2892 577 1430
3020 830 2263
3133 1251 3040
3077 1539 3549
3010 1643 3824
2869 1251 4095
2503 1095 302
2552 1101 328
2706 957 407
2896 594 1458
3022 848 2281
3134 1269 3052
3079 1687 3554
3010 1914 3824
2869 1653 4095
2060 1418 0
2117 1429 10
2279 1461 163
2682 1534 1340
2986 1225 2265
3138 1296 3074
3082 1842 3564
3010 2186 3824
2869 2055 4095
1333 1423 0
1398 1453 10
1604 1568 21
2080 1850 1162
2631 2077 2007
2978 1975 2942
3084 1994 3569
3010 2457 3824
2869 2457 4095
846 1669 0
904 1674 10
1027 1766 21
1316 1889 945
1871 2220 1699
2559 2559 2559
2866 2593 3353
2983 2749 3824
2869 2859 4095
704 2204 0
704 2204 141
704 2268 701
704 2405 1124
1358 2483 1603
1806 2653 2175
2441 2971 2971
2776 3094 3704
2844 3237 4095
1357 2879 0
1357 2889 429
1357 2922 847
1357 2969 1280
1357 3016 1729
1357 3052 2165
1660 3144 2650
2277 3441 3441
2690 3575 4095
2009 3692 0
2009 3695 473
2009 3705 932
2009 3720 1399
2009 3734 1870
2009 3741 2340
2009 3735 2803
2009 3742 3265
2009 3990 3990
3325 497 497
3325 497 638
3325 497 779
3356 557 1302
3436 778 2114
3501 1138 2847
3554 1671 3489
3450 1548 3816
3291 880 4095
3312 631 490
3325 638 638
3325 638 779
3357 700 1311
3437 922 2120
3502 1282 2851
3554 1815 3492
3450 1821 3817
3291 1282 4095
3161 1159 408
3195 1147 567
3292 994 761
3360 846 1334
3439 1069 2133
3503 1430 2860
3555 1964 3497
3451 2098 3818
3291 1684 4095
2902 1559 232
2934 1565 388
3014 1581 571
3248 1546 1266
3435 1354 2134
3504 1584 2876
3556 2120 3507
3454 2379 3820
3291 2086 4095
2466 1849 0
2503 1861 141
2596 1888 282
2850 1987 1132
3202 2107 1983
3419 2072 2813
3559 2283 3522
3457 2666 3823
3291 2488 4095
1896 1924 0
1917 1924 141
1968 1923 282
2284 2157 954
2701 2406 1760
3148 2616 2568
3406 2724 3385
3448 2964 3816
3291 2889 4095
1531 2225 0
1563 2226 141
1634 2238 282
1767 2352 869
1961 2397 1429
2509 2790 2239
3071 3071 3071
3312 3204 3732
3291 3291 4095
1628 2879 0
1628 2879 271
1628 2898 750
1628 2969 1187
1911 3040 1634
2111 3033 2087
2464 3283 2752
2942 3506 3506
3218 3629 4095
2411 3692 0
2411 3692 441
2411 3703 923
2411 3719 1398
2411 3734 1870
2411 3741 2339
2411 3734 2778
2411 3871 3349
2556 4065 4065
3801 540 540
3801 540 812
3801 540 1083
3801 541 1357
3824 714 2083
3824 1001 2753
3824 1349 3346
3822 1826 3815
3693 880 4095
3797 808 537
3801 812 812
3801 812 1083
3802 813 1362
3824 988 2087
3824 1274 2755
3824 1623 3348
3822 2100 3815
3693 1282 4095
3728 1206 479
3750 1184 770
3794 1120 1078
3802 1088 1375
3824 1265 2097
3824 1551 2761
3824 1899 3351
3823 2377 3816
3693 1684 4095
3591 1634 364
3608 1639 648
3648 1653 952
3750 1599 1346
3824 1582 2110
3824 1831 2772
3824 2180 3358
3823 2658 3818
3693 2086 4095
3371 2030 17
3390 2035 359
3437 2048 697
3539 2076 1154
3721 2143 2012
3808 2198 2743
3824 2466 3367
3824 2946 3820
3693 2488 4095
3007 2327 0
3029 2336 271
3084 2357 543
3220 2414 814
3447 2531 1826
3679 2662 2598
3771 2817 3307
3824 3247 3822
3693 2889 4095
2624 2517 0
2634 2516 271
2658 2513 543
2718 2535 814
3027 2783 1605
3340 2969 2349
3638 3140 3113
3779 3394 3774
3693 3291 4095
2391 2879 0
2406 2878 271
2442 2876 543
2490 2925 814
2568 2971 1434
2765 3105 2025
3174 3397 2800
3583 3583 3583
3693 3693 4095
2813 3692 0
2813 3692 402
2813 3693 854
2813 3717 1328
2813 3749 1785
2889 3759 2251
2936 3758 2726
3148 3995 3404
3417 4086 4086
4095 541 541
4095 541 943
4095 541 1344
4095 541 1746
4095 579 2207
4095 677 2731
4095 808 3248
4095 880 3693
4095 880 4095
4095 942 541
4095 943 943
4095 943 1344
4095 943 1746
4095 981 2208
4095 1080 2732
4095 1211 3248
4095 1282 3693
4095 1282 4095
4095 1324 507
4095 1332 922
4095 1344 1344
4095 1344 1746
4095 1385 2211
4095 1483 2734
4095 1615 3250
4095 1684 3693
4095 1684 4095
4095 1699 407
4095 1708 823
4095 1728 1263
4095 1754 1726
4095 1790 2215
4095 1889 2738
4095 2020 3252
4095 2086 3693
4095 2086 4095
4064 2095 223
4071 2098 632
4086 2105 1054
4095 2131 1542
4095 2214 2177
4095 2303 2737
4095 2427 3256
4095 2488 3693
4095 2488 4095
3936 2529 0
3945 2531 402
3966 2538 804
4003 2549 1206
4077 2589 1958
4095 2696 2672
4095 2820 3242
4095 2889 3693
4095 2889 4095
3726 2894 0
3735 2899 402
3760 2911 804
3802 2932 1206
3926 3000 1753
4038 3065 2472
4095 3174 3160
4095 3291 3693
4095 3291 4095
3552 3244 0
3555 3243 402
3562 3241 804
3575 3237 1206
3648 3301 1607
3828 3449 2264
3991 3538 2946
4095 3639 3633
4095 3693 4095
3449 3680 0
3454 3679 402
3466 3676 804
3481 3679 1206
3497 3701 1607
3505 3712 2009
3661 3901 2682
3876 4056 3381
4095 4095 4095
