Examples/Channels - 2-Strip v2.3dl
#25pt 3DLUT created by 3D LUT Creator Pro (c) Oleg Sharonov
#Copyright Oleg Sharonov
#INPUTGAMMA sRGB IEC61966-2.1 v.2.10
#IMAGEPROFILE sRGB IEC61966-2.1 v.2.10
#OUTPUTGAMMA sRGB IEC61966-2.1 v.2.10
0 128 256 384 512 640 768 896 1023
0 0 0
354 324 324
707 646 646
1060 968 968
1414 1291 1290
1767 1614 1613
2121 1936 1936
2474 2259 2259
2828 2582 2582
0 318 349
158 640 670
513 962 993
866 1285 1316
1220 1607 1638
1574 1930 1961
1927 2253 2284
2281 2576 2606
2634 2898 2929
0 634 696
0 956 1018
320 1279 1341
673 1602 1663
1027 1925 1986
1379 2247 2308
1733 2570 2631
2086 2893 2954
2440 3215 3277
0 950 1043
0 1273 1365
126 1596 1688
479 1919 2011
832 2241 2333
1186 2564 2656
1540 2887 2979
1893 3209 3301
2246 3532 3624
0 1267 1390
0 1590 1713
0 1912 2035
284 2235 2358
639 2558 2681
992 2881 3004
1346 3203 3326
1699 3526 3649
2053 3849 3972
0 1584 1738
0 1907 2060
0 2229 2383
90 2552 2706
445 2875 3028
798 3197 3351
1151 3520 3674
1506 3843 3997
1858 4095 4095
0 1901 2085
0 2223 2408
0 2546 2731
0 2869 3053
250 3192 3376
604 3514 3699
958 3837 4021
1311 4095 4095
1665 4095 4095
0 2218 2433
0 2540 2755
0 2863 3078
0 3186 3401
58 3508 3723
411 3831 4046
764 4095 4095
1119 4095 4095
1471 4095 4095
0 2534 2780
0 2857 3103
0 3180 3426
0 3502 3748
0 3825 4071
212 4095 4095
571 4095 4095
924 4095 4095
1277 4095 4095
354 0 0
706 195 165
1060 518 488
1412 840 810
1766 1163 1132
2119 1486 1455
2473 1809 1778
2827 2131 2101
3180 2454 2423
158 189 189
512 512 512
865 835 835
1218 1157 1157
1572 1480 1480
1926 1803 1802
2279 2125 2125
2633 2448 2448
2986 2771 2771
0 505 536
318 828 859
671 1151 1182
1025 1474 1505
1379 1797 1828
1732 2119 2150
2085 2442 2473
2439 2765 2796
2792 3088 3118
0 823 885
123 1145 1207
478 1468 1530
831 1791 1852
1185 2113 2175
1538 2436 2497
1892 2759 2820
2245 3082 3143
2598 3404 3466
0 1140 1232
0 1462 1554
284 1785 1877
637 2108 2200
991 2430 2523
1344 2753 2845
1698 3076 3168
2051 3398 3491
2405 3721 3813
0 1456 1579
0 1779 1902
90 2102 2225
443 2424 2547
797 2747 2870
1150 3070 3193
1504 3393 3515
1857 3715 3838
2211 4038 4095
0 1773 1927
0 2096 2249
0 2419 2572
250 2741 2895
603 3064 3217
957 3387 3540
1310 3709 3863
1663 4032 4095
2018 4095 4095
0 2090 2274
0 2413 2597
0 2735 2920
55 3058 3243
409 3381 3565
763 3704 3888
1117 4026 4095
1469 4095 4095
1824 4095 4095
0 2407 2622
0 2729 2944
0 3052 3267
0 3375 3590
214 3698 3913
569 4020 4095
921 4095 4095
1275 4095 4095
1629 4095 4095
703 0 0
1058 68 6
1412 391 330
1765 713 651
2119 1036 974
2472 1358 1297
2825 1681 1620
3179 2004 1942
3532 2326 2265
510 61 32
865 384 354
1218 707 676
1571 1030 999
1924 1352 1322
2278 1675 1644
2631 1998 1967
2985 2320 2290
3338 2643 2612
318 379 379
670 701 701
1024 1024 1024
1377 1346 1346
1730 1669 1669
2084 1992 1992
2438 2315 2314
2791 2637 2637
3145 2960 2960
123 696 726
477 1018 1049
830 1341 1371
1184 1663 1694
1537 1986 2017
1890 2309 2339
2244 2631 2662
2597 2954 2985
2951 3277 3307
0 1012 1074
282 1335 1396
636 1658 1719
990 1980 2041
1343 2303 2364
1697 2625 2687
2050 2948 3009
2403 3271 3332
2757 3594 3655
0 1329 1421
87 1651 1744
442 1974 2066
796 2297 2389
1149 2619 2711
1502 2942 3034
1856 3265 3357
2210 3588 3680
2563 3910 4003
0 1645 1768
0 1968 2091
248 2291 2414
602 2614 2737
955 2936 3059
1309 3259 3382
1662 3582 3705
2016 3905 4027
2369 4095 4095
0 1962 2116
0 2285 2438
55 2608 2761
408 2931 3084
762 3253 3407
1115 3576 3729
1468 3898 4052
1822 4095 4095
2175 4095 4095
0 2279 2463
0 2602 2786
0 2925 3109
214 3247 3432
568 3570 3754
920 3893 4077
1275 4095 4095
1629 4095 4095
1981 4095 4095
1058 0 0
1409 0 0
1763 262 171
2117 585 493
2471 908 815
2824 1231 1138
3177 1553 1461
3531 1876 1784
3884 2199 2106
862 0 0
1216 257 195
1570 579 518
1923 902 841
2277 1224 1163
2630 1547 1486
2984 1870 1809
3337 2193 2131
3691 2516 2454
668 250 220
1022 573 542
1375 896 865
1730 1219 1188
2083 1541 1511
2437 1864 1834
2790 2187 2156
3143 2510 2479
3497 2832 2802
475 568 568
828 890 890
1182 1213 1213
1536 1536 1536
1889 1858 1858
2243 2181 2181
2596 2504 2504
2950 2827 2826
3303 3149 3149
282 884 914
634 1207 1238
988 1530 1561
1342 1852 1883
1695 2175 2206
2049 2498 2529
2402 2821 2851
2755 3143 3174
3109 3466 3497
87 1201 1262
440 1524 1586
794 1846 1908
1148 2169 2231
1501 2492 2553
1855 2814 2876
2209 3137 3199
2562 3460 3521
2915 3783 3844
0 1518 1610
248 1840 1933
601 2163 2255
954 2486 2578
1308 2809 2901
1661 3131 3223
2015 3454 3546
2368 3777 3869
2721 4095 4095
0 1835 1958
52 2157 2280
408 2480 2603
760 2803 2926
1114 3125 3249
1467 3448 3571
1821 3771 3894
2174 4094 4095
2528 4095 4095
0 2151 2305
0 2474 2628
212 2797 2950
566 3119 3273
920 3442 3596
1273 3765 3919
1627 4088 4095
1980 4095 4095
2334 4095 4095
1409 0 0
1763 0 0
2116 136 13
2470 458 336
2823 781 657
3177 1103 980
3530 1426 1303
3883 1749 1626
4095 2071 1948
1216 0 0
1569 129 36
1922 452 360
2275 774 682
2629 1097 1005
2982 1420 1328
3336 1743 1650
3689 2065 1973
4043 2388 2296
1022 123 61
1375 446 384
1728 769 707
2082 1091 1030
2435 1414 1352
2788 1736 1675
3142 2059 1998
3496 2382 2320
3849 2705 2644
827 440 409
1181 763 732
1534 1085 1054
1888 1408 1377
2241 1731 1700
2595 2053 2023
2948 2376 2345
3302 2699 2668
3655 3021 2991
633 756 757
987 1080 1080
1341 1403 1403
1694 1725 1725
2048 2048 2048
2401 2370 2370
2754 2693 2693
3108 3016 3016
3461 3338 3338
440 1074 1105
793 1396 1427
1147 1719 1750
1500 2042 2072
1854 2364 2395
2207 2687 2718
2561 3010 3041
2914 3332 3363
3267 3655 3686
245 1390 1451
600 1713 1774
953 2036 2097
1306 2358 2420
1660 2681 2743
2013 3004 3065
2367 3326 3388
2720 3649 3711
3073 3972 4033
52 1707 1799
406 2030 2122
759 2352 2445
1113 2675 2767
1466 2998 3090
1820 3321 3413
2173 3643 3735
2526 3966 4058
2879 4095 4095
0 2024 2147
212 2347 2469
565 2669 2792
919 2992 3115
1272 3315 3438
1625 3637 3760
1979 3960 4083
2333 4095 4095
2687 4095 4095
1762 0 0
2115 0 0
2468 6 0
2822 330 177
3175 653 499
3529 975 822
3882 1298 1144
4095 1621 1467
4095 1944 1790
1568 0 0
1921 0 0
2275 324 201
2628 647 523
2981 969 846
3334 1292 1169
3688 1615 1492
4042 1937 1815
4095 2260 2137
1375 0 0
1727 318 225
2080 641 548
2434 963 871
2787 1286 1194
3141 1609 1517
3494 1932 1840
3848 2254 2162
4095 2577 2485
1180 312 250
1533 635 573
1887 958 896
2240 1280 1219
2593 1603 1541
2947 1926 1864
3300 2248 2187
3654 2571 2510
4008 2894 2832
985 629 599
1339 952 921
1693 1274 1244
2046 1597 1567
2400 1920 1889
2753 2243 2212
3107 2565 2535
3460 2888 2857
3814 3211 3180
793 946 946
1145 1269 1269
1499 1591 1591
1853 1914 1914
2206 2237 2237
2559 2559 2559
2913 2882 2882
3266 3205 3205
3620 3527 3527
599 1263 1294
952 1585 1616
1305 1908 1939
1659 2231 2261
2012 2553 2584
2366 2876 2907
2719 3199 3230
3073 3522 3552
3426 3844 3875
404 1579 1641
758 1902 1964
1111 2225 2286
1465 2548 2609
1818 2870 2932
2172 3193 3254
2525 3516 3577
2879 3838 3900
3232 4095 4095
212 1896 1988
564 2219 2311
917 2542 2634
1271 2864 2957
1624 3187 3279
1978 3510 3602
2331 3833 3925
2685 4095 4095
3038 4095 4095
2114 0 0
2466 0 0
2820 0 0
3174 203 19
3528 525 341
3881 848 663
4095 1170 986
4095 1493 1309
4095 1816 1632
1920 0 0
2274 0 0
2626 198 42
2980 520 365
3333 842 689
3687 1164 1011
4040 1487 1334
4095 1810 1656
4095 2133 1979
1726 0 0
2079 189 68
2432 513 391
2786 836 713
3140 1159 1036
3493 1482 1359
3847 1804 1681
4095 2127 2004
4095 2449 2327
1531 183 94
1885 508 416
2239 830 738
2592 1153 1061
2946 1475 1383
3299 1798 1706
3653 2121 2029
4006 2443 2351
4095 2766 2674
1337 501 440
1692 824 763
2045 1147 1086
2398 1470 1408
2752 1792 1731
3105 2115 2053
3459 2438 2376
3812 2760 2699
4095 3083 3022
1144 819 788
1498 1141 1110
1851 1464 1433
2205 1787 1756
2558 2109 2078
2912 2432 2401
3265 2755 2724
3619 3077 3046
3972 3400 3369
950 1135 1135
1304 1458 1458
1658 1780 1781
2011 2103 2103
2364 2426 2426
2718 2749 2749
3071 3071 3071
3425 3394 3394
3778 3717 3717
757 1452 1482
1110 1774 1805
1464 2097 2128
1817 2420 2451
2171 2742 2773
2524 3065 3096
2877 3388 3419
3231 3711 3742
3584 4034 4064
563 1769 1830
917 2091 2153
1270 2414 2475
1623 2737 2798
1977 3060 3121
2330 3382 3444
2684 3705 3766
3037 4027 4089
3391 4095 4095
2466 0 0
2819 0 0
3172 0 0
3526 74 0
3880 398 183
4095 720 505
4095 1043 827
4095 1366 1151
4095 1688 1473
2272 0 0
2625 0 0
2979 68 0
3332 391 206
3686 714 530
4039 1037 852
4095 1359 1175
4095 1683 1498
4095 2005 1821
2078 0 0
2431 61 0
2785 386 233
3138 708 554
3492 1031 877
3845 1354 1200
4095 1676 1523
4095 1999 1846
4095 2322 2168
1884 58 0
2238 379 257
2591 702 579
2944 1025 902
3298 1348 1225
3652 1671 1548
4005 1993 1870
4095 2316 2193
4095 2638 2516
1690 374 282
2044 696 604
2397 1019 927
2751 1342 1250
3104 1665 1572
3458 1987 1895
3811 2310 2218
4095 2633 2541
4095 2955 2863
1496 691 629
1850 1013 952
2203 1336 1274
2557 1659 1597
2910 1981 1920
3264 2304 2243
3617 2627 2565
3971 2950 2888
4095 3272 3211
1303 1008 977
1656 1330 1299
2010 1653 1622
2363 1975 1945
2716 2298 2267
3070 2621 2590
3423 2943 2913
3777 3266 3236
4095 3589 3558
1109 1325 1325
1463 1647 1647
1816 1970 1970
2169 2292 2292
2523 2615 2615
2876 2938 2938
3230 3260 3260
3583 3583 3583
3937 3906 3906
915 1641 1672
1269 1964 1995
1622 2287 2317
1975 2609 2640
2329 2932 2962
2682 3255 3285
3036 3577 3608
3389 3900 3931
3743 4095 4095
2818 0 0
3172 0 0
3525 0 0
3879 0 0
4095 269 23
4095 592 347
4095 916 670
4095 1238 992
4095 1561 1315
2624 0 0
2977 0 0
3331 0 0
3684 264 48
4038 586 372
4095 909 694
4095 1232 1017
4095 1555 1340
4095 1878 1662
2430 0 0
2784 0 0
3137 257 74
3491 580 396
3844 903 719
4095 1226 1041
4095 1549 1364
4095 1872 1687
4095 2194 2010
2236 0 0
2590 252 100
2943 575 422
3297 897 744
3650 1220 1067
4004 1543 1390
4095 1866 1712
4095 2188 2035
4095 2511 2357
2043 245 123
2396 569 446
2750 891 769
3103 1214 1091
3456 1537 1414
3810 1860 1737
4095 2182 2059
4095 2505 2382
4095 2828 2705
1849 563 471
2202 885 793
2556 1209 1117
2909 1531 1439
3263 1854 1762
3616 2177 2084
3970 2499 2407
4095 2822 2730
4095 3145 3052
1655 880 818
2009 1202 1141
2362 1525 1464
2715 1848 1787
3069 2171 2109
3422 2493 2432
3776 2816 2755
4095 3139 3077
4095 3461 3400
1461 1197 1166
1814 1519 1489
2168 1842 1811
2521 2165 2134
2875 2488 2457
3228 2810 2779
3582 3133 3102
3935 3455 3425
4095 3778 3748
1267 1513 1513
1621 1836 1836
1974 2159 2159
2328 2481 2482
2681 2804 2804
3034 3127 3127
3388 3450 3450
3742 3772 3772
4095 4095 4095
