Examples/Channels - Winter.3dl
#25pt 3DLUT created by 3D LUT Creator Pro (c) Oleg Sharonov
#Copyright Oleg Sharonov
#IMAGEPROFILE sRGB IEC61966-2.1 v.2.10
#INPUTGAMMA sRGB IEC61966-2.1 v.2.10
#OUTPUTGAMMA sRGB IEC61966-2.1 v.2.10
0 256 512 768 1023
0 0 0
55 0 1024
107 0 2048
161 0 3071
214 0 4095
781 1553 1544
834 1210 1249
887 1024 2048
940 1024 3071
994 1024 4095
1556 3065 3048
1608 2734 2763
1661 2399 2476
1714 2062 3071
1766 2048 4095
2320 4095 4095
2372 4095 4095
2424 3872 3936
2475 3551 3661
2527 3226 4095
3069 4095 4095
3120 4095 4095
3171 4095 4095
3221 4095 4095
3271 4095 4095
1024 0 0
1024 0 1024
1024 0 2048
1024 0 3071
1024 0 4095
1024 1400 1352
1055 1055 1055
1109 1024 2048
1162 1024 3071
1215 1024 4095
1775 2917 2862
1828 2585 2576
1880 2249 2287
1932 2048 3071
1985 2048 4095
2536 4095 4095
2587 4047 4031
2639 3729 3757
2690 3406 3480
2741 3079 4095
3280 4095 4095
3330 4095 4095
3380 4095 4095
3430 4095 4095
3480 4095 4095
2048 0 0
2048 0 1024
2048 0 2048
2048 0 3071
2048 0 4095
2048 1247 1159
2048 1024 1024
2048 1024 2048
2048 1024 3071
2048 1024 4095
2048 2769 2676
2048 2435 2388
2098 2098 2098
2150 2048 3071
2202 2048 4095
2750 4095 4095
2801 3906 3853
2852 3585 3577
2903 3261 3298
2954 3071 4095
3488 4095 4095
3538 4095 4095
3588 4095 4095
3637 4095 4095
3687 4095 4095
3071 0 0
3071 0 1024
3071 0 2048
3071 0 3071
3071 0 4095
3071 1093 965
3071 1024 1024
3071 1024 2048
3071 1024 3071
3071 1024 4095
3071 2620 2488
3071 2285 2199
3071 2048 2048
3071 2048 3071
3071 2048 4095
3071 4081 3948
3071 3763 3673
3071 3441 3395
3114 3114 3114
3165 3071 4095
3695 4095 4095
3744 4095 4095
3794 4095 4095
3843 4095 4095
3892 4095 4095
4095 0 0
4095 0 1024
4095 0 2048
4095 0 3071
4095 0 4095
4095 1024 771
4095 1024 1024
4095 1024 2048
4095 1024 3071
4095 1024 4095
4095 2471 2300
4095 2134 2009
4095 2048 2048
4095 2048 3071
4095 2048 4095
4095 3939 3769
4095 3620 3492
4095 3296 3213
4095 3071 3071
4095 3071 4095
4095 4095 4095
4095 4095 4095
4095 4095 4095
4095 4095 4095
4095 4095 4095
