Examples/Channels - Only Green Channel.3dl
#25pt 3DLUT created by 3D LUT Creator Pro (c) Oleg Sharonov
#Copyright Oleg Sharonov
#IMAGEPROFILE 
#INPUTGAMMA 
#OUTPUTGAMMA 
0 256 512 768 1023
0 0 0
0 0 0
0 0 0
0 0 0
0 0 0
0 1023 0
0 1023 0
0 1023 0
0 1023 0
0 1023 0
0 2048 0
0 2048 0
0 2048 0
0 2048 0
0 2048 0
0 3071 0
0 3071 0
0 3071 0
0 3071 0
0 3071 0
3 4095 3
3 4095 3
3 4095 3
3 4095 3
3 4095 3
0 0 0
0 0 0
0 0 0
0 0 0
0 0 0
0 1023 0
0 1023 0
0 1023 0
0 1023 0
0 1023 0
0 2048 0
0 2048 0
0 2048 0
0 2048 0
0 2048 0
0 3071 0
0 3071 0
0 3071 0
0 3071 0
0 3071 0
3 4095 3
3 4095 3
3 4095 3
3 4095 3
3 4095 3
0 0 0
0 0 0
0 0 0
0 0 0
0 0 0
0 1023 0
0 1023 0
0 1023 0
0 1023 0
0 1023 0
0 2048 0
0 2048 0
0 2048 0
0 2048 0
0 2048 0
0 3071 0
0 3071 0
0 3071 0
0 3071 0
0 3071 0
3 4095 3
3 4095 3
3 4095 3
3 4095 3
3 4095 3
0 0 0
0 0 0
0 0 0
0 0 0
0 0 0
0 1023 0
0 1023 0
0 1023 0
0 1023 0
0 1023 0
0 2048 0
0 2048 0
0 2048 0
0 2048 0
0 2048 0
0 3071 0
0 3071 0
0 3071 0
0 3071 0
0 3071 0
3 4095 3
3 4095 3
3 4095 3
3 4095 3
3 4095 3
0 0 0
0 0 0
0 0 0
0 0 0
0 0 0
0 1023 0
0 1023 0
0 1023 0
0 1023 0
0 1023 0
0 2048 0
0 2048 0
0 2048 0
0 2048 0
0 2048 0
0 3071 0
0 3071 0
0 3071 0
0 3071 0
0 3071 0
3 4095 3
3 4095 3
3 4095 3
3 4095 3
3 4095 3
