Examples/Channels - Indian Summer.3dl
#25pt 3DLUT created by 3D LUT Creator Pro (c) Oleg Sharonov
#Copyright Oleg Sharonov
0 128 256 384 512 640 768 896 1023
0 0 0
32 271 554
65 543 1109
97 817 1665
129 1089 2220
161 1361 2775
195 1633 3329
228 1906 3884
260 2178 4095
0 280 55
0 573 599
23 849 1157
55 1121 1712
90 1393 2267
123 1665 2822
155 1937 3377
186 2210 3932
220 2482 4095
0 559 107
0 859 641
0 1147 1198
16 1425 1759
48 1697 2314
81 1970 2869
113 2242 3424
145 2514 3979
177 2786 4095
0 841 161
0 1143 690
0 1435 1238
0 1721 1797
6 2001 2361
39 2274 2916
71 2546 3471
103 2818 4026
139 3090 4095
0 1120 214
0 1424 740
0 1720 1282
0 2009 1835
0 2295 2397
0 2577 2963
29 2850 3519
61 3122 4074
97 3394 4095
0 1400 269
0 1705 793
0 2003 1330
0 2294 1878
0 2583 2433
0 2868 2996
0 3151 3562
19 3426 4095
58 3699 4095
0 1681 324
0 1986 845
0 2285 1379
0 2579 1923
0 2869 2475
0 3157 3032
0 3442 3595
0 3725 4095
10 4003 4095
0 1961 377
0 2267 898
0 2567 1429
0 2862 1970
0 3154 2518
0 3444 3072
0 3730 3631
0 4016 4095
3 4095 4095
0 2241 431
0 2547 950
0 2849 1481
0 3145 2019
0 3439 2564
0 3729 3115
0 4017 3670
3 4095 4095
3 4095 4095
461 0 0
552 206 464
586 481 1020
618 752 1575
651 1024 2129
684 1297 2685
716 1569 3239
749 1841 3794
781 2113 4095
458 238 0
512 512 512
545 784 1067
577 1056 1622
610 1329 2177
642 1601 2731
675 1873 3287
707 2145 3842
740 2417 4095
437 543 3
471 816 559
503 1088 1114
536 1361 1669
569 1633 2224
601 1905 2779
633 2177 3334
666 2449 3889
698 2722 4095
396 849 52
430 1120 606
462 1393 1161
494 1665 1716
527 1937 2271
559 2209 2826
592 2481 3381
625 2753 3936
657 3026 4095
356 1152 100
388 1424 653
420 1697 1209
454 1969 1763
486 2241 2318
518 2513 2873
551 2785 3428
584 3058 3983
617 3330 4095
314 1456 145
347 1728 701
379 2001 1256
412 2273 1811
445 2545 2366
477 2817 2920
509 3089 3475
542 3362 4031
575 3634 4095
273 1760 192
306 2032 748
337 2305 1303
370 2577 1858
403 2849 2413
436 3121 2968
468 3394 3523
501 3666 4078
533 3938 4095
233 2064 240
264 2337 795
297 2609 1350
330 2881 1905
362 3154 2460
394 3426 3015
427 3698 3570
462 3970 4095
494 4095 4095
189 2369 287
222 2641 842
255 2913 1397
287 3185 1952
320 3458 2507
352 3730 3062
386 4002 3617
419 4095 4095
448 4095 4095
924 0 0
1074 142 374
1107 416 930
1139 688 1484
1171 960 2039
1204 1232 2594
1237 1504 3149
1269 1777 3704
1302 2049 4095
924 195 0
1033 448 422
1066 720 977
1098 992 1531
1131 1264 2087
1163 1536 2641
1195 1809 3196
1228 2081 3751
1260 2353 4095
917 478 0
992 752 470
1024 1024 1024
1057 1296 1579
1089 1568 2134
1122 1840 2688
1154 2113 3244
1187 2385 3799
1219 2657 4095
903 774 0
950 1056 516
982 1328 1071
1015 1600 1626
1047 1872 2181
1080 2144 2736
1113 2417 3291
1145 2689 3845
1178 2961 4095
876 1087 10
909 1360 564
941 1632 1118
974 1904 1673
1006 2177 2228
1039 2449 2783
1071 2721 3338
1104 2993 3893
1136 3265 4095
835 1392 55
868 1664 611
900 1936 1166
933 2209 1720
965 2481 2275
997 2753 2830
1030 3025 3385
1063 3297 3940
1095 3570 4095
793 1696 103
826 1968 658
859 2240 1213
891 2512 1768
924 2785 2323
957 3057 2878
989 3329 3432
1022 3601 3987
1054 3874 4095
752 2000 149
784 2272 705
817 2544 1260
850 2817 1815
883 3089 2370
915 3361 2925
948 3633 3480
979 3906 4035
1012 4095 4095
711 2304 198
744 2577 752
776 2849 1307
808 3121 1862
841 3393 2417
874 3665 2972
906 3938 3527
940 4095 4082
973 4095 4095
1385 0 0
1595 78 284
1627 351 838
1660 624 1394
1692 896 1949
1725 1168 2504
1757 1440 3059
1790 1712 3614
1822 1984 4095
1386 158 0
1553 383 332
1585 655 886
1618 927 1441
1651 1199 1996
1683 1472 2551
1716 1744 3106
1749 2016 3661
1781 2288 4095
1382 431 0
1512 687 379
1544 959 933
1577 1232 1489
1610 1504 2043
1642 1776 2598
1675 2048 3153
1707 2320 3708
1740 2593 4095
1375 715 0
1470 991 425
1503 1263 981
1536 1536 1536
1568 1808 2091
1601 2080 2646
1633 2352 3201
1666 2625 3755
1698 2897 4095
1362 1010 0
1429 1296 472
1462 1568 1028
1495 1840 1583
1527 2112 2138
1559 2384 2693
1592 2656 3248
1624 2929 3802
1657 3201 4095
1343 1316 0
1388 1599 520
1420 1871 1075
1453 2144 1630
1486 2416 2185
1518 2688 2740
1551 2961 3295
1583 3233 3850
1616 3505 4095
1314 1631 13
1346 1903 568
1379 2176 1123
1412 2448 1677
1444 2720 2232
1477 2992 2787
1510 3265 3342
1542 3537 3897
1575 3809 4095
1273 1935 58
1305 2208 615
1338 2480 1170
1370 2752 1724
1403 3024 2279
1435 3297 2834
1468 3569 3389
1501 3841 3944
1532 4095 4095
1231 2240 107
1264 2512 662
1296 2784 1217
1329 3056 1772
1362 3329 2327
1394 3601 2881
1427 3873 3437
1459 4095 3992
1492 4095 4095
1846 0 0
2114 13 195
2148 287 749
2180 558 1304
2213 831 1859
2246 1103 2414
2278 1375 2968
2310 1648 3523
2343 1920 4078
1847 119 0
2074 318 240
2106 591 796
2139 863 1351
2171 1135 1906
2204 1408 2461
2237 1679 3016
2269 1952 3570
2302 2224 4095
1846 391 0
2032 623 289
2065 895 843
2098 1167 1398
2130 1439 1953
2163 1711 2508
2195 1984 3063
2228 2256 3618
2260 2528 4095
1842 669 0
1991 927 336
2024 1199 891
2056 1471 1445
2089 1743 2000
2121 2015 2555
2154 2288 3110
2187 2560 3665
2219 2832 4095
1834 954 0
1950 1231 383
1982 1503 937
2015 1775 1493
2048 2048 2048
2080 2320 2602
2113 2592 3158
2145 2864 3712
2178 3136 4095
1821 1247 0
1909 1535 430
1941 1808 985
1973 2079 1540
2006 2352 2095
2039 2624 2650
2071 2896 3205
2104 3168 3760
2136 3441 4095
1805 1548 0
1867 1839 477
1900 2111 1032
1933 2384 1587
1965 2656 2142
1997 2928 2697
2030 3200 3252
2063 3472 3807
2096 3745 4095
1784 1861 0
1826 2143 525
1858 2415 1079
1891 2688 1634
1923 2960 2189
1956 3232 2744
1989 3504 3299
2021 3777 3854
2054 4049 4095
1752 2175 16
1785 2447 571
1817 2720 1127
1850 2992 1682
1882 3264 2237
1915 3536 2791
1947 3809 3346
1979 4081 3901
2012 4095 4095
2309 0 0
2603 0 119
2668 222 658
2701 494 1213
2733 766 1768
2766 1039 2323
2799 1311 2878
2831 1583 3433
2864 1855 3988
2310 81 0
2594 255 152
2627 526 706
2659 798 1260
2692 1070 1815
2725 1343 2370
2757 1615 2925
2790 1887 3480
2822 2159 4035
2309 352 0
2553 558 198
2586 831 752
2618 1102 1308
2651 1375 1863
2683 1647 2418
2716 1919 2973
2749 2192 3528
2781 2464 4082
2306 627 0
2512 862 245
2544 1134 800
2577 1407 1355
2609 1679 1910
2642 1951 2465
2674 2223 3020
2707 2496 3575
2740 2768 4095
2300 907 0
2470 1166 293
2503 1439 847
2536 1711 1402
2568 1983 1957
2601 2255 2512
2633 2527 3067
2666 2800 3622
2699 3072 4095
2292 1192 0
2429 1470 339
2461 1742 894
2494 2015 1449
2527 2287 2005
2559 2559 2559
2592 2831 3114
2625 3104 3669
2657 3376 4095
2280 1484 0
2388 1775 388
2420 2047 942
2453 2319 1496
2485 2591 2052
2518 2864 2607
2551 3136 3162
2583 3408 3717
2616 3680 4095
2265 1783 0
2347 2079 434
2379 2351 989
2412 2623 1544
2444 2896 2099
2477 3168 2654
2509 3440 3209
2542 3712 3764
2575 3984 4095
2246 2089 0
2305 2383 481
2338 2655 1036
2370 2927 1591
2403 3199 2146
2435 3472 2701
2468 3744 3256
2501 4016 3811
2533 4095 4095
2770 0 0
3081 0 48
3189 158 568
3221 430 1123
3254 702 1678
3286 974 2233
3319 1247 2788
3352 1519 3343
3385 1791 3898
2772 45 0
3115 189 61
3148 461 615
3180 734 1170
3213 1006 1725
3245 1278 2280
3278 1551 2835
3310 1823 3390
3343 2095 3945
2771 314 0
3074 493 107
3106 765 662
3138 1038 1217
3171 1310 1772
3204 1582 2327
3236 1855 2882
3269 2127 3437
3302 2399 3992
2769 586 0
3033 798 155
3065 1070 710
3097 1342 1265
3130 1614 1820
3163 1887 2375
3195 2159 2930
3228 2431 3484
3260 2703 4040
2765 863 0
2991 1102 203
3024 1374 757
3056 1646 1312
3089 1919 1867
3121 2191 2422
3154 2463 2977
3187 2735 3532
3219 3007 4087
2759 1144 0
2950 1406 250
2982 1678 804
3015 1951 1359
3047 2223 1914
3080 2495 2469
3113 2767 3024
3145 3039 3579
3178 3311 4095
2750 1431 0
2908 1710 297
2941 1982 852
2973 2255 1406
3006 2527 1961
3039 2799 2516
3071 3071 3071
3104 3343 3626
3137 3616 4095
2739 1722 0
2867 2014 343
2900 2287 899
2932 2559 1454
2965 2831 2008
2997 3103 2564
3030 3375 3119
3063 3648 3673
3095 3920 4095
2725 2019 0
2826 2318 391
2858 2591 946
2891 2863 1501
2924 3135 2056
2956 3407 2611
2988 3680 3166
3021 3952 3721
3054 4095 4095
3232 0 0
3559 0 0
3710 94 478
3742 365 1033
3774 637 1588
3807 910 2143
3840 1182 2698
3872 1454 3252
3905 1727 3807
3233 6 0
3616 132 0
3668 398 525
3701 669 1080
3733 942 1635
3766 1214 2190
3799 1486 2745
3831 1758 3300
3864 2030 3855
3234 276 0
3595 430 16
3627 701 572
3659 973 1127
3692 1246 1682
3725 1518 2237
3757 1790 2792
3790 2062 3347
3822 2335 3902
3232 547 0
3553 733 65
3586 1006 619
3618 1278 1175
3651 1550 1729
3683 1822 2284
3716 2094 2839
3748 2367 3394
3781 2639 3949
3229 822 0
3511 1037 113
3544 1310 667
3577 1582 1222
3609 1854 1777
3642 2126 2331
3675 2398 2887
3707 2670 3441
3740 2943 3996
3224 1100 0
3470 1341 158
3503 1614 714
3535 1886 1269
3568 2158 1824
3601 2430 2379
3633 2703 2934
3666 2975 3489
3698 3247 4043
3217 1383 0
3429 1645 206
3462 1918 761
3494 2190 1316
3527 2462 1871
3559 2735 2426
3592 3007 2981
3624 3279 3536
3657 3551 4091
3209 1669 0
3388 1950 252
3420 2222 808
3453 2494 1364
3485 2766 1918
3518 3039 2473
3551 3311 3028
3583 3583 3583
3616 3855 4095
3197 1960 0
3347 2254 302
3379 2526 855
3411 2798 1411
3444 3070 1966
3477 3343 2520
3509 3615 3075
3542 3887 3630
3574 4095 4095
3693 0 0
4036 0 0
4095 26 386
4095 299 942
4095 573 1497
4095 845 2052
4095 1118 2607
4095 1390 3162
4095 1662 3717
3695 0 0
4077 97 0
4095 332 434
4095 604 990
4095 877 1545
4095 1149 2100
4095 1422 2655
4095 1694 3209
4095 1966 3764
3696 238 0
4069 384 0
4095 636 481
4095 909 1037
4095 1181 1592
4095 1454 2147
4095 1725 2702
4095 1998 3257
4095 2270 3812
3695 508 0
4058 674 0
4095 941 530
4095 1213 1084
4095 1485 1639
4095 1757 2194
4095 2030 2749
4095 2302 3304
4095 2575 3859
3693 782 0
4032 973 23
4065 1245 576
4095 1517 1132
4095 1790 1686
4095 2062 2241
4095 2334 2796
4095 2606 3351
4095 2878 3906
3689 1058 0
3991 1277 68
4024 1549 624
4056 1822 1179
4089 2094 1734
4095 2366 2288
4095 2638 2843
4095 2910 3398
4095 3183 3953
3683 1338 0
3949 1581 116
3982 1853 671
4015 2126 1226
4047 2398 1781
4080 2670 2336
4095 2942 2891
4095 3214 3446
4095 3487 4000
3676 1621 0
3908 1885 165
3941 2157 718
3974 2430 1273
4006 2702 1828
4039 2974 2383
4071 3246 2938
4095 3519 3493
4095 3791 4048
3667 1908 0
3867 2190 212
3900 2462 765
3932 2734 1320
3965 3006 1875
3997 3278 2430
4030 3551 2985
4063 3823 3540
4095 4095 4095
