Examples/Channels - Black and White.3dl
#25pt 3DLUT created by 3D LUT Creator Pro (c) Oleg Sharonov
#Copyright Oleg Sharonov
0 43 86 128 171 214 256 299 341 384 427 469 512 555 597 640 682 725 768 810 853 896 938 981 1023 
0 0 0
16 16 16
36 36 36
52 52 52
68 68 68
84 84 84
103 103 103
119 119 119
136 136 136
155 155 155
171 171 171
189 189 189
206 206 206
222 222 222
240 240 240
257 257 257
273 273 273
291 291 291
308 308 308
324 324 324
341 341 341
360 360 360
376 376 376
393 393 393
411 411 411
110 110 110
129 129 129
145 145 145
161 161 161
180 180 180
198 198 198
214 214 214
230 230 230
248 248 248
264 264 264
282 282 282
299 299 299
316 316 316
334 334 334
351 351 351
367 367 367
384 384 384
401 401 401
419 419 419
436 436 436
452 452 452
470 470 470
486 486 486
504 504 504
521 521 521
222 222 222
238 238 238
255 255 255
273 273 273
291 291 291
308 308 308
324 324 324
341 341 341
358 358 358
376 376 376
393 393 393
409 409 409
427 427 427
443 443 443
461 461 461
478 478 478
494 494 494
512 512 512
530 530 530
547 547 547
564 564 564
580 580 580
597 597 597
615 615 615
632 632 632
332 332 332
349 349 349
367 367 367
384 384 384
401 401 401
419 419 419
436 436 436
452 452 452
470 470 470
486 486 486
504 504 504
521 521 521
538 538 538
554 554 554
572 572 572
590 590 590
606 606 606
623 623 623
641 641 641
657 657 657
674 674 674
692 692 692
709 709 709
725 725 725
743 743 743
443 443 443
461 461 461
478 478 478
494 494 494
512 512 512
528 528 528
546 546 546
563 563 563
580 580 580
597 597 597
614 614 614
631 631 631
649 649 649
666 666 666
683 683 683
700 700 700
717 717 717
734 734 734
751 751 751
768 768 768
785 785 785
802 802 802
819 819 819
837 837 837
854 854 854
554 554 554
571 571 571
588 588 588
605 605 605
623 623 623
640 640 640
657 657 657
674 674 674
691 691 691
709 709 709
725 725 725
743 743 743
759 759 759
777 777 777
794 794 794
811 811 811
827 827 827
845 845 845
862 862 862
879 879 879
896 896 896
913 913 913
931 931 931
948 948 948
965 965 965
665 665 665
682 682 682
699 699 699
716 716 716
734 734 734
751 751 751
768 768 768
785 785 785
802 802 802
819 819 819
836 836 836
853 853 853
871 871 871
888 888 888
904 904 904
921 921 921
939 939 939
956 956 956
973 973 973
990 990 990
1007 1007 1007
1024 1024 1024
1041 1041 1041
1058 1058 1058
1076 1076 1076
776 776 776
793 793 793
811 811 811
827 827 827
845 845 845
862 862 862
879 879 879
896 896 896
913 913 913
930 930 930
947 947 947
964 964 964
981 981 981
998 998 998
1015 1015 1015
1033 1033 1033
1050 1050 1050
1067 1067 1067
1084 1084 1084
1101 1101 1101
1118 1118 1118
1135 1135 1135
1152 1152 1152
1169 1169 1169
1186 1186 1186
887 887 887
904 904 904
921 921 921
938 938 938
955 955 955
973 973 973
990 990 990
1007 1007 1007
1024 1024 1024
1041 1041 1041
1058 1058 1058
1075 1075 1075
1092 1092 1092
1109 1109 1109
1126 1126 1126
1143 1143 1143
1161 1161 1161
1178 1178 1178
1195 1195 1195
1212 1212 1212
1229 1229 1229
1246 1246 1246
1263 1263 1263
1280 1280 1280
1297 1297 1297
998 998 998
1015 1015 1015
1032 1032 1032
1049 1049 1049
1066 1066 1066
1083 1083 1083
1101 1101 1101
1118 1118 1118
1134 1134 1134
1151 1151 1151
1169 1169 1169
1186 1186 1186
1203 1203 1203
1220 1220 1220
1237 1237 1237
1254 1254 1254
1272 1272 1272
1288 1288 1288
1306 1306 1306
1323 1323 1323
1340 1340 1340
1357 1357 1357
1374 1374 1374
1391 1391 1391
1408 1408 1408
1109 1109 1109
1126 1126 1126
1143 1143 1143
1160 1160 1160
1177 1177 1177
1194 1194 1194
1211 1211 1211
1229 1229 1229
1246 1246 1246
1263 1263 1263
1280 1280 1280
1296 1296 1296
1314 1314 1314
1331 1331 1331
1348 1348 1348
1365 1365 1365
1382 1382 1382
1399 1399 1399
1416 1416 1416
1434 1434 1434
1451 1451 1451
1467 1467 1467
1485 1485 1485
1502 1502 1502
1519 1519 1519
1220 1220 1220
1237 1237 1237
1253 1253 1253
1271 1271 1271
1288 1288 1288
1305 1305 1305
1322 1322 1322
1339 1339 1339
1356 1356 1356
1373 1373 1373
1391 1391 1391
1408 1408 1408
1425 1425 1425
1442 1442 1442
1459 1459 1459
1476 1476 1476
1493 1493 1493
1510 1510 1510
1528 1528 1528
1545 1545 1545
1562 1562 1562
1579 1579 1579
1596 1596 1596
1613 1613 1613
1630 1630 1630
1330 1330 1330
1348 1348 1348
1365 1365 1365
1382 1382 1382
1399 1399 1399
1416 1416 1416
1433 1433 1433
1450 1450 1450
1467 1467 1467
1484 1484 1484
1501 1501 1501
1519 1519 1519
1536 1536 1536
1553 1553 1553
1570 1570 1570
1587 1587 1587
1604 1604 1604
1621 1621 1621
1638 1638 1638
1655 1655 1655
1672 1672 1672
1689 1689 1689
1707 1707 1707
1724 1724 1724
1741 1741 1741
1441 1441 1441
1458 1458 1458
1476 1476 1476
1493 1493 1493
1510 1510 1510
1527 1527 1527
1544 1544 1544
1561 1561 1561
1578 1578 1578
1595 1595 1595
1612 1612 1612
1629 1629 1629
1647 1647 1647
1663 1663 1663
1681 1681 1681
1698 1698 1698
1715 1715 1715
1732 1732 1732
1749 1749 1749
1766 1766 1766
1783 1783 1783
1800 1800 1800
1818 1818 1818
1834 1834 1834
1851 1851 1851
1552 1552 1552
1569 1569 1569
1586 1586 1586
1604 1604 1604
1620 1620 1620
1638 1638 1638
1655 1655 1655
1672 1672 1672
1689 1689 1689
1706 1706 1706
1723 1723 1723
1740 1740 1740
1757 1757 1757
1775 1775 1775
1792 1792 1792
1809 1809 1809
1826 1826 1826
1843 1843 1843
1860 1860 1860
1877 1877 1877
1894 1894 1894
1911 1911 1911
1928 1928 1928
1946 1946 1946
1962 1962 1962
1663 1663 1663
1681 1681 1681
1697 1697 1697
1714 1714 1714
1732 1732 1732
1749 1749 1749
1766 1766 1766
1783 1783 1783
1800 1800 1800
1817 1817 1817
1834 1834 1834
1851 1851 1851
1868 1868 1868
1885 1885 1885
1903 1903 1903
1919 1919 1919
1937 1937 1937
1954 1954 1954
1971 1971 1971
1988 1988 1988
2005 2005 2005
2022 2022 2022
2039 2039 2039
2056 2056 2056
2074 2074 2074
1774 1774 1774
1791 1791 1791
1808 1808 1808
1825 1825 1825
1842 1842 1842
1860 1860 1860
1877 1877 1877
1893 1893 1893
1911 1911 1911
1928 1928 1928
1945 1945 1945
1962 1962 1962
1979 1979 1979
1996 1996 1996
2013 2013 2013
2030 2030 2030
2048 2048 2048
2064 2064 2064
2082 2082 2082
2099 2099 2099
2116 2116 2116
2133 2133 2133
2150 2150 2150
2167 2167 2167
2184 2184 2184
1885 1885 1885
1902 1902 1902
1919 1919 1919
1936 1936 1936
1953 1953 1953
1970 1970 1970
1988 1988 1988
2005 2005 2005
2021 2021 2021
2039 2039 2039
2056 2056 2056
2073 2073 2073
2090 2090 2090
2107 2107 2107
2124 2124 2124
2141 2141 2141
2158 2158 2158
2176 2176 2176
2192 2192 2192
2210 2210 2210
2227 2227 2227
2244 2244 2244
2261 2261 2261
2278 2278 2278
2295 2295 2295
1996 1996 1996
2013 2013 2013
2030 2030 2030
2047 2047 2047
2064 2064 2064
2081 2081 2081
2098 2098 2098
2116 2116 2116
2133 2133 2133
2149 2149 2149
2167 2167 2167
2184 2184 2184
2201 2201 2201
2218 2218 2218
2235 2235 2235
2252 2252 2252
2269 2269 2269
2287 2287 2287
2303 2303 2303
2320 2320 2320
2338 2338 2338
2355 2355 2355
2372 2372 2372
2389 2389 2389
2406 2406 2406
2107 2107 2107
2124 2124 2124
2141 2141 2141
2158 2158 2158
2175 2175 2175
2192 2192 2192
2209 2209 2209
2226 2226 2226
2244 2244 2244
2260 2260 2260
2277 2277 2277
2295 2295 2295
2312 2312 2312
2329 2329 2329
2346 2346 2346
2363 2363 2363
2380 2380 2380
2397 2397 2397
2414 2414 2414
2431 2431 2431
2448 2448 2448
2466 2466 2466
2483 2483 2483
2500 2500 2500
2517 2517 2517
2218 2218 2218
2235 2235 2235
2252 2252 2252
2269 2269 2269
2286 2286 2286
2303 2303 2303
2320 2320 2320
2337 2337 2337
2354 2354 2354
2371 2371 2371
2389 2389 2389
2405 2405 2405
2423 2423 2423
2440 2440 2440
2457 2457 2457
2474 2474 2474
2491 2491 2491
2508 2508 2508
2525 2525 2525
2542 2542 2542
2559 2559 2559
2576 2576 2576
2594 2594 2594
2611 2611 2611
2628 2628 2628
2329 2329 2329
2345 2345 2345
2363 2363 2363
2380 2380 2380
2397 2397 2397
2414 2414 2414
2431 2431 2431
2448 2448 2448
2465 2465 2465
2482 2482 2482
2499 2499 2499
2516 2516 2516
2533 2533 2533
2551 2551 2551
2568 2568 2568
2585 2585 2585
2602 2602 2602
2619 2619 2619
2636 2636 2636
2653 2653 2653
2670 2670 2670
2687 2687 2687
2704 2704 2704
2722 2722 2722
2739 2739 2739
2439 2439 2439
2456 2456 2456
2473 2473 2473
2491 2491 2491
2508 2508 2508
2525 2525 2525
2542 2542 2542
2559 2559 2559
2576 2576 2576
2593 2593 2593
2610 2610 2610
2627 2627 2627
2644 2644 2644
2661 2661 2661
2679 2679 2679
2696 2696 2696
2713 2713 2713
2730 2730 2730
2747 2747 2747
2764 2764 2764
2781 2781 2781
2798 2798 2798
2815 2815 2815
2832 2832 2832
2850 2850 2850
2550 2550 2550
2567 2567 2567
2584 2584 2584
2601 2601 2601
2619 2619 2619
2636 2636 2636
2653 2653 2653
2670 2670 2670
2687 2687 2687
2704 2704 2704
2721 2721 2721
2738 2738 2738
2755 2755 2755
2772 2772 2772
2789 2789 2789
2807 2807 2807
2824 2824 2824
2841 2841 2841
2858 2858 2858
2875 2875 2875
2892 2892 2892
2909 2909 2909
2926 2926 2926
2943 2943 2943
2960 2960 2960
2661 2661 2661
2678 2678 2678
2695 2695 2695
2712 2712 2712
2729 2729 2729
2747 2747 2747
2764 2764 2764
2781 2781 2781
2798 2798 2798
2815 2815 2815
2832 2832 2832
2849 2849 2849
2866 2866 2866
2883 2883 2883
2900 2900 2900
2917 2917 2917
2934 2934 2934
2952 2952 2952
2969 2969 2969
2986 2986 2986
3003 3003 3003
3020 3020 3020
3037 3037 3037
3054 3054 3054
3071 3071 3071
42 42 42
58 58 58
78 78 78
94 94 94
110 110 110
129 129 129
145 145 145
161 161 161
180 180 180
198 198 198
214 214 214
230 230 230
248 248 248
264 264 264
282 282 282
299 299 299
316 316 316
334 334 334
351 351 351
367 367 367
384 384 384
401 401 401
419 419 419
436 436 436
452 452 452
155 155 155
171 171 171
189 189 189
203 203 203
222 222 222
238 238 238
257 257 257
273 273 273
291 291 291
308 308 308
324 324 324
341 341 341
358 358 358
376 376 376
393 393 393
409 409 409
427 427 427
445 445 445
461 461 461
478 478 478
496 496 496
512 512 512
530 530 530
547 547 547
564 564 564
264 264 264
282 282 282
299 299 299
316 316 316
332 332 332
351 351 351
367 367 367
384 384 384
401 401 401
419 419 419
436 436 436
452 452 452
470 470 470
486 486 486
504 504 504
521 521 521
538 538 538
556 556 556
572 572 572
590 590 590
606 606 606
624 624 624
641 641 641
657 657 657
674 674 674
376 376 376
393 393 393
409 409 409
427 427 427
443 443 443
461 461 461
478 478 478
494 494 494
512 512 512
530 530 530
546 546 546
563 563 563
580 580 580
597 597 597
615 615 615
631 631 631
649 649 649
666 666 666
683 683 683
700 700 700
717 717 717
735 735 735
751 751 751
768 768 768
786 786 786
486 486 486
503 503 503
521 521 521
537 537 537
554 554 554
571 571 571
588 588 588
606 606 606
623 623 623
640 640 640
657 657 657
674 674 674
692 692 692
709 709 709
725 725 725
743 743 743
759 759 759
777 777 777
794 794 794
811 811 811
828 828 828
845 845 845
862 862 862
880 880 880
896 896 896
597 597 597
614 614 614
631 631 631
648 648 648
665 665 665
683 683 683
699 699 699
716 716 716
734 734 734
751 751 751
768 768 768
785 785 785
802 802 802
819 819 819
836 836 836
853 853 853
871 871 871
888 888 888
905 905 905
921 921 921
939 939 939
956 956 956
973 973 973
990 990 990
1007 1007 1007
708 708 708
725 725 725
742 742 742
759 759 759
777 777 777
793 793 793
811 811 811
827 827 827
845 845 845
862 862 862
879 879 879
896 896 896
913 913 913
930 930 930
947 947 947
964 964 964
981 981 981
999 999 999
1015 1015 1015
1033 1033 1033
1050 1050 1050
1067 1067 1067
1084 1084 1084
1101 1101 1101
1118 1118 1118
819 819 819
836 836 836
853 853 853
870 870 870
887 887 887
904 904 904
921 921 921
939 939 939
955 955 955
973 973 973
990 990 990
1007 1007 1007
1024 1024 1024
1041 1041 1041
1058 1058 1058
1075 1075 1075
1092 1092 1092
1110 1110 1110
1127 1127 1127
1143 1143 1143
1161 1161 1161
1178 1178 1178
1195 1195 1195
1212 1212 1212
1229 1229 1229
930 930 930
947 947 947
964 964 964
981 981 981
998 998 998
1015 1015 1015
1032 1032 1032
1049 1049 1049
1067 1067 1067
1083 1083 1083
1101 1101 1101
1118 1118 1118
1134 1134 1134
1152 1152 1152
1169 1169 1169
1186 1186 1186
1203 1203 1203
1220 1220 1220
1238 1238 1238
1254 1254 1254
1272 1272 1272
1289 1289 1289
1306 1306 1306
1323 1323 1323
1340 1340 1340
1041 1041 1041
1058 1058 1058
1075 1075 1075
1092 1092 1092
1109 1109 1109
1126 1126 1126
1143 1143 1143
1160 1160 1160
1177 1177 1177
1195 1195 1195
1211 1211 1211
1229 1229 1229
1246 1246 1246
1263 1263 1263
1280 1280 1280
1297 1297 1297
1314 1314 1314
1331 1331 1331
1348 1348 1348
1365 1365 1365
1383 1383 1383
1399 1399 1399
1417 1417 1417
1434 1434 1434
1451 1451 1451
1151 1151 1151
1168 1168 1168
1186 1186 1186
1202 1202 1202
1220 1220 1220
1237 1237 1237
1254 1254 1254
1271 1271 1271
1288 1288 1288
1305 1305 1305
1323 1323 1323
1340 1340 1340
1356 1356 1356
1374 1374 1374
1391 1391 1391
1408 1408 1408
1425 1425 1425
1442 1442 1442
1459 1459 1459
1476 1476 1476
1493 1493 1493
1510 1510 1510
1528 1528 1528
1545 1545 1545
1562 1562 1562
