Examples/Channels - 2-Strip v2.3dl
#25pt 3DLUT created by 3D LUT Creator Pro (c) Oleg Sharonov
#Copyright Oleg Sharonov
#INPUTGAMMA sRGB IEC61966-2.1 v.2.10
#IMAGEPROFILE sRGB IEC61966-2.1 v.2.10
#OUTPUTGAMMA sRGB IEC61966-2.1 v.2.10
0 256 512 768 1023
0 0 0
707 646 646
1414 1291 1290
2121 1936 1936
2828 2582 2582
0 634 696
320 1279 1341
1027 1925 1986
1733 2570 2631
2440 3215 3277
0 1267 1390
0 1912 2035
639 2558 2681
1346 3203 3326
2053 3849 3972
0 1901 2085
0 2546 2731
250 3192 3376
958 3837 4021
1665 4095 4095
0 2534 2780
0 3180 3426
0 3825 4071
571 4095 4095
1277 4095 4095
703 0 0
1412 391 330
2119 1036 974
2825 1681 1620
3532 2326 2265
318 379 379
1024 1024 1024
1730 1669 1669
2438 2315 2314
3145 2960 2960
0 1012 1074
636 1658 1719
1343 2303 2364
2050 2948 3009
2757 3594 3655
0 1645 1768
248 2291 2414
955 2936 3059
1662 3582 3705
2369 4095 4095
0 2279 2463
0 2925 3109
568 3570 3754
1275 4095 4095
1981 4095 4095
1409 0 0
2116 136 13
2823 781 657
3530 1426 1303
4095 2071 1948
1022 123 61
1728 769 707
2435 1414 1352
3142 2059 1998
3849 2705 2644
633 756 757
1341 1403 1403
2048 2048 2048
2754 2693 2693
3461 3338 3338
245 1390 1451
953 2036 2097
1660 2681 2743
2367 3326 3388
3073 3972 4033
0 2024 2147
565 2669 2792
1272 3315 3438
1979 3960 4083
2687 4095 4095
2114 0 0
2820 0 0
3528 525 341
4095 1170 986
4095 1816 1632
1726 0 0
2432 513 391
3140 1159 1036
3847 1804 1681
4095 2449 2327
1337 501 440
2045 1147 1086
2752 1792 1731
3459 2438 2376
4095 3083 3022
950 1135 1135
1658 1780 1781
2364 2426 2426
3071 3071 3071
3778 3717 3717
563 1769 1830
1270 2414 2475
1977 3060 3121
2684 3705 3766
3391 4095 4095
2818 0 0
3525 0 0
4095 269 23
4095 916 670
4095 1561 1315
2430 0 0
3137 257 74
3844 903 719
4095 1549 1364
4095 2194 2010
2043 245 123
2750 891 769
3456 1537 1414
4095 2182 2059
4095 2828 2705
1655 880 818
2362 1525 1464
3069 2171 2109
3776 2816 2755
4095 3461 3400
1267 1513 1513
1974 2159 2159
2681 2804 2804
3388 3450 3450
4095 4095 4095
