Examples/Channels - Winter.3dl
#25pt 3DLUT created by 3D LUT Creator Pro (c) Oleg Sharonov
#Copyright Oleg Sharonov
#IMAGEPROFILE sRGB IEC61966-2.1 v.2.10
#INPUTGAMMA sRGB IEC61966-2.1 v.2.10
#OUTPUTGAMMA sRGB IEC61966-2.1 v.2.10
0 43 86 128 171 214 256 299 341 384 427 469 512 555 597 640 682 725 768 810 853 896 938 981 1023 
0 0 0
10 0 171
16 0 341
26 0 512
36 0 683
45 0 853
55 0 1024
61 0 1195
71 0 1365
81 0 1536
90 0 1706
97 0 1877
107 0 2048
116 0 2218
126 0 2389
132 0 2559
142 0 2730
152 0 2900
161 0 3071
171 0 3242
177 0 3412
186 0 3583
195 0 3754
206 0 3924
214 0 4095
129 260 260
139 203 209
149 171 341
158 171 512
165 171 683
174 171 853
183 171 1024
192 171 1195
201 171 1365
212 171 1536
220 171 1706
228 171 1877
238 171 2048
245 171 2218
255 171 2389
264 171 2559
273 171 2730
282 171 2900
291 171 3071
299 171 3242
308 171 3412
318 171 3583
326 171 3754
336 171 3924
345 171 4095
260 520 517
269 462 467
278 404 417
287 347 512
295 341 683
306 341 853
314 341 1024
322 341 1195
332 341 1365
341 341 1536
349 341 1706
358 341 1877
367 341 2048
376 341 2218
386 341 2389
394 341 2559
403 341 2730
412 341 2900
420 341 3071
430 341 3242
439 341 3412
448 341 3583
457 341 3754
465 341 3924
474 341 4095
391 779 775
399 722 725
409 664 675
417 606 626
427 548 683
436 512 853
445 512 1024
452 512 1195
462 512 1365
471 512 1536
479 512 1706
489 512 1877
497 512 2048
506 512 2218
516 512 2389
525 512 2559
533 512 2730
542 512 2900
551 512 3071
560 512 3242
569 512 3412
578 512 3583
586 512 3754
595 512 3924
604 512 4095
521 1038 1032
530 981 982
538 923 933
547 865 883
557 807 834
565 750 853
575 692 1024
583 683 1195
592 683 1365
601 683 1536
610 683 1706
618 683 1877
628 683 2048
636 683 2218
646 683 2389
654 683 2559
663 683 2730
672 683 2900
681 683 3071
690 683 3242
698 683 3412
708 683 3583
716 683 3754
725 683 3924
734 683 4095
651 1296 1289
659 1239 1239
668 1181 1190
677 1124 1141
686 1066 1091
696 1009 1042
704 951 1024
713 894 1195
722 853 1365
731 853 1536
740 853 1706
749 853 1877
758 853 2048
766 853 2218
775 853 2389
784 853 2559
793 853 2730
802 853 2900
811 853 3071
819 853 3242
828 853 3412
837 853 3583
846 853 3754
855 853 3924
864 853 4095
781 1553 1544
789 1496 1495
798 1439 1446
807 1382 1396
816 1324 1347
825 1267 1298
834 1210 1249
843 1152 1199
852 1094 1365
861 1037 1536
869 1024 1706
878 1024 1877
887 1024 2048
896 1024 2218
905 1024 2389
914 1024 2559
923 1024 2730
931 1024 2900
940 1024 3071
949 1024 3242
958 1024 3412
967 1024 3583
976 1024 3754
984 1024 3924
994 1024 4095
910 1809 1799
919 1752 1750
928 1695 1701
937 1638 1652
946 1581 1603
955 1524 1554
963 1467 1505
972 1410 1456
981 1352 1406
990 1295 1536
999 1238 1706
1008 1195 1877
1017 1195 2048
1025 1195 2218
1035 1195 2389
1043 1195 2559
1052 1195 2730
1061 1195 2900
1070 1195 3071
1079 1195 3242
1087 1195 3412
1097 1195 3583
1105 1195 3754
1114 1195 3924
1123 1195 4095
1039 2063 2052
1049 2007 2003
1058 1950 1954
1067 1894 1906
1075 1837 1857
1084 1780 1808
1093 1723 1759
1102 1666 1710
1111 1609 1661
1119 1552 1612
1128 1495 1706
1137 1438 1877
1146 1381 2048
1155 1365 2218
1164 1365 2389
1173 1365 2559
1182 1365 2730
1190 1365 2900
1199 1365 3071
1208 1365 3242
1217 1365 3412
1225 1365 3583
1235 1365 3754
1243 1365 3924
1252 1365 4095
1169 2317 2303
1178 2260 2255
1187 2204 2207
1196 2148 2158
1205 2091 2110
1213 2035 2061
1222 1978 2013
1231 1921 1964
1240 1865 1915
1249 1808 1866
1257 1751 1818
1266 1694 1877
1275 1637 2048
1284 1580 2218
1293 1536 2389
1302 1536 2559
1311 1536 2730
1319 1536 2900
1328 1536 3071
1337 1536 3242
1346 1536 3412
1355 1536 3583
1364 1536 3754
1372 1536 3924
1381 1536 4095
1298 2568 2553
1307 2512 2505
1316 2456 2457
1325 2400 2409
1334 2344 2361
1342 2288 2313
1351 2232 2265
1360 2176 2216
1369 2119 2168
1378 2063 2119
1386 2006 2071
1396 1949 2022
1404 1893 2048
1413 1836 2218
1422 1779 2389
1431 1722 2559
1439 1706 2730
1448 1706 2900
1457 1706 3071
1466 1706 3242
1475 1706 3412
1483 1706 3583
1492 1706 3754
1501 1706 3924
1510 1706 4095
1427 2817 2801
1436 2762 2754
1445 2706 2706
1454 2651 2658
1463 2595 2610
1471 2539 2563
1480 2484 2515
1489 2428 2467
1498 2372 2418
1506 2315 2370
1515 2260 2322
1524 2203 2274
1533 2147 2225
1541 2090 2218
1550 2034 2389
1559 1977 2559
1568 1921 2730
1577 1877 2900
1586 1877 3071
1595 1877 3242
1603 1877 3412
1612 1877 3583
1620 1877 3754
1629 1877 3924
1638 1877 4095
1556 3065 3048
1564 3010 3000
1573 2955 2953
1582 2900 2905
1591 2844 2858
1600 2789 2811
1608 2734 2763
1617 2678 2715
1626 2623 2668
1635 2567 2620
1644 2511 2572
1652 2455 2524
1661 2399 2476
1670 2343 2428
1678 2287 2389
1687 2231 2559
1696 2175 2730
1705 2118 2900
1714 2062 3071
1723 2048 3242
1731 2048 3412
1740 2048 3583
1749 2048 3754
1757 2048 3924
1766 2048 4095
1684 3310 3291
1693 3255 3245
1701 3201 3198
1710 3146 3151
1719 3092 3104
1728 3037 3056
1737 2982 3009
1745 2927 2962
1754 2872 2915
1763 2816 2867
1771 2761 2820
1780 2705 2772
1789 2650 2725
1798 2594 2677
1807 2538 2629
1815 2483 2581
1824 2427 2730
1833 2371 2900
1842 2314 3071
1850 2258 3242
1859 2218 3412
1868 2218 3583
1877 2218 3754
1885 2218 3924
1894 2218 4095
1812 3553 3533
1821 3499 3487
1829 3445 3440
1838 3391 3394
1847 3336 3347
1856 3282 3300
1865 3228 3254
1873 3173 3207
1882 3118 3160
1890 3064 3113
1899 3009 3066
1908 2954 3019
1917 2899 2971
1926 2843 2924
1934 2788 2877
1943 2733 2829
1952 2677 2781
1960 2622 2900
1969 2566 3071
1978 2510 3242
1986 2454 3412
1995 2398 3583
2004 2389 3754
2013 2389 3924
2021 2389 4095
1939 3793 3772
1948 3740 3727
1957 3687 3681
1966 3633 3635
1975 3579 3588
1983 3525 3542
1992 3471 3496
2001 3417 3449
2009 3363 3403
2018 3309 3356
2027 3255 3309
2036 3200 3263
2044 3145 3216
2053 3090 3169
2062 3036 3122
2070 2981 3075
2079 2926 3028
2088 2871 2980
2096 2815 3071
2105 2760 3242
2114 2704 3412
2122 2649 3583
2131 2593 3754
2140 2559 3924
2148 2559 4095
2067 4031 4009
2075 3979 3964
2084 3926 3918
2093 3873 3873
2102 3819 3827
2111 3766 3781
2119 3713 3735
2128 3659 3689
2136 3606 3643
2145 3552 3597
2154 3498 3551
2163 3444 3505
2171 3390 3458
2180 3335 3412
2189 3281 3365
2197 3227 3318
2206 3172 3272
2214 3117 3225
2223 3063 3178
2232 3008 3242
2240 2953 3412
2249 2898 3583
2258 2842 3754
2266 2787 3924
2275 2731 4095
2194 4095 4095
2202 4095 4095
2211 4095 4095
2220 4095 4095
2229 4057 4063
2237 4004 4018
2246 3951 3972
2255 3899 3927
2263 3846 3882
2272 3792 3836
2280 3739 3790
2289 3686 3744
2298 3632 3698
2306 3578 3652
2315 3524 3606
2324 3470 3560
2332 3416 3514
2341 3362 3467
2350 3308 3421
2358 3253 3374
2367 3199 3412
2375 3144 3583
2384 3089 3754
2393 3035 3924
2401 2980 4095
2320 4095 4095
2329 4095 4095
2337 4095 4095
2346 4095 4095
2355 4095 4095
2363 4095 4095
2372 4095 4095
2381 4095 4095
2389 4083 4095
2398 4030 4072
2407 3978 4027
2415 3925 3981
2424 3872 3936
2432 3819 3890
2441 3765 3845
2450 3712 3799
2458 3658 3753
2467 3605 3707
2475 3551 3661
2484 3497 3615
2493 3443 3569
2501 3389 3583
2510 3335 3754
2518 3280 3924
2527 3226 4095
2446 4095 4095
2455 4095 4095
2464 4095 4095
2472 4095 4095
2481 4095 4095
2489 4095 4095
2498 4095 4095
2507 4095 4095
2515 4095 4095
2524 4095 4095
2532 4095 4095
2541 4095 4095
2550 4095 4095
2558 4056 4095
2567 4004 4081
2575 3951 4036
2584 3898 3990
2592 3845 3945
2601 3791 3899
2610 3738 3854
2618 3685 3808
2627 3631 3762
2635 3577 3754
2644 3523 3924
2652 3469 4095
2572 4095 4095
2581 4095 4095
2589 4095 4095
2598 4095 4095
2606 4095 4095
2615 4095 4095
2623 4095 4095
2632 4095 4095
2641 4095 4095
2649 4095 4095
2658 4095 4095
2666 4095 4095
2675 4095 4095
2683 4095 4095
2692 4095 4095
2700 4095 4095
2709 4095 4095
2718 4082 4095
2726 4029 4095
2735 3976 4090
2743 3924 4044
2752 3871 3999
2760 3818 3954
2769 3764 3924
2777 3711 4095
2697 4095 4095
2706 4095 4095
2714 4095 4095
2723 4095 4095
2731 4095 4095
2740 4095 4095
2748 4095 4095
2757 4095 4095
2765 4095 4095
2774 4095 4095
2782 4095 4095
2791 4095 4095
2800 4095 4095
2808 4095 4095
2817 4095 4095
2825 4095 4095
2834 4095 4095
2842 4095 4095
2850 4095 4095
2859 4095 4095
2868 4095 4095
2876 4095 4095
2885 4055 4095
2893 4003 4095
2902 3950 4095
2822 4095 4095
2830 4095 4095
2839 4095 4095
2847 4095 4095
2856 4095 4095
2864 4095 4095
2873 4095 4095
2881 4095 4095
2890 4095 4095
2898 4095 4095
2907 4095 4095
2915 4095 4095
2924 4095 4095
2932 4095 4095
2941 4095 4095
2949 4095 4095
2957 4095 4095
2966 4095 4095
2974 4095 4095
2983 4095 4095
2991 4095 4095
3000 4095 4095
3008 4095 4095
3017 4095 4095
3025 4095 4095
2946 4095 4095
2954 4095 4095
2963 4095 4095
2971 4095 4095
2980 4095 4095
2988 4095 4095
2997 4095 4095
3005 4095 4095
3014 4095 4095
3022 4095 4095
3030 4095 4095
3039 4095 4095
3048 4095 4095
3056 4095 4095
3064 4095 4095
3073 4095 4095
3081 4095 4095
3090 4095 4095
3098 4095 4095
3106 4095 4095
3115 4095 4095
3123 4095 4095
3132 4095 4095
3140 4095 4095
3149 4095 4095
3069 4095 4095
3078 4095 4095
3086 4095 4095
3095 4095 4095
3103 4095 4095
3112 4095 4095
3120 4095 4095
3128 4095 4095
3137 4095 4095
3145 4095 4095
3154 4095 4095
3162 4095 4095
3171 4095 4095
3179 4095 4095
3187 4095 4095
3196 4095 4095
3204 4095 4095
3213 4095 4095
3221 4095 4095
3229 4095 4095
3238 4095 4095
3246 4095 4095
3255 4095 4095
3263 4095 4095
3271 4095 4095
171 0 0
171 0 171
171 0 341
171 0 512
171 0 683
171 0 853
171 0 1024
171 0 1195
171 0 1365
171 0 1536
171 0 1706
171 0 1877
171 0 2048
171 0 2218
171 0 2389
171 0 2559
180 0 2730
189 0 2900
198 0 3071
206 0 3242
214 0 3412
225 0 3583
233 0 3754
243 0 3924
250 0 4095
171 235 225
177 177 177
186 171 341
195 171 512
203 171 683
212 171 853
220 171 1024
230 171 1195
238 171 1365
248 171 1536
257 171 1706
267 171 1877
273 171 2048
282 171 2218
293 171 2389
302 171 2559
310 171 2730
318 171 2900
328 171 3071
337 171 3242
345 171 3412
354 171 3583
363 171 3754
372 171 3924
381 171 4095
297 494 485
306 436 434
316 379 384
324 341 512
334 341 683
341 341 853
351 341 1024
360 341 1195
369 341 1365
377 341 1536
386 341 1706
396 341 1877
404 341 2048
414 341 2218
422 341 2389
431 341 2559
440 341 2730
449 341 2900
458 341 3071
467 341 3242
475 341 3412
485 341 3583
493 341 3754
503 341 3924
512 341 4095
428 753 743
437 696 693
446 639 643
454 580 593
464 522 683
472 512 853
481 512 1024
490 512 1195
499 512 1365
508 512 1536
517 512 1706
526 512 1877
535 512 2048
543 512 2218
552 512 2389
562 512 2559
570 512 2730
579 512 2900
588 512 3071
596 512 3242
606 512 3412
615 512 3583
624 512 3754
632 512 3924
642 512 4095
558 1013 1000
566 955 950
576 897 901
584 839 852
593 782 802
602 724 853
611 683 1024
620 683 1195
629 683 1365
637 683 1536
647 683 1706
656 683 1877
664 683 2048
673 683 2218
682 683 2389
691 683 2559
700 683 2730
709 683 2900
718 683 3071
726 683 3242
735 683 3412
744 683 3583
753 683 3754
762 683 3924
771 683 4095
688 1271 1256
696 1213 1207
706 1156 1157
714 1098 1108
724 1041 1059
732 983 1010
741 926 1024
750 868 1195
758 853 1365
768 853 1536
777 853 1706
786 853 1877
794 853 2048
803 853 2218
812 853 2389
821 853 2559
830 853 2730
838 853 2900
848 853 3071
856 853 3242
865 853 3412
874 853 3583
883 853 3754
892 853 3924
901 853 4095
818 1528 1512
827 1470 1463
835 1413 1414
844 1356 1365
853 1299 1315
862 1241 1266
871 1184 1217
880 1127 1195
888 1069 1365
897 1024 1536
907 1024 1706
915 1024 1877
924 1024 2048
933 1024 2218
942 1024 2389
950 1024 2559
959 1024 2730
969 1024 2900
977 1024 3071
986 1024 3242
995 1024 3412
1004 1024 3583
1013 1024 3754
1022 1024 3924
1030 1024 4095
947 1784 1767
956 1727 1718
965 1670 1669
974 1613 1620
982 1556 1571
992 1498 1522
1001 1441 1473
1010 1384 1423
1018 1327 1374
1027 1270 1536
1036 1212 1706
1045 1195 1877
1053 1195 2048
1063 1195 2218
1071 1195 2389
1080 1195 2559
1089 1195 2730
1098 1195 2900
1107 1195 3071
1115 1195 3242
1124 1195 3412
1133 1195 3583
1142 1195 3754
1151 1195 3924
1160 1195 4095
1077 2038 2020
1086 1982 1972
1094 1925 1923
1103 1868 1874
1112 1812 1825
1121 1755 1776
1129 1698 1727
1139 1641 1678
1148 1584 1629
1156 1527 1580
1165 1470 1706
1174 1412 1877
1183 1365 2048
1192 1365 2218
1200 1365 2389
1210 1365 2559
1218 1365 2730
1227 1365 2900
1236 1365 3071
1245 1365 3242
1253 1365 3412
1262 1365 3583
1271 1365 3754
1280 1365 3924
1289 1365 4095
1206 2291 2272
1215 2235 2223
1223 2179 2175
1233 2122 2126
1242 2066 2078
1250 2010 2030
1259 1953 1981
1268 1896 1932
1277 1839 1883
1286 1783 1834
1295 1726 1786
1303 1669 1877
1312 1612 2048
1321 1554 2218
1330 1536 2389
1338 1536 2559
1347 1536 2730
1356 1536 2900
1365 1536 3071
1374 1536 3242
1383 1536 3412
1391 1536 3583
1400 1536 3754
1409 1536 3924
1418 1536 4095
1335 2543 2522
1344 2487 2474
1353 2431 2426
1361 2375 2378
1371 2319 2329
1379 2263 2281
1388 2207 2233
1396 2150 2185
1406 2094 2136
1415 2037 2088
1423 1981 2039
1432 1924 1990
1441 1867 2048
1450 1811 2218
1458 1754 2389
1467 1706 2559
1476 1706 2730
1485 1706 2900
1494 1706 3071
1502 1706 3242
1511 1706 3412
1520 1706 3583
1529 1706 3754
1538 1706 3924
1546 1706 4095
