Examples/Channels - 2-Strip v2.3dl
#25pt 3DLUT created by 3D LUT Creator Pro (c) Oleg Sharonov
#Copyright Oleg Sharonov
#INPUTGAMMA sRGB IEC61966-2.1 v.2.10
#IMAGEPROFILE sRGB IEC61966-2.1 v.2.10
#OUTPUTGAMMA sRGB IEC61966-2.1 v.2.10
0 43 86 128 171 214 256 299 341 384 427 469 512 555 597 640 682 725 768 810 853 896 938 981 1023 
0 0 0
119 107 107
235 214 214
354 324 324
471 430 430
590 538 538
707 646 646
825 753 753
943 861 861
1060 968 968
1178 1076 1076
1296 1183 1183
1414 1291 1290
1532 1399 1399
1649 1506 1506
1767 1614 1613
1885 1721 1721
2003 1829 1829
2121 1936 1936
2239 2044 2044
2357 2152 2151
2474 2259 2259
2592 2366 2366
2710 2474 2474
2828 2582 2582
0 107 116
52 214 222
171 322 332
289 428 439
406 536 546
525 643 653
643 751 761
760 859 868
878 967 977
995 1074 1084
1114 1182 1192
1232 1289 1299
1349 1396 1407
1467 1504 1514
1585 1611 1622
1703 1719 1729
1820 1827 1837
1938 1935 1945
2056 2042 2052
2174 2149 2159
2292 2257 2267
2410 2364 2375
2527 2472 2483
2645 2580 2590
2763 2687 2697
0 212 230
0 318 339
107 427 448
225 533 554
341 642 661
460 749 769
578 856 877
696 964 984
813 1072 1093
931 1179 1200
1049 1287 1308
1167 1394 1415
1285 1502 1522
1403 1610 1630
1520 1717 1738
1638 1825 1845
1756 1932 1953
1874 2040 2060
1991 2148 2168
2110 2255 2275
2227 2363 2383
2345 2470 2491
2463 2578 2598
2581 2685 2706
2699 2793 2813
0 318 349
0 423 455
42 532 563
158 640 670
278 747 777
396 855 885
513 962 993
631 1070 1101
749 1177 1208
866 1285 1316
984 1392 1423
1102 1500 1531
1220 1607 1638
1338 1715 1746
1456 1823 1853
1574 1930 1961
1691 2038 2068
1809 2146 2176
1927 2253 2284
2045 2361 2391
2163 2468 2499
2281 2576 2606
2398 2683 2714
2516 2791 2821
2634 2898 2929
0 423 464
0 531 571
0 637 678
94 745 787
212 852 894
330 960 1001
449 1068 1109
566 1175 1216
684 1283 1324
802 1390 1431
920 1498 1539
1038 1606 1647
1155 1713 1754
1273 1821 1862
1391 1928 1969
1509 2036 2077
1627 2144 2184
1745 2251 2292
1862 2359 2399
1980 2466 2507
2098 2574 2615
2216 2681 2722
2334 2789 2830
2451 2897 2937
2569 3004 3045
0 528 579
0 635 687
0 744 795
29 851 902
149 958 1010
267 1066 1117
384 1174 1224
501 1281 1332
619 1389 1439
737 1496 1548
855 1604 1655
973 1711 1762
1091 1819 1870
1209 1926 1978
1326 2034 2085
1444 2141 2193
1562 2249 2300
1680 2357 2408
1798 2464 2515
1916 2572 2623
2033 2679 2731
2151 2787 2838
2269 2894 2945
2387 3002 3053
2505 3110 3161
0 634 696
0 742 803
0 849 910
0 956 1018
84 1064 1125
201 1171 1233
320 1279 1341
437 1387 1448
554 1494 1556
673 1602 1663
791 1709 1770
909 1817 1878
1027 1925 1986
1144 2032 2094
1262 2139 2201
1379 2247 2308
1497 2355 2416
1615 2462 2524
1733 2570 2631
1851 2677 2739
1969 2785 2846
2086 2893 2954
2204 3000 3061
2322 3108 3169
2440 3215 3277
0 739 811
0 847 919
0 954 1026
0 1063 1134
19 1170 1242
136 1277 1349
255 1385 1456
372 1492 1564
490 1600 1671
609 1707 1779
725 1815 1887
844 1923 1994
961 2030 2102
1080 2137 2209
1197 2245 2317
1315 2353 2425
1433 2460 2532
1551 2568 2640
1669 2675 2747
1786 2783 2855
1904 2891 2962
2022 2998 3070
2140 3106 3177
2258 3213 3285
2375 3321 3392
0 845 927
0 953 1035
0 1060 1142
0 1168 1250
0 1275 1357
71 1383 1465
189 1490 1572
308 1598 1679
425 1705 1788
543 1813 1895
661 1921 2002
779 2028 2110
897 2136 2217
1015 2243 2325
1133 2351 2433
1251 2458 2540
1368 2566 2648
1486 2673 2755
1604 2781 2863
1722 2889 2971
1839 2996 3078
1957 3104 3185
2075 3211 3293
2193 3319 3401
2311 3426 3508
0 950 1043
0 1058 1150
0 1165 1257
0 1273 1365
0 1381 1473
6 1488 1580
126 1596 1688
243 1703 1796
362 1811 1903
479 1919 2011
596 2026 2118
714 2134 2226
832 2241 2333
950 2349 2441
1068 2457 2548
1186 2564 2656
1304 2671 2763
1421 2779 2871
1540 2887 2979
1657 2994 3086
1775 3102 3194
1893 3209 3301
2011 3317 3409
2128 3424 3517
2246 3532 3624
0 1056 1159
0 1163 1266
0 1272 1374
0 1379 1481
0 1486 1589
0 1594 1696
61 1701 1804
177 1809 1911
297 1917 2019
414 2024 2127
532 2132 2234
650 2239 2342
768 2347 2449
885 2454 2557
1003 2562 2664
1121 2670 2772
1239 2777 2879
1357 2885 2987
1475 2992 3095
1593 3100 3202
1710 3208 3310
1828 3315 3417
1946 3422 3525
2064 3530 3632
2182 3638 3740
0 1162 1274
0 1269 1382
0 1377 1489
0 1484 1597
0 1592 1704
0 1699 1812
0 1807 1919
113 1915 2027
233 2022 2135
349 2130 2242
467 2237 2350
585 2345 2457
703 2452 2565
821 2560 2673
939 2668 2780
1057 2775 2888
1175 2883 2995
1292 2990 3103
1410 3098 3211
1528 3205 3318
1645 3313 3426
1764 3420 3533
1881 3528 3641
2000 3636 3748
2117 3743 3856
0 1267 1390
0 1375 1497
0 1482 1605
0 1590 1713
0 1697 1820
0 1805 1928
0 1912 2035
48 2020 2143
168 2128 2251
284 2235 2358
403 2343 2466
521 2450 2573
639 2558 2681
756 2665 2788
874 2773 2896
992 2881 3004
1110 2988 3111
1228 3096 3219
1346 3203 3326
1463 3311 3434
1581 3419 3541
1699 3526 3649
1817 3634 3757
1935 3741 3864
2053 3849 3972
0 1373 1506
0 1480 1614
0 1588 1721
0 1695 1828
0 1803 1936
0 1911 2044
0 2018 2151
0 2126 2259
103 2234 2366
220 2341 2474
337 2448 2581
457 2556 2689
573 2664 2797
692 2771 2904
810 2879 3012
927 2986 3120
1045 3094 3227
1163 3201 3334
1281 3309 3442
1399 3417 3550
1516 3524 3657
1634 3632 3765
1752 3739 3872
1870 3847 3980
1988 3955 4088
0 1478 1622
0 1586 1729
0 1694 1837
0 1801 1945
0 1909 2052
0 2016 2159
0 2124 2267
0 2231 2375
39 2339 2482
155 2446 2590
273 2554 2697
391 2661 2805
509 2769 2913
627 2877 3020
744 2984 3128
863 3092 3235
981 3199 3343
1098 3307 3450
1216 3415 3558
1334 3522 3666
1452 3630 3773
1570 3737 3881
1688 3845 3988
1806 3953 4095
1923 4060 4095
0 1584 1738
0 1692 1845
0 1799 1953
0 1907 2060
0 2015 2168
0 2122 2275
0 2229 2383
0 2337 2491
0 2445 2598
90 2552 2706
209 2660 2813
328 2767 2921
445 2875 3028
563 2982 3136
680 3090 3243
798 3197 3351
916 3305 3459
1034 3413 3566
1151 3520 3674
1270 3628 3781
1387 3735 3889
1506 3843 3997
1623 3951 4095
1741 4058 4095
1858 4095 4095
0 1690 1854
0 1797 1961
0 1905 2068
0 2012 2176
0 2120 2284
0 2227 2391
0 2335 2499
0 2443 2606
0 2550 2714
26 2658 2821
145 2765 2929
262 2873 3037
381 2981 3144
499 3088 3252
615 3196 3360
734 3303 3467
852 3411 3574
969 3518 3682
1087 3626 3790
1205 3733 3897
1322 3841 4005
1440 3948 4095
1558 4056 4095
1677 4095 4095
1794 4095 4095
0 1795 1969
0 1903 2077
0 2010 2185
0 2118 2292
0 2225 2399
0 2333 2507
0 2440 2614
0 2548 2722
0 2656 2830
0 2763 2937
81 2871 3045
198 2978 3152
316 3086 3260
433 3194 3368
551 3301 3475
669 3409 3583
787 3516 3690
904 3624 3798
1022 3731 3906
1141 3839 4013
1258 3947 4095
1375 4054 4095
1493 4095 4095
1612 4095 4095
1729 4095 4095
0 1901 2085
0 2008 2193
0 2116 2300
0 2223 2408
0 2331 2515
0 2439 2623
0 2546 2731
0 2654 2838
0 2761 2945
0 2869 3053
16 2976 3161
132 3084 3268
250 3192 3376
369 3299 3483
486 3407 3591
604 3514 3699
722 3622 3806
840 3729 3914
958 3837 4021
1074 3945 4095
1193 4052 4095
1311 4095 4095
1430 4095 4095
1547 4095 4095
1665 4095 4095
0 2006 2201
0 2114 2308
0 2221 2416
0 2329 2524
0 2437 2631
0 2544 2739
0 2652 2846
0 2759 2954
0 2867 3061
0 2974 3169
0 3082 3277
68 3190 3384
186 3297 3492
304 3405 3599
422 3512 3707
540 3620 3814
657 3728 3922
776 3835 4029
894 3943 4095
1012 4050 4095
1129 4095 4095
1248 4095 4095
1364 4095 4095
1482 4095 4095
1600 4095 4095
0 2112 2317
0 2220 2424
0 2327 2532
0 2435 2640
0 2542 2747
0 2650 2855
0 2757 2962
0 2865 3070
0 2973 3177
0 3080 3285
0 3188 3393
3 3295 3500
123 3403 3607
240 3510 3715
358 3618 3823
475 3726 3930
593 3833 4038
711 3941 4095
830 4048 4095
947 4095 4095
1064 4095 4095
1183 4095 4095
1300 4095 4095
1418 4095 4095
1536 4095 4095
0 2218 2433
0 2325 2540
0 2433 2648
0 2540 2755
0 2648 2863
0 2755 2971
0 2863 3078
0 2970 3185
0 3078 3293
0 3186 3401
0 3293 3508
0 3401 3616
58 3508 3723
174 3616 3831
293 3724 3939
411 3831 4046
527 3939 4095
648 4046 4095
764 4095 4095
880 4095 4095
1000 4095 4095
1119 4095 4095
1236 4095 4095
1352 4095 4095
1471 4095 4095
0 2323 2549
0 2431 2656
0 2538 2764
0 2646 2871
0 2753 2979
0 2861 3086
0 2969 3194
0 3076 3302
0 3184 3409
0 3291 3517
0 3399 3624
0 3506 3732
0 3614 3839
110 3722 3947
228 3829 4055
345 3937 4095
465 4044 4095
583 4095 4095
700 4095 4095
819 4095 4095
934 4095 4095
1053 4095 4095
1170 4095 4095
1289 4095 4095
1406 4095 4095
0 2429 2664
0 2536 2772
0 2644 2880
0 2752 2987
0 2859 3095
0 2967 3202
0 3074 3310
0 3182 3417
0 3289 3525
0 3397 3632
0 3504 3740
0 3612 3848
0 3720 3955
45 3827 4063
168 3935 4095
284 4042 4095
396 4095 4095
520 4095 4095
634 4095 4095
751 4095 4095
870 4095 4095
988 4095 4095
1105 4095 4095
1224 4095 4095
1341 4095 4095
0 2534 2780
0 2642 2888
0 2750 2995
0 2857 3103
0 2964 3210
0 3072 3318
0 3180 3426
0 3287 3533
0 3395 3641
0 3502 3748
0 3610 3856
0 3718 3963
0 3825 4071
0 3933 4095
97 4040 4095
212 4095 4095
337 4095 4095
455 4095 4095
571 4095 4095
687 4095 4095
807 4095 4095
924 4095 4095
1041 4095 4095
1160 4095 4095
1277 4095 4095
123 0 0
238 65 55
354 174 161
471 280 269
588 388 377
707 496 486
824 603 593
942 711 700
1060 818 808
1177 925 915
1296 1033 1023
1413 1141 1131
1531 1248 1238
1649 1356 1346
1767 1463 1453
1885 1571 1561
2003 1679 1668
2120 1786 1776
2238 1894 1883
2356 2001 1991
2474 2109 2099
2592 2217 2206
2710 2324 2314
2827 2432 2421
2945 2539 2529
52 65 65
171 171 171
289 278 278
406 384 384
523 493 493
642 601 601
760 709 709
878 816 816
995 924 924
1113 1031 1031
1231 1139 1139
1349 1246 1246
1467 1354 1354
1585 1461 1461
1702 1569 1569
1820 1676 1676
1938 1784 1784
2056 1892 1892
2174 1999 1999
2291 2107 2107
2409 2214 2214
2527 2322 2322
2645 2430 2429
2763 2537 2537
2881 2645 2645
0 168 177
107 278 287
225 384 394
341 492 501
460 599 609
577 707 717
695 814 824
813 922 932
931 1030 1039
1049 1137 1147
1167 1245 1254
1284 1352 1362
1402 1459 1470
1520 1567 1577
1638 1675 1685
1755 1782 1792
1873 1890 1900
1991 1997 2008
2109 2105 2115
2227 2213 2223
2345 2320 2330
2463 2428 2438
2580 2535 2545
2698 2643 2653
2816 2750 2761
0 273 293
42 383 403
158 489 509
278 597 617
394 705 725
513 811 832
630 919 940
749 1028 1048
866 1135 1155
984 1243 1263
1102 1350 1371
1220 1457 1478
1337 1565 1586
1455 1673 1693
1573 1780 1801
1691 1888 1908
1809 1995 2016
1926 2103 2123
2045 2210 2231
2162 2318 2339
2280 2426 2446
2398 2533 2554
2516 2641 2661
2634 2748 2769
2751 2856 2876
0 381 411
0 486 517
94 595 626
212 702 733
330 810 840
448 918 948
566 1025 1056
684 1133 1163
802 1241 1271
919 1348 1379
1037 1456 1486
1155 1563 1594
1273 1671 1701
1391 1778 1809
1508 1886 1917
1627 1993 2024
1744 2101 2132
1862 2209 2239
1980 2316 2347
2098 2424 2454
2215 2531 2562
2333 2639 2669
2451 2746 2777
2569 2854 2885
2687 2962 2992
0 486 527
0 594 634
29 700 742
149 808 849
267 915 957
383 1023 1064
501 1131 1171
619 1239 1280
737 1346 1387
855 1454 1495
973 1561 1602
1091 1669 1710
1208 1776 1817
1326 1884 1925
1444 1991 2032
1562 2099 2140
1679 2207 2248
1797 2314 2355
1915 2422 2463
2033 2529 2570
2151 2637 2678
2269 2744 2785
2386 2852 2893
2504 2960 3001
2622 3067 3108
0 591 643
0 698 750
0 806 857
84 914 965
201 1022 1073
318 1129 1180
436 1236 1287
554 1344 1396
672 1451 1503
790 1559 1610
908 1667 1718
1026 1774 1825
1144 1882 1933
1261 1990 2041
1379 2097 2148
1497 2205 2256
1615 2312 2363
1733 2420 2471
1850 2527 2578
1968 2635 2686
2086 2742 2794
2204 2850 2901
2322 2958 3009
2440 3065 3116
2557 3173 3224
0 696 758
0 804 865
0 912 973
19 1019 1080
136 1127 1188
255 1235 1296
372 1342 1403
490 1450 1511
607 1557 1619
725 1665 1726
843 1772 1834
961 1880 1941
1079 1987 2049
1197 2095 2156
1315 2203 2264
1432 2310 2372
1550 2418 2479
1668 2525 2587
1786 2633 2694
1904 2741 2802
2022 2848 2909
2139 2956 3017
2257 3063 3125
2375 3171 3232
2493 3278 3340
0 802 874
0 909 981
0 1018 1089
0 1125 1197
71 1232 1304
189 1340 1412
308 1447 1519
425 1555 1627
543 1663 1735
661 1770 1842
779 1878 1950
896 1986 2057
1014 2093 2165
1132 2201 2272
1250 2308 2380
1368 2416 2487
1486 2523 2595
1604 2631 2703
1721 2739 2810
1839 2846 2918
1957 2953 3025
2075 3061 3133
2193 3169 3240
2310 3276 3348
2428 3384 3455
0 908 990
0 1016 1097
0 1123 1206
0 1231 1312
6 1338 1420
126 1446 1528
243 1553 1635
360 1661 1743
478 1769 1850
596 1876 1958
714 1983 2065
832 2091 2173
950 2199 2280
1067 2306 2388
1186 2414 2496
1303 2521 2603
1421 2629 2711
1539 2737 2818
1656 2844 2926
1775 2951 3033
1892 3059 3141
2010 3167 3249
2128 3275 3356
2246 3382 3464
2364 3489 3571
0 1014 1106
0 1121 1213
0 1229 1321
0 1336 1429
0 1444 1536
61 1551 1643
177 1659 1751
295 1766 1858
414 1874 1966
531 1981 2074
650 2089 2181
767 2197 2289
885 2304 2397
1003 2412 2504
1121 2520 2612
1239 2627 2719
1356 2735 2827
1474 2842 2934
1592 2950 3042
1710 3057 3149
1828 3165 3257
1946 3272 3364
2063 3380 3472
2181 3488 3580
2299 3595 3687
