Examples/Channels - Winter.3dl
#25pt 3DLUT created by 3D LUT Creator Pro (c) Oleg Sharonov
#Copyright Oleg Sharonov
#IMAGEPROFILE sRGB IEC61966-2.1 v.2.10
#INPUTGAMMA sRGB IEC61966-2.1 v.2.10
#OUTPUTGAMMA sRGB IEC61966-2.1 v.2.10
0 128 256 384 512 640 768 896 1023
0 0 0
26 0 512
55 0 1024
81 0 1536
107 0 2048
132 0 2559
161 0 3071
186 0 3583
214 0 4095
391 779 775
417 606 626
445 512 1024
471 512 1536
497 512 2048
525 512 2559
551 512 3071
578 512 3583
604 512 4095
781 1553 1544
807 1382 1396
834 1210 1249
861 1037 1536
887 1024 2048
914 1024 2559
940 1024 3071
967 1024 3583
994 1024 4095
1169 2317 2303
1196 2148 2158
1222 1978 2013
1249 1808 1866
1275 1637 2048
1302 1536 2559
1328 1536 3071
1355 1536 3583
1381 1536 4095
1556 3065 3048
1582 2900 2905
1608 2734 2763
1635 2567 2620
1661 2399 2476
1687 2231 2559
1714 2062 3071
1740 2048 3583
1766 2048 4095
1939 3793 3772
1966 3633 3635
1992 3471 3496
2018 3309 3356
2044 3145 3216
2070 2981 3075
2096 2815 3071
2122 2649 3583
2148 2559 4095
2320 4095 4095
2346 4095 4095
2372 4095 4095
2398 4030 4072
2424 3872 3936
2450 3712 3799
2475 3551 3661
2501 3389 3583
2527 3226 4095
2697 4095 4095
2723 4095 4095
2748 4095 4095
2774 4095 4095
2800 4095 4095
2825 4095 4095
2850 4095 4095
2876 4095 4095
2902 3950 4095
3069 4095 4095
3095 4095 4095
3120 4095 4095
3145 4095 4095
3171 4095 4095
3196 4095 4095
3221 4095 4095
3246 4095 4095
3271 4095 4095
512 0 0
512 0 512
512 0 1024
512 0 1536
512 0 2048
512 0 2559
512 0 3071
512 0 3583
512 0 4095
512 702 678
528 528 528
556 512 1024
583 512 1536
609 512 2048
635 512 2559
662 512 3071
689 512 3583
715 512 4095
891 1477 1448
918 1305 1300
945 1132 1152
971 1024 1536
998 1024 2048
1025 1024 2559
1051 1024 3071
1078 1024 3583
1104 1024 4095
1280 2241 2209
1306 2072 2063
1333 1902 1917
1359 1732 1771
1386 1561 2048
1412 1536 2559
1439 1536 3071
1465 1536 3583
1491 1536 4095
1666 2991 2955
1692 2826 2813
1718 2659 2670
1744 2492 2526
1770 2324 2382
1797 2155 2559
1823 2048 3071
1849 2048 3583
1875 2048 4095
2049 3722 3683
2075 3561 3544
2101 3399 3405
2127 3236 3265
2153 3072 3124
2179 2907 2982
2205 2741 3071
2231 2574 3583
2257 2559 4095
2428 4095 4095
2454 4095 4095
2480 4095 4095
2506 3960 3983
2531 3800 3847
2557 3640 3709
2583 3479 3571
2609 3316 3583
2634 3153 4095
2804 4095 4095
2829 4095 4095
2855 4095 4095
2880 4095 4095
2906 4095 4095
2931 4095 4095
2957 4095 4095
2982 4037 4095
3007 3879 4095
3175 4095 4095
3200 4095 4095
3225 4095 4095
3250 4095 4095
3275 4095 4095
3301 4095 4095
3326 4095 4095
3351 4095 4095
3376 4095 4095
1024 0 0
1024 0 512
1024 0 1024
1024 0 1536
1024 0 2048
1024 0 2559
1024 0 3071
1024 0 3583
1024 0 4095
1024 625 580
1024 512 512
1024 512 1024
1024 512 1536
1024 512 2048
1024 512 2559
1024 512 3071
1024 512 3583
1024 512 4095
1024 1400 1352
1029 1228 1203
1055 1055 1055
1082 1024 1536
1109 1024 2048
1135 1024 2559
1162 1024 3071
1188 1024 3583
1215 1024 4095
1390 2166 2114
1416 1996 1968
1443 1826 1822
1469 1656 1675
1496 1536 2048
1522 1536 2559
1548 1536 3071
1575 1536 3583
1601 1536 4095
1775 2917 2862
1801 2751 2719
1828 2585 2576
1854 2417 2432
1880 2249 2287
1906 2080 2559
1932 2048 3071
1958 2048 3583
1985 2048 4095
2157 3650 3592
2183 3489 3453
2209 3326 3314
2235 3163 3173
2261 2999 3032
2287 2833 2890
2313 2667 3071
2339 2559 3583
2365 2559 4095
2536 4095 4095
2561 4095 4095
2587 4047 4031
2613 3889 3894
2639 3729 3757
2664 3568 3619
2690 3406 3480
2716 3243 3583
2741 3079 4095
2910 4095 4095
2935 4095 4095
2961 4095 4095
2986 4095 4095
3012 4095 4095
3037 4095 4095
3063 4095 4095
3088 3967 4057
3113 3808 4095
3280 4095 4095
3305 4095 4095
3330 4095 4095
3355 4095 4095
3380 4095 4095
3405 4095 4095
3430 4095 4095
3455 4095 4095
3480 4095 4095
1536 0 0
1536 0 512
1536 0 1024
1536 0 1536
1536 0 2048
1536 0 2559
1536 0 3071
1536 0 3583
1536 0 4095
1536 547 484
1536 512 512
1536 512 1024
1536 512 1536
1536 512 2048
1536 512 2559
1536 512 3071
1536 512 3583
1536 512 4095
1536 1323 1255
1536 1151 1107
1536 1024 1024
1536 1024 1536
1536 1024 2048
1536 1024 2559
1536 1024 3071
1536 1024 3583
1536 1024 4095
1536 2090 2019
1536 1921 1873
1553 1750 1726
1579 1579 1579
1606 1536 2048
1632 1536 2559
1658 1536 3071
1685 1536 3583
1711 1536 4095
1884 2843 2769
1911 2677 2626
1937 2510 2482
1963 2342 2338
1989 2174 2193
2015 2048 2559
2041 2048 3071
2067 2048 3583
2094 2048 4095
2265 3578 3502
2291 3416 3362
2317 3253 3222
2343 3089 3081
2369 2925 2939
2395 2759 2797
2421 2592 3071
2447 2559 3583
2473 2559 4095
2643 4095 4095
2669 4095 4078
2694 3976 3942
2720 3818 3805
2746 3657 3667
2771 3496 3529
2797 3334 3389
2822 3170 3583
2848 3071 4095
3016 4095 4095
3041 4095 4095
3067 4095 4095
3092 4095 4095
3117 4095 4095
3143 4095 4095
3168 4054 4095
3193 3896 3968
3218 3736 4095
3384 4095 4095
3409 4095 4095
3434 4095 4095
3459 4095 4095
3484 4095 4095
3509 4095 4095
3534 4095 4095
3559 4095 4095
3584 4095 4095
2048 0 0
2048 0 512
2048 0 1024
2048 0 1536
2048 0 2048
2048 0 2559
2048 0 3071
2048 0 3583
2048 0 4095
2048 512 386
2048 512 512
2048 512 1024
2048 512 1536
2048 512 2048
2048 512 2559
2048 512 3071
2048 512 3583
2048 512 4095
2048 1247 1159
2048 1074 1010
2048 1024 1024
2048 1024 1536
2048 1024 2048
2048 1024 2559
2048 1024 3071
2048 1024 3583
2048 1024 4095
2048 2015 1924
2048 1845 1777
2048 1674 1631
2048 1536 1536
2048 1536 2048
2048 1536 2559
2048 1536 3071
2048 1536 3583
2048 1536 4095
2048 2769 2676
2048 2603 2532
2048 2435 2388
2072 2267 2243
2098 2098 2098
2124 2048 2559
2150 2048 3071
2176 2048 3583
2202 2048 4095
2373 3506 3411
2399 3344 3271
2425 3181 3130
2451 3016 2988
2477 2851 2846
2503 2685 2704
2529 2559 3071
2554 2559 3583
2580 2559 4095
2750 4095 4095
2775 4064 3989
2801 3906 3853
2827 3746 3715
2852 3585 3577
2878 3424 3438
2903 3261 3298
2928 3097 3583
2954 3071 4095
3121 4095 4095
3147 4095 4095
3172 4095 4095
3197 4095 4095
3222 4095 4095
3248 4095 4095
3273 3984 4016
3298 3825 3879
3323 3664 4095
3488 4095 4095
3513 4095 4095
3538 4095 4095
3563 4095 4095
3588 4095 4095
3613 4095 4095
3637 4095 4095
3662 4095 4095
3687 4095 4095
2559 0 0
2559 0 512
2559 0 1024
2559 0 1536
2559 0 2048
2559 0 2559
2559 0 3071
2559 0 3583
2559 0 4095
2559 512 289
2559 512 512
2559 512 1024
2559 512 1536
2559 512 2048
2559 512 2559
2559 512 3071
2559 512 3583
2559 512 4095
2559 1169 1062
2559 1024 914
2559 1024 1024
2559 1024 1536
2559 1024 2048
2559 1024 2559
2559 1024 3071
2559 1024 3583
2559 1024 4095
2559 1939 1828
2559 1768 1682
2559 1597 1535
2559 1536 1536
2559 1536 2048
2559 1536 2559
2559 1536 3071
2559 1536 3583
2559 1536 4095
2559 2695 2582
2559 2528 2438
2559 2360 2294
2559 2192 2148
2559 2048 2048
2559 2048 2559
2559 2048 3071
2559 2048 3583
2559 2048 4095
2559 3434 3320
2559 3271 3179
2559 3107 3038
2559 2942 2896
2584 2777 2753
2610 2610 2610
2636 2559 3071
2661 2559 3583
2687 2559 4095
2856 4095 4037
2882 3994 3900
2907 3835 3763
2933 3674 3625
2958 3513 3486
2983 3351 3347
3009 3188 3206
3034 3071 3583
3060 3071 4095
3227 4095 4095
3252 4095 4095
3277 4095 4095
3302 4095 4095
3327 4095 4095
3352 4071 4063
3377 3913 3927
3402 3753 3790
3427 3593 4095
3592 4095 4095
3617 4095 4095
3641 4095 4095
3666 4095 4095
3691 4095 4095
3716 4095 4095
3740 4095 4095
3765 4095 4095
3790 4095 4095
3071 0 0
3071 0 512
3071 0 1024
3071 0 1536
3071 0 2048
3071 0 2559
3071 0 3071
3071 0 3583
3071 0 4095
3071 512 192
3071 512 512
3071 512 1024
3071 512 1536
3071 512 2048
3071 512 2559
3071 512 3071
3071 512 3583
3071 512 4095
3071 1093 965
3071 1024 816
3071 1024 1024
3071 1024 1536
3071 1024 2048
3071 1024 2559
3071 1024 3071
3071 1024 3583
3071 1024 4095
3071 1863 1733
3071 1692 1586
3071 1536 1438
3071 1536 1536
3071 1536 2048
3071 1536 2559
3071 1536 3071
3071 1536 3583
3071 1536 4095
3071 2620 2488
3071 2453 2344
3071 2285 2199
3071 2116 2053
3071 2048 2048
3071 2048 2559
3071 2048 3071
3071 2048 3583
3071 2048 4095
3071 3361 3228
3071 3198 3087
3071 3034 2945
3071 2869 2803
3071 2702 2660
3071 2559 2559
3071 2559 3071
3071 2559 3583
3071 2559 4095
3071 4081 3948
3071 3923 3811
3071 3763 3673
3071 3603 3535
3071 3441 3395
3089 3278 3255
3114 3114 3114
3140 3071 3583
3165 3071 4095
3331 4095 4095
3356 4095 4095
3381 4095 4095
3406 4095 4095
3431 4095 4095
3456 4000 3974
3481 3842 3838
3506 3682 3700
3531 3583 4095
3695 4095 4095
3720 4095 4095
3744 4095 4095
3769 4095 4095
3794 4095 4095
3818 4095 4095
3843 4095 4095
3867 4095 4095
3892 4095 4095
3583 0 0
3583 0 512
3583 0 1024
3583 0 1536
3583 0 2048
3583 0 2559
3583 0 3071
3583 0 3583
3583 0 4095
3583 512 94
3583 512 512
3583 512 1024
3583 512 1536
3583 512 2048
3583 512 2559
3583 512 3071
3583 512 3583
3583 512 4095
3583 1024 868
3583 1024 719
3583 1024 1024
3583 1024 1536
3583 1024 2048
3583 1024 2559
3583 1024 3071
3583 1024 3583
3583 1024 4095
3583 1787 1637
3583 1616 1489
3583 1536 1342
3583 1536 1536
3583 1536 2048
3583 1536 2559
3583 1536 3071
3583 1536 3583
3583 1536 4095
3583 2546 2394
3583 2378 2250
3583 2210 2104
3583 2048 1958
3583 2048 2048
3583 2048 2559
3583 2048 3071
3583 2048 3583
3583 2048 4095
3583 3288 3136
3583 3125 2995
3583 2960 2853
3583 2794 2710
3583 2628 2566
3583 2559 2559
3583 2559 3071
3583 2559 3583
3583 2559 4095
3583 4011 3859
3583 3852 3721
3583 3692 3583
3583 3531 3444
3583 3368 3304
3583 3205 3163
3583 3071 3071
3583 3071 3583
3583 3071 4095
3583 4095 4095
3583 4095 4095
3583 4095 4095
3583 4095 4095
3583 4088 4022
3583 3930 3885
3585 3770 3748
3610 3610 3610
3635 3583 4095
3798 4095 4095
3822 4095 4095
3847 4095 4095
3872 4095 4095
3896 4095 4095
3921 4095 4095
3945 4095 4095
3969 4095 4095
3994 4095 4095
4095 0 0
4095 0 512
4095 0 1024
4095 0 1536
4095 0 2048
4095 0 2559
4095 0 3071
4095 0 3583
4095 0 4095
4095 512 0
4095 512 512
4095 512 1024
4095 512 1536
4095 512 2048
4095 512 2559
4095 512 3071
4095 512 3583
4095 512 4095
4095 1024 771
4095 1024 623
4095 1024 1024
4095 1024 1536
4095 1024 2048
4095 1024 2559
4095 1024 3071
4095 1024 3583
4095 1024 4095
4095 1710 1541
4095 1540 1393
4095 1536 1246
4095 1536 1536
4095 1536 2048
4095 1536 2559
4095 1536 3071
4095 1536 3583
4095 1536 4095
4095 2471 2300
4095 2303 2155
4095 2134 2009
4095 2048 1863
4095 2048 2048
4095 2048 2559
4095 2048 3071
4095 2048 3583
4095 2048 4095
4095 3216 3044
4095 3051 2902
4095 2886 2760
4095 2720 2616
4095 2559 2472
4095 2559 2559
4095 2559 3071
4095 2559 3583
4095 2559 4095
4095 3939 3769
4095 3780 3631
4095 3620 3492
4095 3458 3353
4095 3296 3213
4095 3132 3072
4095 3071 3071
4095 3071 3583
4095 3071 4095
4095 4095 4095
4095 4095 4095
4095 4095 4095
4095 4095 4069
4095 4018 3933
4095 3859 3796
4095 3699 3658
4095 3583 3583
4095 3583 4095
4095 4095 4095
4095 4095 4095
4095 4095 4095
4095 4095 4095
4095 4095 4095
4095 4095 4095
4095 4095 4095
4095 4095 4095
4095 4095 4095
