Examples/Channels - Saturate with darken.3dl
#25pt 3DLUT created by 3D LUT Creator Pro (c) Oleg Sharonov
#Copyright !UNREGISTERED VERSION OF 3D LUT CREATOR!
#IMAGEPROFILE sRGB IEC61966-2.1 v.2.10
#INPUTGAMMA sRGB IEC61966-2.1 v.2.10
#OUTPUTGAMMA sRGB IEC61966-2.1 v.2.10
0 256 512 768 1023
0 0 0
0 0 1024
0 0 2048
0 0 3071
0 0 4095
0 1024 0
0 1024 1024
0 1024 2048
0 1024 3071
0 1024 4095
0 2048 0
0 2048 1024
0 2048 2048
0 2048 3071
0 2048 4095
0 3071 0
0 3071 1024
0 3071 2048
0 3071 3071
0 3071 4095
0 4095 0
0 4095 1024
0 4095 2048
0 4095 3071
0 4095 4095
1024 0 0
1024 0 1024
1024 0 2048
1024 0 3071
1024 0 4095
1024 1024 0
1024 1024 1024
749 932 2112
655 901 3158
1024 1024 4095
1024 2048 0
700 2104 752
425 2093 2080
437 2070 3136
1024 2048 4095
1024 3071 0
589 3146 660
405 3139 2046
338 3131 3114
1024 3071 4095
1024 4095 0
1024 4095 1024
1024 4095 2048
1024 4095 3071
1024 4095 4095
2048 0 0
2048 0 1024
2048 0 2048
2048 0 3071
2048 0 4095
2048 1024 0
2119 649 755
2086 557 2080
2051 649 3137
2048 1024 4095
2048 2048 0
2081 2059 484
2048 2048 2048
1772 1956 3136
2048 2048 4095
2048 3071 0
2015 3116 479
1724 3127 1776
1449 3116 3104
2048 3071 4095
2048 4095 0
2048 4095 1024
2048 4095 2048
2048 4095 3071
2048 4095 4095
3071 0 0
3071 0 1024
3071 0 2048
3071 0 3071
3071 0 4095
3071 1024 0
3168 521 664
3145 460 2048
3124 398 3115
3071 1024 4095
3071 2048 0
3142 1857 481
3143 1672 1779
3110 1581 3104
3071 2048 4095
3071 3071 0
3115 3086 338
3104 3082 1507
3071 3071 3071
2937 3027 4095
3071 4095 0
3071 4095 1024
3071 4095 2048
2913 4095 2939
2780 4095 4095
4095 0 0
4095 0 1024
4095 0 2048
4095 0 3071
4095 0 4095
4095 1024 0
4095 1024 1024
4095 1024 2048
4095 1024 3071
4095 1024 4095
4095 2048 0
4095 2048 1024
4095 2048 2048
4095 2048 3071
4095 2048 4095
4095 3071 0
4095 3071 1024
4095 3071 2048
4095 2888 2940
4095 2844 4095
4095 4095 0
4095 4095 1024
4095 4095 2048
4095 4095 2808
4095 4095 4095
