Examples/Channels - Zero Blue Channel.3dl
#25pt 3DLUT created by 3D LUT Creator Pro (c) Oleg Sharonov
#Copyright Oleg Sharonov
#IMAGEPROFILE 
#INPUTGAMMA 
#OUTPUTGAMMA 
0 43 86 128 171 214 256 299 341 384 427 469 512 555 597 640 682 725 768 810 853 896 938 981 1023 
0 0 0
0 0 0
0 0 0
0 0 0
0 0 0
0 0 0
0 0 0
0 0 0
0 0 0
0 0 0
0 0 0
0 0 0
0 0 0
0 0 0
0 0 0
0 0 0
0 0 0
0 0 0
0 0 0
0 0 0
0 0 0
0 0 0
0 0 0
0 0 0
0 0 0
0 171 0
0 171 0
0 171 0
0 171 0
0 171 0
0 171 0
0 171 0
0 171 0
0 171 0
0 171 0
0 171 0
0 171 0
0 171 0
0 171 0
0 171 0
0 171 0
0 171 0
0 171 0
0 171 0
0 171 0
0 171 0
0 171 0
0 171 0
0 171 0
0 171 0
0 339 0
0 339 0
0 339 0
0 339 0
0 339 0
0 339 0
0 339 0
0 339 0
0 339 0
0 339 0
0 339 0
0 339 0
0 339 0
0 339 0
0 339 0
0 339 0
0 339 0
0 339 0
0 339 0
0 339 0
0 343 0
0 343 0
0 343 0
0 343 0
0 343 0
0 512 0
0 512 0
0 512 0
0 512 0
0 512 0
0 512 0
0 512 0
0 512 0
0 512 0
0 512 0
0 512 0
0 512 0
0 512 0
0 512 0
0 512 0
0 512 0
0 512 0
0 512 0
0 512 0
0 512 0
0 512 0
0 512 0
0 512 0
0 512 0
0 512 0
0 682 0
0 682 0
0 682 0
0 682 0
0 682 0
0 682 0
0 682 0
0 682 0
0 682 0
0 682 0
0 682 0
0 682 0
0 682 0
0 682 0
0 682 0
0 682 0
0 682 0
0 682 0
0 682 0
0 682 0
0 682 0
0 682 0
0 682 0
0 682 0
0 682 0
0 853 0
0 853 0
0 853 0
0 853 0
0 853 0
0 853 0
0 853 0
0 853 0
0 853 0
0 853 0
0 853 0
0 853 0
0 853 0
0 853 0
0 853 0
0 853 0
0 853 0
0 853 0
0 853 0
0 853 0
0 853 0
0 853 0
0 853 0
0 853 0
0 853 0
0 1023 0
0 1023 0
0 1023 0
0 1023 0
0 1023 0
0 1023 0
0 1023 0
0 1023 0
0 1023 0
0 1023 0
0 1023 0
0 1023 0
0 1023 0
0 1023 0
0 1023 0
0 1023 0
0 1023 0
0 1023 0
0 1023 0
0 1023 0
0 1023 0
0 1023 0
0 1023 0
0 1023 0
0 1023 0
0 1195 0
0 1195 0
0 1195 0
0 1195 0
0 1195 0
0 1195 0
0 1195 0
0 1195 0
0 1195 0
0 1195 0
0 1195 0
0 1195 0
0 1195 0
0 1195 0
0 1195 0
0 1195 0
0 1195 0
0 1195 0
0 1195 0
0 1195 0
0 1195 0
0 1195 0
0 1195 0
0 1195 0
0 1195 0
0 1365 0
0 1365 0
0 1365 0
0 1365 0
0 1365 0
0 1365 0
0 1365 0
0 1365 0
0 1365 0
0 1365 0
0 1365 0
0 1365 0
0 1365 0
0 1365 0
0 1365 0
0 1365 0
0 1365 0
0 1365 0
0 1365 0
0 1365 0
0 1365 0
0 1365 0
0 1365 0
0 1365 0
0 1365 0
0 1535 0
0 1535 0
0 1535 0
0 1535 0
0 1535 0
0 1535 0
0 1535 0
0 1535 0
0 1535 0
0 1535 0
0 1535 0
0 1535 0
0 1535 0
0 1535 0
0 1535 0
0 1535 0
0 1535 0
0 1535 0
0 1535 0
0 1535 0
0 1535 0
0 1535 0
0 1535 0
0 1535 0
0 1535 0
0 1707 0
0 1707 0
0 1707 0
0 1707 0
0 1707 0
0 1707 0
0 1707 0
0 1707 0
0 1707 0
0 1707 0
0 1707 0
0 1707 0
0 1707 0
0 1707 0
0 1707 0
0 1707 0
0 1707 0
0 1707 0
0 1707 0
0 1707 0
0 1707 0
0 1707 0
0 1707 0
0 1707 0
0 1707 0
0 1877 0
0 1877 0
0 1877 0
0 1877 0
0 1877 0
0 1877 0
0 1877 0
0 1877 0
0 1877 0
0 1877 0
0 1877 0
0 1877 0
0 1877 0
0 1877 0
0 1877 0
0 1877 0
0 1877 0
0 1877 0
0 1877 0
0 1877 0
0 1877 0
0 1877 0
0 1877 0
0 1877 0
0 1877 0
0 2048 0
0 2048 0
0 2048 0
0 2048 0
0 2048 0
0 2048 0
0 2048 0
0 2048 0
0 2048 0
0 2048 0
0 2048 0
0 2048 0
0 2048 0
0 2048 0
0 2048 0
0 2048 0
0 2048 0
0 2048 0
0 2048 0
0 2048 0
0 2048 0
0 2048 0
0 2048 0
0 2048 0
0 2048 0
0 2218 0
0 2218 0
0 2218 0
0 2218 0
0 2218 0
0 2218 0
0 2218 0
0 2218 0
0 2218 0
0 2218 0
0 2218 0
0 2218 0
0 2218 0
0 2218 0
0 2218 0
0 2218 0
0 2218 0
0 2218 0
0 2218 0
0 2218 0
0 2218 0
0 2218 0
0 2218 0
0 2218 0
0 2218 0
0 2389 0
0 2389 0
0 2389 0
0 2389 0
0 2389 0
0 2389 0
0 2389 0
0 2389 0
0 2389 0
0 2389 0
0 2389 0
0 2389 0
0 2389 0
0 2389 0
0 2389 0
0 2389 0
0 2389 0
0 2389 0
0 2389 0
0 2389 0
0 2389 0
0 2389 0
0 2389 0
0 2389 0
0 2389 0
0 2559 0
0 2559 0
0 2559 0
0 2559 0
0 2559 0
0 2559 0
0 2559 0
0 2559 0
0 2559 0
0 2559 0
0 2559 0
0 2559 0
0 2559 0
0 2559 0
0 2559 0
0 2559 0
0 2559 0
0 2559 0
0 2559 0
0 2559 0
0 2559 0
0 2559 0
0 2559 0
0 2559 0
0 2559 0
0 2730 0
0 2730 0
0 2730 0
0 2730 0
0 2730 0
0 2730 0
0 2730 0
0 2730 0
0 2730 0
0 2730 0
0 2730 0
0 2730 0
0 2730 0
0 2730 0
0 2730 0
0 2730 0
0 2730 0
0 2730 0
0 2730 0
0 2730 0
0 2730 0
0 2730 0
0 2730 0
0 2730 0
0 2730 0
0 2900 0
0 2900 0
0 2900 0
0 2900 0
0 2900 0
0 2900 0
0 2900 0
0 2900 0
0 2900 0
0 2900 0
0 2900 0
0 2900 0
0 2900 0
0 2900 0
0 2900 0
0 2900 0
0 2900 0
0 2900 0
0 2900 0
0 2900 0
0 2900 0
0 2900 0
0 2900 0
0 2900 0
0 2900 0
0 3071 0
0 3071 0
0 3071 0
0 3071 0
0 3071 0
0 3071 0
0 3071 0
0 3071 0
0 3071 0
0 3071 0
0 3071 0
0 3071 0
0 3071 0
0 3071 0
0 3071 0
0 3071 0
0 3071 0
0 3071 0
0 3071 0
0 3071 0
0 3071 0
0 3071 0
0 3071 0
0 3071 0
0 3071 0
0 3242 0
0 3242 0
0 3242 0
0 3242 0
0 3242 0
0 3242 0
0 3242 0
0 3242 0
0 3242 0
0 3242 0
0 3242 0
0 3242 0
0 3242 0
0 3242 0
0 3242 0
0 3242 0
0 3242 0
0 3242 0
0 3242 0
0 3242 0
0 3242 0
0 3242 0
0 3242 0
0 3242 0
0 3242 0
0 3412 0
0 3412 0
0 3412 0
0 3412 0
0 3412 0
0 3412 0
0 3412 0
0 3412 0
0 3412 0
0 3412 0
0 3412 0
0 3412 0
0 3412 0
0 3412 0
0 3412 0
0 3412 0
0 3412 0
0 3412 0
0 3412 0
0 3412 0
0 3412 0
0 3412 0
0 3412 0
0 3412 0
0 3412 0
0 3583 0
0 3583 0
0 3583 0
0 3583 0
0 3583 0
0 3583 0
0 3583 0
0 3583 0
0 3583 0
0 3583 0
0 3583 0
0 3583 0
0 3583 0
0 3583 0
0 3583 0
0 3583 0
0 3583 0
0 3583 0
0 3583 0
0 3583 0
0 3583 0
0 3583 0
0 3583 0
0 3583 0
0 3583 0
0 3754 0
0 3754 0
0 3754 0
0 3754 0
0 3754 0
0 3754 0
0 3754 0
0 3754 0
0 3754 0
0 3754 0
0 3754 0
0 3754 0
0 3754 0
0 3754 0
0 3754 0
0 3754 0
0 3754 0
0 3754 0
0 3754 0
0 3754 0
0 3754 0
0 3754 0
0 3754 0
0 3754 0
0 3754 0
0 3924 0
0 3924 0
0 3924 0
0 3924 0
0 3924 0
0 3924 0
0 3924 0
0 3924 0
0 3924 0
0 3924 0
0 3924 0
0 3924 0
0 3924 0
0 3924 0
0 3924 0
0 3924 0
0 3924 0
0 3924 0
0 3924 0
0 3924 0
0 3924 0
0 3924 0
0 3924 0
0 3924 0
0 3924 0
3 4095 3
3 4095 3
3 4095 3
3 4095 3
3 4095 3
3 4095 3
3 4095 3
3 4095 3
3 4095 3
3 4095 3
3 4095 3
3 4095 3
3 4095 3
3 4095 3
3 4095 3
3 4095 3
3 4095 3
3 4095 3
3 4095 3
3 4095 3
3 4095 3
3 4095 3
3 4095 3
3 4095 3
3 4095 3
168 0 0
168 0 0
168 0 0
168 0 0
168 0 0
168 0 0
168 0 0
168 0 0
168 0 0
168 0 0
168 0 0
165 0 0
165 0 0
165 0 0
165 0 0
165 0 0
165 0 0
165 0 0
165 0 0
165 0 0
165 0 0
165 0 0
165 0 0
165 0 0
165 0 0
171 171 0
171 171 0
171 171 0
171 171 0
171 171 0
171 171 0
171 171 0
171 171 0
171 171 0
171 171 0
171 171 0
171 171 0
171 171 0
171 171 0
171 171 0
171 171 0
171 171 0
171 171 0
171 171 0
171 171 0
171 171 0
171 171 0
171 171 0
171 171 0
171 171 0
171 341 0
171 341 0
171 341 0
171 341 0
171 341 0
171 341 0
171 341 0
171 341 0
171 341 0
171 341 0
171 341 0
171 341 0
171 341 0
171 341 0
171 341 0
171 341 0
171 341 0
171 341 0
171 341 0
171 341 0
171 341 0
171 341 0
171 341 0
171 341 0
171 341 0
171 512 0
171 512 0
171 512 0
171 512 0
171 512 0
171 512 0
171 512 0
171 512 0
171 512 0
171 512 0
171 512 0
171 512 0
171 512 0
171 512 0
171 512 0
171 512 0
171 512 0
171 513 0
171 513 0
171 513 0
171 513 0
171 513 0
171 513 0
171 513 0
171 513 0
171 682 0
171 682 0
171 682 0
171 682 0
171 682 0
171 682 0
171 682 0
171 682 0
171 682 0
171 682 0
171 682 0
171 682 0
171 682 0
171 682 0
171 682 0
171 682 0
171 682 0
171 682 0
171 682 0
171 682 0
171 682 0
171 682 0
171 682 0
171 682 0
171 683 0
171 853 0
171 853 0
171 853 0
171 853 0
171 853 0
171 853 0
171 853 0
171 853 0
171 853 0
171 853 0
171 853 0
171 853 0
171 853 0
171 853 0
171 853 0
171 853 0
171 853 0
171 853 0
171 853 0
171 853 0
171 853 0
171 853 0
171 853 0
171 853 0
171 853 0
171 1023 0
171 1023 0
171 1023 0
171 1023 0
171 1023 0
171 1023 0
171 1023 0
171 1023 0
171 1023 0
171 1023 0
171 1023 0
171 1023 0
171 1023 0
171 1023 0
171 1023 0
171 1023 0
171 1023 0
171 1023 0
171 1023 0
171 1023 0
171 1023 0
171 1023 0
171 1023 0
171 1024 0
171 1024 0
171 1195 0
171 1195 0
171 1195 0
171 1195 0
171 1195 0
171 1195 0
171 1195 0
171 1195 0
171 1195 0
171 1195 0
171 1195 0
171 1195 0
171 1195 0
171 1195 0
171 1195 0
171 1195 0
171 1195 0
171 1195 0
171 1195 0
171 1195 0
171 1195 0
171 1195 0
171 1195 0
171 1195 0
171 1195 0
171 1365 0
171 1365 0
171 1365 0
171 1365 0
171 1365 0
171 1365 0
171 1365 0
171 1365 0
171 1365 0
171 1365 0
171 1365 0
171 1365 0
171 1365 0
171 1365 0
171 1365 0
171 1365 0
171 1365 0
171 1365 0
171 1365 0
171 1365 0
171 1365 0
171 1365 0
171 1365 0
171 1365 0
171 1365 0
171 1536 0
171 1536 0
171 1536 0
171 1536 0
171 1536 0
171 1536 0
171 1536 0
171 1536 0
171 1536 0
171 1536 0
171 1536 0
171 1536 0
171 1536 0
171 1536 0
171 1536 0
171 1536 0
171 1536 0
171 1536 0
171 1536 0
171 1536 0
171 1536 0
171 1536 0
171 1536 0
171 1536 0
171 1536 0
171 1707 0
171 1707 0
171 1707 0
171 1707 0
171 1707 0
171 1707 0
171 1707 0
171 1707 0
171 1707 0
171 1707 0
171 1707 0
171 1707 0
171 1707 0
171 1707 0
171 1707 0
171 1707 0
171 1707 0
171 1707 0
171 1707 0
171 1707 0
171 1707 0
171 1707 0
171 1707 0
171 1707 0
171 1707 0
