Examples/Channels - Indian Summer.3dl
#25pt 3DLUT created by 3D LUT Creator Pro (c) Oleg Sharonov
#Copyright Oleg Sharonov
0 43 86 128 171 214 256 299 341 384 427 469 512 555 597 640 682 725 768 810 853 896 938 981 1023 
0 0 0
10 90 186
23 180 370
32 271 554
42 363 740
55 454 925
65 543 1109
78 635 1295
87 726 1480
97 817 1665
110 907 1850
119 998 2035
129 1089 2220
142 1179 2404
152 1271 2590
161 1361 2775
174 1452 2960
183 1543 3144
195 1633 3329
206 1724 3515
217 1815 3700
228 1906 3884
238 1996 4069
248 2087 4095
260 2178 4095
0 94 19
0 189 198
6 282 384
19 374 571
29 464 756
42 554 940
52 646 1126
61 736 1310
74 827 1496
84 919 1681
94 1009 1866
107 1099 2051
116 1190 2236
126 1281 2420
139 1372 2605
149 1463 2791
161 1553 2975
171 1644 3160
183 1735 3346
192 1825 3530
203 1916 3716
214 2007 3900
225 2098 4085
235 2189 4095
245 2279 4095
0 186 36
0 287 214
0 383 399
6 474 586
16 565 771
26 657 957
39 747 1141
48 838 1327
58 929 1512
71 1020 1696
81 1110 1881
90 1201 2066
103 1292 2251
113 1383 2436
126 1473 2621
136 1564 2806
145 1655 2991
158 1745 3176
168 1836 3361
180 1927 3546
189 2018 3731
201 2108 3916
212 2199 4095
222 2290 4095
235 2381 4095
0 280 55
0 379 230
0 478 412
0 573 599
3 666 787
13 758 972
23 849 1157
36 940 1342
45 1030 1527
55 1121 1712
68 1211 1897
78 1302 2082
90 1393 2267
100 1484 2452
110 1574 2637
123 1665 2822
132 1756 3007
142 1847 3192
155 1937 3377
165 2028 3562
177 2119 3747
186 2210 3932
198 2301 4095
206 2391 4095
220 2482 4095
0 374 71
0 474 245
0 572 427
0 670 612
0 765 799
0 859 988
10 950 1173
23 1041 1358
32 1132 1543
42 1222 1728
55 1313 1913
65 1404 2098
74 1495 2283
87 1585 2468
97 1676 2652
107 1767 2838
119 1858 3023
129 1948 3208
142 2039 3393
152 2130 3577
161 2221 3763
174 2311 3948
183 2402 4095
195 2493 4095
203 2583 4095
0 468 90
0 569 264
0 668 443
0 765 626
0 861 811
0 956 999
0 1050 1187
6 1142 1373
19 1233 1558
29 1324 1744
39 1415 1929
52 1505 2113
61 1596 2298
71 1687 2484
84 1778 2669
94 1868 2854
107 1959 3038
116 2049 3224
126 2140 3408
139 2231 3593
149 2322 3778
158 2412 3963
171 2503 4095
180 2594 4095
192 2685 4095
0 559 107
0 661 282
0 762 460
0 859 641
0 957 825
0 1052 1011
0 1147 1198
0 1242 1387
3 1334 1574
16 1425 1759
26 1516 1944
36 1606 2129
48 1697 2314
58 1788 2499
71 1879 2684
81 1970 2869
90 2060 3054
103 2151 3239
113 2242 3424
123 2333 3609
136 2423 3794
145 2514 3979
155 2605 4095
168 2695 4095
177 2786 4095
0 653 126
0 755 299
0 855 477
0 955 657
0 1051 839
0 1148 1024
0 1244 1211
0 1339 1398
0 1433 1586
0 1526 1775
13 1617 1960
23 1708 2145
36 1798 2330
45 1889 2515
55 1980 2700
68 2071 2885
78 2162 3070
87 2252 3255
100 2343 3440
110 2434 3625
119 2525 3810
132 2615 3995
145 2706 4095
155 2797 4095
161 2887 4095
0 747 145
0 849 316
0 950 494
0 1049 673
0 1147 855
0 1243 1038
0 1339 1223
0 1435 1410
0 1530 1597
0 1624 1787
0 1718 1975
10 1809 2161
19 1900 2346
32 1991 2531
42 2081 2716
52 2172 2901
65 2263 3086
74 2354 3271
84 2445 3456
97 2535 3641
107 2626 3825
119 2716 4010
129 2807 4095
139 2898 4095
149 2989 4095
0 841 161
0 942 336
0 1044 510
0 1143 690
0 1241 871
0 1338 1053
0 1435 1238
0 1530 1423
0 1626 1609
0 1721 1797
0 1815 1986
0 1910 2175
6 2001 2361
16 2092 2546
29 2183 2731
39 2274 2916
48 2364 3101
61 2455 3286
71 2546 3471
84 2637 3656
94 2727 3841
103 2818 4026
116 2909 4095
126 3000 4095
139 3090 4095
0 933 180
0 1036 352
0 1137 528
0 1236 706
0 1336 887
0 1433 1068
0 1530 1252
0 1626 1436
0 1722 1622
0 1817 1809
0 1912 1997
0 2007 2186
0 2101 2374
3 2193 2562
13 2284 2747
26 2375 2932
36 2466 3117
48 2557 3302
58 2647 3487
68 2738 3672
81 2829 3857
90 2919 4042
100 3010 4095
116 3101 4095
126 3192 4095
0 1028 198
0 1129 370
0 1231 546
0 1330 723
0 1429 903
0 1528 1084
0 1624 1267
0 1721 1451
0 1817 1636
0 1913 1822
0 2008 2009
0 2104 2197
0 2198 2385
0 2292 2574
0 2386 2763
13 2477 2948
23 2567 3133
32 2658 3318
45 2749 3503
55 2839 3688
65 2930 3873
78 3021 4058
84 3111 4095
97 3202 4095
110 3293 4095
0 1120 214
0 1223 388
0 1324 563
0 1424 740
0 1524 919
0 1622 1100
0 1720 1282
0 1816 1465
0 1913 1650
0 2009 1835
0 2105 2021
0 2199 2209
0 2295 2397
0 2389 2585
0 2483 2774
0 2577 2963
10 2668 3148
19 2759 3334
29 2850 3519
42 2941 3704
52 3031 3889
61 3122 4074
71 3213 4095
84 3304 4095
97 3394 4095
0 1214 233
0 1317 406
0 1417 580
0 1518 758
0 1617 936
0 1716 1117
0 1814 1298
0 1911 1480
0 2008 1664
0 2104 1849
0 2200 2034
0 2296 2221
0 2391 2408
0 2486 2596
0 2581 2785
0 2675 2973
0 2769 3162
6 2861 3349
16 2951 3534
26 3042 3719
39 3133 3904
48 3224 4089
58 3314 4095
74 3405 4095
84 3496 4095
0 1307 252
0 1410 423
0 1511 599
0 1612 775
0 1711 953
0 1810 1132
0 1908 1313
0 2006 1495
0 2103 1679
0 2199 1863
0 2296 2048
0 2391 2234
0 2487 2420
0 2582 2608
0 2677 2796
0 2772 2985
0 2866 3173
0 2960 3362
3 3053 3550
13 3143 3735
26 3234 3920
32 3325 4095
45 3416 4095
61 3506 4095
71 3597 4095
0 1400 269
0 1503 442
0 1605 616
0 1705 793
0 1805 970
0 1904 1149
0 2003 1330
0 2100 1511
0 2198 1694
0 2294 1878
0 2391 2062
0 2487 2247
0 2583 2433
0 2678 2620
0 2773 2808
0 2868 2996
0 2963 3184
0 3057 3373
0 3151 3562
0 3245 3751
10 3336 3936
19 3426 4095
32 3517 4095
42 3608 4095
58 3699 4095
0 1494 287
0 1596 460
0 1698 633
0 1799 810
0 1899 987
0 1998 1166
0 2097 1346
0 2195 1527
0 2292 1709
0 2390 1893
0 2486 2076
0 2583 2261
0 2678 2446
0 2774 2633
0 2869 2820
0 2965 3007
0 3060 3196
0 3154 3384
0 3249 3572
0 3343 3761
0 3436 3950
3 3528 4095
16 3618 4095
32 3709 4095
42 3800 4095
0 1588 306
0 1690 478
0 1792 652
0 1893 827
0 1993 1004
0 2092 1183
0 2191 1363
0 2289 1543
0 2387 1725
0 2484 1908
0 2581 2091
0 2678 2275
0 2774 2460
0 2870 2646
0 2965 2832
0 3060 3019
0 3156 3207
0 3251 3395
0 3346 3584
0 3440 3772
0 3534 3961
0 3628 4095
6 3720 4095
16 3811 4095
26 3901 4095
0 1681 324
0 1784 496
0 1885 669
0 1986 845
0 2087 1022
0 2186 1200
0 2285 1379
0 2384 1559
0 2481 1741
0 2579 1923
0 2676 2106
0 2773 2290
0 2869 2475
0 2965 2660
0 3061 2846
0 3157 3032
0 3252 3219
0 3347 3407
0 3442 3595
0 3537 3783
0 3631 3972
0 3725 4095
3 3819 4095
0 3912 4095
10 4003 4095
0 1774 341
0 1877 513
0 1979 687
0 2080 862
0 2180 1039
0 2280 1217
0 2379 1396
0 2478 1576
0 2576 1757
0 2674 1938
0 2771 2121
0 2868 2305
0 2964 2489
0 3061 2674
0 3157 2859
0 3252 3045
0 3348 3231
0 3443 3418
0 3538 3606
0 3633 3795
0 3728 3983
0 3823 4095
0 3916 4095
3 4010 4095
3 4095 4095
0 1867 360
0 1970 531
0 2072 705
0 2174 880
0 2274 1056
0 2374 1234
0 2473 1412
0 2572 1592
0 2670 1773
0 2768 1954
0 2865 2137
0 2963 2320
0 3060 2503
0 3156 2688
0 3252 2873
0 3348 3059
0 3444 3244
0 3539 3431
0 3634 3618
0 3729 3806
0 3825 3994
0 3919 4095
0 4014 4095
3 4095 4095
3 4095 4095
0 1961 377
0 2064 550
0 2166 723
0 2267 898
0 2368 1074
0 2467 1251
0 2567 1429
0 2666 1609
0 2764 1789
0 2862 1970
0 2960 2152
0 3058 2335
0 3154 2518
0 3251 2702
0 3347 2887
0 3444 3072
0 3539 3258
0 3635 3444
0 3730 3631
0 3825 3818
0 3921 4006
0 4016 4095
3 4095 4095
3 4095 4095
3 4095 4095
0 2054 396
0 2157 568
0 2259 741
0 2361 915
0 2461 1091
0 2561 1268
0 2661 1446
0 2760 1625
0 2858 1805
0 2957 1986
0 3055 2168
0 3152 2350
0 3249 2533
0 3346 2717
0 3443 2901
0 3539 3086
0 3635 3272
0 3730 3457
0 3826 3644
0 3922 3830
0 4017 4017
3 4095 4095
3 4095 4095
3 4095 4095
3 4095 4095
0 2148 414
0 2250 585
0 2352 758
0 2454 933
0 2555 1109
0 2655 1286
0 2755 1463
0 2854 1642
0 2953 1822
0 3051 2002
0 3149 2184
0 3247 2366
0 3344 2549
0 3441 2732
0 3538 2916
0 3634 3100
0 3730 3285
0 3826 3471
0 3922 3657
0 4018 3843
0 4095 4030
3 4095 4095
3 4095 4095
3 4095 4095
3 4095 4095
0 2241 431
0 2344 603
0 2446 777
0 2547 950
0 2648 1126
0 2748 1303
0 2849 1481
0 2948 1659
0 3047 1838
0 3145 2019
0 3243 2200
0 3341 2382
0 3439 2564
0 3536 2747
0 3633 2931
0 3729 3115
0 3826 3299
0 3922 3485
0 4017 3670
3 4095 3856
6 4095 4042
3 4095 4095
3 4095 4095
3 4095 4095
3 4095 4095
152 0 0
183 68 155
195 158 337
206 250 523
217 341 710
228 433 896
240 523 1081
250 614 1265
260 704 1449
271 795 1635
282 885 1820
293 977 2005
304 1067 2190
314 1158 2374
326 1249 2560
336 1340 2744
347 1430 2930
358 1521 3114
369 1612 3300
379 1702 3484
391 1793 3669
401 1884 3855
412 1975 4040
423 2066 4095
434 2156 4095
155 81 0
171 171 171
183 262 356
192 352 541
203 443 726
214 533 912
225 625 1096
235 715 1280
248 806 1465
257 896 1650
269 987 1835
280 1078 2020
291 1169 2206
302 1259 2391
312 1350 2575
322 1441 2760
334 1532 2945
345 1623 3130
354 1713 3315
367 1804 3500
377 1895 3685
388 1986 3870
399 2076 4055
409 2167 4095
422 2258 4095
145 180 0
158 273 186
168 363 372
177 454 556
189 543 741
201 635 927
212 725 1111
222 816 1296
233 907 1482
243 998 1666
255 1088 1851
264 1179 2036
276 1270 2221
287 1361 2406
297 1452 2591
310 1543 2776
320 1633 2961
330 1724 3146
341 1814 3331
352 1905 3516
363 1996 3701
374 2087 3886
384 2178 4071
396 2269 4095
408 2359 4095
132 282 16
142 374 203
155 464 386
165 554 572
174 645 757
186 736 942
198 827 1127
209 918 1312
220 1009 1497
230 1099 1682
240 1190 1867
252 1281 2052
262 1372 2237
273 1462 2422
284 1553 2607
295 1644 2792
306 1735 2977
316 1825 3162
328 1916 3347
339 2007 3532
349 2097 3716
360 2188 3902
370 2279 4087
383 2370 4095
393 2460 4095
119 384 32
129 475 217
139 566 403
152 657 588
161 747 773
174 838 958
183 928 1143
195 1019 1327
206 1110 1512
217 1200 1697
228 1292 1883
238 1382 2068
248 1473 2253
260 1564 2438
271 1654 2622
282 1745 2808
293 1836 2992
304 1926 3177
314 2017 3362
324 2108 3547
336 2199 3732
347 2290 3918
356 2380 4095
369 2471 4095
381 2562 4095
103 485 48
116 577 235
126 666 419
139 758 604
149 849 788
158 940 974
171 1030 1159
180 1120 1343
192 1212 1528
203 1302 1714
214 1393 1898
225 1484 2083
235 1574 2269
245 1665 2453
257 1756 2638
269 1846 2823
278 1937 3008
289 2028 3193
299 2119 3378
312 2210 3563
322 2300 3748
332 2391 3933
343 2482 4095
356 2572 4095
367 2663 4095
90 587 65
100 677 250
113 769 434
123 859 619
136 950 805
145 1040 989
155 1131 1174
168 1221 1359
177 1313 1544
189 1403 1729
201 1494 1914
212 1585 2099
222 1676 2284
233 1767 2469
243 1857 2654
255 1948 2839
264 2039 3024
276 2129 3209
287 2220 3394
297 2311 3579
308 2402 3764
318 2492 3949
330 2583 4095
341 2674 4095
351 2764 4095
78 688 81
87 778 264
100 870 451
110 961 635
119 1051 819
132 1142 1004
142 1233 1190
152 1324 1375
165 1414 1560
174 1505 1745
186 1595 1930
198 1686 2115
206 1777 2300
217 1868 2485
230 1958 2670
240 2049 2855
250 2140 3040
262 2231 3225
273 2321 3410
284 2412 3595
295 2503 3779
306 2594 3965
316 2685 4095
326 2775 4095
339 2866 4095
65 789 97
74 881 280
84 971 467
97 1062 651
107 1153 835
116 1244 1021
129 1334 1206
139 1425 1391
152 1515 1576
161 1606 1761
171 1697 1946
183 1788 2131
195 1878 2315
203 1969 2501
214 2060 2685
225 2151 2870
238 2241 3055
248 2332 3241
260 2423 3426
269 2514 3610
280 2604 3795
291 2695 3980
302 2786 4095
314 2877 4095
324 2967 4095
48 891 113
61 982 297
71 1073 482
81 1163 666
94 1254 852
103 1345 1036
116 1435 1221
126 1526 1407
136 1617 1592
149 1708 1776
158 1798 1961
168 1889 2146
180 1980 2331
192 2070 2516
201 2161 2701
212 2252 2886
222 2343 3071
235 2434 3256
245 2525 3441
255 2615 3626
267 2706 3811
278 2797 3996
291 2887 4095
297 2978 4095
310 3069 4095
36 992 126
45 1083 312
58 1174 497
68 1264 682
81 1355 868
90 1446 1052
100 1537 1237
113 1627 1422
123 1718 1607
132 1809 1792
145 1900 1977
155 1991 2162
165 2081 2347
177 2172 2532
189 2263 2717
198 2353 2902
209 2444 3087
220 2535 3272
230 2626 3457
243 2716 3642
252 2807 3827
264 2898 4012
273 2989 4095
284 3079 4095
295 3170 4095
