Examples/Channels - Indian Summer.3dl
#25pt 3DLUT created by 3D LUT Creator Pro (c) Oleg Sharonov
#Copyright Oleg Sharonov
0 256 512 768 1023
0 0 0
65 543 1109
129 1089 2220
195 1633 3329
260 2178 4095
0 559 107
0 1147 1198
48 1697 2314
113 2242 3424
177 2786 4095
0 1120 214
0 1720 1282
0 2295 2397
29 2850 3519
97 3394 4095
0 1681 324
0 2285 1379
0 2869 2475
0 3442 3595
10 4003 4095
0 2241 431
0 2849 1481
0 3439 2564
0 4017 3670
3 4095 4095
924 0 0
1107 416 930
1171 960 2039
1237 1504 3149
1302 2049 4095
917 478 0
1024 1024 1024
1089 1568 2134
1154 2113 3244
1219 2657 4095
876 1087 10
941 1632 1118
1006 2177 2228
1071 2721 3338
1136 3265 4095
793 1696 103
859 2240 1213
924 2785 2323
989 3329 3432
1054 3874 4095
711 2304 198
776 2849 1307
841 3393 2417
906 3938 3527
973 4095 4095
1846 0 0
2148 287 749
2213 831 1859
2278 1375 2968
2343 1920 4078
1846 391 0
2065 895 843
2130 1439 1953
2195 1984 3063
2260 2528 4095
1834 954 0
1982 1503 937
2048 2048 2048
2113 2592 3158
2178 3136 4095
1805 1548 0
1900 2111 1032
1965 2656 2142
2030 3200 3252
2096 3745 4095
1752 2175 16
1817 2720 1127
1882 3264 2237
1947 3809 3346
2012 4095 4095
2770 0 0
3189 158 568
3254 702 1678
3319 1247 2788
3385 1791 3898
2771 314 0
3106 765 662
3171 1310 1772
3236 1855 2882
3302 2399 3992
2765 863 0
3024 1374 757
3089 1919 1867
3154 2463 2977
3219 3007 4087
2750 1431 0
2941 1982 852
3006 2527 1961
3071 3071 3071
3137 3616 4095
2725 2019 0
2858 2591 946
2924 3135 2056
2988 3680 3166
3054 4095 4095
3693 0 0
4095 26 386
4095 573 1497
4095 1118 2607
4095 1662 3717
3696 238 0
4095 636 481
4095 1181 1592
4095 1725 2702
4095 2270 3812
3693 782 0
4065 1245 576
4095 1790 1686
4095 2334 2796
4095 2878 3906
3683 1338 0
3982 1853 671
4047 2398 1781
4095 2942 2891
4095 3487 4000
3667 1908 0
3900 2462 765
3965 3006 1875
4030 3551 2985
4095 4095 4095
