Examples/Channels - Red & Cyan.3dl
#25pt 3DLUT created by 3D LUT Creator Pro (c) Oleg Sharonov
#Copyright Oleg Sharonov
#IMAGEPROFILE sRGB IEC61966-2.1 v.2.10
#INPUTGAMMA sRGB IEC61966-2.1 v.2.10
#OUTPUTGAMMA sRGB IEC61966-2.1 v.2.10
0 256 512 768 1023
0 0 0
0 1023 1023
0 2047 2047
0 3071 3071
3 4095 4095
0 1023 1023
0 1023 1023
0 2047 2047
0 3071 3071
3 4095 4095
0 2047 2047
0 2047 2047
0 2047 2047
0 3071 3071
3 4095 4095
0 3071 3071
0 3071 3071
0 3071 3071
0 3071 3071
3 4095 4095
3 4095 4095
3 4095 4095
3 4095 4095
3 4095 4095
3 4095 4095
1023 0 0
1024 1024 1024
1024 2048 2048
1024 3071 3071
1024 4095 4095
1024 1024 1024
1024 1024 1024
1024 2048 2048
1024 3071 3071
1024 4095 4095
1024 2048 2048
1024 2048 2048
1024 2048 2048
1024 3071 3071
1024 4095 4095
1024 3071 3071
1024 3071 3071
1024 3071 3071
1024 3071 3071
1024 4095 4095
1024 4095 4095
1024 4095 4095
1024 4095 4095
1024 4095 4095
1024 4095 4095
2048 0 0
2048 1024 1024
2048 2048 2048
2048 3071 3071
2047 4095 4095
2048 1024 1024
2048 1024 1024
2048 2048 2048
2048 3071 3071
2047 4095 4095
2048 2048 2048
2048 2048 2048
2048 2048 2048
2048 3071 3071
2047 4095 4095
2048 3071 3071
2048 3071 3071
2048 3071 3071
2048 3071 3071
2047 4095 4095
2047 4095 4095
2047 4095 4095
2047 4095 4095
2047 4095 4095
2047 4095 4095
3071 0 0
3071 1023 1023
3071 2048 2048
3071 3071 3071
3071 4095 4095
3071 1023 1023
3071 1023 1023
3071 2048 2048
3071 3071 3071
3071 4095 4095
3071 2048 2048
3071 2048 2048
3071 2048 2048
3071 3071 3071
3071 4095 4095
3071 3071 3071
3071 3071 3071
3071 3071 3071
3071 3071 3071
3071 4095 4095
3071 4095 4095
3071 4095 4095
3071 4095 4095
3071 4095 4095
3071 4095 4095
4095 0 0
4095 1024 1024
4095 2048 2048
4095 3071 3071
4095 4095 4095
4095 1024 1024
4095 1024 1024
4095 2048 2048
4095 3071 3071
4095 4095 4095
4095 2048 2048
4095 2048 2048
4095 2048 2048
4095 3071 3071
4095 4095 4095
4095 3071 3071
4095 3071 3071
4095 3071 3071
4095 3071 3071
4095 4095 4095
4095 4095 4095
4095 4095 4095
4095 4095 4095
4095 4095 4095
4095 4095 4095
