Examples/Channels - Red saturation.3dl
#25pt 3DLUT created by 3D LUT Creator Pro (c) Oleg Sharonov
#Copyright Oleg Sharonov
#IMAGEPROFILE sRGB IEC61966-2.1 v.2.10
#INPUTGAMMA sRGB IEC61966-2.1 v.2.10
#OUTPUTGAMMA sRGB IEC61966-2.1 v.2.10
0 43 86 128 171 214 256 299 341 384 427 469 512 555 597 640 682 725 768 810 853 896 938 981 1023 
0 0 0
2 3 179
4 7 350
8 13 524
13 22 698
20 33 871
28 45 1045
37 57 1218
47 69 1392
57 81 1565
67 93 1739
76 105 1912
86 118 2086
96 130 2259
105 142 2433
115 154 2606
125 166 2780
135 178 2953
145 190 3127
154 203 3300
164 215 3473
174 227 3647
184 239 3820
193 251 3958
203 263 4095
0 173 0
2 175 178
4 179 351
8 184 524
13 190 698
20 197 871
27 206 1045
37 215 1218
47 224 1392
57 234 1565
66 245 1738
76 255 1912
86 266 2086
96 277 2259
105 289 2433
115 300 2606
125 311 2780
135 323 2953
145 335 3126
154 346 3300
164 358 3473
174 370 3647
184 382 3820
193 394 3958
203 405 4095
0 343 0
2 346 177
4 348 351
8 351 524
13 355 698
19 360 871
27 367 1045
37 374 1218
47 381 1392
57 390 1565
66 399 1739
76 408 1912
86 418 2085
96 428 2259
105 438 2432
115 448 2606
125 459 2780
135 470 2953
145 481 3126
154 492 3300
164 503 3473
174 515 3647
184 526 3820
194 538 3958
203 549 4095
0 515 0
2 516 177
4 518 351
8 520 524
13 523 698
19 527 871
27 532 1045
37 538 1218
47 544 1392
57 551 1565
66 558 1739
76 566 1912
86 574 2085
96 583 2259
105 592 2433
115 602 2606
125 611 2779
135 621 2953
145 631 3126
154 642 3300
164 652 3474
174 663 3647
184 674 3820
194 685 3958
203 696 4095
0 687 0
2 687 177
4 689 351
8 690 524
13 693 698
19 696 871
27 699 1045
37 704 1218
47 709 1392
57 714 1565
66 721 1739
76 727 1912
86 735 2086
96 742 2259
105 750 2433
115 759 2606
125 767 2779
135 776 2953
145 786 3127
154 795 3300
164 805 3474
174 815 3647
184 825 3820
194 835 3958
203 846 4095
0 858 0
2 859 177
4 860 351
8 861 524
13 863 698
19 865 871
27 868 1045
37 872 1218
47 876 1392
57 881 1565
66 886 1739
76 891 1912
86 898 2085
96 904 2259
105 911 2433
115 919 2606
125 926 2780
135 934 2953
145 943 3126
154 952 3300
164 961 3473
174 970 3647
184 979 3820
194 989 3958
203 998 4095
0 1029 0
2 1030 177
4 1031 351
8 1032 524
13 1033 698
19 1035 871
27 1038 1045
37 1041 1218
47 1044 1392
57 1048 1565
66 1053 1739
76 1057 1912
86 1063 2085
96 1068 2259
105 1075 2432
115 1081 2606
125 1088 2779
135 1095 2953
145 1103 3126
154 1111 3300
164 1119 3474
174 1127 3647
184 1136 3820
194 1145 3958
203 1154 4095
0 1201 0
2 1201 177
4 1202 351
8 1203 524
13 1204 698
20 1206 871
27 1208 1045
37 1210 1218
47 1213 1392
57 1217 1565
67 1220 1739
76 1225 1912
86 1229 2086
96 1234 2259
105 1240 2433
115 1245 2606
125 1252 2779
135 1258 2953
145 1265 3127
154 1272 3300
164 1279 3473
174 1287 3647
184 1295 3820
193 1303 3958
203 1312 4095
0 1372 0
2 1372 177
4 1373 351
8 1374 524
13 1375 698
20 1376 871
27 1378 1045
37 1380 1218
47 1383 1392
57 1386 1565
67 1389 1739
76 1393 1912
86 1397 2086
96 1401 2259
105 1406 2433
115 1411 2606
125 1417 2779
135 1422 2953
145 1429 3126
154 1435 3300
164 1442 3473
174 1449 3647
184 1456 3820
193 1464 3958
203 1471 4095
0 1543 0
2 1544 177
4 1544 351
8 1545 524
13 1546 698
19 1547 871
27 1549 1045
37 1551 1218
47 1553 1392
57 1556 1565
66 1558 1739
76 1562 1912
86 1565 2086
96 1569 2259
105 1573 2433
115 1578 2606
125 1583 2780
135 1588 2953
145 1594 3126
154 1599 3300
164 1605 3473
174 1612 3647
184 1619 3820
194 1626 3958
203 1633 4095
0 1715 0
2 1715 177
4 1716 351
8 1716 524
13 1717 698
19 1718 871
27 1720 1045
37 1721 1218
47 1723 1392
57 1725 1565
66 1728 1739
76 1731 1912
86 1734 2086
96 1738 2259
105 1741 2433
115 1745 2606
125 1750 2780
135 1755 2953
145 1760 3127
154 1765 3300
164 1771 3473
174 1776 3647
184 1783 3820
193 1789 3958
203 1795 4095
0 1886 0
2 1887 177
4 1887 351
8 1888 524
13 1888 698
19 1889 871
27 1891 1045
37 1892 1218
47 1894 1392
57 1896 1565
66 1898 1739
76 1901 1912
86 1903 2086
96 1907 2259
105 1910 2433
115 1914 2606
125 1918 2779
135 1922 2953
145 1927 3126
154 1931 3300
164 1937 3473
174 1942 3647
184 1947 3820
194 1953 3958
203 1960 4095
0 2058 0
2 2058 177
4 2058 351
8 2059 524
13 2059 698
19 2060 871
27 2061 1045
37 2063 1218
47 2064 1392
57 2066 1565
66 2068 1739
76 2071 1912
86 2073 2086
96 2076 2259
105 2079 2433
115 2082 2606
125 2086 2780
135 2090 2953
145 2094 3126
154 2099 3300
164 2103 3473
174 2108 3647
184 2113 3820
193 2119 3958
203 2124 4095
0 2229 0
2 2229 177
4 2230 351
8 2230 524
13 2231 698
19 2231 871
27 2232 1045
37 2234 1218
47 2235 1392
57 2237 1565
67 2239 1739
76 2241 1912
86 2243 2086
96 2246 2259
105 2248 2433
115 2252 2606
125 2255 2779
135 2259 2953
145 2262 3127
154 2266 3300
164 2271 3473
174 2275 3647
184 2280 3820
193 2285 3958
203 2290 4095
0 2400 0
2 2401 177
4 2401 351
8 2401 524
13 2402 698
19 2403 871
27 2404 1045
37 2405 1218
47 2406 1392
57 2407 1565
66 2409 1739
76 2411 1912
86 2413 2086
96 2416 2259
105 2418 2433
115 2421 2606
125 2424 2780
135 2427 2953
145 2431 3126
154 2435 3300
164 2439 3473
174 2443 3647
184 2447 3820
194 2452 3958
203 2457 4095
0 2572 0
2 2572 177
4 2572 351
8 2573 524
13 2573 698
19 2574 871
27 2575 1045
37 2576 1218
47 2577 1392
57 2578 1565
66 2580 1739
76 2582 1912
86 2584 2086
96 2586 2259
105 2588 2433
115 2591 2606
125 2594 2780
135 2597 2953
145 2600 3127
154 2603 3300
164 2607 3473
174 2611 3647
184 2615 3820
193 2619 3958
203 2624 4095
0 2743 0
2 2743 177
4 2744 351
8 2744 524
13 2744 698
19 2745 871
27 2746 1045
37 2747 1218
47 2748 1392
57 2749 1565
66 2751 1739
76 2752 1912
86 2754 2086
96 2756 2259
105 2758 2433
115 2761 2606
125 2763 2780
135 2766 2953
145 2769 3126
154 2772 3300
164 2776 3473
174 2779 3647
184 2783 3820
193 2787 3958
203 2792 4095
0 2915 0
2 2915 178
4 2915 351
8 2915 524
13 2916 698
19 2916 871
27 2917 1045
37 2918 1218
47 2919 1392
57 2920 1565
66 2921 1739
76 2923 1912
86 2925 2086
96 2926 2259
105 2929 2433
115 2931 2606
125 2933 2780
135 2936 2953
145 2939 3126
154 2942 3300
164 2945 3473
174 2948 3647
184 2952 3820
193 2956 3958
203 2960 4095
0 3086 0
2 3086 178
4 3086 351
8 3087 524
13 3087 698
19 3088 871
27 3088 1045
37 3089 1218
47 3090 1392
57 3091 1565
66 3092 1739
76 3094 1912
86 3095 2086
96 3097 2259
105 3099 2433
115 3101 2606
125 3103 2780
135 3106 2953
145 3108 3126
154 3111 3300
164 3114 3473
174 3117 3647
184 3121 3820
194 3124 3958
203 3128 4095
0 3257 0
2 3258 178
4 3258 351
8 3258 524
13 3258 698
19 3259 871
27 3260 1045
37 3260 1218
47 3261 1392
57 3262 1565
66 3263 1739
76 3265 1912
86 3266 2086
96 3268 2259
105 3269 2433
115 3271 2606
125 3274 2780
135 3276 2953
145 3278 3126
154 3281 3300
164 3284 3473
174 3287 3647
184 3290 3820
194 3293 3958
203 3297 4095
0 3429 0
2 3429 178
4 3429 351
8 3429 524
13 3430 698
19 3430 871
27 3431 1045
37 3431 1218
47 3432 1392
57 3433 1565
66 3434 1739
76 3436 1912
86 3437 2086
96 3438 2259
105 3440 2433
115 3442 2606
125 3444 2780
135 3446 2953
145 3448 3126
154 3451 3300
164 3454 3473
174 3456 3647
184 3459 3820
193 3462 3958
203 3466 4095
0 3600 0
2 3600 178
4 3601 351
8 3601 524
13 3601 698
19 3602 871
27 3602 1045
37 3603 1218
47 3603 1392
57 3604 1565
66 3605 1739
76 3607 1912
86 3608 2086
96 3609 2259
105 3611 2433
115 3613 2606
125 3614 2780
135 3616 2953
145 3619 3126
154 3621 3300
164 3623 3473
174 3626 3647
184 3629 3820
194 3632 3958
203 3635 4095
0 3772 0
2 3772 178
4 3772 351
8 3772 524
13 3772 698
19 3773 871
27 3773 1045
37 3774 1218
47 3775 1392
57 3775 1565
66 3776 1739
76 3778 1912
86 3779 2086
96 3780 2259
105 3782 2433
115 3783 2606
125 3785 2780
135 3787 2953
145 3789 3126
154 3791 3300
164 3793 3473
174 3796 3647
184 3799 3820
194 3801 3958
203 3804 4095
0 3943 0
2 3943 178
4 3943 351
8 3943 524
13 3944 698
19 3944 871
27 3945 1045
37 3945 1218
47 3946 1392
57 3947 1565
66 3948 1739
76 3949 1912
86 3950 2086
96 3951 2259
105 3952 2433
115 3954 2606
125 3956 2779
135 3957 2953
145 3958 3126
154 3958 3300
164 3958 3473
174 3958 3647
184 3958 3820
193 3958 3958
203 3958 4095
0 4095 1
1 4095 177
4 4095 351
8 4095 524
12 4095 698
20 4095 871
27 4095 1045
37 4095 1218
47 4095 1392
57 4095 1565
67 4095 1739
77 4095 1912
86 4095 2086
96 4095 2259
105 4095 2433
115 4095 2606
126 4095 2780
135 4095 2953
145 4095 3126
154 4095 3300
164 4095 3473
174 4095 3647
184 4095 3820
193 4095 3958
203 4095 4095
170 0 0
171 0 171
173 2 348
176 8 521
180 16 696
186 28 870
191 40 1043
198 54 1217
205 66 1391
213 79 1565
221 91 1738
228 103 1911
237 116 2085
245 128 2259
254 140 2432
263 153 2606
272 165 2779
281 177 2953
290 189 3126
300 202 3300
309 214 3473
318 226 3647
328 238 3820
337 251 3958
346 263 4095
169 168 0
171 171 171
183 192 372
193 209 552
205 226 729
218 244 904
229 261 1079
241 278 1254
254 295 1427
266 311 1601
278 326 1775
290 342 1948
302 357 2122
313 372 2295
325 386 2469
336 401 2642
348 415 2816
359 429 2989
370 443 3163
381 456 3336
392 470 3510
403 483 3683
414 497 3857
425 510 3976
358 421 4095
169 341 0
171 349 171
183 360 370
193 371 553
205 382 729
216 393 904
230 407 1080
241 420 1253
253 434 1427
266 448 1601
277 462 1774
290 476 1948
302 490 2122
313 504 2295
325 518 2469
336 532 2642
348 545 2816
359 559 2989
370 573 3163
381 587 3336
392 600 3510
403 614 3683
414 627 3857
425 640 3976
358 563 4095
169 513 0
171 522 171
181 529 365
193 539 553
205 546 730
218 554 905
230 564 1079
241 574 1253
254 585 1427
266 596 1601
278 608 1775
290 620 1948
302 633 2122
313 645 2295
325 658 2469
336 671 2642
348 684 2816
359 697 2989
370 710 3163
381 723 3336
392 736 3510
403 749 3683
414 762 3857
425 775 3976
358 708 4095
169 685 0
171 696 171
179 699 362
189 705 546
205 714 729
218 720 905
230 727 1079
241 735 1253
254 743 1427
266 752 1601
278 762 1775
290 772 1948
302 783 2122
313 794 2295
325 806 2469
336 817 2642
348 829 2816
359 841 2989
370 853 3163
381 865 3336
392 878 3510
403 890 3683
414 903 3857
425 915 3976
358 856 4095
169 857 0
171 867 171
178 870 359
187 874 542
201 880 724
218 888 905
230 893 1079
241 899 1253
254 906 1427
266 913 1601
278 922 1775
290 930 1948
302 939 2122
313 949 2295
325 959 2469
336 969 2642
348 980 2816
359 991 2989
370 1002 3163
381 1013 3336
392 1024 3510
403 1036 3683
414 1048 3857
425 1059 3976
358 1008 4095
169 1029 0
171 1038 171
178 1041 357
186 1044 539
198 1048 720
213 1054 900
230 1061 1079
241 1066 1253
254 1071 1427
266 1077 1601
278 1084 1775
290 1091 1948
302 1099 2122
313 1107 2295
325 1116 2469
336 1125 2642
348 1135 2816
359 1145 2989
370 1155 3163
381 1165 3336
392 1175 3510
403 1186 3683
414 1197 3857
425 1208 3976
358 1162 4095
169 1200 0
171 1210 171
177 1211 356
184 1214 537
196 1218 717
210 1222 896
224 1227 1075
241 1234 1253
254 1238 1427
266 1243 1601
278 1249 1775
290 1255 1948
302 1262 2122
313 1269 2295
325 1277 2469
336 1285 2642
348 1293 2816
359 1302 2989
370 1311 3163
381 1320 3336
392 1330 3510
403 1340 3683
414 1350 3857
425 1360 3976
358 1319 4095
169 1372 0
171 1382 171
177 1383 355
183 1385 535
194 1388 714
207 1391 893
220 1395 1071
236 1401 1249
254 1407 1427
266 1411 1601
278 1416 1775
290 1421 1948
302 1427 2122
313 1433 2295
325 1440 2469
336 1447 2642
348 1454 2816
359 1462 2989
370 1470 3163
381 1479 3336
392 1487 3510
403 1496 3683
414 1505 3857
425 1515 3976
358 1478 4095
169 1543 0
171 1553 171
176 1554 354
183 1556 534
192 1558 713
205 1561 891
217 1564 1068
233 1569 1246
249 1574 1423
266 1579 1601
278 1583 1774
290 1588 1948
302 1593 2122
313 1598 2295
325 1604 2469
336 1611 2642
348 1617 2816
359 1624 2989
370 1631 3163
381 1639 3336
392 1647 3510
403 1655 3683
414 1664 3857
425 1672 3976
358 1639 4095
169 1714 0
171 1725 171
176 1725 354
182 1727 533
191 1729 711
203 1731 889
215 1734 1066
229 1738 1243
245 1742 1420
261 1747 1598
278 1752 1775
290 1756 1948
302 1760 2122
313 1765 2295
325 1770 2469
336 1776 2642
348 1782 2816
359 1788 2989
370 1795 3163
381 1802 3336
392 1809 3510
403 1816 3683
414 1824 3857
425 1832 3976
358 1801 4095
