Examples/Channels - No green.3dl
#25pt 3DLUT created by 3D LUT Creator Pro (c) Oleg Sharonov
#Copyright Oleg Sharonov
0 128 256 384 512 640 768 896 1023
0 0 0
0 0 512
0 0 1022
0 0 1535
0 0 2047
0 0 2559
0 0 3071
0 0 3583
0 0 4095
0 36 0
0 343 513
0 512 1023
0 512 1535
0 512 2047
0 512 2559
0 512 3071
0 512 3583
0 512 4095
0 132 0
0 394 513
0 735 1023
0 1023 1535
0 1023 2047
0 1023 2559
0 1023 3071
0 1023 3583
0 1024 4095
0 278 0
0 474 512
0 782 1024
0 1129 1535
0 1493 2047
0 1536 2560
0 1536 3072
0 1535 3583
0 1536 4095
0 422 0
0 573 512
0 845 1024
0 1173 1536
0 1524 2048
0 1886 2559
0 2048 3071
0 2048 3583
0 2048 4095
0 568 0
0 689 512
0 924 1024
0 1229 1536
0 1565 2048
0 1918 2559
0 2279 3071
0 2559 3583
0 2559 4095
0 713 0
0 812 512
0 1017 1024
0 1297 1536
0 1617 2048
0 1958 2559
0 2312 3071
0 2672 3583
3 3038 4095
0 859 0
0 942 512
0 1120 1023
0 1376 1536
0 1678 2047
0 2007 2559
0 2352 3071
0 2706 3583
0 3066 4095
0 1004 0
0 1074 512
0 1232 1023
0 1465 1536
0 1749 2047
0 2064 2559
0 2398 3071
0 2745 3583
0 3099 4095
512 0 0
512 0 512
512 0 1023
512 0 1535
512 0 2047
512 0 2559
512 0 3071
512 0 3583
512 0 4095
513 336 0
512 512 512
512 512 1023
512 512 1535
512 512 2047
512 512 2559
512 512 3071
512 512 3583
512 512 4095
513 388 0
512 548 512
512 829 1024
512 1023 1535
512 1023 2047
512 1023 2559
512 1023 3071
512 1023 3583
512 1023 4095
512 468 0
513 610 513
512 869 1024
512 1189 1536
512 1536 2048
512 1536 2560
512 1536 3072
512 1535 3583
512 1535 4095
512 569 0
512 691 512
512 926 1023
512 1230 1536
512 1566 2047
512 1919 2560
512 2048 3071
512 2048 3583
512 2048 4095
512 685 0
512 787 512
512 999 1024
512 1283 1535
512 1606 2047
512 1950 2560
512 2305 3071
512 2559 3583
513 2559 4095
512 808 0
512 896 512
512 1083 1023
512 1348 1536
512 1656 2048
512 1989 2559
512 2337 3071
512 2693 3583
512 3056 4095
512 938 0
512 1013 512
512 1180 1024
512 1423 1535
512 1716 2048
512 2037 2560
512 2376 3071
512 2726 3583
510 3083 4095
512 1072 0
512 1137 512
512 1286 1024
512 1510 1536
512 1784 2047
512 2093 2560
512 2422 3071
512 2765 3583
510 3117 4095
1023 0 0
1023 0 512
1023 0 1023
1023 0 1535
1023 0 2047
1023 0 2558
1023 0 3071
1023 0 3583
1023 0 4095
1023 512 0
1023 512 512
1024 512 1024
1024 512 1536
1024 512 2048
1024 512 2560
1023 512 3071
1023 512 3583
1023 512 4095
1024 723 0
1023 820 512
1024 1024 1024
1024 1024 1536
1024 1024 2048
1024 1024 2560
1023 1023 3071
1023 1023 3583
1023 1023 4095
1023 769 0
1023 861 512
1024 1056 1024
1024 1326 1536
1024 1536 2048
1024 1536 2559
1024 1536 3071
1024 1536 3583
1024 1536 4095
1023 833 0
1024 919 512
1023 1102 1023
1024 1362 1536
1023 1667 2047
1023 1998 2559
1023 2047 3071
1023 2048 3583
1023 2048 4095
1024 914 0
1023 992 512
1023 1162 1023
1023 1409 1535
1024 1704 2048
1024 2028 2560
1024 2368 3071
1024 2559 3583
1024 2559 4095
1023 1008 0
1024 1077 512
1023 1235 1023
1023 1467 1535
1023 1751 2047
1024 2066 2560
1023 2400 3071
1024 2746 3583
1024 3071 4095
1024 1113 0
1023 1175 512
1024 1318 1024
1023 1536 1535
1024 1807 2048
1024 2111 2560
1024 2437 3071
1024 2778 3583
1024 3128 4095
1024 1224 0
1023 1281 512
1024 1412 1024
1023 1615 1535
1023 1871 2047
1024 2165 2559
1023 2482 3071
1023 2816 3583
1023 3160 4095
1535 0 0
1535 0 512
1535 0 1023
1535 0 1535
1535 0 2047
1535 0 2559
1535 0 3071
1536 0 3583
1536 0 4095
1535 512 0
1535 512 512
1535 512 1023
1535 512 1535
1535 512 2047
1536 512 2560
1535 512 3071
1535 512 3583
1536 512 4095
1535 1023 0
1535 1023 512
1535 1023 1023
1536 1024 1536
1535 1023 2047
1536 1024 2560
1535 1023 3071
1536 1023 3583
1536 1023 4095
1536 1111 0
1536 1174 512
1536 1318 1024
1536 1536 1536
1536 1536 2048
1536 1536 2559
1536 1536 3071
1536 1536 3583
1535 1535 4095
1535 1155 0
1536 1215 512
1535 1353 1023
1536 1565 1536
1536 1831 2047
1536 2047 2559
1536 2048 3071
1536 2048 3583
1536 2048 4095
1536 1212 0
1536 1269 512
1536 1401 1024
1536 1606 1536
1536 1864 2048
1536 2158 2560
1536 2477 3071
1536 2559 3583
1536 2559 4095
1535 1281 0
1536 1334 512
1536 1460 1024
1536 1656 1536
1536 1906 2047
1536 2193 2560
1536 2506 3071
1536 2836 3583
1536 3071 4095
1536 1361 0
1536 1411 512
1536 1529 1024
1535 1715 1535
1536 1956 2048
1536 2236 2559
1536 2542 3071
1536 2867 3583
1536 3204 4095
1536 1451 0
1536 1498 512
1535 1608 1023
1536 1785 1536
1536 2015 2048
1536 2286 2559
1536 2585 3071
1536 2904 3583
1536 3236 4095
2048 0 0
2048 0 512
2048 0 1024
2048 0 1536
2048 0 2048
2048 0 2560
2048 0 3072
2048 0 3584
2047 0 4095
2048 512 0
2048 512 512
2048 512 1024
2048 512 1536
2048 512 2048
2048 512 2559
2048 512 3071
2048 512 3583
2048 513 4095
2048 1024 0
2048 1024 512
2048 1024 1024
2048 1024 1536
2048 1024 2048
2048 1024 2559
2048 1024 3071
2048 1024 3583
2048 1024 4095
2047 1467 0
2048 1514 512
2048 1536 1023
2047 1536 1536
2048 1536 2048
2047 1536 2559
2048 1536 3071
2048 1536 3583
2048 1536 4095
2048 1499 0
2047 1544 512
2048 1650 1024
2048 1822 1536
2048 2048 2048
2048 2048 2559
2048 2048 3071
2048 2048 3583
2048 2048 4095
2048 1541 0
2048 1585 512
2048 1688 1024
2048 1855 1536
2048 2076 2048
2048 2339 2559
2048 2559 3071
2048 2559 3583
2048 2559 4095
2048 1594 0
2048 1636 512
2048 1735 1024
2048 1898 1536
2048 2113 2048
2048 2370 2559
2048 2657 3071
2048 2966 3583
2047 3071 4095
2048 1656 0
2048 1696 512
2048 1792 1024
2048 1948 1536
2048 2157 2048
2048 2408 2559
2048 2690 3071
2048 2995 3583
2048 3316 4095
2047 1728 0
2048 1766 512
2048 1857 1023
2048 2007 1536
2048 2210 2048
2048 2454 2559
2048 2730 3071
2048 3029 3583
2048 3346 4095
2559 0 0
2559 0 512
2559 0 1023
2559 0 1536
2559 0 2048
2559 0 2559
2559 0 3071
2559 0 3583
2559 0 4095
2559 512 0
2559 512 512
2559 512 1023
2559 512 1535
2559 512 2047
2559 512 2559
2559 512 3071
2559 512 3583
2559 512 4095
2559 1024 0
2559 1024 512
2559 1023 1023
2559 1023 1535
2559 1023 2047
2559 1023 2559
2559 1023 3071
2559 1024 3583
2559 1024 4095
2559 1536 0
2559 1536 512
2560 1536 1024
2560 1536 1536
2560 1536 2048
2560 1536 2560
2560 1536 3071
2559 1536 3583
2559 1535 4095
2559 1855 0
2559 1890 512
2559 1974 1023
2559 2048 1536
2559 2048 2048
2559 2048 2559
2559 2048 3071
2559 2048 3583
2559 2048 4095
2560 1888 0
2559 1921 512
2560 2004 1024
2559 2141 1536
2559 2329 2048
2559 2559 2559
2559 2559 3071
2559 2559 3583
2559 2559 4095
2560 1929 0
2559 1962 512
2559 2042 1024
2559 2177 1536
2559 2361 2048
2559 2588 2559
2559 2847 3071
2559 3071 3583
2559 3071 4095
2559 1979 0
2559 2010 512
2559 2089 1024
2559 2220 1536
2559 2400 2048
2559 2622 2559
2559 2878 3071
2559 3159 3583
2560 3461 4095
2559 2037 0
2559 2067 512
2560 2143 1024
2559 2270 1536
2559 2446 2048
2559 2663 2559
2559 2914 3071
2560 3192 3583
2559 3489 4095
3071 0 0
3071 0 512
3071 0 1023
3071 0 1536
3071 0 2047
3071 0 2559
3071 0 3071
3071 0 3583
3071 0 4095
3071 512 0
3071 512 512
3071 512 1023
3071 512 1535
3071 512 2047
3071 512 2559
3071 512 3071
3071 512 3583
3071 512 4095
3071 1023 0
3071 1023 512
3071 1023 1023
3071 1023 1535
3071 1023 2047
3071 1023 2559
3071 1023 3071
3071 1023 3583
3071 1023 4095
3071 1536 0
3071 1536 512
3071 1536 1024
3071 1536 1536
3071 1536 2048
3071 1536 2559
3071 1536 3071
3071 1536 3583
3071 1535 4095
3071 2048 0
3071 2048 512
3071 2048 1023
3071 2048 1536
3071 2048 2048
3071 2048 2559
3071 2048 3071
3071 2048 3583
3071 2048 4095
3071 2243 0
3071 2270 512
3071 2338 1024
3071 2452 1536
3071 2559 2048
3071 2559 2559
3071 2559 3071
3071 2559 3583
3071 2559 4095
3071 2276 0
3071 2303 512
3071 2369 1024
3071 2482 1536
3071 2640 2048
3071 2838 2559
3071 3071 3071
3071 3071 3583
3071 3071 4095
3071 2317 0
3071 2343 512
3071 2408 1024
3071 2518 1536
3071 2673 2048
3071 2869 2559
3071 3099 3071
3071 3357 3583
3071 3583 4095
3071 2365 0
3071 2390 512
3071 2453 1024
3071 2561 1536
3071 2713 2048
3071 2905 2559
3071 3132 3071
3071 3387 3583
3071 3664 4095
3583 0 0
3583 0 512
3583 0 1024
3583 0 1536
3583 0 2048
3583 0 2559
3583 0 3071
3583 0 3583
3583 0 4095
3583 512 0
3583 512 512
3583 512 1024
3583 512 1536
3583 512 2048
3583 512 2559
3583 512 3071
3583 512 3583
3583 513 4095
3583 1024 0
3583 1024 512
3583 1024 1024
3583 1024 1536
3583 1024 2048
3583 1024 2559
3583 1024 3071
3583 1024 3583
3583 1024 4095
3583 1536 0
3583 1536 512
3583 1536 1024
3583 1536 1536
3583 1536 2048
3583 1536 2559
3583 1536 3071
3583 1536 3583
3583 1536 4095
3583 2048 0
3583 2048 512
3583 2048 1024
3583 2048 1536
3583 2048 2048
3583 2048 2559
3583 2048 3071
3583 2048 3583
3583 2048 4095
3583 2559 0
3583 2559 512
3583 2559 1024
3583 2559 1536
3583 2559 2048
3583 2559 2559
3583 2559 3071
3583 2559 3583
3583 2559 4095
3583 2631 0
3583 2653 512
3583 2709 1024
3583 2804 1536
3583 2940 2048
3583 3071 2559
3583 3071 3071
3583 3071 3583
3583 3071 4095
3583 2665 0
3583 2687 512
3583 2741 1024
3583 2835 1536
3583 2970 2048
3583 3142 2559
3583 3348 3071
3583 3583 3583
3583 3583 4095
3583 2705 0
3583 2726 512
3583 2780 1024
3583 2872 1536
3583 3005 2048
3583 3174 2559
3583 3378 3071
3583 3610 3583
3583 3867 4095
4095 0 0
4095 0 512
4095 0 1023
4095 0 1536
4095 0 2047
4095 0 2559
4095 0 3071
4095 0 3583
4095 0 4095
4095 512 0
4095 512 512
4095 513 1024
4095 513 1536
4095 513 2048
4095 513 2559
4095 510 3071
4095 512 3583
4095 512 4095
4095 1023 0
4095 1023 512
4095 1024 1024
4095 1024 1536
4095 1024 2048
4095 1024 2559
4095 1024 3071
4095 1023 3583
4095 1023 4095
4095 1536 0
4095 1536 513
4095 1536 1024
4095 1536 1536
4095 1536 2048
4095 1536 2559
4095 1536 3071
4095 1536 3583
4095 1536 4095
4095 2048 0
4095 2047 512
4095 2048 1024
4095 2048 1536
4095 2048 2048
4095 2048 2559
4095 2047 3071
4095 2047 3583
4095 2047 4095
4095 2559 0
4095 2559 512
4095 2559 1023
4095 2559 1535
4095 2559 2048
4095 2559 2559
4095 2559 3071
4095 2559 3583
4095 2559 4095
4095 2990 0
4095 3009 510
4095 3057 1024
4095 3071 1535
4095 3071 2047
4095 3071 2559
4095 3071 3071
4095 3071 3583
4095 3071 4095
4095 3019 3
4095 3038 513
4095 3084 1023
4095 3165 1536
4095 3282 2047
4095 3435 2559
4095 3583 3071
4095 3583 3583
4095 3583 4095
4095 3053 0
4095 3071 512
4095 3117 1023
4095 3197 1536
4095 3313 2048
4095 3464 2560
4095 3647 3071
4095 3858 3583
4095 4095 4095
