Examples/Channels - Red & Cyan.3dl
#25pt 3DLUT created by 3D LUT Creator Pro (c) Oleg Sharonov
#Copyright Oleg Sharonov
#IMAGEPROFILE sRGB IEC61966-2.1 v.2.10
#INPUTGAMMA sRGB IEC61966-2.1 v.2.10
#OUTPUTGAMMA sRGB IEC61966-2.1 v.2.10
0 43 86 128 171 214 256 299 341 384 427 469 512 555 597 640 682 725 768 810 853 896 938 981 1023 
0 0 0
0 171 171
0 339 339
0 512 512
0 682 682
0 852 852
0 1023 1023
0 1195 1195
0 1365 1365
0 1536 1536
0 1707 1707
0 1877 1877
0 2047 2047
0 2218 2218
0 2389 2389
0 2559 2559
0 2730 2730
0 2900 2900
0 3071 3071
0 3242 3242
0 3412 3412
0 3583 3583
0 3754 3754
0 3924 3924
3 4095 4095
0 171 171
0 171 171
0 339 339
0 512 512
0 682 682
0 852 852
0 1023 1023
0 1195 1195
0 1365 1365
0 1536 1536
0 1707 1707
0 1877 1877
0 2047 2047
0 2218 2218
0 2389 2389
0 2559 2559
0 2730 2730
0 2900 2900
0 3071 3071
0 3242 3242
0 3412 3412
0 3583 3583
0 3754 3754
0 3924 3924
3 4095 4095
0 339 339
0 339 339
0 339 339
0 512 512
0 682 682
0 852 852
0 1023 1023
0 1195 1195
0 1365 1365
0 1536 1536
0 1707 1707
0 1877 1877
0 2047 2047
0 2218 2218
0 2389 2389
0 2559 2559
0 2730 2730
0 2900 2900
0 3071 3071
0 3242 3242
0 3412 3412
0 3583 3583
0 3754 3754
0 3924 3924
3 4095 4095
0 512 512
0 512 512
0 512 512
0 512 512
0 682 682
0 852 852
0 1023 1023
0 1195 1195
0 1365 1365
0 1536 1536
0 1707 1707
0 1877 1877
0 2047 2047
0 2218 2218
0 2389 2389
0 2559 2559
0 2730 2730
0 2900 2900
0 3071 3071
0 3242 3242
0 3412 3412
0 3583 3583
0 3754 3754
0 3924 3924
3 4095 4095
0 682 682
0 682 682
0 682 682
0 682 682
0 682 682
0 852 852
0 1023 1023
0 1195 1195
0 1365 1365
0 1536 1536
0 1707 1707
0 1877 1877
0 2047 2047
0 2218 2218
0 2389 2389
0 2559 2559
0 2730 2730
0 2900 2900
0 3071 3071
0 3242 3242
0 3412 3412
0 3583 3583
0 3754 3754
0 3924 3924
3 4095 4095
0 852 852
0 852 852
0 852 852
0 852 852
0 852 852
0 852 852
0 1023 1023
0 1195 1195
0 1365 1365
0 1536 1536
0 1707 1707
0 1877 1877
0 2047 2047
0 2218 2218
0 2389 2389
0 2559 2559
0 2730 2730
0 2900 2900
0 3071 3071
0 3242 3242
0 3412 3412
0 3583 3583
0 3754 3754
0 3924 3924
3 4095 4095
0 1023 1023
0 1023 1023
0 1023 1023
0 1023 1023
0 1023 1023
0 1023 1023
0 1023 1023
0 1195 1195
0 1365 1365
0 1536 1536
0 1707 1707
0 1877 1877
0 2047 2047
0 2218 2218
0 2389 2389
0 2559 2559
0 2730 2730
0 2900 2900
0 3071 3071
0 3242 3242
0 3412 3412
0 3583 3583
0 3754 3754
0 3924 3924
3 4095 4095
0 1195 1195
0 1195 1195
0 1195 1195
0 1195 1195
0 1195 1195
0 1195 1195
0 1195 1195
0 1195 1195
0 1365 1365
0 1536 1536
0 1707 1707
0 1877 1877
0 2047 2047
0 2218 2218
0 2389 2389
0 2559 2559
0 2730 2730
0 2900 2900
0 3071 3071
0 3242 3242
0 3412 3412
0 3583 3583
0 3754 3754
0 3924 3924
3 4095 4095
0 1365 1365
0 1365 1365
0 1365 1365
0 1365 1365
0 1365 1365
0 1365 1365
0 1365 1365
0 1365 1365
0 1365 1365
0 1536 1536
0 1707 1707
0 1877 1877
0 2047 2047
0 2218 2218
0 2389 2389
0 2559 2559
0 2730 2730
0 2900 2900
0 3071 3071
0 3242 3242
0 3412 3412
0 3583 3583
0 3754 3754
0 3924 3924
3 4095 4095
0 1536 1536
0 1536 1536
0 1536 1536
0 1536 1536
0 1536 1536
0 1536 1536
0 1536 1536
0 1536 1536
0 1536 1536
0 1536 1536
0 1707 1707
0 1877 1877
0 2047 2047
0 2218 2218
0 2389 2389
0 2559 2559
0 2730 2730
0 2900 2900
0 3071 3071
0 3242 3242
0 3412 3412
0 3583 3583
0 3754 3754
0 3924 3924
3 4095 4095
0 1707 1707
0 1707 1707
0 1707 1707
0 1707 1707
0 1707 1707
0 1707 1707
0 1707 1707
0 1707 1707
0 1707 1707
0 1707 1707
0 1707 1707
0 1877 1877
0 2047 2047
0 2218 2218
0 2389 2389
0 2559 2559
0 2730 2730
0 2900 2900
0 3071 3071
0 3242 3242
0 3412 3412
0 3583 3583
0 3754 3754
0 3924 3924
3 4095 4095
0 1877 1877
0 1877 1877
0 1877 1877
0 1877 1877
0 1877 1877
0 1877 1877
0 1877 1877
0 1877 1877
0 1877 1877
0 1877 1877
0 1877 1877
0 1877 1877
0 2047 2047
0 2218 2218
0 2389 2389
0 2559 2559
0 2730 2730
0 2900 2900
0 3071 3071
0 3242 3242
0 3412 3412
0 3583 3583
0 3754 3754
0 3924 3924
3 4095 4095
0 2047 2047
0 2047 2047
0 2047 2047
0 2047 2047
0 2047 2047
0 2047 2047
0 2047 2047
0 2047 2047
0 2047 2047
0 2047 2047
0 2047 2047
0 2047 2047
0 2047 2047
0 2218 2218
0 2389 2389
0 2559 2559
0 2730 2730
0 2900 2900
0 3071 3071
0 3242 3242
0 3412 3412
0 3583 3583
0 3754 3754
0 3924 3924
3 4095 4095
0 2218 2218
0 2218 2218
0 2218 2218
0 2218 2218
0 2218 2218
0 2218 2218
0 2218 2218
0 2218 2218
0 2218 2218
0 2218 2218
0 2218 2218
0 2218 2218
0 2218 2218
0 2218 2218
0 2389 2389
0 2559 2559
0 2730 2730
0 2900 2900
0 3071 3071
0 3242 3242
0 3412 3412
0 3583 3583
0 3754 3754
0 3924 3924
3 4095 4095
0 2389 2389
0 2389 2389
0 2389 2389
0 2389 2389
0 2389 2389
0 2389 2389
0 2389 2389
0 2389 2389
0 2389 2389
0 2389 2389
0 2389 2389
0 2389 2389
0 2389 2389
0 2389 2389
0 2389 2389
0 2559 2559
0 2730 2730
0 2900 2900
0 3071 3071
0 3242 3242
0 3412 3412
0 3583 3583
0 3754 3754
0 3924 3924
3 4095 4095
0 2559 2559
0 2559 2559
0 2559 2559
0 2559 2559
0 2559 2559
0 2559 2559
0 2559 2559
0 2559 2559
0 2559 2559
0 2559 2559
0 2559 2559
0 2559 2559
0 2559 2559
0 2559 2559
0 2559 2559
0 2559 2559
0 2730 2730
0 2900 2900
0 3071 3071
0 3242 3242
0 3412 3412
0 3583 3583
0 3754 3754
0 3924 3924
3 4095 4095
0 2730 2730
0 2730 2730
0 2730 2730
0 2730 2730
0 2730 2730
0 2730 2730
0 2730 2730
0 2730 2730
0 2730 2730
0 2730 2730
0 2730 2730
0 2730 2730
0 2730 2730
0 2730 2730
0 2730 2730
0 2730 2730
0 2730 2730
0 2900 2900
0 3071 3071
0 3242 3242
0 3412 3412
0 3583 3583
0 3754 3754
0 3924 3924
3 4095 4095
0 2900 2900
0 2900 2900
0 2900 2900
0 2900 2900
0 2900 2900
0 2900 2900
0 2900 2900
0 2900 2900
0 2900 2900
0 2900 2900
0 2900 2900
0 2900 2900
0 2900 2900
0 2900 2900
0 2900 2900
0 2900 2900
0 2900 2900
0 2900 2900
0 3071 3071
0 3242 3242
0 3412 3412
0 3583 3583
0 3754 3754
0 3924 3924
3 4095 4095
0 3071 3071
0 3071 3071
0 3071 3071
0 3071 3071
0 3071 3071
0 3071 3071
0 3071 3071
0 3071 3071
0 3071 3071
0 3071 3071
0 3071 3071
0 3071 3071
0 3071 3071
0 3071 3071
0 3071 3071
0 3071 3071
0 3071 3071
0 3071 3071
0 3071 3071
0 3242 3242
0 3412 3412
0 3583 3583
0 3754 3754
0 3924 3924
3 4095 4095
0 3242 3242
0 3242 3242
0 3242 3242
0 3242 3242
0 3242 3242
0 3242 3242
0 3242 3242
0 3242 3242
0 3242 3242
0 3242 3242
0 3242 3242
0 3242 3242
0 3242 3242
0 3242 3242
0 3242 3242
0 3242 3242
0 3242 3242
0 3242 3242
0 3242 3242
0 3242 3242
0 3412 3412
0 3583 3583
0 3754 3754
0 3924 3924
3 4095 4095
0 3412 3412
0 3412 3412
0 3412 3412
0 3412 3412
0 3412 3412
0 3412 3412
0 3412 3412
0 3412 3412
0 3412 3412
0 3412 3412
0 3412 3412
0 3412 3412
0 3412 3412
0 3412 3412
0 3412 3412
0 3412 3412
0 3412 3412
0 3412 3412
0 3412 3412
0 3412 3412
0 3412 3412
0 3583 3583
0 3754 3754
0 3924 3924
3 4095 4095
0 3583 3583
0 3583 3583
0 3583 3583
0 3583 3583
0 3583 3583
0 3583 3583
0 3583 3583
0 3583 3583
0 3583 3583
0 3583 3583
0 3583 3583
0 3583 3583
0 3583 3583
0 3583 3583
0 3583 3583
0 3583 3583
0 3583 3583
0 3583 3583
0 3583 3583
0 3583 3583
0 3583 3583
0 3583 3583
0 3754 3754
0 3924 3924
3 4095 4095
0 3754 3754
0 3754 3754
0 3754 3754
0 3754 3754
0 3754 3754
0 3754 3754
0 3754 3754
0 3754 3754
0 3754 3754
0 3754 3754
0 3754 3754
0 3754 3754
0 3754 3754
0 3754 3754
0 3754 3754
0 3754 3754
0 3754 3754
0 3754 3754
0 3754 3754
0 3754 3754
0 3754 3754
0 3754 3754
0 3754 3754
0 3924 3924
3 4095 4095
0 3924 3924
0 3924 3924
0 3924 3924
0 3924 3924
0 3924 3924
0 3924 3924
0 3924 3924
0 3924 3924
0 3924 3924
0 3924 3924
0 3924 3924
0 3924 3924
0 3924 3924
0 3924 3924
0 3924 3924
0 3924 3924
0 3924 3924
0 3924 3924
0 3924 3924
0 3924 3924
0 3924 3924
0 3924 3924
0 3924 3924
0 3924 3924
3 4095 4095
3 4095 4095
3 4095 4095
3 4095 4095
3 4095 4095
3 4095 4095
3 4095 4095
3 4095 4095
3 4095 4095
3 4095 4095
3 4095 4095
3 4095 4095
3 4095 4095
3 4095 4095
3 4095 4095
3 4095 4095
3 4095 4095
3 4095 4095
3 4095 4095
3 4095 4095
3 4095 4095
3 4095 4095
3 4095 4095
3 4095 4095
3 4095 4095
3 4095 4095
168 0 0
171 171 171
171 341 341
171 512 512
171 682 682
171 853 853
171 1024 1024
171 1195 1195
171 1365 1365
171 1536 1536
171 1706 1706
171 1877 1877
171 2048 2048
171 2218 2218
171 2389 2389
171 2559 2559
171 2730 2730
171 2901 2901
171 3071 3071
171 3242 3242
171 3412 3412
171 3583 3583
171 3754 3754
171 3924 3924
171 4095 4095
171 171 171
171 171 171
171 341 341
171 512 512
171 682 682
171 853 853
171 1024 1024
171 1195 1195
171 1365 1365
171 1536 1536
171 1706 1706
171 1877 1877
171 2048 2048
171 2218 2218
171 2389 2389
171 2559 2559
171 2730 2730
171 2901 2901
171 3071 3071
171 3242 3242
171 3412 3412
171 3583 3583
171 3754 3754
171 3924 3924
171 4095 4095
171 341 341
171 341 341
171 341 341
171 512 512
171 682 682
171 853 853
171 1024 1024
171 1195 1195
171 1365 1365
171 1536 1536
171 1706 1706
171 1877 1877
171 2048 2048
171 2218 2218
171 2389 2389
171 2559 2559
171 2730 2730
171 2901 2901
171 3071 3071
171 3242 3242
171 3412 3412
171 3583 3583
171 3754 3754
171 3924 3924
171 4095 4095
171 512 512
171 512 512
171 512 512
171 512 512
171 682 682
171 853 853
171 1024 1024
171 1195 1195
171 1365 1365
171 1536 1536
171 1706 1706
171 1877 1877
171 2048 2048
171 2218 2218
171 2389 2389
171 2559 2559
171 2730 2730
171 2901 2901
171 3071 3071
171 3242 3242
171 3412 3412
171 3583 3583
171 3754 3754
171 3924 3924
171 4095 4095
171 682 682
171 682 682
171 682 682
171 682 682
171 682 682
171 853 853
171 1024 1024
171 1195 1195
171 1365 1365
171 1536 1536
171 1706 1706
171 1877 1877
171 2048 2048
171 2218 2218
171 2389 2389
171 2559 2559
171 2730 2730
171 2901 2901
171 3071 3071
171 3242 3242
171 3412 3412
171 3583 3583
171 3754 3754
171 3924 3924
171 4095 4095
171 853 853
171 853 853
171 853 853
171 853 853
171 853 853
171 853 853
171 1024 1024
171 1195 1195
171 1365 1365
171 1536 1536
171 1706 1706
171 1877 1877
171 2048 2048
171 2218 2218
171 2389 2389
171 2559 2559
171 2730 2730
171 2901 2901
171 3071 3071
171 3242 3242
171 3412 3412
171 3583 3583
171 3754 3754
171 3924 3924
171 4095 4095
171 1024 1024
171 1024 1024
171 1024 1024
171 1024 1024
171 1024 1024
171 1024 1024
171 1024 1024
171 1195 1195
171 1365 1365
171 1536 1536
171 1706 1706
171 1877 1877
171 2048 2048
171 2218 2218
171 2389 2389
171 2559 2559
171 2730 2730
171 2901 2901
171 3071 3071
171 3242 3242
171 3412 3412
171 3583 3583
171 3754 3754
171 3924 3924
171 4095 4095
171 1195 1195
171 1195 1195
171 1195 1195
171 1195 1195
171 1195 1195
171 1195 1195
171 1195 1195
171 1195 1195
171 1365 1365
171 1536 1536
171 1706 1706
171 1877 1877
171 2048 2048
171 2218 2218
171 2389 2389
171 2559 2559
171 2730 2730
171 2901 2901
171 3071 3071
171 3242 3242
171 3412 3412
171 3583 3583
171 3754 3754
171 3924 3924
171 4095 4095
171 1365 1365
171 1365 1365
171 1365 1365
171 1365 1365
171 1365 1365
171 1365 1365
171 1365 1365
171 1365 1365
171 1365 1365
171 1536 1536
171 1706 1706
171 1877 1877
171 2048 2048
171 2218 2218
171 2389 2389
171 2559 2559
171 2730 2730
171 2901 2901
171 3071 3071
171 3242 3242
171 3412 3412
171 3583 3583
171 3754 3754
171 3924 3924
171 4095 4095
171 1536 1536
171 1536 1536
171 1536 1536
171 1536 1536
171 1536 1536
171 1536 1536
171 1536 1536
171 1536 1536
171 1536 1536
171 1536 1536
171 1706 1706
171 1877 1877
171 2048 2048
171 2218 2218
171 2389 2389
171 2559 2559
171 2730 2730
171 2901 2901
171 3071 3071
171 3242 3242
171 3412 3412
171 3583 3583
171 3754 3754
171 3924 3924
171 4095 4095
171 1706 1706
171 1706 1706
171 1706 1706
171 1706 1706
171 1706 1706
171 1706 1706
171 1706 1706
171 1706 1706
171 1706 1706
171 1706 1706
171 1706 1706
171 1877 1877
171 2048 2048
171 2218 2218
171 2389 2389
171 2559 2559
171 2730 2730
171 2901 2901
171 3071 3071
171 3242 3242
171 3412 3412
171 3583 3583
171 3754 3754
171 3924 3924
171 4095 4095
