Examples/Channels - Black and White.3dl
#25pt 3DLUT created by 3D LUT Creator Pro (c) Oleg Sharonov
#Copyright Oleg Sharonov
0 128 256 384 512 640 768 896 1023
0 0 0
52 52 52
103 103 103
155 155 155
206 206 206
257 257 257
308 308 308
360 360 360
411 411 411
332 332 332
384 384 384
436 436 436
486 486 486
538 538 538
590 590 590
641 641 641
692 692 692
743 743 743
665 665 665
716 716 716
768 768 768
819 819 819
871 871 871
921 921 921
973 973 973
1024 1024 1024
1076 1076 1076
998 998 998
1049 1049 1049
1101 1101 1101
1151 1151 1151
1203 1203 1203
1254 1254 1254
1306 1306 1306
1357 1357 1357
1408 1408 1408
1330 1330 1330
1382 1382 1382
1433 1433 1433
1484 1484 1484
1536 1536 1536
1587 1587 1587
1638 1638 1638
1689 1689 1689
1741 1741 1741
1663 1663 1663
1714 1714 1714
1766 1766 1766
1817 1817 1817
1868 1868 1868
1919 1919 1919
1971 1971 1971
2022 2022 2022
2074 2074 2074
1996 1996 1996
2047 2047 2047
2098 2098 2098
2149 2149 2149
2201 2201 2201
2252 2252 2252
2303 2303 2303
2355 2355 2355
2406 2406 2406
2329 2329 2329
2380 2380 2380
2431 2431 2431
2482 2482 2482
2533 2533 2533
2585 2585 2585
2636 2636 2636
2687 2687 2687
2739 2739 2739
2661 2661 2661
2712 2712 2712
2764 2764 2764
2815 2815 2815
2866 2866 2866
2917 2917 2917
2969 2969 2969
3020 3020 3020
3071 3071 3071
129 129 129
180 180 180
230 230 230
282 282 282
334 334 334
384 384 384
436 436 436
486 486 486
538 538 538
461 461 461
512 512 512
563 563 563
614 614 614
666 666 666
717 717 717
768 768 768
819 819 819
871 871 871
793 793 793
845 845 845
896 896 896
947 947 947
998 998 998
1050 1050 1050
1101 1101 1101
1152 1152 1152
1203 1203 1203
1126 1126 1126
1177 1177 1177
1229 1229 1229
1280 1280 1280
1331 1331 1331
1382 1382 1382
1434 1434 1434
1485 1485 1485
1536 1536 1536
1458 1458 1458
1510 1510 1510
1561 1561 1561
1612 1612 1612
1663 1663 1663
1715 1715 1715
1766 1766 1766
1818 1818 1818
1869 1869 1869
1791 1791 1791
1842 1842 1842
1893 1893 1893
1945 1945 1945
1996 1996 1996
2048 2048 2048
2099 2099 2099
2150 2150 2150
2201 2201 2201
2124 2124 2124
2175 2175 2175
2226 2226 2226
2277 2277 2277
2329 2329 2329
2380 2380 2380
2431 2431 2431
2483 2483 2483
2534 2534 2534
2456 2456 2456
2508 2508 2508
2559 2559 2559
2610 2610 2610
2661 2661 2661
2713 2713 2713
2764 2764 2764
2815 2815 2815
2867 2867 2867
2789 2789 2789
2840 2840 2840
2891 2891 2891
2943 2943 2943
2994 2994 2994
3045 3045 3045
3097 3097 3097
3148 3148 3148
3199 3199 3199
255 255 255
308 308 308
358 358 358
409 409 409
461 461 461
512 512 512
564 564 564
615 615 615
666 666 666
588 588 588
640 640 640
691 691 691
743 743 743
794 794 794
845 845 845
896 896 896
948 948 948
999 999 999
921 921 921
973 973 973
1024 1024 1024
1075 1075 1075
1126 1126 1126
1178 1178 1178
1229 1229 1229
1280 1280 1280
1331 1331 1331
1253 1253 1253
1305 1305 1305
1356 1356 1356
1408 1408 1408
1459 1459 1459
1510 1510 1510
1562 1562 1562
1613 1613 1613
1664 1664 1664
1586 1586 1586
1638 1638 1638
1689 1689 1689
1740 1740 1740
1792 1792 1792
1843 1843 1843
1894 1894 1894
1946 1946 1946
1997 1997 1997
1919 1919 1919
1970 1970 1970
2021 2021 2021
2073 2073 2073
2124 2124 2124
2176 2176 2176
2227 2227 2227
2278 2278 2278
2329 2329 2329
2252 2252 2252
2303 2303 2303
2354 2354 2354
2405 2405 2405
2457 2457 2457
2508 2508 2508
2559 2559 2559
2611 2611 2611
2662 2662 2662
2584 2584 2584
2636 2636 2636
2687 2687 2687
2738 2738 2738
2789 2789 2789
2841 2841 2841
2892 2892 2892
2943 2943 2943
2995 2995 2995
2917 2917 2917
2968 2968 2968
3020 3020 3020
3071 3071 3071
3122 3122 3122
3173 3173 3173
3225 3225 3225
3276 3276 3276
3327 3327 3327
384 384 384
436 436 436
486 486 486
538 538 538
590 590 590
641 641 641
692 692 692
743 743 743
794 794 794
716 716 716
768 768 768
819 819 819
871 871 871
921 921 921
973 973 973
1024 1024 1024
1076 1076 1076
1127 1127 1127
1049 1049 1049
1101 1101 1101
1151 1151 1151
1203 1203 1203
1254 1254 1254
1306 1306 1306
1357 1357 1357
1408 1408 1408
1459 1459 1459
1382 1382 1382
1433 1433 1433
1484 1484 1484
1536 1536 1536
1587 1587 1587
1638 1638 1638
1689 1689 1689
1741 1741 1741
1792 1792 1792
1714 1714 1714
1766 1766 1766
1817 1817 1817
1868 1868 1868
1919 1919 1919
1971 1971 1971
2022 2022 2022
2074 2074 2074
2125 2125 2125
2047 2047 2047
2098 2098 2098
2149 2149 2149
2201 2201 2201
2252 2252 2252
2303 2303 2303
2355 2355 2355
2406 2406 2406
2457 2457 2457
2380 2380 2380
2431 2431 2431
2482 2482 2482
2533 2533 2533
2585 2585 2585
2636 2636 2636
2687 2687 2687
2739 2739 2739
2790 2790 2790
2712 2712 2712
2764 2764 2764
2815 2815 2815
2866 2866 2866
2917 2917 2917
2969 2969 2969
3020 3020 3020
3071 3071 3071
3123 3123 3123
3045 3045 3045
3096 3096 3096
3148 3148 3148
3199 3199 3199
3250 3250 3250
3301 3301 3301
3353 3353 3353
3404 3404 3404
3455 3455 3455
512 512 512
563 563 563
614 614 614
666 666 666
717 717 717
768 768 768
819 819 819
871 871 871
922 922 922
845 845 845
896 896 896
947 947 947
998 998 998
1050 1050 1050
1101 1101 1101
1152 1152 1152
1203 1203 1203
1254 1254 1254
1177 1177 1177
1229 1229 1229
1280 1280 1280
1331 1331 1331
1382 1382 1382
1434 1434 1434
1485 1485 1485
1536 1536 1536
1588 1588 1588
1510 1510 1510
1561 1561 1561
1612 1612 1612
1663 1663 1663
1715 1715 1715
1766 1766 1766
1818 1818 1818
1869 1869 1869
1920 1920 1920
1842 1842 1842
1893 1893 1893
1945 1945 1945
1996 1996 1996
2048 2048 2048
2099 2099 2099
2150 2150 2150
2201 2201 2201
2253 2253 2253
2175 2175 2175
2226 2226 2226
2277 2277 2277
2329 2329 2329
2380 2380 2380
2431 2431 2431
2483 2483 2483
2534 2534 2534
2585 2585 2585
2508 2508 2508
2559 2559 2559
2610 2610 2610
2661 2661 2661
2713 2713 2713
2764 2764 2764
2815 2815 2815
2867 2867 2867
2918 2918 2918
2840 2840 2840
2891 2891 2891
2943 2943 2943
2994 2994 2994
3045 3045 3045
3097 3097 3097
3148 3148 3148
3199 3199 3199
3250 3250 3250
3173 3173 3173
3224 3224 3224
3275 3275 3275
3327 3327 3327
3378 3378 3378
3429 3429 3429
3481 3481 3481
3532 3532 3532
3583 3583 3583
640 640 640
691 691 691
743 743 743
794 794 794
845 845 845
896 896 896
948 948 948
999 999 999
1050 1050 1050
973 973 973
1024 1024 1024
1075 1075 1075
1126 1126 1126
1178 1178 1178
1229 1229 1229
1280 1280 1280
1331 1331 1331
1383 1383 1383
1305 1305 1305
1356 1356 1356
1408 1408 1408
1459 1459 1459
1510 1510 1510
1562 1562 1562
1613 1613 1613
1664 1664 1664
1715 1715 1715
1638 1638 1638
1689 1689 1689
1740 1740 1740
1792 1792 1792
1843 1843 1843
1894 1894 1894
1946 1946 1946
1997 1997 1997
2048 2048 2048
1970 1970 1970
2021 2021 2021
2073 2073 2073
2124 2124 2124
2176 2176 2176
2227 2227 2227
2278 2278 2278
2329 2329 2329
2381 2381 2381
2303 2303 2303
2354 2354 2354
2405 2405 2405
2457 2457 2457
2508 2508 2508
2559 2559 2559
2611 2611 2611
2662 2662 2662
2713 2713 2713
2636 2636 2636
2687 2687 2687
2738 2738 2738
2789 2789 2789
2841 2841 2841
2892 2892 2892
2943 2943 2943
2995 2995 2995
3046 3046 3046
2968 2968 2968
3020 3020 3020
3071 3071 3071
3122 3122 3122
3173 3173 3173
3225 3225 3225
3276 3276 3276
3327 3327 3327
3378 3378 3378
3301 3301 3301
3352 3352 3352
3403 3403 3403
3455 3455 3455
3506 3506 3506
3557 3557 3557
3609 3609 3609
3660 3660 3660
3711 3711 3711
768 768 768
819 819 819
871 871 871
921 921 921
973 973 973
1024 1024 1024
1076 1076 1076
1127 1127 1127
1178 1178 1178
1101 1101 1101
1151 1151 1151
1203 1203 1203
1254 1254 1254
1306 1306 1306
1357 1357 1357
1408 1408 1408
1459 1459 1459
1511 1511 1511
1433 1433 1433
1484 1484 1484
1536 1536 1536
1587 1587 1587
1638 1638 1638
1689 1689 1689
1741 1741 1741
1792 1792 1792
1843 1843 1843
1766 1766 1766
1817 1817 1817
1868 1868 1868
1919 1919 1919
1971 1971 1971
2022 2022 2022
2074 2074 2074
2125 2125 2125
2176 2176 2176
2098 2098 2098
2149 2149 2149
2201 2201 2201
2252 2252 2252
2303 2303 2303
2355 2355 2355
2406 2406 2406
2457 2457 2457
2509 2509 2509
2431 2431 2431
2482 2482 2482
2533 2533 2533
2585 2585 2585
2636 2636 2636
2687 2687 2687
2739 2739 2739
2790 2790 2790
2841 2841 2841
2764 2764 2764
2815 2815 2815
2866 2866 2866
2917 2917 2917
2969 2969 2969
3020 3020 3020
3071 3071 3071
3123 3123 3123
3174 3174 3174
3096 3096 3096
3148 3148 3148
3199 3199 3199
3250 3250 3250
3301 3301 3301
3353 3353 3353
3404 3404 3404
3455 3455 3455
3506 3506 3506
3429 3429 3429
3480 3480 3480
3531 3531 3531
3583 3583 3583
3634 3634 3634
3685 3685 3685
3737 3737 3737
3788 3788 3788
3839 3839 3839
896 896 896
947 947 947
998 998 998
1050 1050 1050
1101 1101 1101
1152 1152 1152
1203 1203 1203
1254 1254 1254
1306 1306 1306
1229 1229 1229
1280 1280 1280
1331 1331 1331
1382 1382 1382
1434 1434 1434
1485 1485 1485
1536 1536 1536
1588 1588 1588
1639 1639 1639
1561 1561 1561
1612 1612 1612
1663 1663 1663
1715 1715 1715
1766 1766 1766
1818 1818 1818
1869 1869 1869
1920 1920 1920
1971 1971 1971
1893 1893 1893
1945 1945 1945
1996 1996 1996
2048 2048 2048
2099 2099 2099
2150 2150 2150
2201 2201 2201
2253 2253 2253
2304 2304 2304
2226 2226 2226
2277 2277 2277
2329 2329 2329
2380 2380 2380
2431 2431 2431
2483 2483 2483
2534 2534 2534
2585 2585 2585
2637 2637 2637
2559 2559 2559
2610 2610 2610
2661 2661 2661
2713 2713 2713
2764 2764 2764
2815 2815 2815
2867 2867 2867
2918 2918 2918
2969 2969 2969
2891 2891 2891
2943 2943 2943
2994 2994 2994
3045 3045 3045
3097 3097 3097
3148 3148 3148
3199 3199 3199
3250 3250 3250
3302 3302 3302
3224 3224 3224
3275 3275 3275
3327 3327 3327
3378 3378 3378
3429 3429 3429
3481 3481 3481
3532 3532 3532
3583 3583 3583
3634 3634 3634
3557 3557 3557
3608 3608 3608
3659 3659 3659
3711 3711 3711
3762 3762 3762
3813 3813 3813
3865 3865 3865
3916 3916 3916
3967 3967 3967
1024 1024 1024
1075 1075 1075
1126 1126 1126
1178 1178 1178
1229 1229 1229
1280 1280 1280
1331 1331 1331
1383 1383 1383
1434 1434 1434
1356 1356 1356
1408 1408 1408
1459 1459 1459
1510 1510 1510
1562 1562 1562
1613 1613 1613
1664 1664 1664
1715 1715 1715
1767 1767 1767
1689 1689 1689
1740 1740 1740
1792 1792 1792
1843 1843 1843
1894 1894 1894
1946 1946 1946
1997 1997 1997
2048 2048 2048
2099 2099 2099
2021 2021 2021
2073 2073 2073
2124 2124 2124
2176 2176 2176
2227 2227 2227
2278 2278 2278
2329 2329 2329
2381 2381 2381
2432 2432 2432
2354 2354 2354
2405 2405 2405
2457 2457 2457
2508 2508 2508
2559 2559 2559
2611 2611 2611
2662 2662 2662
2713 2713 2713
2764 2764 2764
2687 2687 2687
2738 2738 2738
2789 2789 2789
2841 2841 2841
2892 2892 2892
2943 2943 2943
2995 2995 2995
3046 3046 3046
3097 3097 3097
3020 3020 3020
3071 3071 3071
3122 3122 3122
3173 3173 3173
3225 3225 3225
3276 3276 3276
3327 3327 3327
3378 3378 3378
3430 3430 3430
3352 3352 3352
3403 3403 3403
3455 3455 3455
3506 3506 3506
3557 3557 3557
3609 3609 3609
3660 3660 3660
3711 3711 3711
3762 3762 3762
3685 3685 3685
3736 3736 3736
3787 3787 3787
3839 3839 3839
3890 3890 3890
3941 3941 3941
3993 3993 3993
4044 4044 4044
4095 4095 4095
