Examples/Channels - More green.3dl
#25pt 3DLUT created by 3D LUT Creator Pro (c) Oleg Sharonov
#Copyright Oleg Sharonov
#IMAGEPROFILE sRGB IEC61966-2.1 v.2.10
#INPUTGAMMA sRGB IEC61966-2.1 v.2.10
#OUTPUTGAMMA sRGB IEC61966-2.1 v.2.10
0 256 512 768 1023
0 0 0
458 458 1255
623 623 2643
909 909 3693
706 706 4095
0 670 0
0 981 981
623 623 2643
909 1191 3693
706 1509 4095
0 1316 0
0 1519 772
0 1900 1900
896 1611 3658
706 2313 4095
0 2204 0
0 2293 781
0 2478 1659
0 2731 2731
631 3107 4095
0 3692 0
0 3705 932
0 3734 1870
0 3735 2803
0 3841 3841
1058 214 214
1203 404 1160
1390 628 2592
1550 959 3667
1532 721 4095
297 688 0
1024 1024 1024
1390 628 2592
1550 1240 3667
1532 1525 4095
0 1316 0
0 1519 772
930 1940 1940
1526 1615 3671
1532 2329 4095
282 2204 0
282 2293 781
282 2478 1659
282 2780 2780
1475 3126 4095
804 3692 0
804 3705 932
804 3734 1870
804 3735 2803
804 3850 3850
2190 328 328
2225 362 746
2487 710 2402
2564 1186 3596
2413 786 4095
1808 1004 0
2129 971 719
2491 718 2427
2564 1468 3596
2413 1590 4095
652 1353 0
937 1515 503
2048 2048 2048
2562 1781 3604
2413 2393 4095
563 2204 0
563 2293 781
563 2478 1659
1830 2891 2891
2375 3181 4095
1607 3692 0
1607 3705 932
1607 3734 1870
1607 3735 2803
1607 3927 3927
3325 497 497
3325 497 779
3436 778 2114
3554 1671 3489
3291 880 4095
3161 1159 408
3292 994 761
3439 1069 2133
3555 1964 3497
3291 1684 4095
2466 1849 0
2596 1888 282
3202 2107 1983
3559 2283 3522
3291 2488 4095
1531 2225 0
1634 2238 282
1961 2397 1429
3071 3071 3071
3291 3291 4095
2411 3692 0
2411 3703 923
2411 3734 1870
2411 3734 2778
2556 4065 4065
4095 541 541
4095 541 1344
4095 579 2207
4095 808 3248
4095 880 4095
4095 1324 507
4095 1344 1344
4095 1385 2211
4095 1615 3250
4095 1684 4095
4064 2095 223
4086 2105 1054
4095 2214 2177
4095 2427 3256
4095 2488 4095
3726 2894 0
3760 2911 804
3926 3000 1753
4095 3174 3160
4095 3291 4095
3449 3680 0
3466 3676 804
3497 3701 1607
3661 3901 2682
4095 4095 4095
