Examples/Channels - 2-Strip.3dl
#25pt 3DLUT created by 3D LUT Creator Pro (c) Oleg Sharonov
#Copyright Oleg Sharonov
#INPUTGAMMA sRGB IEC61966-2.1 v.2.10
#IMAGEPROFILE sRGB IEC61966-2.1 v.2.10
#OUTPUTGAMMA sRGB IEC61966-2.1 v.2.10
0 128 256 384 512 640 768 896 1023
0 0 0
217 393 439
436 785 880
654 1177 1318
872 1570 1759
1090 1963 2198
1308 2355 2638
1526 2748 3078
1745 3141 3517
0 171 257
58 560 695
276 954 1134
494 1347 1574
712 1739 2014
930 2132 2454
1148 2525 2894
1366 2917 3333
1585 3310 3773
0 337 510
0 731 951
116 1123 1390
334 1516 1831
552 1909 2270
770 2301 2710
988 2693 3149
1206 3086 3589
1424 3479 4029
0 506 766
0 900 1207
0 1293 1647
174 1685 2086
391 2078 2526
610 2470 2966
827 2863 3405
1046 3255 3845
1264 3648 4095
0 677 1023
0 1069 1463
0 1461 1902
13 1854 2342
233 2247 2782
449 2639 3221
667 3032 3661
886 3424 4095
1103 3817 4095
0 845 1278
0 1238 1718
0 1631 2158
0 2023 2597
71 2416 3037
289 2809 3477
508 3201 3916
725 3594 4095
945 3986 4095
0 1015 1535
0 1408 1974
0 1800 2413
0 2192 2853
0 2585 3293
129 2977 3732
347 3370 4095
566 3763 4095
784 4095 4095
0 1184 1790
0 1576 2229
0 1969 2669
0 2361 3109
0 2754 3549
0 3147 3988
186 3539 4095
408 3932 4095
624 4095 4095
0 1353 2046
0 1746 2485
0 2138 2925
0 2531 3365
0 2923 3804
3 3316 4095
23 3708 4095
248 4095 4095
462 4095 4095
454 0 0
672 343 255
890 735 696
1108 1128 1136
1326 1520 1575
1545 1913 2015
1762 2305 2454
1981 2698 2894
2198 3091 3334
295 119 74
512 512 512
730 904 952
948 1297 1391
1166 1689 1831
1384 2082 2270
1602 2474 2710
1820 2867 3150
2038 3260 3590
132 289 328
352 682 768
570 1073 1207
788 1466 1647
1006 1859 2086
1224 2251 2526
1442 2644 2966
1660 3036 3406
1878 3429 3845
0 457 583
192 850 1023
409 1243 1463
628 1636 1903
845 2028 2342
1064 2420 2782
1282 2813 3222
1500 3206 3661
1717 3598 4095
0 627 839
32 1019 1279
250 1412 1719
467 1804 2158
686 2197 2598
904 2590 3038
1122 2982 3477
1340 3375 3917
1558 3767 4095
0 796 1095
0 1189 1535
90 1581 1975
308 1973 2414
526 2366 2854
744 2758 3293
961 3151 3733
1179 3544 4095
1397 3936 4095
0 965 1351
0 1358 1791
0 1750 2230
149 2143 2670
365 2535 3110
584 2928 3549
802 3320 3989
1019 3713 4095
1238 4095 4095
0 1134 1607
0 1527 2046
0 1919 2486
0 2312 2926
206 2704 3365
423 3097 3805
642 3489 4095
859 3882 4095
1078 4095 4095
0 1303 1862
0 1696 2302
0 2089 2742
0 2481 3181
45 2874 3621
262 3266 4061
479 3659 4095
698 4051 4095
918 4095 4095
907 0 0
1126 293 74
1344 686 512
1562 1078 952
1780 1471 1392
1998 1863 1831
2216 2256 2271
2434 2648 2710
2652 3041 3150
749 71 0
966 462 328
1184 855 768
1402 1247 1208
1620 1640 1647
1838 2032 2087
2056 2425 2527
2274 2817 2966
2492 3210 3406
588 240 145
806 631 584
1024 1024 1024
1242 1417 1463
1460 1809 1903
1678 2202 2343
1896 2594 2782
2114 2986 3222
2332 3379 3662
427 408 399
646 800 840
863 1193 1279
1081 1585 1719
1300 1978 2159
1518 2370 2598
1736 2763 3038
1954 3156 3478
2172 3548 3918
267 577 656
485 969 1095
703 1362 1535
921 1755 1975
1139 2147 2414
1358 2540 2854
1576 2932 3294
1794 3325 3734
2012 3717 4095
107 746 912
326 1138 1351
543 1531 1791
761 1924 2230
979 2316 2670
1197 2709 3110
1415 3101 3550
1634 3494 3989
1852 3887 4095
0 915 1167
165 1307 1607
383 1700 2046
601 2093 2486
819 2485 2926
1037 2878 3366
1255 3271 3805
1473 3663 4095
1691 4056 4095
0 1084 1423
3 1477 1863
222 1869 2302
440 2262 2742
659 2654 3182
877 3047 3621
1095 3440 4061
1313 3832 4095
1530 4095 4095
0 1253 1678
0 1646 2119
61 2038 2558
280 2431 2998
499 2824 3437
717 3216 3877
935 3609 4095
1152 4001 4095
1371 4095 4095
1362 0 0
1580 243 0
1798 635 330
2016 1028 769
2234 1420 1208
2452 1813 1648
2670 2206 2088
2888 2598 2527
3106 2991 2967
1201 19 0
1420 412 145
1638 805 585
1856 1198 1025
2074 1590 1464
2292 1983 1903
2510 2375 2343
2728 2768 2783
2946 3160 3222
1041 189 0
1260 582 401
1478 974 840
1696 1367 1280
1914 1759 1720
2132 2152 2159
2350 2544 2599
2568 2937 3038
2786 3329 3478
881 358 217
1099 751 656
1318 1143 1096
1536 1536 1536
1754 1928 1975
1972 2321 2415
2190 2713 2855
2408 3106 3294
2626 3498 3734
722 527 472
940 920 912
1157 1312 1351
1375 1705 1791
1594 2097 2231
1811 2490 2670
2030 2883 3110
2248 3275 3550
2466 3668 3990
560 696 728
779 1089 1168
997 1481 1607
1215 1874 2047
1434 2267 2487
1651 2659 2926
1869 3051 3366
2088 3444 3806
2306 3837 4095
401 865 984
619 1258 1423
837 1650 1863
1055 2043 2303
1273 2435 2742
1491 2828 3182
1709 3221 3622
1927 3613 4062
2145 4006 4095
240 1034 1239
458 1427 1679
677 1820 2119
895 2212 2558
1113 2605 2998
1331 2997 3438
1549 3390 3878
1767 3782 4095
1985 4095 4095
81 1204 1495
299 1596 1935
517 1989 2374
735 2381 2814
953 2774 3254
1171 3167 3694
1389 3559 4095
1607 3951 4095
1825 4095 4095
1816 0 0
2034 192 0
2252 586 145
2470 979 585
2688 1371 1025
2906 1764 1464
3124 2156 1904
3342 2549 2344
3560 2941 2783
1657 0 0
1874 363 0
2092 755 401
2310 1148 841
2528 1540 1281
2746 1933 1720
2964 2325 2160
3182 2718 2599
3400 3110 3039
1495 139 0
1713 531 217
1932 924 657
2150 1317 1097
2368 1709 1536
2586 2102 1976
2804 2495 2415
3022 2887 2855
3240 3280 3295
1336 308 32
1553 700 472
1771 1093 912
1990 1486 1352
2208 1878 1792
2426 2271 2231
2644 2664 2671
2862 3056 3111
3080 3449 3550
1175 477 289
1393 870 728
1611 1262 1168
1829 1655 1608
2048 2048 2048
2265 2440 2487
2484 2832 2927
2702 3225 3366
2920 3618 3806
1015 646 545
1234 1039 984
1451 1431 1424
1669 1824 1864
1887 2217 2303
2106 2609 2743
2323 3002 3183
2542 3395 3622
2760 3787 4062
855 815 800
1073 1208 1240
1291 1601 1679
1509 1993 2119
1727 2386 2559
1945 2778 2999
2163 3171 3438
2382 3563 3878
2600 3956 4095
696 985 1057
913 1377 1496
1131 1770 1935
1349 2163 2375
1567 2555 2814
1785 2948 3254
2003 3340 3694
2221 3733 4095
2440 4095 4095
535 1154 1312
752 1546 1751
971 1939 2191
1189 2331 2631
1407 2724 3070
1625 3117 3510
1843 3509 3950
2061 3902 4095
2279 4095 4095
2270 0 0
2488 142 0
2706 536 0
2924 928 401
3142 1321 841
3360 1714 1281
3579 2106 1721
3796 2499 2161
4015 2891 2600
2109 0 0
2328 312 0
2546 705 217
2764 1098 657
2982 1491 1097
3200 1883 1537
3418 2275 1976
3636 2668 2416
3854 3060 2856
1949 90 0
2168 482 32
2386 874 474
2604 1267 913
2822 1659 1353
3040 2052 1792
3258 2444 2232
3476 2837 2672
3694 3230 3111
1789 257 0
2007 651 289
2225 1044 729
2444 1436 1169
2662 1829 1608
2880 2221 2048
3098 2614 2488
3316 3006 2927
3534 3399 3367
1630 428 107
1847 820 545
2065 1212 984
2283 1605 1424
2501 1998 1864
2720 2390 2304
2938 2783 2743
3156 3175 3183
3374 3568 3623
1470 596 362
1687 990 801
1905 1382 1241
2123 1774 1680
2342 2167 2120
2559 2559 2559
2777 2952 2999
2996 3344 3439
3213 3737 3878
1309 766 617
1527 1158 1057
1745 1551 1496
1963 1943 1936
2181 2336 2375
2399 2729 2815
2617 3121 3255
2835 3514 3694
3053 3906 4095
1149 935 872
1367 1327 1312
1585 1720 1752
1803 2112 2191
2021 2505 2631
2239 2898 3071
2457 3290 3510
2675 3683 3950
2894 4075 4095
988 1104 1128
1207 1497 1568
1425 1889 2008
1643 2282 2447
1861 2674 2887
2079 3067 3326
2297 3459 3766
2515 3852 4095
2733 4095 4095
2724 0 0
2942 94 0
3160 486 0
3378 879 217
3596 1271 658
3814 1664 1097
4032 2057 1537
4095 2449 1977
4095 2842 2417
2564 0 0
2782 262 0
3000 655 36
3218 1048 474
3436 1440 913
3654 1833 1353
3872 2225 1793
4090 2618 2232
4095 3011 2672
2404 39 0
2622 433 0
2840 824 289
3058 1217 729
3276 1610 1169
3494 2002 1608
3712 2395 2049
3930 2787 2488
4095 3180 2928
2243 209 0
2462 601 107
2680 994 546
2898 1386 985
3116 1779 1425
3334 2171 1865
3552 2564 2304
3770 2956 2744
3988 3349 3183
2083 377 0
2301 771 362
2519 1163 801
2737 1555 1241
2955 1948 1681
3174 2340 2120
3392 2733 2560
3610 3125 2999
3828 3518 3439
1923 547 177
2141 940 617
2359 1332 1057
2577 1724 1496
2795 2117 1936
3013 2510 2376
3231 2902 2816
3449 3295 3255
3668 3687 3695
1763 716 433
1981 1109 873
2199 1501 1313
2417 1893 1752
2635 2286 2192
2853 2679 2632
3071 3071 3071
3289 3464 3511
3507 3856 3951
1603 885 689
1821 1278 1129
2039 1670 1568
2257 2063 2008
2475 2455 2448
2693 2848 2887
2911 3240 3327
3129 3633 3767
3347 4026 4095
1443 1054 945
1660 1446 1384
1878 1839 1824
2097 2232 2264
2315 2624 2703
2533 3017 3143
2751 3409 3583
2969 3802 4022
3187 4095 4095
3178 0 0
3396 45 0
3614 436 0
3832 829 36
4051 1221 474
4095 1614 914
4095 2007 1354
4095 2399 1793
4095 2792 2233
3018 0 0
3236 212 0
3454 605 0
3672 998 291
3890 1391 730
4095 1783 1170
4095 2176 1609
4095 2568 2049
4095 2961 2489
2858 0 0
3076 383 0
3294 775 107
3512 1167 546
3730 1560 986
3948 1952 1425
4095 2345 1865
4095 2737 2304
4095 3130 2744
2697 158 0
2916 551 0
3133 944 362
3352 1336 802
3570 1729 1241
3788 2121 1681
4006 2514 2121
4095 2907 2560
4095 3299 3000
2537 328 0
2755 720 177
2973 1113 617
3192 1506 1057
3409 1898 1497
3628 2291 1937
3846 2683 2376
4064 3076 2816
4095 3468 3256
2377 497 0
2595 889 434
2813 1282 874
3031 1675 1313
3249 2067 1753
3467 2460 2192
3685 2852 2632
3904 3245 3072
4095 3637 3511
2217 666 250
2435 1059 689
2653 1451 1129
2871 1844 1569
3089 2236 2008
3307 2629 2448
3525 3022 2888
3743 3414 3328
3961 3807 3767
2057 835 505
2275 1228 945
2493 1620 1385
2711 2013 1825
2929 2405 2264
3147 2798 2704
3365 3190 3143
3583 3583 3583
3801 3976 4023
1896 1004 761
2115 1397 1201
2333 1789 1641
2551 2182 2080
2769 2575 2520
2987 2967 2960
3205 3360 3399
3423 3752 3839
3641 4095 4095
3632 0 0
3850 0 0
4068 386 0
4095 779 0
4095 1171 289
4095 1564 731
4095 1957 1170
4095 2349 1610
4095 2742 2049
3471 0 0
3690 165 0
3908 556 0
4095 948 107
4095 1341 546
4095 1733 986
4095 2126 1426
4095 2518 1865
4095 2911 2305
3312 0 0
3530 332 0
3748 725 0
3966 1118 362
4095 1510 802
4095 1903 1242
4095 2295 1681
4095 2688 2121
4095 3080 2561
3151 110 0
3369 501 0
3588 894 177
3805 1286 618
4024 1679 1058
4095 2072 1497
4095 2464 1937
4095 2857 2377
4095 3249 2816
2991 278 0
3209 670 0
3427 1063 434
3645 1456 874
3864 1848 1313
4081 2241 1753
4095 2633 2193
4095 3026 2632
4095 3418 3072
2831 448 0
3049 839 250
3267 1232 690
3485 1625 1129
3703 2017 1569
3921 2410 2009
4095 2803 2448
4095 3195 2888
4095 3588 3328
2670 616 68
2889 1009 506
3107 1401 946
3325 1794 1385
3543 2187 1825
3761 2579 2264
3979 2972 2704
4095 3364 3144
4095 3757 3583
2510 785 322
2729 1178 761
2947 1570 1201
3165 1963 1641
3383 2356 2081
3601 2748 2520
3819 3141 2960
4037 3533 3400
4095 3926 3839
2350 955 578
2568 1347 1017
2787 1740 1457
3005 2132 1897
3223 2525 2337
3441 2917 2776
3659 3310 3216
3877 3702 3655
4095 4095 4095
