Examples/Channels-CMY-Corrected.3dl
#25pt 3DLUT created by 3D LUT Creator Pro (c) Oleg Sharonov
#Copyright Oleg Sharonov
#IMAGEPROFILE sRGB IEC61966-2.1 v.2.10
#INPUTGAMMA sRGB IEC61966-2.1 v.2.10
#OUTPUTGAMMA sRGB IEC61966-2.1 v.2.10
0 256 512 768 1023
0 0 0
460 0 39
843 0 230
1176 0 419
1580 0 631
0 3 520
0 6 652
716 0 228
1201 0 280
1694 0 416
0 19 1087
0 23 1189
0 29 1354
777 0 862
1297 0 570
0 39 1604
0 42 1652
0 52 1827
0 61 1949
884 0 1564
0 71 2105
0 74 2147
0 87 2300
0 110 2573
0 119 2664
964 174 0
899 171 0
1213 0 29
1517 0 332
1861 0 606
430 758 322
750 750 750
1019 631 0
1411 228 0
1931 0 289
0 388 1095
0 416 1178
0 65 2291
1073 588 879
1768 0 94
0 39 1615
0 42 1665
0 52 1839
0 61 1976
1106 0 1684
0 71 2116
0 74 2156
0 87 2309
0 110 2583
0 119 2686
1994 322 0
2160 276 425
1926 367 0
2281 103 0
2626 0 430
1919 893 0
1904 939 755
2017 696 0
2096 490 0
2595 186 0
1022 1760 751
1228 1757 1070
1757 1757 1757
2278 1662 0
2334 1464 0
0 1393 1830
0 1405 1897
0 1466 2230
842 1221 4095
2001 1643 2098
0 857 2307
0 874 2355
0 937 2530
0 1049 2836
807 819 4095
3345 545 0
3562 142 0
3558 284 0
3340 674 0
3731 394 0
3297 1013 0
3507 816 0
3680 585 628
3236 898 0
3633 721 0
2987 2165 369
3006 2121 1016
3066 2041 1863
3439 1893 1186
3357 1723 0
1698 2913 1232
1846 2911 1482
2303 2904 2128
2908 2908 2908
3422 2833 1993
0 2494 2724
0 2501 2777
0 2586 3096
0 2690 4023
2563 2692 4095
4095 1942 1749
4095 1972 1840
4095 2106 2115
4095 1916 1463
4095 1906 963
4095 2109 1836
4095 2138 1921
4095 2253 2229
4095 2139 1753
4095 2073 853
4095 2622 2036
4095 2655 2204
4095 2732 2465
4095 2755 2473
4095 2615 1762
3915 3425 1323
3998 3414 1497
4095 3372 2401
4095 3411 3237
4095 3420 3001
2405 4095 1727
2518 4095 1928
2888 4095 2512
3452 4095 3273
4095 4095 4095
