Examples/Channels - Red & Cyan.3dl
#25pt 3DLUT created by 3D LUT Creator Pro (c) Oleg Sharonov
#Copyright Oleg Sharonov
#IMAGEPROFILE sRGB IEC61966-2.1 v.2.10
#INPUTGAMMA sRGB IEC61966-2.1 v.2.10
#OUTPUTGAMMA sRGB IEC61966-2.1 v.2.10
0 128 256 384 512 640 768 896 1023
0 0 0
0 512 512
0 1023 1023
0 1536 1536
0 2047 2047
0 2559 2559
0 3071 3071
0 3583 3583
3 4095 4095
0 512 512
0 512 512
0 1023 1023
0 1536 1536
0 2047 2047
0 2559 2559
0 3071 3071
0 3583 3583
3 4095 4095
0 1023 1023
0 1023 1023
0 1023 1023
0 1536 1536
0 2047 2047
0 2559 2559
0 3071 3071
0 3583 3583
3 4095 4095
0 1536 1536
0 1536 1536
0 1536 1536
0 1536 1536
0 2047 2047
0 2559 2559
0 3071 3071
0 3583 3583
3 4095 4095
0 2047 2047
0 2047 2047
0 2047 2047
0 2047 2047
0 2047 2047
0 2559 2559
0 3071 3071
0 3583 3583
3 4095 4095
0 2559 2559
0 2559 2559
0 2559 2559
0 2559 2559
0 2559 2559
0 2559 2559
0 3071 3071
0 3583 3583
3 4095 4095
0 3071 3071
0 3071 3071
0 3071 3071
0 3071 3071
0 3071 3071
0 3071 3071
0 3071 3071
0 3583 3583
3 4095 4095
0 3583 3583
0 3583 3583
0 3583 3583
0 3583 3583
0 3583 3583
0 3583 3583
0 3583 3583
0 3583 3583
3 4095 4095
3 4095 4095
3 4095 4095
3 4095 4095
3 4095 4095
3 4095 4095
3 4095 4095
3 4095 4095
3 4095 4095
3 4095 4095
512 0 0
512 512 512
512 1023 1023
512 1536 1536
512 2048 2048
512 2559 2559
512 3071 3071
512 3583 3583
513 4095 4095
512 512 512
512 512 512
512 1023 1023
512 1536 1536
512 2048 2048
512 2559 2559
512 3071 3071
512 3583 3583
513 4095 4095
512 1023 1023
512 1023 1023
512 1023 1023
512 1536 1536
512 2048 2048
512 2559 2559
512 3071 3071
512 3583 3583
513 4095 4095
512 1536 1536
512 1536 1536
512 1536 1536
512 1536 1536
512 2048 2048
512 2559 2559
512 3071 3071
512 3583 3583
513 4095 4095
512 2048 2048
512 2048 2048
512 2048 2048
512 2048 2048
512 2048 2048
512 2559 2559
512 3071 3071
512 3583 3583
513 4095 4095
512 2559 2559
512 2559 2559
512 2559 2559
512 2559 2559
512 2559 2559
512 2559 2559
512 3071 3071
512 3583 3583
513 4095 4095
512 3071 3071
512 3071 3071
512 3071 3071
512 3071 3071
512 3071 3071
512 3071 3071
512 3071 3071
512 3583 3583
513 4095 4095
512 3583 3583
512 3583 3583
512 3583 3583
512 3583 3583
512 3583 3583
512 3583 3583
512 3583 3583
512 3583 3583
513 4095 4095
513 4095 4095
513 4095 4095
513 4095 4095
513 4095 4095
513 4095 4095
513 4095 4095
513 4095 4095
513 4095 4095
513 4095 4095
1023 0 0
1023 512 512
1024 1024 1024
1024 1536 1536
1024 2048 2048
1024 2559 2559
1024 3071 3071
1024 3583 3583
1024 4095 4095
1023 512 512
1023 512 512
1024 1024 1024
1024 1536 1536
1024 2048 2048
1024 2559 2559
1024 3071 3071
1024 3583 3583
1024 4095 4095
1024 1024 1024
1024 1024 1024
1024 1024 1024
1024 1536 1536
1024 2048 2048
1024 2559 2559
1024 3071 3071
1024 3583 3583
1024 4095 4095
1024 1536 1536
1024 1536 1536
1024 1536 1536
1024 1536 1536
1024 2048 2048
1024 2559 2559
1024 3071 3071
1024 3583 3583
1024 4095 4095
1024 2048 2048
1024 2048 2048
1024 2048 2048
1024 2048 2048
1024 2048 2048
1024 2559 2559
1024 3071 3071
1024 3583 3583
1024 4095 4095
1024 2559 2559
1024 2559 2559
1024 2559 2559
1024 2559 2559
1024 2559 2559
1024 2559 2559
1024 3071 3071
1024 3583 3583
1024 4095 4095
1024 3071 3071
1024 3071 3071
1024 3071 3071
1024 3071 3071
1024 3071 3071
1024 3071 3071
1024 3071 3071
1024 3583 3583
1024 4095 4095
1024 3583 3583
1024 3583 3583
1024 3583 3583
1024 3583 3583
1024 3583 3583
1024 3583 3583
1024 3583 3583
1024 3583 3583
1024 4095 4095
1024 4095 4095
1024 4095 4095
1024 4095 4095
1024 4095 4095
1024 4095 4095
1024 4095 4095
1024 4095 4095
1024 4095 4095
1024 4095 4095
1535 0 0
1535 512 512
1535 1023 1023
1536 1536 1536
1536 2047 2047
1536 2559 2559
1536 3071 3071
1536 3583 3583
1536 4095 4095
1535 512 512
1535 512 512
1535 1023 1023
1536 1536 1536
1536 2047 2047
1536 2559 2559
1536 3071 3071
1536 3583 3583
1536 4095 4095
1535 1023 1023
1535 1023 1023
1535 1023 1023
1536 1536 1536
1536 2047 2047
1536 2559 2559
1536 3071 3071
1536 3583 3583
1536 4095 4095
1536 1536 1536
1536 1536 1536
1536 1536 1536
1536 1536 1536
1536 2047 2047
1536 2559 2559
1536 3071 3071
1536 3583 3583
1536 4095 4095
1536 2047 2047
1536 2047 2047
1536 2047 2047
1536 2047 2047
1536 2047 2047
1536 2559 2559
1536 3071 3071
1536 3583 3583
1536 4095 4095
1536 2559 2559
1536 2559 2559
1536 2559 2559
1536 2559 2559
1536 2559 2559
1536 2559 2559
1536 3071 3071
1536 3583 3583
1536 4095 4095
1536 3071 3071
1536 3071 3071
1536 3071 3071
1536 3071 3071
1536 3071 3071
1536 3071 3071
1536 3071 3071
1536 3583 3583
1536 4095 4095
1536 3583 3583
1536 3583 3583
1536 3583 3583
1536 3583 3583
1536 3583 3583
1536 3583 3583
1536 3583 3583
1536 3583 3583
1536 4095 4095
1536 4095 4095
1536 4095 4095
1536 4095 4095
1536 4095 4095
1536 4095 4095
1536 4095 4095
1536 4095 4095
1536 4095 4095
1536 4095 4095
2048 0 0
2048 512 512
2048 1024 1024
2047 1536 1536
2048 2048 2048
2048 2559 2559
2048 3071 3071
2048 3583 3583
2047 4095 4095
2048 512 512
2048 512 512
2048 1024 1024
2047 1536 1536
2048 2048 2048
2048 2559 2559
2048 3071 3071
2048 3583 3583
2047 4095 4095
2048 1024 1024
2048 1024 1024
2048 1024 1024
2047 1536 1536
2048 2048 2048
2048 2559 2559
2048 3071 3071
2048 3583 3583
2047 4095 4095
2047 1536 1536
2047 1536 1536
2047 1536 1536
2047 1536 1536
2048 2048 2048
2048 2559 2559
2048 3071 3071
2048 3583 3583
2047 4095 4095
2048 2048 2048
2048 2048 2048
2048 2048 2048
2048 2048 2048
2048 2048 2048
2048 2559 2559
2048 3071 3071
2048 3583 3583
2047 4095 4095
2048 2559 2559
2048 2559 2559
2048 2559 2559
2048 2559 2559
2048 2559 2559
2048 2559 2559
2048 3071 3071
2048 3583 3583
2047 4095 4095
2048 3071 3071
2048 3071 3071
2048 3071 3071
2048 3071 3071
2048 3071 3071
2048 3071 3071
2048 3071 3071
2048 3583 3583
2047 4095 4095
2048 3583 3583
2048 3583 3583
2048 3583 3583
2048 3583 3583
2048 3583 3583
2048 3583 3583
2048 3583 3583
2048 3583 3583
2047 4095 4095
2047 4095 4095
2047 4095 4095
2047 4095 4095
2047 4095 4095
2047 4095 4095
2047 4095 4095
2047 4095 4095
2047 4095 4095
2047 4095 4095
2559 0 0
2559 512 512
2559 1023 1023
2560 1536 1536
2559 2048 2048
2559 2559 2559
2559 3071 3071
2560 3583 3583
2560 4095 4095
2559 512 512
2559 512 512
2559 1023 1023
2560 1536 1536
2559 2048 2048
2559 2559 2559
2559 3071 3071
2560 3583 3583
2560 4095 4095
2559 1023 1023
2559 1023 1023
2559 1023 1023
2560 1536 1536
2559 2048 2048
2559 2559 2559
2559 3071 3071
2560 3583 3583
2560 4095 4095
2560 1536 1536
2560 1536 1536
2560 1536 1536
2560 1536 1536
2559 2048 2048
2559 2559 2559
2559 3071 3071
2560 3583 3583
2560 4095 4095
2559 2048 2048
2559 2048 2048
2559 2048 2048
2559 2048 2048
2559 2048 2048
2559 2559 2559
2559 3071 3071
2560 3583 3583
2560 4095 4095
2559 2559 2559
2559 2559 2559
2559 2559 2559
2559 2559 2559
2559 2559 2559
2559 2559 2559
2559 3071 3071
2560 3583 3583
2560 4095 4095
2559 3071 3071
2559 3071 3071
2559 3071 3071
2559 3071 3071
2559 3071 3071
2559 3071 3071
2559 3071 3071
2560 3583 3583
2560 4095 4095
2560 3583 3583
2560 3583 3583
2560 3583 3583
2560 3583 3583
2560 3583 3583
2560 3583 3583
2560 3583 3583
2560 3583 3583
2560 4095 4095
2560 4095 4095
2560 4095 4095
2560 4095 4095
2560 4095 4095
2560 4095 4095
2560 4095 4095
2560 4095 4095
2560 4095 4095
2560 4095 4095
3071 0 0
3071 512 512
3071 1023 1023
3071 1536 1536
3071 2048 2048
3071 2559 2559
3071 3071 3071
3071 3583 3583
3071 4095 4095
3071 512 512
3071 512 512
3071 1023 1023
3071 1536 1536
3071 2048 2048
3071 2559 2559
3071 3071 3071
3071 3583 3583
3071 4095 4095
3071 1023 1023
3071 1023 1023
3071 1023 1023
3071 1536 1536
3071 2048 2048
3071 2559 2559
3071 3071 3071
3071 3583 3583
3071 4095 4095
3071 1536 1536
3071 1536 1536
3071 1536 1536
3071 1536 1536
3071 2048 2048
3071 2559 2559
3071 3071 3071
3071 3583 3583
3071 4095 4095
3071 2048 2048
3071 2048 2048
3071 2048 2048
3071 2048 2048
3071 2048 2048
3071 2559 2559
3071 3071 3071
3071 3583 3583
3071 4095 4095
3071 2559 2559
3071 2559 2559
3071 2559 2559
3071 2559 2559
3071 2559 2559
3071 2559 2559
3071 3071 3071
3071 3583 3583
3071 4095 4095
3071 3071 3071
3071 3071 3071
3071 3071 3071
3071 3071 3071
3071 3071 3071
3071 3071 3071
3071 3071 3071
3071 3583 3583
3071 4095 4095
3071 3583 3583
3071 3583 3583
3071 3583 3583
3071 3583 3583
3071 3583 3583
3071 3583 3583
3071 3583 3583
3071 3583 3583
3071 4095 4095
3071 4095 4095
3071 4095 4095
3071 4095 4095
3071 4095 4095
3071 4095 4095
3071 4095 4095
3071 4095 4095
3071 4095 4095
3071 4095 4095
3583 0 0
3583 512 512
3583 1024 1024
3583 1536 1536
3583 2048 2048
3583 2559 2559
3583 3071 3071
3583 3583 3583
3583 4095 4095
3583 512 512
3583 512 512
3583 1024 1024
3583 1536 1536
3583 2048 2048
3583 2559 2559
3583 3071 3071
3583 3583 3583
3583 4095 4095
3583 1024 1024
3583 1024 1024
3583 1024 1024
3583 1536 1536
3583 2048 2048
3583 2559 2559
3583 3071 3071
3583 3583 3583
3583 4095 4095
3583 1536 1536
3583 1536 1536
3583 1536 1536
3583 1536 1536
3583 2048 2048
3583 2559 2559
3583 3071 3071
3583 3583 3583
3583 4095 4095
3583 2048 2048
3583 2048 2048
3583 2048 2048
3583 2048 2048
3583 2048 2048
3583 2559 2559
3583 3071 3071
3583 3583 3583
3583 4095 4095
3583 2559 2559
3583 2559 2559
3583 2559 2559
3583 2559 2559
3583 2559 2559
3583 2559 2559
3583 3071 3071
3583 3583 3583
3583 4095 4095
3583 3071 3071
3583 3071 3071
3583 3071 3071
3583 3071 3071
3583 3071 3071
3583 3071 3071
3583 3071 3071
3583 3583 3583
3583 4095 4095
3583 3583 3583
3583 3583 3583
3583 3583 3583
3583 3583 3583
3583 3583 3583
3583 3583 3583
3583 3583 3583
3583 3583 3583
3583 4095 4095
3583 4095 4095
3583 4095 4095
3583 4095 4095
3583 4095 4095
3583 4095 4095
3583 4095 4095
3583 4095 4095
3583 4095 4095
3583 4095 4095
4095 0 0
4095 512 512
4095 1024 1024
4095 1536 1536
4095 2048 2048
4095 2559 2559
4095 3071 3071
4095 3583 3583
4095 4095 4095
4095 512 512
4095 512 512
4095 1024 1024
4095 1536 1536
4095 2048 2048
4095 2559 2559
4095 3071 3071
4095 3583 3583
4095 4095 4095
4095 1024 1024
4095 1024 1024
4095 1024 1024
4095 1536 1536
4095 2048 2048
4095 2559 2559
4095 3071 3071
4095 3583 3583
4095 4095 4095
4095 1536 1536
4095 1536 1536
4095 1536 1536
4095 1536 1536
4095 2048 2048
4095 2559 2559
4095 3071 3071
4095 3583 3583
4095 4095 4095
4095 2048 2048
4095 2048 2048
4095 2048 2048
4095 2048 2048
4095 2048 2048
4095 2559 2559
4095 3071 3071
4095 3583 3583
4095 4095 4095
4095 2559 2559
4095 2559 2559
4095 2559 2559
4095 2559 2559
4095 2559 2559
4095 2559 2559
4095 3071 3071
4095 3583 3583
4095 4095 4095
4095 3071 3071
4095 3071 3071
4095 3071 3071
4095 3071 3071
4095 3071 3071
4095 3071 3071
4095 3071 3071
4095 3583 3583
4095 4095 4095
4095 3583 3583
4095 3583 3583
4095 3583 3583
4095 3583 3583
4095 3583 3583
4095 3583 3583
4095 3583 3583
4095 3583 3583
4095 4095 4095
4095 4095 4095
4095 4095 4095
4095 4095 4095
4095 4095 4095
4095 4095 4095
4095 4095 4095
4095 4095 4095
4095 4095 4095
4095 4095 4095
