Examples/Channels - Black and White from Green Channel.3dl
#25pt 3DLUT created by 3D LUT Creator Pro (c) Oleg Sharonov
#Copyright Oleg Sharonov
#IMAGEPROFILE 
#INPUTGAMMA 
#OUTPUTGAMMA 
0 43 86 128 171 214 256 299 341 384 427 469 512 555 597 640 682 725 768 810 853 896 938 981 1023 
0 0 0
0 0 0
0 0 0
0 0 0
0 0 0
0 0 0
0 0 0
0 0 0
0 0 0
0 0 0
0 0 0
0 0 0
0 0 0
0 0 0
0 0 0
0 0 0
0 0 0
0 0 0
0 0 0
0 0 0
0 0 0
0 0 0
0 0 0
0 0 0
0 0 0
171 171 171
171 171 171
171 171 171
171 171 171
171 171 171
171 171 171
171 171 171
171 171 171
171 171 171
171 171 171
171 171 171
171 171 171
171 171 171
171 171 171
171 171 171
171 171 171
171 171 171
171 171 171
171 171 171
171 171 171
171 171 171
171 171 171
171 171 171
171 171 171
171 171 171
341 341 341
341 341 341
341 341 341
341 341 341
341 341 341
341 341 341
341 341 341
341 341 341
341 341 341
341 341 341
341 341 341
341 341 341
341 341 341
341 341 341
341 341 341
341 341 341
341 341 341
341 341 341
341 341 341
341 341 341
341 341 341
341 341 341
341 341 341
341 341 341
341 341 341
512 512 512
512 512 512
512 512 512
512 512 512
512 512 512
512 512 512
512 512 512
512 512 512
512 512 512
512 512 512
512 512 512
512 512 512
512 512 512
512 512 512
512 512 512
512 512 512
512 512 512
512 512 512
512 512 512
512 512 512
512 512 512
512 512 512
512 512 512
512 512 512
512 512 512
683 683 683
683 683 683
683 683 683
683 683 683
683 683 683
683 683 683
683 683 683
683 683 683
683 683 683
683 683 683
683 683 683
683 683 683
683 683 683
683 683 683
683 683 683
683 683 683
683 683 683
683 683 683
683 683 683
683 683 683
683 683 683
683 683 683
683 683 683
683 683 683
683 683 683
853 853 853
853 853 853
853 853 853
853 853 853
853 853 853
853 853 853
853 853 853
853 853 853
853 853 853
853 853 853
853 853 853
853 853 853
853 853 853
853 853 853
853 853 853
853 853 853
853 853 853
853 853 853
853 853 853
853 853 853
853 853 853
853 853 853
853 853 853
853 853 853
853 853 853
1024 1024 1024
1024 1024 1024
1024 1024 1024
1024 1024 1024
1024 1024 1024
1024 1024 1024
1024 1024 1024
1024 1024 1024
1024 1024 1024
1024 1024 1024
1024 1024 1024
1024 1024 1024
1024 1024 1024
1024 1024 1024
1024 1024 1024
1024 1024 1024
1024 1024 1024
1024 1024 1024
1024 1024 1024
1024 1024 1024
1024 1024 1024
1024 1024 1024
1024 1024 1024
1024 1024 1024
1024 1024 1024
1195 1195 1195
1195 1195 1195
1195 1195 1195
1195 1195 1195
1195 1195 1195
1195 1195 1195
1195 1195 1195
1195 1195 1195
1195 1195 1195
1195 1195 1195
1195 1195 1195
1195 1195 1195
1195 1195 1195
1195 1195 1195
1195 1195 1195
1195 1195 1195
1195 1195 1195
1195 1195 1195
1195 1195 1195
1195 1195 1195
1195 1195 1195
1195 1195 1195
1195 1195 1195
1195 1195 1195
1195 1195 1195
1365 1365 1365
1365 1365 1365
1365 1365 1365
1365 1365 1365
1365 1365 1365
1365 1365 1365
1365 1365 1365
1365 1365 1365
1365 1365 1365
1365 1365 1365
1365 1365 1365
1365 1365 1365
1365 1365 1365
1365 1365 1365
1365 1365 1365
1365 1365 1365
1365 1365 1365
1365 1365 1365
1365 1365 1365
1365 1365 1365
1365 1365 1365
1365 1365 1365
1365 1365 1365
1365 1365 1365
1365 1365 1365
1536 1536 1536
1536 1536 1536
1536 1536 1536
1536 1536 1536
1536 1536 1536
1536 1536 1536
1536 1536 1536
1536 1536 1536
1536 1536 1536
1536 1536 1536
1536 1536 1536
1536 1536 1536
1536 1536 1536
1536 1536 1536
1536 1536 1536
1536 1536 1536
1536 1536 1536
1536 1536 1536
1536 1536 1536
1536 1536 1536
1536 1536 1536
1536 1536 1536
1536 1536 1536
1536 1536 1536
1536 1536 1536
1706 1706 1706
1706 1706 1706
1706 1706 1706
1706 1706 1706
1706 1706 1706
1706 1706 1706
1706 1706 1706
1706 1706 1706
1706 1706 1706
1706 1706 1706
1706 1706 1706
1706 1706 1706
1706 1706 1706
1706 1706 1706
1706 1706 1706
1706 1706 1706
1706 1706 1706
1706 1706 1706
1706 1706 1706
1706 1706 1706
1706 1706 1706
1706 1706 1706
1706 1706 1706
1706 1706 1706
1706 1706 1706
1877 1877 1877
1877 1877 1877
1877 1877 1877
1877 1877 1877
1877 1877 1877
1877 1877 1877
1877 1877 1877
1877 1877 1877
1877 1877 1877
1877 1877 1877
1877 1877 1877
1877 1877 1877
1877 1877 1877
1877 1877 1877
1877 1877 1877
1877 1877 1877
1877 1877 1877
1877 1877 1877
1877 1877 1877
1877 1877 1877
1877 1877 1877
1877 1877 1877
1877 1877 1877
1877 1877 1877
1877 1877 1877
2048 2048 2048
2048 2048 2048
2048 2048 2048
2048 2048 2048
2048 2048 2048
2048 2048 2048
2048 2048 2048
2048 2048 2048
2048 2048 2048
2048 2048 2048
2048 2048 2048
2048 2048 2048
2048 2048 2048
2048 2048 2048
2048 2048 2048
2048 2048 2048
2048 2048 2048
2048 2048 2048
2048 2048 2048
2048 2048 2048
2048 2048 2048
2048 2048 2048
2048 2048 2048
2048 2048 2048
2048 2048 2048
2218 2218 2218
2218 2218 2218
2218 2218 2218
2218 2218 2218
2218 2218 2218
2218 2218 2218
2218 2218 2218
2218 2218 2218
2218 2218 2218
2218 2218 2218
2218 2218 2218
2218 2218 2218
2218 2218 2218
2218 2218 2218
2218 2218 2218
2218 2218 2218
2218 2218 2218
2218 2218 2218
2218 2218 2218
2218 2218 2218
2218 2218 2218
2218 2218 2218
2218 2218 2218
2218 2218 2218
2218 2218 2218
2389 2389 2389
2389 2389 2389
2389 2389 2389
2389 2389 2389
2389 2389 2389
2389 2389 2389
2389 2389 2389
2389 2389 2389
2389 2389 2389
2389 2389 2389
2389 2389 2389
2389 2389 2389
2389 2389 2389
2389 2389 2389
2389 2389 2389
2389 2389 2389
2389 2389 2389
2389 2389 2389
2389 2389 2389
2389 2389 2389
2389 2389 2389
2389 2389 2389
2389 2389 2389
2389 2389 2389
2389 2389 2389
2559 2559 2559
2559 2559 2559
2559 2559 2559
2559 2559 2559
2559 2559 2559
2559 2559 2559
2559 2559 2559
2559 2559 2559
2559 2559 2559
2559 2559 2559
2559 2559 2559
2559 2559 2559
2559 2559 2559
2559 2559 2559
2559 2559 2559
2559 2559 2559
2559 2559 2559
2559 2559 2559
2559 2559 2559
2559 2559 2559
2559 2559 2559
2559 2559 2559
2559 2559 2559
2559 2559 2559
2559 2559 2559
2730 2730 2730
2730 2730 2730
2730 2730 2730
2730 2730 2730
2730 2730 2730
2730 2730 2730
2730 2730 2730
2730 2730 2730
2730 2730 2730
2730 2730 2730
2730 2730 2730
2730 2730 2730
2730 2730 2730
2730 2730 2730
2730 2730 2730
2730 2730 2730
2730 2730 2730
2730 2730 2730
2730 2730 2730
2730 2730 2730
2730 2730 2730
2730 2730 2730
2730 2730 2730
2730 2730 2730
2730 2730 2730
2900 2900 2900
2900 2900 2900
2900 2900 2900
2900 2900 2900
2900 2900 2900
2900 2900 2900
2900 2900 2900
2900 2900 2900
2900 2900 2900
2900 2900 2900
2900 2900 2900
2900 2900 2900
2900 2900 2900
2900 2900 2900
2900 2900 2900
2900 2900 2900
2900 2900 2900
2900 2900 2900
2900 2900 2900
2900 2900 2900
2900 2900 2900
2900 2900 2900
2900 2900 2900
2900 2900 2900
2900 2900 2900
3071 3071 3071
3071 3071 3071
3071 3071 3071
3071 3071 3071
3071 3071 3071
3071 3071 3071
3071 3071 3071
3071 3071 3071
3071 3071 3071
3071 3071 3071
3071 3071 3071
3071 3071 3071
3071 3071 3071
3071 3071 3071
3071 3071 3071
3071 3071 3071
3071 3071 3071
3071 3071 3071
3071 3071 3071
3071 3071 3071
3071 3071 3071
3071 3071 3071
3071 3071 3071
3071 3071 3071
3071 3071 3071
3242 3242 3242
3242 3242 3242
3242 3242 3242
3242 3242 3242
3242 3242 3242
3242 3242 3242
3242 3242 3242
3242 3242 3242
3242 3242 3242
3242 3242 3242
3242 3242 3242
3242 3242 3242
3242 3242 3242
3242 3242 3242
3242 3242 3242
3242 3242 3242
3242 3242 3242
3242 3242 3242
3242 3242 3242
3242 3242 3242
3242 3242 3242
3242 3242 3242
3242 3242 3242
3242 3242 3242
3242 3242 3242
3412 3412 3412
3412 3412 3412
3412 3412 3412
3412 3412 3412
3412 3412 3412
3412 3412 3412
3412 3412 3412
3412 3412 3412
3412 3412 3412
3412 3412 3412
3412 3412 3412
3412 3412 3412
3412 3412 3412
3412 3412 3412
3412 3412 3412
3412 3412 3412
3412 3412 3412
3412 3412 3412
3412 3412 3412
3412 3412 3412
3412 3412 3412
3412 3412 3412
3412 3412 3412
3412 3412 3412
3412 3412 3412
3583 3583 3583
3583 3583 3583
3583 3583 3583
3583 3583 3583
3583 3583 3583
3583 3583 3583
3583 3583 3583
3583 3583 3583
3583 3583 3583
3583 3583 3583
3583 3583 3583
3583 3583 3583
3583 3583 3583
3583 3583 3583
3583 3583 3583
3583 3583 3583
3583 3583 3583
3583 3583 3583
3583 3583 3583
3583 3583 3583
3583 3583 3583
3583 3583 3583
3583 3583 3583
3583 3583 3583
3583 3583 3583
3754 3754 3754
3754 3754 3754
3754 3754 3754
3754 3754 3754
3754 3754 3754
3754 3754 3754
3754 3754 3754
3754 3754 3754
3754 3754 3754
3754 3754 3754
3754 3754 3754
3754 3754 3754
3754 3754 3754
3754 3754 3754
3754 3754 3754
3754 3754 3754
3754 3754 3754
3754 3754 3754
3754 3754 3754
3754 3754 3754
3754 3754 3754
3754 3754 3754
3754 3754 3754
3754 3754 3754
3754 3754 3754
3924 3924 3924
3924 3924 3924
3924 3924 3924
3924 3924 3924
3924 3924 3924
3924 3924 3924
3924 3924 3924
3924 3924 3924
3924 3924 3924
3924 3924 3924
3924 3924 3924
3924 3924 3924
3924 3924 3924
3924 3924 3924
3924 3924 3924
3924 3924 3924
3924 3924 3924
3924 3924 3924
3924 3924 3924
3924 3924 3924
3924 3924 3924
3924 3924 3924
3924 3924 3924
3924 3924 3924
3924 3924 3924
4095 4095 4095
4095 4095 4095
4095 4095 4095
4095 4095 4095
4095 4095 4095
4095 4095 4095
4095 4095 4095
4095 4095 4095
4095 4095 4095
4095 4095 4095
4095 4095 4095
4095 4095 4095
4095 4095 4095
4095 4095 4095
4095 4095 4095
4095 4095 4095
4095 4095 4095
4095 4095 4095
4095 4095 4095
4095 4095 4095
4095 4095 4095
4095 4095 4095
4095 4095 4095
4095 4095 4095
4095 4095 4095
0 0 0
0 0 0
0 0 0
0 0 0
0 0 0
0 0 0
0 0 0
0 0 0
0 0 0
0 0 0
0 0 0
0 0 0
0 0 0
0 0 0
0 0 0
0 0 0
0 0 0
0 0 0
0 0 0
0 0 0
0 0 0
0 0 0
0 0 0
0 0 0
0 0 0
171 171 171
171 171 171
171 171 171
171 171 171
171 171 171
171 171 171
171 171 171
171 171 171
171 171 171
171 171 171
171 171 171
171 171 171
171 171 171
171 171 171
171 171 171
171 171 171
171 171 171
171 171 171
171 171 171
171 171 171
171 171 171
171 171 171
171 171 171
171 171 171
171 171 171
341 341 341
341 341 341
341 341 341
341 341 341
341 341 341
341 341 341
341 341 341
341 341 341
341 341 341
341 341 341
341 341 341
341 341 341
341 341 341
341 341 341
341 341 341
341 341 341
341 341 341
341 341 341
341 341 341
341 341 341
341 341 341
341 341 341
341 341 341
341 341 341
341 341 341
512 512 512
512 512 512
512 512 512
512 512 512
512 512 512
512 512 512
512 512 512
512 512 512
512 512 512
512 512 512
512 512 512
512 512 512
512 512 512
512 512 512
512 512 512
512 512 512
512 512 512
512 512 512
512 512 512
512 512 512
512 512 512
512 512 512
512 512 512
512 512 512
512 512 512
683 683 683
683 683 683
683 683 683
683 683 683
683 683 683
683 683 683
683 683 683
683 683 683
683 683 683
683 683 683
683 683 683
683 683 683
683 683 683
683 683 683
683 683 683
683 683 683
683 683 683
683 683 683
683 683 683
683 683 683
683 683 683
683 683 683
683 683 683
683 683 683
683 683 683
853 853 853
853 853 853
853 853 853
853 853 853
853 853 853
853 853 853
853 853 853
853 853 853
853 853 853
853 853 853
853 853 853
853 853 853
853 853 853
853 853 853
853 853 853
853 853 853
853 853 853
853 853 853
853 853 853
853 853 853
853 853 853
853 853 853
853 853 853
853 853 853
853 853 853
1024 1024 1024
1024 1024 1024
1024 1024 1024
1024 1024 1024
1024 1024 1024
1024 1024 1024
1024 1024 1024
1024 1024 1024
1024 1024 1024
1024 1024 1024
1024 1024 1024
1024 1024 1024
1024 1024 1024
1024 1024 1024
1024 1024 1024
1024 1024 1024
1024 1024 1024
1024 1024 1024
1024 1024 1024
1024 1024 1024
1024 1024 1024
1024 1024 1024
1024 1024 1024
1024 1024 1024
1024 1024 1024
1195 1195 1195
1195 1195 1195
1195 1195 1195
1195 1195 1195
1195 1195 1195
1195 1195 1195
1195 1195 1195
1195 1195 1195
1195 1195 1195
1195 1195 1195
1195 1195 1195
1195 1195 1195
1195 1195 1195
1195 1195 1195
1195 1195 1195
1195 1195 1195
1195 1195 1195
1195 1195 1195
1195 1195 1195
1195 1195 1195
1195 1195 1195
1195 1195 1195
1195 1195 1195
1195 1195 1195
1195 1195 1195
1365 1365 1365
1365 1365 1365
1365 1365 1365
1365 1365 1365
1365 1365 1365
1365 1365 1365
1365 1365 1365
1365 1365 1365
1365 1365 1365
1365 1365 1365
1365 1365 1365
1365 1365 1365
1365 1365 1365
1365 1365 1365
1365 1365 1365
1365 1365 1365
1365 1365 1365
1365 1365 1365
1365 1365 1365
1365 1365 1365
1365 1365 1365
1365 1365 1365
1365 1365 1365
1365 1365 1365
1365 1365 1365
1536 1536 1536
1536 1536 1536
1536 1536 1536
1536 1536 1536
1536 1536 1536
1536 1536 1536
1536 1536 1536
1536 1536 1536
1536 1536 1536
1536 1536 1536
1536 1536 1536
1536 1536 1536
1536 1536 1536
1536 1536 1536
1536 1536 1536
1536 1536 1536
1536 1536 1536
1536 1536 1536
1536 1536 1536
1536 1536 1536
1536 1536 1536
1536 1536 1536
1536 1536 1536
1536 1536 1536
1536 1536 1536
1706 1706 1706
1706 1706 1706
1706 1706 1706
1706 1706 1706
1706 1706 1706
1706 1706 1706
1706 1706 1706
1706 1706 1706
1706 1706 1706
1706 1706 1706
1706 1706 1706
1706 1706 1706
1706 1706 1706
1706 1706 1706
1706 1706 1706
1706 1706 1706
1706 1706 1706
1706 1706 1706
1706 1706 1706
1706 1706 1706
1706 1706 1706
1706 1706 1706
1706 1706 1706
1706 1706 1706
1706 1706 1706
