Examples/Channels - Darken Reds.3dl
#25pt 3DLUT created by 3D LUT Creator Pro (c) Oleg Sharonov
#Copyright Oleg Sharonov
#IMAGEPROFILE sRGB IEC61966-2.1 v.2.10
#INPUTGAMMA sRGB IEC61966-2.1 v.2.10
#OUTPUTGAMMA sRGB IEC61966-2.1 v.2.10
0 43 86 128 171 214 256 299 341 384 427 469 512 555 597 640 682 725 768 810 853 896 938 981 1023 
0 0 0
0 0 177
0 0 341
0 0 512
0 0 683
0 0 850
0 0 1022
0 0 1196
0 0 1362
0 0 1535
0 0 1704
0 0 1877
0 0 2047
0 0 2217
0 0 2388
0 0 2559
0 0 2731
0 0 2900
0 0 3071
0 0 3243
0 0 3413
0 0 3583
0 0 3754
0 0 3925
0 0 4095
0 171 0
0 171 171
0 171 341
0 171 513
0 171 684
0 171 852
0 171 1023
0 171 1196
0 171 1364
0 171 1535
0 171 1705
0 171 1878
0 171 2047
0 171 2218
0 171 2389
0 171 2559
0 171 2729
0 171 2901
0 171 3071
0 171 3243
0 171 3413
0 171 3583
0 171 3754
0 171 3925
0 171 4095
0 339 0
0 341 171
0 339 339
0 341 510
0 341 681
0 341 854
0 341 1025
0 341 1194
0 341 1366
0 341 1537
0 341 1707
0 341 1876
0 341 2049
0 341 2219
0 341 2390
0 341 2560
0 341 2730
0 341 2900
0 341 3070
0 341 3242
0 341 3412
0 341 3583
0 341 3753
0 341 3924
0 341 4095
0 512 0
0 512 171
0 512 341
0 512 512
0 512 682
0 512 852
0 512 1023
0 512 1195
0 512 1366
0 512 1535
0 512 1708
0 512 1877
0 512 2047
0 512 2217
0 512 2388
0 512 2559
0 512 2731
0 512 2900
0 512 3071
0 512 3242
0 512 3412
0 512 3583
0 512 3754
0 512 3924
0 512 4095
0 682 0
0 683 171
0 682 341
0 682 512
0 682 682
0 683 854
0 682 1023
0 683 1194
0 683 1365
0 682 1535
0 683 1707
0 682 1877
0 682 2047
0 682 2217
0 682 2388
0 682 2559
0 683 2731
0 682 2900
0 682 3071
0 683 3242
0 683 3412
0 683 3583
0 683 3754
0 683 3924
0 683 4095
0 853 0
0 853 171
0 853 341
0 853 512
0 853 683
0 852 852
0 853 1023
0 853 1195
0 852 1364
0 853 1535
0 852 1706
0 853 1877
0 853 2047
0 853 2218
0 853 2389
0 853 2559
0 853 2731
0 853 2900
0 853 3071
0 853 3242
0 853 3413
0 853 3583
0 853 3754
0 853 3925
0 853 4095
0 1023 0
0 1024 171
0 1023 341
0 1023 512
0 1023 683
0 1023 852
0 1023 1023
0 1024 1195
0 1024 1365
0 1023 1535
0 1024 1707
0 1023 1877
0 1023 2047
0 1023 2218
0 1023 2388
0 1023 2559
0 1024 2730
0 1023 2900
0 1023 3071
0 1024 3242
0 1024 3412
0 1023 3583
0 1023 3754
0 1024 3924
0 1024 4095
0 1195 0
0 1195 171
0 1195 341
0 1195 512
0 1195 683
0 1195 853
0 1195 1024
0 1195 1195
0 1194 1365
0 1195 1536
0 1194 1706
0 1195 1877
0 1195 2048
0 1195 2218
0 1195 2389
0 1195 2559
0 1194 2730
0 1195 2901
0 1195 3071
0 1194 3242
0 1195 3413
0 1195 3583
0 1195 3754
0 1195 3925
0 1195 4095
0 1365 0
0 1365 171
0 1365 341
0 1365 512
0 1365 682
0 1365 853
0 1365 1024
0 1365 1194
0 1365 1365
0 1365 1536
0 1365 1707
0 1365 1877
0 1365 2048
0 1365 2219
0 1365 2389
0 1365 2560
0 1365 2730
0 1365 2900
0 1365 3071
0 1365 3242
0 1365 3412
0 1365 3583
0 1365 3754
0 1365 3924
0 1365 4095
0 1535 0
0 1535 171
0 1535 341
0 1535 512
0 1535 682
0 1536 853
0 1536 1024
0 1535 1194
0 1536 1365
0 1536 1536
0 1536 1707
0 1535 1877
0 1536 2048
0 1536 2218
0 1536 2389
0 1536 2560
0 1536 2730
0 1536 2901
0 1536 3072
0 1536 3242
0 1535 3412
0 1535 3583
0 1535 3754
0 1536 3924
0 1536 4095
0 1707 0
0 1706 171
0 1707 341
0 1706 512
0 1706 682
0 1707 853
0 1707 1024
0 1706 1194
0 1707 1365
0 1707 1536
0 1707 1707
0 1706 1877
0 1707 2048
0 1707 2218
0 1707 2389
0 1707 2560
0 1706 2730
0 1707 2901
0 1707 3071
0 1706 3242
0 1706 3412
0 1707 3583
0 1706 3754
0 1706 3924
0 1706 4095
0 1877 0
0 1877 171
0 1877 341
0 1877 512
0 1877 683
0 1877 853
0 1877 1024
0 1877 1194
0 1877 1365
0 1877 1536
0 1877 1707
0 1877 1877
0 1877 2048
0 1877 2218
0 1877 2389
0 1877 2560
0 1877 2730
0 1877 2901
0 1877 3071
0 1877 3242
0 1877 3412
0 1877 3583
0 1877 3754
0 1877 3924
0 1877 4095
0 2048 0
0 2048 171
0 2048 341
0 2048 512
0 2048 683
0 2047 853
0 2047 1023
0 2048 1195
0 2048 1365
0 2047 1536
0 2047 1706
0 2048 1877
0 2047 2047
0 2047 2218
0 2048 2389
0 2047 2559
0 2048 2730
0 2048 2900
0 2048 3071
0 2048 3242
0 2048 3412
0 2048 3583
0 2048 3754
0 2048 3924
0 2048 4095
0 2218 0
0 2218 171
0 2218 341
0 2218 512
0 2218 683
0 2218 853
0 2218 1023
0 2218 1195
0 2218 1365
0 2218 1536
0 2218 1707
0 2218 1877
0 2218 2047
0 2218 2218
0 2218 2389
0 2218 2559
0 2218 2730
0 2218 2900
0 2218 3071
0 2218 3242
0 2218 3412
0 2218 3583
0 2218 3754
0 2218 3924
0 2218 4095
0 2389 0
0 2389 171
0 2389 341
0 2389 512
0 2389 683
0 2389 853
0 2389 1024
0 2389 1195
0 2389 1365
0 2389 1536
0 2389 1707
0 2389 1877
0 2389 2048
0 2389 2218
0 2389 2389
0 2389 2559
0 2389 2730
0 2389 2901
0 2389 3071
0 2389 3242
0 2389 3412
0 2389 3583
0 2389 3754
0 2389 3924
0 2389 4095
0 2559 0
0 2560 171
0 2559 341
0 2559 512
0 2559 683
0 2559 853
0 2559 1024
0 2559 1195
0 2559 1365
0 2559 1536
0 2559 1706
0 2559 1877
0 2559 2048
0 2559 2218
0 2559 2389
0 2559 2559
0 2559 2730
0 2559 2901
0 2559 3071
0 2560 3242
0 2559 3412
0 2559 3583
0 2559 3754
0 2559 3924
0 2559 4095
0 2730 0
0 2730 171
0 2730 341
0 2730 512
0 2730 683
0 2730 853
0 2730 1024
0 2730 1194
0 2730 1365
0 2730 1536
0 2730 1706
0 2730 1877
0 2730 2048
0 2730 2218
0 2730 2389
0 2730 2559
0 2730 2730
0 2730 2901
0 2730 3071
0 2730 3242
0 2730 3412
0 2730 3583
0 2730 3754
0 2730 3924
3 2730 4095
0 2900 0
0 2900 171
0 2900 341
0 2900 512
0 2900 683
0 2901 853
0 2900 1023
0 2900 1195
0 2901 1365
0 2900 1536
0 2901 1707
0 2900 1877
0 2900 2048
0 2901 2218
0 2900 2389
0 2901 2559
0 2901 2730
0 2900 2900
0 2900 3071
0 2900 3242
0 2900 3412
0 2900 3583
0 2900 3754
0 2900 3924
0 2900 4095
0 3071 0
0 3071 171
0 3071 341
0 3071 512
0 3071 683
0 3071 853
0 3071 1024
0 3071 1195
0 3071 1365
0 3071 1536
0 3071 1706
0 3071 1877
0 3071 2048
0 3071 2218
0 3071 2389
0 3071 2559
0 3071 2730
0 3071 2900
0 3071 3071
0 3071 3242
0 3071 3412
0 3071 3583
0 3071 3754
0 3071 3924
0 3071 4095
0 3242 0
0 3242 171
0 3242 341
0 3242 512
0 3242 683
0 3242 853
0 3242 1024
0 3242 1195
0 3242 1365
0 3242 1536
0 3242 1706
0 3242 1877
0 3242 2048
0 3242 2218
0 3242 2389
0 3242 2559
0 3242 2730
0 3242 2901
0 3242 3071
0 3242 3242
0 3242 3412
0 3242 3583
0 3242 3754
0 3242 3924
0 3242 4095
0 3412 0
0 3412 171
0 3412 341
0 3412 512
0 3412 683
0 3412 853
0 3412 1024
0 3412 1195
0 3412 1365
0 3412 1536
0 3412 1707
0 3412 1877
0 3412 2048
0 3412 2218
0 3412 2389
0 3412 2559
0 3412 2730
0 3412 2900
0 3412 3071
0 3412 3242
0 3412 3412
0 3412 3583
0 3412 3754
0 3412 3924
0 3412 4095
0 3583 0
0 3583 171
0 3583 341
0 3583 512
0 3583 683
0 3583 853
0 3583 1024
0 3583 1195
0 3583 1365
0 3583 1536
0 3583 1706
0 3583 1877
0 3583 2048
0 3583 2218
0 3583 2389
0 3583 2559
0 3583 2730
0 3583 2901
0 3583 3071
0 3583 3242
0 3583 3412
0 3583 3583
0 3583 3754
0 3583 3924
3 3583 4095
0 3754 0
0 3754 171
0 3754 341
0 3754 512
0 3754 683
0 3754 853
0 3754 1024
0 3754 1195
0 3754 1365
0 3754 1536
0 3754 1707
0 3754 1877
0 3754 2048
0 3754 2218
0 3754 2389
0 3754 2559
0 3754 2730
0 3754 2900
0 3754 3071
0 3754 3242
0 3754 3412
0 3754 3583
0 3754 3754
0 3754 3924
0 3754 4095
0 3924 0
0 3924 171
0 3924 341
0 3924 512
0 3924 683
0 3924 853
0 3924 1024
0 3924 1195
0 3924 1365
0 3924 1536
0 3924 1707
0 3924 1877
0 3924 2048
0 3924 2218
0 3924 2389
0 3924 2559
0 3924 2730
0 3924 2900
0 3924 3071
0 3924 3242
0 3924 3412
0 3924 3583
0 3924 3754
0 3924 3924
0 3924 4095
0 4078 0
0 4078 171
0 4078 341
0 4078 512
0 4078 683
0 4078 853
0 4078 1024
0 4078 1195
0 4078 1365
0 4078 1536
0 4078 1706
0 4079 1877
0 4079 2048
0 4079 2218
0 4079 2389
0 4079 2559
0 4080 2730
0 4080 2901
0 4080 3071
0 4080 3242
0 4081 3412
0 4081 3583
0 4081 3754
0 4082 3924
0 4082 4095
29 0 0
19 0 171
10 0 347
6 0 506
6 0 678
6 0 857
6 0 1028
6 0 1193
6 0 1366
6 0 1538
6 0 1708
6 0 1876
6 0 2049
6 0 2220
6 0 2390
6 0 2561
6 0 2730
6 0 2900
6 0 3070
6 0 3242
6 0 3412
6 0 3583
6 0 3753
6 0 3924
6 0 4095
171 171 0
171 171 171
171 171 341
171 171 512
171 171 682
171 171 851
171 171 1023
171 171 1195
171 171 1367
171 171 1535
171 171 1705
171 171 1877
171 171 2047
171 171 2217
113 171 2390
29 171 2559
6 171 2731
6 171 2900
6 171 3071
6 171 3242
6 171 3412
6 171 3583
6 171 3754
6 171 3924
3 171 4095
171 341 0
171 339 171
171 341 341
171 341 513
171 341 684
171 341 853
171 341 1025
171 341 1193
171 341 1365
171 341 1536
171 341 1707
171 341 1878
171 341 2048
171 341 2219
171 341 2389
171 341 2560
171 341 2730
171 341 2901
171 341 3072
171 341 3241
171 341 3413
171 341 3584
42 341 3754
6 341 3925
6 341 4095
171 512 0
171 512 171
171 512 341
171 512 512
171 512 682
171 512 854
171 513 1025
171 512 1194
171 512 1365
171 512 1536
171 512 1707
171 512 1876
171 512 2048
171 512 2219
171 512 2389
171 512 2560
171 512 2730
171 512 2900
171 512 3072
171 512 3242
171 512 3412
171 512 3583
171 512 3753
171 512 3924
171 512 4095
171 682 0
171 682 171
171 682 341
171 682 512
171 682 682
171 683 853
171 683 1024
171 682 1194
171 683 1365
171 683 1536
171 683 1707
171 682 1876
171 683 2048
171 683 2219
171 683 2389
171 683 2560
171 683 2730
171 683 2901
171 683 3072
171 683 3242
171 682 3412
171 682 3582
171 682 3753
171 683 3924
168 682 4095
171 853 0
171 853 171
171 852 341
171 853 512
171 853 682
171 853 853
171 852 1023
171 853 1194
171 853 1365
171 852 1535
171 853 1707
171 853 1877
171 852 2047
171 852 2218
171 853 2388
171 852 2559
171 853 2730
171 853 2900
171 853 3071
171 853 3242
171 853 3412
171 853 3583
171 853 3754
171 853 3924
171 853 4095
171 1023 0
171 1023 171
171 1023 341
171 1023 512
171 1023 682
171 1024 853
171 1024 1024
171 1023 1194
171 1024 1365
171 1024 1536
171 1024 1707
171 1023 1876
171 1024 2048
171 1024 2219
171 1024 2389
171 1024 2560
171 1024 2730
171 1023 2900
171 1024 3072
171 1023 3242
171 1023 3412
171 1023 3583
171 1023 3753
171 1023 3924
171 1023 4095
171 1195 0
171 1195 171
171 1195 341
171 1195 512
171 1195 683
171 1194 853
171 1194 1023
171 1195 1195
171 1194 1364
171 1194 1535
171 1194 1706
171 1195 1877
171 1194 2047
171 1194 2218
171 1194 2389
171 1194 2559
171 1195 2731
171 1195 2900
171 1195 3071
171 1195 3242
171 1195 3412
171 1195 3583
171 1195 3754
171 1195 3924
171 1195 4095
171 1365 0
171 1365 171
171 1365 341
171 1365 512
171 1365 683
171 1365 853
171 1365 1024
171 1365 1194
171 1365 1365
171 1365 1536
171 1365 1707
171 1365 1877
171 1365 2048
171 1365 2218
171 1365 2389
171 1365 2560
171 1365 2730
171 1365 2901
171 1365 3072
171 1365 3242
171 1365 3412
171 1365 3583
171 1365 3754
171 1365 3924
171 1365 4095
171 1536 0
171 1536 171
171 1536 341
171 1536 512
171 1536 683
171 1536 853
171 1536 1024
171 1536 1195
171 1536 1365
171 1536 1536
171 1536 1706
171 1536 1877
171 1536 2048
171 1536 2218
171 1536 2389
171 1536 2559
171 1536 2730
171 1536 2901
171 1536 3071
171 1535 3242
171 1536 3413
171 1536 3583
171 1536 3754
171 1536 3925
171 1536 4095
171 1707 0
171 1707 171
171 1707 341
171 1707 512
171 1707 683
171 1706 853
171 1707 1024
171 1707 1195
171 1706 1365
171 1706 1536
171 1706 1706
171 1707 1877
171 1707 2048
171 1706 2218
171 1707 2389
171 1706 2559
171 1706 2730
171 1707 2901
171 1707 3071
171 1706 3242
171 1707 3413
171 1707 3583
171 1707 3754
171 1707 3925
171 1707 4095
