Examples/Channels-CMY-Corrected.3dl
#25pt 3DLUT created by 3D LUT Creator Pro (c) Oleg Sharonov
#Copyright Oleg Sharonov
#IMAGEPROFILE sRGB IEC61966-2.1 v.2.10
#INPUTGAMMA sRGB IEC61966-2.1 v.2.10
#OUTPUTGAMMA sRGB IEC61966-2.1 v.2.10
0 128 256 384 512 640 768 896 1023
0 0 0
238 0 0
460 0 39
665 0 126
843 0 230
1001 0 322
1176 0 419
1371 0 522
1580 0 631
0 0 240
0 3 310
376 0 48
678 0 52
885 0 84
1052 0 206
1220 0 347
1411 0 471
1614 0 593
0 3 520
0 6 568
0 6 652
365 0 445
716 0 228
975 0 240
1201 0 280
1444 0 343
1694 0 416
0 10 802
0 10 833
0 13 937
0 16 1005
445 0 815
710 0 320
992 0 394
1277 0 437
1555 0 499
0 19 1087
0 19 1110
0 23 1189
0 26 1315
0 29 1354
475 0 1183
777 0 862
986 0 481
1297 0 570
0 29 1367
0 29 1382
0 32 1434
0 36 1519
0 42 1635
0 42 1644
474 0 1497
820 0 1234
1061 0 525
0 39 1604
0 39 1613
0 42 1652
0 45 1723
0 52 1827
0 61 1964
0 61 1949
475 0 1814
884 0 1564
0 55 1843
0 55 1854
0 55 1887
0 61 1953
0 68 2049
0 78 2178
0 90 2340
0 84 2289
462 0 2158
0 71 2105
0 71 2114
0 74 2147
0 78 2207
0 87 2300
0 97 2422
0 110 2573
0 129 2751
0 119 2664
503 129 29
464 119 0
645 32 0
817 0 58
950 0 171
1091 0 293
1257 0 404
1444 0 516
1643 0 628
209 376 161
362 362 362
521 320 0
714 129 0
968 0 13
1126 0 171
1297 0 324
1479 0 460
1675 0 586
0 183 548
0 201 597
0 48 1307
523 282 431
884 36 0
1094 0 32
1302 0 113
1527 0 214
1760 0 349
0 10 808
0 10 839
0 13 942
0 16 1020
554 0 880
924 0 238
1160 0 273
1409 0 334
1664 0 408
0 19 1092
0 19 1115
0 23 1194
0 26 1318
0 29 1360
577 0 1193
835 0 882
1129 0 464
1439 0 523
0 29 1370
0 29 1385
0 32 1436
0 36 1521
0 42 1637
0 42 1650
570 0 1510
867 0 1268
1101 0 588
0 39 1606
0 42 1617
0 42 1655
0 45 1727
0 52 1829
0 61 1966
0 61 1955
569 0 1832
938 0 1582
0 55 1846
0 55 1855
0 55 1889
0 61 1955
0 68 2051
0 78 2180
0 90 2342
0 87 2294
569 0 2174
0 71 2107
0 71 2116
0 74 2149
0 78 2210
0 87 2301
0 97 2425
0 110 2575
0 129 2753
0 119 2669
964 174 0
959 217 233
899 171 0
1041 84 0
1213 0 29
1355 0 186
1517 0 332
1681 0 474
1861 0 606
863 417 90
851 417 330
948 312 0
952 240 0
1150 103 0
1359 0 52
1526 0 243
1708 0 399
1886 0 553
430 758 322
518 754 452
750 750 750
986 707 103
1019 631 0
1155 451 0
1411 228 0
1720 3 0
1931 0 289
0 610 811
0 614 840
0 639 1006
161 472 2047
855 697 900
1063 506 0
1273 363 0
1545 255 0
1837 165 0
0 388 1095
0 394 1113
0 416 1178
0 457 1294
0 65 2291
1036 0 2023
1073 588 879
1506 45 0
1768 0 94
0 29 1385
0 29 1397
0 32 1448
0 36 1531
0 42 1646
260 0 1885
925 0 1897
1286 0 1795
1607 0 616
0 39 1615
0 42 1626
0 42 1665
0 48 1735
0 52 1839
0 61 1976
0 61 1976
837 0 1896
1106 0 1684
0 55 1854
0 55 1863
0 58 1899
0 61 1962
0 68 2061
0 78 2189
0 90 2349
0 87 2314
834 0 2254
0 71 2116
0 71 2124
0 74 2156
0 81 2218
0 87 2309
0 97 2432
0 110 2583
0 129 2759
0 119 2686
1444 245 0
1553 78 0
1540 94 0
1370 245 0
1520 171 0
1711 16 0
1863 0 201
2027 0 383
2210 0 535
1419 425 0
1459 414 145
1503 381 316
1316 374 0
1462 262 0
1655 149 0
1863 0 61
2031 0 302
2215 0 478
1267 911 243
1269 888 437
1281 849 765
1427 781 492
1360 695 0
1483 536 0
1697 345 0
1967 198 0
2226 0 129
712 1234 527
773 1233 626
968 1228 894
1228 1228 1228
1443 1190 835
1590 1123 0
1629 1018 0
1755 831 0
1982 584 0
0 1057 1156
0 1060 1179
0 1101 1331
0 1142 1756
994 1097 2083
1306 1190 1417
1641 1019 743
1679 948 0
1863 825 0
0 884 1418
0 888 1435
0 901 1495
0 925 1603
0 964 1938
0 440 3569
1550 158 3230
1520 1085 1499
2077 412 0
0 603 1655
0 607 1669
0 626 1718
0 658 1809
0 705 1939
0 766 2107
0 74 3515
1463 0 3199
1912 0 2912
0 55 1871
0 55 1881
0 58 1914
0 61 1980
0 68 2075
0 271 2231
0 431 2423
399 0 3121
1346 0 3055
0 74 2131
0 74 2140
0 78 2173
0 81 2232
0 87 2325
0 100 2447
0 113 2596
0 129 2773
306 0 2825
1994 322 0
2070 201 0
2160 276 425
2016 289 0
1926 367 0
2086 284 0
2281 103 0
2458 0 195
2626 0 430
1979 481 0
2049 412 0
2033 564 639
2100 267 0
1883 422 0
2044 360 0
2241 235 0
2460 0 42
2630 0 349
1919 893 0
1935 894 273
1904 939 755
1980 888 783
2017 696 0
1913 653 0
2096 490 0
2331 396 0
2595 186 0
1666 1454 590
1701 1449 657
1767 1403 922
1804 1362 1260
1933 1273 1044
2096 1110 0
2009 1094 0
2149 927 0
2369 713 0
1022 1760 751
1070 1759 830
1228 1757 1070
1473 1754 1396
1757 1757 1757
1977 1730 1405
2278 1662 0
2256 1616 0
2334 1464 0
0 1586 1560
0 1595 1588
0 1625 1697
119 1667 1945
980 1662 2271
1565 1643 2531
1818 1720 1975
2120 1598 1446
2385 1413 0
0 1393 1830
0 1396 1844
0 1405 1897
0 1423 1989
0 1466 2230
0 1494 2966
842 1221 4095
1853 1375 3332
2001 1643 2098
0 1176 2083
0 1179 2094
0 1189 2138
0 1210 2217
0 1240 2334
0 1280 2486
0 1325 3016
798 1001 4095
1895 849 4095
0 857 2307
0 861 2318
0 874 2355
0 900 2426
0 937 2530
0 988 2668
0 1049 2836
0 1122 3033
807 819 4095
2625 406 0
2680 343 0
2872 0 161
2878 0 84
2583 482 0
2578 508 0
2748 417 0
2950 240 0
3153 0 155
2613 551 0
2669 482 0
2895 0 32
2933 0 192
2646 477 0
2547 559 0
2718 485 0
2920 349 0
3153 23 0
2573 933 0
2619 908 0
2653 938 595
2580 1060 1115
2856 609 0
2528 784 0
2608 680 0
2814 594 0
3050 470 0
2430 1509 183
2435 1510 445
2455 1484 893
2450 1451 1292
2543 1408 1295
2836 1159 0
2574 1138 0
2655 1057 0
2871 879 0
2051 2010 899
2074 2008 976
2167 1999 1190
2318 1960 1457
2383 1929 1805
2514 1837 1604
2803 1750 738
2751 1600 0
2781 1569 0
1353 2324 987
1392 2324 1054
1526 2322 1269
1747 2318 1581
2019 2318 1940
2322 2322 2322
2544 2296 1986
2836 2236 1253
2991 2146 0
0 2166 1928
0 2172 1954
0 2194 2056
675 2209 2222
1179 2219 2461
1650 2219 2813
2130 2217 3072
2376 2280 2575
2679 2208 2088
0 1931 2270
0 1933 2282
0 1940 2326
0 1954 2408
0 2007 2649
0 2067 3120
0 2050 4039
1751 2011 4095
2359 2035 3745
0 1736 2543
0 1738 2554
0 1746 2592
0 1761 2662
0 1784 2766
0 1815 2903
0 1867 3265
260 1872 4095
1795 1878 4095
3345 545 0
3389 494 0
3562 142 0
3703 0 597
3558 284 0
3256 696 0
3340 674 0
3522 572 0
3731 394 0
3339 633 0
3387 558 0
3561 264 0
3575 665 926
3614 233 0
3310 694 0
3318 721 0
3500 633 0
3710 485 0
3297 1013 0
3338 981 0
3507 816 0
3407 1070 1130
3680 585 628
3491 706 0
3236 898 0
3421 811 0
3633 721 0
3204 1515 0
3248 1494 0
3263 1518 711
3221 1589 1286
3246 1581 1592
3562 1287 792
3449 1211 0
3281 1224 0
3492 1079 0
2987 2165 369
2991 2155 579
3006 2121 1016
3042 2061 1470
3066 2041 1863
3173 2000 1858
3439 1893 1186
3512 1672 0
3357 1723 0
2475 2588 1155
2494 2588 1208
2563 2585 1384
2689 2575 1729
2900 2543 2022
2984 2510 2385
3141 2450 2193
3412 2356 1577
3636 2185 0
1698 2913 1232
1731 2913 1289
1846 2911 1482
2041 2908 1777
2303 2904 2128
2592 2904 2511
2908 2908 2908
3136 2885 2580
3422 2833 1993
0 2775 2246
0 2780 2268
352 2792 2354
1038 2785 2523
1484 2788 2744
1862 2801 3017
2286 2802 3383
2702 2812 3652
2956 2864 3186
0 2494 2724
0 2495 2735
0 2501 2777
0 2531 2887
0 2586 3096
0 2646 3441
0 2690 4023
1946 2658 4095
2563 2692 4095
4095 704 0
4095 660 0
4095 789 645
4095 1145 1262
4095 1086 1186
4095 849 591
4067 939 0
4095 928 299
4095 1074 790
4095 748 0
4095 707 0
4095 755 542
4095 1169 1265
4095 1217 1315
4095 907 694
4095 944 0
4095 910 0
4095 1127 820
4095 1110 0
4095 1073 0
4095 1081 641
4095 1212 1229
4095 1407 1539
4095 1212 1124
4095 1003 304
4095 1061 0
4095 1203 744
4047 1591 0
4076 1576 0
4095 1513 139
4095 1611 1145
4056 1747 1797
4095 1620 1516
4095 1502 1086
4095 1359 0
4095 1375 423
3820 2202 0
3851 2191 3
3867 2198 873
3889 2206 1449
3885 2191 1921
3938 2194 2162
4095 2081 1629
4095 1978 1257
4095 1839 575
3517 2810 654
3538 2806 730
3565 2781 1122
3603 2735 1603
3672 2673 2074
3722 2671 2469
3844 2635 2464
4095 2529 1922
4095 2465 1501
2896 3186 1444
2913 3185 1486
2975 3183 1640
3087 3178 1890
3250 3168 2250
3496 3141 2602
3605 3115 2988
3784 3083 2798
4062 2989 2290
2051 3517 1480
2079 3516 1530
2179 3514 1703
2353 3511 1979
2588 3507 2321
2875 3502 2697
3178 3501 3095
3503 3503 3503
3736 3482 3181
0 3403 2520
103 3406 2541
771 3401 2635
1286 3393 2799
1760 3384 3023
2162 3383 3295
2502 3398 3593
2912 3398 3968
3324 3418 4095
4095 1942 1749
4095 1939 1755
4095 1972 1840
4095 2014 1963
4095 2106 2115
4095 2005 1851
4095 1916 1463
4095 1833 831
4095 1906 963
4095 1962 1744
4095 1985 1787
4095 1992 1836
4095 2057 1989
4095 2138 2154
4095 2045 1891
4095 1968 1534
4095 1907 963
4095 1937 914
4095 2109 1836
4095 2107 1842
4095 2138 1921
4095 2170 2030
4095 2253 2229
4095 2215 2071
4095 2139 1753
4095 2029 1198
4095 2073 853
4095 2316 1927
4095 2323 1946
4095 2346 2013
4095 2401 2155
4095 2458 2315
4095 2476 2335
4095 2400 2049
4095 2324 1676
4095 2319 927
4095 2622 2036
4095 2631 2081
4095 2655 2204
4095 2689 2302
4095 2732 2465
4095 2735 2661
4095 2755 2473
4095 2700 2169
4095 2615 1762
4095 3005 1765
4095 3009 1839
4095 3021 2035
4095 3026 2334
4095 3030 2652
4095 3034 2837
4095 3064 2936
4095 3072 2699
4095 3065 2406
3915 3425 1323
3933 3423 1361
3998 3414 1497
4095 3395 1724
4095 3372 2401
4095 3368 2949
4095 3411 3237
4095 3418 3216
4095 3420 3001
3308 3792 1736
3324 3791 1772
3380 3788 1907
3484 3783 2130
3635 3775 2416
3829 3763 2786
4090 3736 3190
4095 3757 3652
4095 3768 3535
2405 4095 1727
2452 4095 1817
2518 4095 1928
2673 4095 2185
2888 4095 2512
3159 4095 2879
3452 4095 3273
3765 4095 3681
4095 4095 4095
