Examples/Channels - Darken Reds.3dl
#25pt 3DLUT created by 3D LUT Creator Pro (c) Oleg Sharonov
#Copyright Oleg Sharonov
#IMAGEPROFILE sRGB IEC61966-2.1 v.2.10
#INPUTGAMMA sRGB IEC61966-2.1 v.2.10
#OUTPUTGAMMA sRGB IEC61966-2.1 v.2.10
0 256 512 768 1023
0 0 0
0 0 1022
0 0 2047
0 0 3071
0 0 4095
0 1023 0
0 1023 1023
0 1023 2047
0 1023 3071
0 1024 4095
0 2048 0
0 2047 1023
0 2047 2047
0 2048 3071
0 2048 4095
0 3071 0
0 3071 1024
0 3071 2048
0 3071 3071
0 3071 4095
0 4078 0
0 4078 1024
0 4079 2048
0 4080 3071
0 4082 4095
328 0 0
269 0 1022
81 0 2049
81 0 3070
81 0 4095
1023 1023 0
1024 1024 1024
1024 1024 2048
1023 1023 3071
1023 1023 4095
1023 2047 0
1023 2047 1023
1024 2048 2048
1023 2047 3071
1023 2048 4095
1024 3071 0
1024 3071 1024
1024 3071 2048
1024 3071 3071
1024 3071 4095
1024 4079 0
1023 4079 1023
1025 4079 2048
1025 4081 3071
1023 4083 4095
779 0 0
754 0 1023
675 0 2048
486 0 3071
302 0 4095
2003 1023 0
1996 1024 1024
1973 1024 2048
1930 1024 3072
1859 1024 4095
2048 2048 0
2048 2048 1024
2048 2048 2048
2048 2048 3071
2048 2048 4095
2048 3071 0
2048 3071 1024
2048 3071 2048
2048 3071 3071
2047 3071 4095
2048 4081 0
2047 4081 1023
2048 4082 2048
2048 4083 3071
2047 4085 4095
1228 0 0
1216 0 1024
1171 0 2048
1080 0 3071
917 0 4095
2177 1024 0
2171 1024 1024
2151 1024 2048
2113 1023 3071
2052 1024 4095
3071 2048 0
3071 2048 1023
3071 2048 2048
3071 2048 3071
3071 2048 4095
3071 3071 0
3071 3071 1024
3071 3071 2048
3071 3071 3071
3071 3071 4095
3071 4085 0
3071 4085 1025
3071 4086 2048
3071 4087 3071
3071 4089 4095
1676 0 0
1668 0 1024
1638 0 2048
1580 0 3071
1483 0 4095
2409 1024 0
2404 1024 1024
2387 1024 2048
2356 1024 3071
2305 1024 4095
3397 2048 0
3395 2048 1023
3390 2048 2048
3381 2048 3071
3366 2048 4095
3895 3071 0
3894 3071 1024
3893 3071 2048
3891 3071 3071
3887 3071 4095
4095 4091 13
4095 4091 1020
4095 4092 2048
4095 4093 3072
4095 4095 4095
