Examples/Channels - Indian Summer masked.3dl
#25pt 3DLUT created by 3D LUT Creator Pro (c) Oleg Sharonov
#Copyright Oleg Sharonov
#IMAGEPROFILE sRGB IEC61966-2.1 v.2.10
#INPUTGAMMA sRGB IEC61966-2.1 v.2.10
#OUTPUTGAMMA sRGB IEC61966-2.1 v.2.10
0 256 512 768 1023
0 0 0
72 624 1270
138 1169 2413
148 1199 3286
0 0 4095
0 860 133
0 1475 1399
34 1986 2507
76 2023 3336
0 1024 4095
0 1702 241
0 2214 1486
2 2674 2597
7 2765 3385
0 2048 4095
0 2615 236
1 2908 1406
3 3175 2472
6 3440 3428
0 3071 4095
0 4095 0
0 4095 1024
0 4095 2048
0 4095 3071
0 4095 4095
1143 0 0
1214 481 1074
1270 1039 2265
1242 1118 3208
1024 0 4095
1026 720 0
1099 1338 1206
1164 1870 2364
1172 1955 3259
1024 1024 4095
920 1578 59
990 2103 1309
1063 2577 2457
1104 2706 3308
1024 2048 4095
890 2542 113
938 2844 1288
987 3117 2380
1042 3385 3353
1024 3071 4095
1024 4095 0
1024 4095 1024
1024 4095 2048
1024 4095 3071
1024 4095 4095
2230 0 0
2285 309 880
2342 904 2105
2286 1033 3125
2048 0 4095
2138 604 0
2195 1180 1003
2253 1746 2208
2229 1883 3177
2048 1024 4095
2047 1447 0
2106 1983 1122
2166 2472 2306
2172 2644 3227
2048 2048 4095
1991 2463 0
2031 2775 1162
2073 3055 2280
2119 3328 3273
2048 3071 4095
2048 4095 0
2048 4095 1024
2048 4095 2048
2048 4095 3071
2048 4095 4095
3163 2 2
3191 105 783
3218 508 1959
3249 936 3029
3071 0 4095
3115 638 2
3143 1029 867
3171 1417 2032
3202 1800 3083
3071 1024 4095
3068 1543 1
3096 1912 947
3125 2254 2102
3157 2573 3135
3071 2048 4095
3024 2373 1
3053 2696 1020
3083 2985 2164
3116 3264 3182
3071 3071 4095
3071 4095 0
3071 4095 1024
3071 4095 2048
3071 4095 3071
3071 4095 4095
4095 0 0
4095 0 1024
4095 0 2048
4095 0 3071
4095 0 4095
4095 1024 0
4095 1024 1024
4095 1024 2048
4095 1024 3071
4095 1024 4095
4095 2048 0
4095 2048 1024
4095 2048 2048
4095 2048 3071
4095 2048 4095
4095 3071 0
4095 3071 1024
4095 3071 2048
4095 3071 3071
4095 3071 4095
4095 4095 0
4095 4095 1024
4095 4095 2048
4095 4095 3071
4095 4095 4095
