Examples/Channels - Only Green Channel.3dl
#25pt 3DLUT created by 3D LUT Creator Pro (c) Oleg Sharonov
#Copyright Oleg Sharonov
#IMAGEPROFILE 
#INPUTGAMMA 
#OUTPUTGAMMA 
0 43 86 128 171 214 256 299 341 384 427 469 512 555 597 640 682 725 768 810 853 896 938 981 1023 
0 0 0
0 0 0
0 0 0
0 0 0
0 0 0
0 0 0
0 0 0
0 0 0
0 0 0
0 0 0
0 0 0
0 0 0
0 0 0
0 0 0
0 0 0
0 0 0
0 0 0
0 0 0
0 0 0
0 0 0
0 0 0
0 0 0
0 0 0
0 0 0
0 0 0
0 171 0
0 171 0
0 171 0
0 171 0
0 171 0
0 171 0
0 171 0
0 171 0
0 171 0
0 171 0
0 171 0
0 171 0
0 171 0
0 171 0
0 171 0
0 171 0
0 171 0
0 171 0
0 171 0
0 171 0
0 171 0
0 171 0
0 171 0
0 171 0
0 171 0
0 339 0
0 339 0
0 339 0
0 339 0
0 339 0
0 339 0
0 339 0
0 339 0
0 339 0
0 339 0
0 339 0
0 339 0
0 339 0
0 339 0
0 339 0
0 339 0
0 339 0
0 339 0
0 339 0
0 339 0
0 343 0
0 343 0
0 343 0
0 343 0
0 343 0
0 512 0
0 512 0
0 512 0
0 512 0
0 512 0
0 512 0
0 512 0
0 512 0
0 512 0
0 512 0
0 512 0
0 512 0
0 512 0
0 512 0
0 512 0
0 512 0
0 512 0
0 512 0
0 512 0
0 512 0
0 512 0
0 512 0
0 512 0
0 512 0
0 512 0
0 682 0
0 682 0
0 682 0
0 682 0
0 682 0
0 682 0
0 682 0
0 682 0
0 682 0
0 682 0
0 682 0
0 682 0
0 682 0
0 682 0
0 682 0
0 682 0
0 682 0
0 682 0
0 682 0
0 682 0
0 682 0
0 682 0
0 682 0
0 682 0
0 682 0
0 853 0
0 853 0
0 853 0
0 853 0
0 853 0
0 853 0
0 853 0
0 853 0
0 853 0
0 853 0
0 853 0
0 853 0
0 853 0
0 853 0
0 853 0
0 853 0
0 853 0
0 853 0
0 853 0
0 853 0
0 853 0
0 853 0
0 853 0
0 853 0
0 853 0
0 1023 0
0 1023 0
0 1023 0
0 1023 0
0 1023 0
0 1023 0
0 1023 0
0 1023 0
0 1023 0
0 1023 0
0 1023 0
0 1023 0
0 1023 0
0 1023 0
0 1023 0
0 1023 0
0 1023 0
0 1023 0
0 1023 0
0 1023 0
0 1023 0
0 1023 0
0 1023 0
0 1023 0
0 1023 0
0 1195 0
0 1195 0
0 1195 0
0 1195 0
0 1195 0
0 1195 0
0 1195 0
0 1195 0
0 1195 0
0 1195 0
0 1195 0
0 1195 0
0 1195 0
0 1195 0
0 1195 0
0 1195 0
0 1195 0
0 1195 0
0 1195 0
0 1195 0
0 1195 0
0 1195 0
0 1195 0
0 1195 0
0 1195 0
0 1365 0
0 1365 0
0 1365 0
0 1365 0
0 1365 0
0 1365 0
0 1365 0
0 1365 0
0 1365 0
0 1365 0
0 1365 0
0 1365 0
0 1365 0
0 1365 0
0 1365 0
0 1365 0
0 1365 0
0 1365 0
0 1365 0
0 1365 0
0 1365 0
0 1365 0
0 1365 0
0 1365 0
0 1365 0
0 1535 0
0 1535 0
0 1535 0
0 1535 0
0 1535 0
0 1535 0
0 1535 0
0 1535 0
0 1535 0
0 1535 0
0 1535 0
0 1535 0
0 1535 0
0 1535 0
0 1535 0
0 1535 0
0 1535 0
0 1535 0
0 1535 0
0 1535 0
0 1535 0
0 1535 0
0 1535 0
0 1535 0
0 1535 0
0 1707 0
0 1707 0
0 1707 0
0 1707 0
0 1707 0
0 1707 0
0 1707 0
0 1707 0
0 1707 0
0 1707 0
0 1707 0
0 1707 0
0 1707 0
0 1707 0
0 1707 0
0 1707 0
0 1707 0
0 1707 0
0 1707 0
0 1707 0
0 1707 0
0 1707 0
0 1707 0
0 1707 0
0 1707 0
0 1877 0
0 1877 0
0 1877 0
0 1877 0
0 1877 0
0 1877 0
0 1877 0
0 1877 0
0 1877 0
0 1877 0
0 1877 0
0 1877 0
0 1877 0
0 1877 0
0 1877 0
0 1877 0
0 1877 0
0 1877 0
0 1877 0
0 1877 0
0 1877 0
0 1877 0
0 1877 0
0 1877 0
0 1877 0
0 2048 0
0 2048 0
0 2048 0
0 2048 0
0 2048 0
0 2048 0
0 2048 0
0 2048 0
0 2048 0
0 2048 0
0 2048 0
0 2048 0
0 2048 0
0 2048 0
0 2048 0
0 2048 0
0 2048 0
0 2048 0
0 2048 0
0 2048 0
0 2048 0
0 2048 0
0 2048 0
0 2048 0
0 2048 0
0 2218 0
0 2218 0
0 2218 0
0 2218 0
0 2218 0
0 2218 0
0 2218 0
0 2218 0
0 2218 0
0 2218 0
0 2218 0
0 2218 0
0 2218 0
0 2218 0
0 2218 0
0 2218 0
0 2218 0
0 2218 0
0 2218 0
0 2218 0
0 2218 0
0 2218 0
0 2218 0
0 2218 0
0 2218 0
0 2389 0
0 2389 0
0 2389 0
0 2389 0
0 2389 0
0 2389 0
0 2389 0
0 2389 0
0 2389 0
0 2389 0
0 2389 0
0 2389 0
0 2389 0
0 2389 0
0 2389 0
0 2389 0
0 2389 0
0 2389 0
0 2389 0
0 2389 0
0 2389 0
0 2389 0
0 2389 0
0 2389 0
0 2389 0
0 2559 0
0 2559 0
0 2559 0
0 2559 0
0 2559 0
0 2559 0
0 2559 0
0 2559 0
0 2559 0
0 2559 0
0 2559 0
0 2559 0
0 2559 0
0 2559 0
0 2559 0
0 2559 0
0 2559 0
0 2559 0
0 2559 0
0 2559 0
0 2559 0
0 2559 0
0 2559 0
0 2559 0
0 2559 0
0 2730 0
0 2730 0
0 2730 0
0 2730 0
0 2730 0
0 2730 0
0 2730 0
0 2730 0
0 2730 0
0 2730 0
0 2730 0
0 2730 0
0 2730 0
0 2730 0
0 2730 0
0 2730 0
0 2730 0
0 2730 0
0 2730 0
0 2730 0
0 2730 0
0 2730 0
0 2730 0
0 2730 0
0 2730 0
0 2900 0
0 2900 0
0 2900 0
0 2900 0
0 2900 0
0 2900 0
0 2900 0
0 2900 0
0 2900 0
0 2900 0
0 2900 0
0 2900 0
0 2900 0
0 2900 0
0 2900 0
0 2900 0
0 2900 0
0 2900 0
0 2900 0
0 2900 0
0 2900 0
0 2900 0
0 2900 0
0 2900 0
0 2900 0
0 3071 0
0 3071 0
0 3071 0
0 3071 0
0 3071 0
0 3071 0
0 3071 0
0 3071 0
0 3071 0
0 3071 0
0 3071 0
0 3071 0
0 3071 0
0 3071 0
0 3071 0
0 3071 0
0 3071 0
0 3071 0
0 3071 0
0 3071 0
0 3071 0
0 3071 0
0 3071 0
0 3071 0
0 3071 0
0 3242 0
0 3242 0
0 3242 0
0 3242 0
0 3242 0
0 3242 0
0 3242 0
0 3242 0
0 3242 0
0 3242 0
0 3242 0
0 3242 0
0 3242 0
0 3242 0
0 3242 0
0 3242 0
0 3242 0
0 3242 0
0 3242 0
0 3242 0
0 3242 0
0 3242 0
0 3242 0
0 3242 0
0 3242 0
0 3412 0
0 3412 0
0 3412 0
0 3412 0
0 3412 0
0 3412 0
0 3412 0
0 3412 0
0 3412 0
0 3412 0
0 3412 0
0 3412 0
0 3412 0
0 3412 0
0 3412 0
0 3412 0
0 3412 0
0 3412 0
0 3412 0
0 3412 0
0 3412 0
0 3412 0
0 3412 0
0 3412 0
0 3412 0
0 3583 0
0 3583 0
0 3583 0
0 3583 0
0 3583 0
0 3583 0
0 3583 0
0 3583 0
0 3583 0
0 3583 0
0 3583 0
0 3583 0
0 3583 0
0 3583 0
0 3583 0
0 3583 0
0 3583 0
0 3583 0
0 3583 0
0 3583 0
0 3583 0
0 3583 0
0 3583 0
0 3583 0
0 3583 0
0 3754 0
0 3754 0
0 3754 0
0 3754 0
0 3754 0
0 3754 0
0 3754 0
0 3754 0
0 3754 0
0 3754 0
0 3754 0
0 3754 0
0 3754 0
0 3754 0
0 3754 0
0 3754 0
0 3754 0
0 3754 0
0 3754 0
0 3754 0
0 3754 0
0 3754 0
0 3754 0
0 3754 0
0 3754 0
0 3924 0
0 3924 0
0 3924 0
0 3924 0
0 3924 0
0 3924 0
0 3924 0
0 3924 0
0 3924 0
0 3924 0
0 3924 0
0 3924 0
0 3924 0
0 3924 0
0 3924 0
0 3924 0
0 3924 0
0 3924 0
0 3924 0
0 3924 0
0 3924 0
0 3924 0
0 3924 0
0 3924 0
0 3924 0
3 4095 3
3 4095 3
3 4095 3
3 4095 3
3 4095 3
3 4095 3
3 4095 3
3 4095 3
3 4095 3
3 4095 3
3 4095 3
3 4095 3
3 4095 3
3 4095 3
3 4095 3
3 4095 3
3 4095 3
3 4095 3
3 4095 3
3 4095 3
3 4095 3
3 4095 3
3 4095 3
3 4095 3
3 4095 3
0 0 0
0 0 0
0 0 0
0 0 0
0 0 0
0 0 0
0 0 0
0 0 0
0 0 0
0 0 0
0 0 0
0 0 0
0 0 0
0 0 0
0 0 0
0 0 0
0 0 0
0 0 0
0 0 0
0 0 0
0 0 0
0 0 0
0 0 0
0 0 0
0 0 0
0 171 0
0 171 0
0 171 0
0 171 0
0 171 0
0 171 0
0 171 0
0 171 0
0 171 0
0 171 0
0 171 0
0 171 0
0 171 0
0 171 0
0 171 0
0 171 0
0 171 0
0 171 0
0 171 0
0 171 0
0 171 0
0 171 0
0 171 0
0 171 0
0 171 0
0 339 0
0 339 0
0 339 0
0 339 0
0 339 0
0 339 0
0 339 0
0 339 0
0 339 0
0 339 0
0 339 0
0 339 0
0 339 0
0 339 0
0 339 0
0 339 0
0 339 0
0 339 0
0 339 0
0 339 0
0 343 0
0 343 0
0 343 0
0 343 0
0 343 0
0 512 0
0 512 0
0 512 0
0 512 0
0 512 0
0 512 0
0 512 0
0 512 0
0 512 0
0 512 0
0 512 0
0 512 0
0 512 0
0 512 0
0 512 0
0 512 0
0 512 0
0 512 0
0 512 0
0 512 0
0 512 0
0 512 0
0 512 0
0 512 0
0 512 0
0 682 0
0 682 0
0 682 0
0 682 0
0 682 0
0 682 0
0 682 0
0 682 0
0 682 0
0 682 0
0 682 0
0 682 0
0 682 0
0 682 0
0 682 0
0 682 0
0 682 0
0 682 0
0 682 0
0 682 0
0 682 0
0 682 0
0 682 0
0 682 0
0 682 0
0 853 0
0 853 0
0 853 0
0 853 0
0 853 0
0 853 0
0 853 0
0 853 0
0 853 0
0 853 0
0 853 0
0 853 0
0 853 0
0 853 0
0 853 0
0 853 0
0 853 0
0 853 0
0 853 0
0 853 0
0 853 0
0 853 0
0 853 0
0 853 0
0 853 0
0 1023 0
0 1023 0
0 1023 0
0 1023 0
0 1023 0
0 1023 0
0 1023 0
0 1023 0
0 1023 0
0 1023 0
0 1023 0
0 1023 0
0 1023 0
0 1023 0
0 1023 0
0 1023 0
0 1023 0
0 1023 0
0 1023 0
0 1023 0
0 1023 0
0 1023 0
0 1023 0
0 1023 0
0 1023 0
0 1195 0
0 1195 0
0 1195 0
0 1195 0
0 1195 0
0 1195 0
0 1195 0
0 1195 0
0 1195 0
0 1195 0
0 1195 0
0 1195 0
0 1195 0
0 1195 0
0 1195 0
0 1195 0
0 1195 0
0 1195 0
0 1195 0
0 1195 0
0 1195 0
0 1195 0
0 1195 0
0 1195 0
0 1195 0
0 1365 0
0 1365 0
0 1365 0
0 1365 0
0 1365 0
0 1365 0
0 1365 0
0 1365 0
0 1365 0
0 1365 0
0 1365 0
0 1365 0
0 1365 0
0 1365 0
0 1365 0
0 1365 0
0 1365 0
0 1365 0
0 1365 0
0 1365 0
0 1365 0
0 1365 0
0 1365 0
0 1365 0
0 1365 0
0 1535 0
0 1535 0
0 1535 0
0 1535 0
0 1535 0
0 1535 0
0 1535 0
0 1535 0
0 1535 0
0 1535 0
0 1535 0
0 1535 0
0 1535 0
0 1535 0
0 1535 0
0 1535 0
0 1535 0
0 1535 0
0 1535 0
0 1535 0
0 1535 0
0 1535 0
0 1535 0
0 1535 0
0 1535 0
0 1707 0
0 1707 0
0 1707 0
0 1707 0
0 1707 0
0 1707 0
0 1707 0
0 1707 0
0 1707 0
0 1707 0
0 1707 0
0 1707 0
0 1707 0
0 1707 0
0 1707 0
0 1707 0
0 1707 0
0 1707 0
0 1707 0
0 1707 0
0 1707 0
0 1707 0
0 1707 0
0 1707 0
0 1707 0
