Examples/Channels - Fix Skin Tone.3dl
#25pt 3DLUT created by 3D LUT Creator Pro (c) Oleg Sharonov
#Copyright Oleg Sharonov
#IMAGEPROFILE sRGB IEC61966-2.1 v.2.10
#INPUTGAMMA sRGB IEC61966-2.1 v.2.10
#OUTPUTGAMMA sRGB IEC61966-2.1 v.2.10
0 43 86 128 171 214 256 299 341 384 427 469 512 555 597 640 682 725 768 810 853 896 938 981 1023 
0 0 0
0 0 177
0 0 341
0 0 512
0 0 683
0 0 851
0 0 1023
0 0 1195
0 0 1363
0 0 1535
3 0 1705
0 0 1877
0 0 2047
0 0 2218
0 0 2388
0 0 2559
0 0 2731
0 0 2900
0 0 3071
0 0 3242
0 0 3413
0 0 3583
0 0 3754
0 0 3924
0 0 4095
201 110 0
74 152 142
0 171 341
0 171 513
0 171 684
0 171 852
0 171 1023
0 171 1196
0 171 1364
0 171 1535
0 171 1706
0 171 1877
0 171 2047
0 171 2218
0 171 2389
0 171 2559
0 171 2730
0 171 2901
0 171 3071
0 171 3242
0 171 3413
0 171 3583
0 171 3754
0 171 3925
0 171 4095
379 250 0
358 269 13
180 312 302
0 341 510
0 341 681
0 341 854
0 341 1025
0 341 1194
0 341 1365
0 341 1536
0 341 1707
0 341 1876
0 341 2048
0 341 2219
0 341 2389
0 341 2560
0 341 2730
0 341 2900
3 341 3071
0 341 3242
0 341 3412
0 341 3583
0 341 3754
0 341 3924
0 341 4095
557 394 0
550 404 10
479 430 243
328 470 455
0 512 682
0 512 853
0 512 1023
0 512 1195
0 512 1366
0 512 1535
0 512 1708
0 512 1877
0 512 2047
0 512 2218
0 512 2388
0 512 2559
0 512 2731
0 512 2900
0 512 3071
0 512 3242
0 512 3412
0 512 3583
0 512 3754
0 512 3924
0 512 4095
744 535 0
725 546 78
686 563 248
616 590 411
455 631 613
0 683 853
0 683 1024
0 683 1194
0 683 1365
0 683 1535
0 683 1707
0 682 1877
0 683 2047
3 683 2218
0 682 2389
3 683 2559
0 683 2730
3 682 2900
3 682 3071
0 683 3242
0 683 3412
0 683 3583
0 683 3753
0 683 3924
0 683 4095
923 677 39
904 687 145
880 699 267
836 719 399
754 749 565
583 792 770
0 853 1023
0 853 1195
0 853 1365
0 853 1535
0 853 1706
0 853 1877
0 853 2047
0 853 2218
0 853 2388
0 853 2559
0 853 2730
0 853 2900
0 853 3071
0 853 3242
0 853 3412
0 853 3583
0 853 3754
0 853 3924
0 853 4095
1099 820 119
1087 828 201
1069 838 287
1038 854 404
984 877 546
891 908 720
712 953 928
171 1015 1182
0 1024 1365
0 1024 1536
0 1024 1707
0 1024 1877
0 1024 2047
0 1024 2218
0 1023 2389
0 1024 2559
0 1024 2730
0 1023 2900
0 1023 3071
0 1024 3242
0 1024 3412
0 1023 3583
0 1023 3754
0 1024 3924
0 1024 4095
1279 964 174
1270 970 240
1255 978 314
1232 991 417
1192 1010 545
1129 1035 696
1025 1068 875
839 1114 1086
381 1175 1336
0 1195 1535
0 1195 1706
0 1195 1877
0 1195 2047
0 1195 2218
0 1195 2389
0 1195 2559
0 1195 2730
0 1195 2900
0 1195 3071
0 1195 3242
0 1195 3412
0 1195 3583
0 1195 3754
0 1195 3924
0 1195 4095
1460 1106 225
1451 1111 280
1439 1119 345
1420 1129 437
1390 1145 552
1343 1166 688
1272 1193 847
1159 1229 1030
967 1274 1243
551 1335 1491
0 1365 1707
0 1365 1877
0 1365 2048
0 1365 2218
0 1365 2389
0 1365 2560
0 1365 2730
0 1365 2900
0 1365 3071
0 1365 3242
0 1365 3412
0 1365 3583
0 1365 3754
0 1365 3924
0 1365 4095
1641 1250 273
1634 1254 320
1624 1260 381
1607 1269 464
1582 1283 568
1546 1300 692
1492 1323 835
1412 1352 999
1292 1389 1186
1095 1435 1400
706 1495 1647
0 1536 1877
0 1536 2048
0 1536 2218
0 1536 2389
0 1536 2560
0 1536 2730
0 1536 2901
0 1536 3071
0 1536 3242
0 1536 3412
0 1536 3583
0 1536 3754
0 1536 3924
0 1536 4095
1822 1393 320
1815 1396 363
1807 1402 417
1793 1410 493
1772 1421 588
1741 1437 702
1699 1456 834
1638 1481 983
1552 1512 1152
1424 1550 1342
1223 1596 1558
852 1655 1802
0 1707 2047
0 1707 2218
0 1707 2389
0 1707 2559
0 1706 2730
0 1707 2900
0 1707 3071
0 1706 3242
0 1706 3412
0 1707 3583
0 1706 3754
0 1706 3924
0 1706 4095
2002 1535 369
1997 1539 408
1989 1543 455
1977 1551 525
1959 1561 613
1933 1574 717
1898 1592 839
1850 1613 978
1783 1639 1133
1690 1671 1306
1556 1710 1499
1351 1757 1715
994 1815 1959
0 1877 2218
0 1877 2389
0 1877 2559
0 1877 2730
0 1877 2900
0 1877 3071
0 1877 3242
0 1877 3412
0 1877 3583
0 1877 3754
0 1877 3924
0 1877 4095
2183 1678 417
2178 1681 451
2171 1685 496
2161 1692 559
2145 1701 641
2123 1713 738
2093 1728 851
2053 1747 980
1999 1770 1123
1926 1798 1283
1827 1831 1461
1687 1870 1656
1479 1918 1873
1132 1975 2115
61 2046 2387
0 2048 2559
0 2048 2730
0 2048 2900
0 2048 3071
0 2048 3242
0 2048 3412
0 2048 3583
0 2048 3754
0 2048 3924
0 2048 4095
2364 1821 465
2360 1824 497
2353 1828 537
2344 1834 595
2330 1842 671
2311 1852 762
2285 1866 868
2250 1883 988
2206 1903 1122
2147 1928 1271
2068 1956 1435
1963 1991 1615
1818 2031 1813
1607 2079 2030
1269 2136 2272
482 2205 2540
0 2218 2730
0 2218 2901
0 2218 3071
0 2218 3242
0 2218 3413
0 2218 3583
0 2218 3754
0 2218 3924
0 2218 4095
2545 1964 513
2541 1966 542
2535 1970 579
2526 1975 633
2514 1983 703
2496 1992 788
2474 2005 888
2445 2020 1001
2406 2038 1127
2357 2060 1267
2293 2085 1420
2209 2116 1587
2099 2151 1769
1948 2192 1969
1735 2240 2188
1404 2296 2428
727 2364 2693
0 2389 2900
0 2389 3071
0 2389 3242
0 2389 3413
0 2389 3583
0 2389 3754
0 2389 3925
0 2389 4095
2726 2107 562
2722 2109 587
2717 2112 622
2709 2117 672
2698 2124 738
2682 2133 818
2662 2144 912
2636 2158 1018
2603 2174 1137
2560 2194 1269
2506 2217 1412
2437 2244 1569
2349 2275 1740
2233 2311 1925
2079 2352 2126
1863 2400 2346
1538 2457 2585
928 2524 2848
0 2559 3071
0 2559 3242
0 2559 3412
0 2559 3583
0 2559 3754
0 2559 3924
0 2559 4095
2906 2250 610
2903 2252 634
2898 2255 666
2891 2259 713
2881 2265 774
2867 2274 849
2849 2284 937
2826 2296 1039
2796 2311 1151
2759 2329 1276
2713 2350 1411
2654 2374 1559
2581 2402 1720
2488 2434 1893
2368 2471 2080
2209 2513 2283
1991 2562 2503
1671 2618 2742
1109 2683 3002
0 2730 3242
0 2730 3412
0 2730 3583
0 2730 3754
0 2730 3924
3 2730 4095
2948 2446 722
2951 2446 742
2955 2445 765
2961 2445 802
2969 2443 851
2979 2442 911
2992 2440 982
3008 2438 1063
2987 2449 1168
2954 2466 1286
2914 2485 1416
2863 2507 1556
2801 2532 1707
2723 2561 1871
2626 2594 2047
2501 2631 2236
2339 2674 2440
2119 2722 2660
1803 2778 2899
1275 2843 3157
0 2900 3412
0 2900 3583
0 2900 3754
0 2900 3924
0 2900 4095
2965 2647 838
2968 2646 855
2972 2646 876
2977 2645 911
2985 2645 955
2994 2643 1010
3007 2642 1077
3021 2640 1152
3038 2638 1238
3058 2635 1332
3080 2631 1435
3067 2641 1557
3013 2664 1701
2947 2690 1856
2865 2720 2023
2763 2753 2201
2634 2791 2393
2468 2834 2597
2247 2883 2818
1935 2939 3056
1434 3003 3313
0 3071 3583
0 3071 3754
0 3071 3924
0 3071 4095
2978 2844 950
2980 2844 964
2984 2844 984
2989 2843 1015
2996 2843 1056
3005 2842 1107
3017 2841 1170
3030 2839 1242
3046 2837 1323
3065 2835 1412
3086 2832 1509
3109 2829 1615
3135 2825 1728
3162 2821 1848
3092 2848 2006
3006 2879 2175
2900 2913 2355
2767 2952 2548
2598 2995 2755
2375 3044 2976
2066 3100 3213
1588 3163 3468
401 3236 3745
0 3242 3924
0 3242 4095
2991 3038 1061
2992 3038 1073
2993 3038 1090
2996 3039 1116
3003 3038 1155
3011 3037 1203
3022 3036 1261
3035 3035 1330
3050 3034 1406
3067 3032 1491
3087 3030 1583
3109 3027 1685
3133 3024 1793
3160 3020 1909
3189 3016 2032
3221 3011 2160
3145 3038 2327
3036 3073 2510
2899 3112 2704
2727 3156 2912
2502 3205 3133
2197 3260 3370
1737 3323 3624
787 3395 3898
0 3412 4095
3148 3183 1322
3148 3183 1334
3149 3184 1348
3150 3184 1370
3152 3185 1399
3154 3186 1437
3157 3187 1484
3160 3189 1536
3164 3191 1599
3168 3193 1666
3173 3196 1742
3177 3198 1825
3183 3202 1913
3189 3205 2004
3195 3209 2104
3211 3210 2214
3243 3205 2345
3278 3199 2482
3171 3233 2665
3032 3273 2861
2857 3317 3069
2631 3366 3291
2327 3421 3527
1883 3483 3780
1056 3555 4037
3302 3328 1572
3303 3329 1582
3303 3329 1595
3304 3330 1615
3306 3330 1641
3307 3331 1677
3310 3332 1720
3312 3334 1772
3315 3335 1828
3319 3337 1894
3322 3339 1965
3326 3342 2042
3331 3344 2126
3336 3348 2216
3341 3351 2310
3346 3355 2409
3352 3359 2514
3358 3363 2621
3364 3367 2731
3342 3380 2854
3165 3433 3019
2985 3478 3226
2759 3527 3448
2457 3582 3684
2033 3649 3878
3454 3473 1820
3455 3474 1826
3455 3474 1838
3456 3474 1857
3457 3475 1884
3459 3476 1917
3461 3477 1955
3463 3478 2004
3465 3479 2057
3468 3481 2119
3471 3483 2187
3474 3485 2263
3478 3487 2343
3482 3490 2428
3486 3493 2521
3490 3496 2616
3495 3499 2717
3500 3503 2821
3505 3507 2931
3510 3511 3042
3515 3516 3158
3425 3546 3302
3209 3606 3478
2943 3670 3662
2609 3748 3749
3606 3618 2062
3606 3618 2071
3606 3619 2083
3607 3619 2100
3608 3619 2123
3609 3620 2154
3610 3621 2192
3612 3622 2236
3614 3623 2289
3616 3625 2348
3618 3626 2413
3621 3628 2484
3624 3630 2561
3627 3633 2643
3631 3635 2732
3634 3638 2825
3638 3641 2923
3642 3644 3027
3646 3647 3132
3650 3651 3243
3655 3655 3356
3659 3659 3471
3664 3664 3591
3471 3723 3724
3215 3799 3800
168 0 0
171 0 171
168 0 337
168 0 509
171 0 680
171 0 856
171 0 1022
171 0 1194
171 0 1366
174 0 1534
168 0 1707
171 0 1876
174 0 2047
168 0 2219
174 0 2388
168 0 2560
171 0 2730
171 0 2900
171 0 3071
171 0 3242
171 0 3412
171 0 3583
171 0 3754
171 0 3924
171 0 4095
276 132 0
171 171 171
171 171 341
171 171 512
171 171 682
171 171 851
171 171 1023
171 171 1195
168 171 1366
171 171 1535
171 171 1705
171 171 1877
171 171 2047
171 171 2218
171 171 2388
171 171 2559
168 171 2730
171 171 2900
171 171 3071
171 171 3242
171 171 3412
171 171 3583
171 171 3754
171 171 3924
171 171 4095
422 269 0
404 284 42
257 326 318
171 341 513
171 341 684
171 341 853
171 341 1025
171 341 1194
171 341 1365
171 341 1536
171 341 1707
171 341 1878
171 341 2048
171 341 2218
171 341 2389
171 341 2560
171 341 2730
171 341 2901
171 341 3072
171 341 3242
168 341 3413
171 341 3583
168 341 3754
171 341 3924
171 341 4095
587 408 0
579 417 26
513 442 260
372 481 468
171 512 682
171 512 854
168 512 1023
171 512 1195
171 512 1365
171 512 1536
171 512 1707
171 512 1876
171 512 2048
171 512 2219
171 512 2389
171 512 2560
171 512 2730
174 512 2900
171 512 3072
171 512 3242
171 512 3412
171 512 3583
174 512 3754
171 512 3924
171 512 4095
769 543 0
750 554 90
712 571 255
643 597 420
489 639 623
171 683 853
171 683 1023
171 682 1195
171 683 1365
171 683 1536
171 683 1706
171 683 1877
171 683 2048
171 683 2218
168 683 2389
168 683 2559
171 683 2730
168 683 2901
168 683 3071
171 683 3242
174 682 3412
174 683 3583
174 682 3754
171 683 3924
171 682 4095
942 685 45
924 694 155
899 706 273
856 725 406
776 755 572
609 798 778
171 853 1024
171 853 1194
171 853 1365
171 853 1535
171 853 1707
171 853 1876
171 853 2048
171 853 2218
171 853 2388
174 853 2559
171 853 2730
171 853 2900
171 853 3071
171 853 3242
171 853 3412
171 853 3583
171 853 3754
171 853 3924
171 853 4095
1115 827 123
1103 834 206
1085 844 291
1054 859 408
1001 882 552
909 914 725
733 958 935
230 1020 1189
171 1024 1365
171 1024 1536
171 1024 1706
171 1024 1877
171 1024 2048
171 1024 2218
171 1024 2389
171 1024 2560
171 1024 2730
171 1024 2900
171 1024 3071
171 1023 3242
171 1023 3412
174 1024 3583
174 1024 3754
171 1023 3924
171 1023 4095
1292 969 177
1283 975 243
1269 982 318
1245 995 420
1206 1014 548
1143 1039 700
1041 1073 880
857 1118 1091
417 1179 1342
171 1195 1536
171 1195 1706
171 1195 1877
171 1195 2048
171 1195 2218
171 1195 2389
171 1195 2559
171 1195 2730
171 1195 2900
171 1195 3071
171 1195 3242
171 1195 3412
171 1195 3583
171 1195 3754
171 1195 3924
171 1195 4095
1471 1111 228
1463 1116 282
1451 1123 349
1431 1134 442
1401 1149 556
1355 1170 693
1284 1197 851
1173 1233 1035
982 1278 1248
576 1338 1496
171 1365 1707
171 1365 1877
171 1365 2048
171 1365 2218
171 1365 2389
171 1365 2560
171 1365 2730
171 1365 2900
171 1365 3071
171 1365 3242
171 1365 3412
171 1365 3583
171 1365 3754
171 1365 3924
171 1365 4095
1650 1253 273
1643 1257 322
1633 1264 383
1617 1273 467
1592 1286 571
1556 1304 695
1502 1327 838
1423 1356 1003
1304 1392 1190
1109 1439 1405
725 1498 1651
171 1536 1877
171 1536 2048
171 1536 2218
171 1536 2389
171 1536 2559
171 1536 2730
171 1536 2900
171 1536 3071
171 1536 3242
171 1536 3413
171 1536 3583
171 1536 3754
171 1536 3925
171 1536 4095
1830 1396 322
1824 1399 365
1815 1405 419
1802 1413 494
1780 1424 591
1751 1440 704
1708 1459 836
1648 1484 986
1561 1515 1156
1434 1553 1346
1235 1599 1562
868 1658 1806
171 1707 2047
171 1706 2218
171 1707 2389
171 1706 2560
171 1706 2730
171 1707 2900
171 1707 3071
171 1706 3242
171 1707 3412
171 1707 3583
171 1707 3754
171 1707 3924
171 1707 4095
