Examples/Channels - Pale colds 2.3dl
#25pt 3DLUT created by 3D LUT Creator Pro (c) Oleg Sharonov
#Copyright Oleg Sharonov
#IMAGEPROFILE sRGB IEC61966-2.1 v.2.10
#INPUTGAMMA sRGB IEC61966-2.1 v.2.10
#OUTPUTGAMMA sRGB IEC61966-2.1 v.2.10
0 256 512 768 1023
0 0 0
0 10 1022
0 129 2047
0 625 3072
0 1897 4095
831 1024 65
663 1024 1024
0 1023 2047
0 1023 3071
0 1985 4095
1661 2048 345
1605 2048 1024
1326 2047 2047
0 2048 3071
0 2377 4095
2492 3071 921
2460 3071 1101
2320 3071 2048
1989 3071 3449
1184 3253 4095
3322 4095 1852
3301 4095 2033
3210 4095 2809
3012 4095 4095
2653 4095 4095
1023 0 0
1024 6 1024
1024 123 2048
1023 612 3071
1023 1878 4095
1125 1024 0
1024 1024 1024
1024 1024 2048
1023 1023 3071
1024 1965 4095
1794 2048 245
1744 2048 1024
1502 2048 2048
1023 2047 3071
1024 2356 4095
2570 3071 821
2539 3071 1024
2405 3071 2048
2095 3071 3348
1384 3228 4095
3375 4095 1752
3354 4095 1933
3265 4095 2708
3073 4095 4095
2724 4095 4095
2048 0 0
2048 0 1024
2048 94 2048
2048 557 3072
2048 1794 4095
2048 1024 0
2048 1024 1024
2048 1024 2048
2048 1024 3071
2048 1880 4095
2249 2048 0
2213 2048 1024
2048 2048 2048
2048 2048 3071
2048 2264 4095
2870 3071 396
2844 3071 1024
2731 3071 2048
2478 3071 3071
2048 3125 4095
3588 4095 1322
3569 4095 1502
3487 4095 2275
3313 4095 3855
3004 4095 4095
3071 0 0
3071 0 1023
3071 45 2047
3071 454 3071
3071 1628 4095
3071 1023 0
3071 1023 1023
3071 1023 2047
3071 1023 3071
3071 1711 4095
3071 2048 0
3071 2048 1023
3071 2048 2048
3071 2048 3071
3071 2083 4095
3373 3071 0
3353 3071 1024
3264 3071 2048
3071 3071 3071
3071 3071 4095
3973 4095 455
3957 4095 1024
3886 4095 2048
3738 4095 3071
3481 4095 4095
4095 0 0
4095 0 1023
4095 0 2048
4095 304 3071
4095 1377 4095
4095 1023 0
4095 1024 1024
4095 1024 2048
4095 1024 3071
4095 1455 4095
4095 2048 0
4095 2048 1024
4095 2048 2048
4095 2048 3071
4095 2048 4095
4095 3071 0
4095 3071 1024
4095 3071 2048
4095 3071 3071
4095 3071 4095
4095 4095 0
4095 4095 1024
4095 4095 2048
4095 4095 3071
4095 4095 4095
