Examples/Channels - More green.3dl
#25pt 3DLUT created by 3D LUT Creator Pro (c) Oleg Sharonov
#Copyright Oleg Sharonov
#IMAGEPROFILE sRGB IEC61966-2.1 v.2.10
#INPUTGAMMA sRGB IEC61966-2.1 v.2.10
#OUTPUTGAMMA sRGB IEC61966-2.1 v.2.10
0 43 86 128 171 214 256 299 341 384 427 469 512 555 597 640 682 725 768 810 853 896 938 981 1023 
0 0 0
103 103 189
203 203 384
291 291 590
362 362 804
416 416 1028
458 458 1255
489 489 1487
514 514 1719
537 537 1952
560 560 2184
587 587 2414
623 623 2643
672 672 2870
740 740 3094
813 813 3299
845 845 3444
879 879 3575
909 909 3693
948 948 3788
1088 1088 3791
1101 1101 3824
1032 1032 3885
897 897 3976
706 706 4095
0 113 0
0 165 165
203 203 384
291 291 590
362 362 804
416 416 1028
458 458 1255
489 489 1487
514 514 1719
537 537 1952
560 560 2184
587 587 2414
623 623 2643
672 672 2870
740 740 3094
813 817 3299
845 863 3444
879 911 3575
909 956 3693
948 1009 3788
1088 1164 3791
1101 1192 3824
1032 1137 3885
897 1016 3976
706 840 4095
0 222 0
0 262 132
0 328 328
273 326 580
362 362 804
416 416 1028
458 458 1255
489 489 1487
514 514 1719
537 537 1952
560 560 2184
587 587 2414
623 623 2643
672 672 2870
740 740 3094
813 820 3299
845 881 3444
879 944 3575
909 1003 3693
948 1071 3788
1088 1240 3791
1101 1282 3824
1032 1242 3885
897 1136 3976
706 974 4095
0 336 0
0 362 126
0 422 284
0 493 493
302 486 764
416 419 1027
458 458 1255
489 489 1487
514 514 1719
537 537 1952
560 560 2184
587 587 2414
623 623 2643
672 672 2870
740 740 3094
813 823 3299
845 899 3444
879 976 3575
909 1050 3693
948 1132 3788
1088 1316 3791
1101 1373 3824
1032 1347 3885
897 1255 3976
706 1108 4095
0 448 0
0 467 123
0 520 264
0 585 440
0 656 656
306 657 940
436 553 1232
489 489 1487
514 514 1719
537 537 1952
560 560 2184
587 587 2414
623 623 2643
672 672 2870
740 740 3094
813 827 3299
845 917 3444
879 1008 3575
909 1097 3693
948 1194 3788
1088 1392 3791
1101 1463 3824
1032 1452 3885
897 1375 3976
706 1242 4095
0 559 0
0 575 126
0 619 255
0 682 414
0 744 597
0 819 819
297 831 1110
433 735 1418
513 525 1717
537 537 1952
560 560 2184
587 587 2414
623 623 2643
672 672 2870
740 740 3094
813 830 3299
845 935 3444
879 1041 3575
909 1144 3693
948 1255 3788
1088 1467 3791
1101 1554 3824
1032 1557 3885
897 1494 3976
706 1375 4095
0 670 0
0 684 129
0 721 250
0 778 396
0 842 566
0 900 753
0 981 981
284 1003 1277
423 924 1595
514 717 1915
560 560 2184
587 587 2414
623 623 2643
672 672 2870
740 740 3094
813 834 3299
845 953 3444
879 1073 3575
909 1191 3693
948 1317 3788
1088 1543 3791
1101 1644 3824
1032 1662 3885
897 1614 3976
706 1509 4095
0 781 0
0 793 132
0 825 248
0 877 386
0 937 542
0 1000 719
0 1056 907
0 1141 1141
269 1173 1439
412 1111 1763
510 940 2094
586 606 2411
623 623 2643
672 672 2870
740 740 3094
813 837 3299
845 971 3444
879 1106 3575
909 1238 3693
948 1378 3788
1088 1619 3791
1101 1734 3824
1032 1767 3885
897 1733 3976
706 1643 4095
0 891 0
0 901 139
0 928 250
0 975 377
0 1033 526
0 1095 692
0 1155 871
0 1209 1060
0 1299 1299
255 1340 1599
406 1294 1928
512 1155 2264
604 874 2598
672 672 2870
740 740 3094
813 841 3299
845 989 3444
879 1138 3575
909 1284 3693
948 1439 3788
1088 1695 3791
1101 1825 3824
1032 1871 3885
897 1853 3976
706 1777 4095
0 999 0
0 1008 145
0 1033 250
0 1074 374
0 1128 513
0 1189 669
0 1250 840
0 1307 1022
0 1358 1210
0 1455 1455
245 1504 1755
406 1472 2088
525 1361 2428
633 1139 2768
739 762 3091
813 844 3299
845 1006 3444
879 1171 3575
909 1331 3693
948 1501 3788
1088 1771 3791
1101 1915 3824
1032 1976 3885
897 1972 3976
706 1911 4095
0 1106 0
0 1115 149
0 1137 252
0 1173 370
0 1223 504
0 1281 652
0 1341 814
0 1401 987
0 1455 1169
0 1503 1355
0 1608 1608
240 1665 1909
417 1647 2245
550 1559 2587
679 1383 2930
798 1098 3250
845 1024 3444
879 1203 3575
909 1378 3693
948 1562 3788
1088 1847 3791
1101 2006 3824
1032 2081 3885
897 2091 3976
706 2045 4095
0 1212 0
0 1221 155
0 1240 255
0 1273 369
0 1318 496
0 1372 637
0 1431 792
0 1491 957
0 1547 1132
0 1598 1312
0 1647 1500
0 1756 1756
238 1821 2058
436 1816 2397
591 1749 2741
729 1617 3076
812 1438 3349
878 1245 3573
909 1425 3693
948 1624 3788
1088 1923 3791
1101 2096 3824
1032 2186 3885
897 2211 3976
706 2179 4095
0 1316 0
0 1325 161
0 1341 257
0 1371 367
0 1412 490
0 1463 625
0 1519 772
0 1578 931
0 1634 1098
0 1688 1272
0 1735 1450
0 1789 1642
0 1900 1900
225 1973 2203
461 1980 2546
630 1935 2885
739 1850 3182
827 1733 3442
896 1611 3658
948 1685 3788
1088 1999 3791
1101 2187 3824
1032 2291 3885
897 2330 3976
706 2313 4095
0 1417 0
0 1426 165
0 1441 260
0 1468 367
0 1506 485
0 1553 615
0 1606 756
0 1662 907
0 1719 1067
0 1772 1235
0 1822 1408
0 1865 1582
0 1925 1779
0 2038 2038
186 2121 2344
479 2141 2688
632 2121 3005
748 2067 3288
838 1996 3532
901 1932 3733
1087 2075 3791
1101 2277 3824
1032 2396 3885
897 2450 3976
706 2447 4095
0 1516 0
0 1524 168
0 1538 262
0 1562 367
0 1597 481
0 1640 605
0 1690 741
0 1744 885
0 1799 1039
0 1853 1200
0 1903 1367
0 1948 1536
0 1986 1706
0 2053 1908
0 2170 2170
0 2264 2479
458 2303 2819
628 2301 3125
749 2272 3394
836 2235 3622
922 2229 3791
1077 2378 3824
1032 2501 3885
897 2569 3976
706 2581 4095
0 1631 0
0 1639 171
0 1651 266
0 1672 368
0 1703 481
0 1742 601
0 1788 732
0 1838 872
0 1890 1020
0 1941 1175
0 1990 1335
0 2035 1499
0 2074 1664
0 2106 1829
0 2180 2037
0 2299 2299
0 2411 2616
421 2463 2952
613 2475 3246
738 2467 3501
816 2455 3713
957 2510 3824
996 2616 3885
897 2689 3976
706 2715 4095
0 1812 0
0 1818 174
0 1829 272
0 1847 379
0 1872 494
0 1905 616
0 1944 746
0 1987 884
0 2032 1029
0 2077 1179
0 2120 1334
0 2161 1493
0 2196 1653
0 2227 1814
0 2251 1973
0 2328 2184
0 2441 2441
0 2558 2753
358 2622 3087
583 2647 3371
709 2654 3611
775 2661 3809
910 2738 3885
860 2811 3976
700 2848 4095
0 2003 0
0 2008 173
0 2017 279
0 2031 390
0 2053 508
0 2079 632
0 2112 763
0 2148 899
0 2186 1041
0 2225 1189
0 2263 1341
0 2299 1495
0 2331 1652
0 2358 1808
0 2380 1964
0 2396 2117
0 2478 2333
0 2585 2585
0 2706 2893
244 2782 3226
534 2816 3499
659 2836 3727
762 2867 3885
798 2933 3976
673 2978 4095
0 2204 0
0 2208 175
0 2216 285
0 2227 402
0 2244 523
0 2267 649
0 2293 781
0 2323 917
0 2355 1059
0 2388 1204
0 2420 1353
0 2451 1505
0 2478 1659
0 2502 1812
0 2522 1966
0 2536 2116
0 2544 2264
0 2630 2485
0 2731 2731
0 2856 3036
0 2943 3368
464 2986 3634
586 3014 3849
696 3059 3976
631 3107 4095
0 2416 0
0 2420 175
0 2426 290
0 2435 412
0 2449 538
0 2467 667
0 2488 801
0 2512 938
0 2538 1080
0 2565 1225
0 2592 1372
0 2617 1523
0 2641 1674
0 2661 1826
0 2677 1977
0 2688 2126
0 2696 2273
0 2697 2415
0 2788 2642
0 2883 2883
0 3012 3186
0 3107 3512
371 3158 3776
503 3192 3976
564 3237 4095
0 2641 0
0 2644 174
0 2648 297
0 2656 423
0 2666 554
0 2680 687
0 2697 823
0 2716 963
0 2737 1105
0 2759 1250
0 2780 1398
0 2800 1547
0 2819 1697
0 2835 1848
0 2848 1998
0 2857 2147
0 2863 2293
0 2863 2436
0 2859 2575
0 2955 2808
0 3044 3044
0 3175 3345
0 3277 3665
254 3334 3927
443 3372 4095
0 2879 0
0 2881 172
0 2885 303
0 2890 435
0 2898 570
0 2909 708
0 2922 847
0 2936 990
0 2952 1134
0 2969 1280
0 2985 1429
0 3001 1578
0 3016 1729
0 3028 1879
0 3038 2029
0 3045 2178
0 3048 2325
0 3048 2469
0 3043 2610
0 3042 2754
0 3134 2986
0 3217 3217
0 3350 3517
0 3455 3828
82 3517 4088
0 3132 0
0 3134 172
0 3136 308
0 3141 447
0 3146 587
0 3154 730
0 3163 873
0 3174 1019
0 3186 1166
0 3198 1315
0 3210 1465
0 3222 1616
0 3232 1768
0 3241 1919
0 3248 2071
0 3253 2221
0 3255 2370
0 3253 2516
0 3249 2660
0 3241 2801
0 3247 2953
0 3331 3180
0 3405 3405
0 3539 3704
0 3644 4005
0 3402 0
0 3403 171
0 3405 315
0 3408 459
0 3412 605
0 3417 753
0 3424 901
0 3431 1052
0 3439 1203
0 3447 1355
0 3456 1507
0 3464 1661
0 3471 1815
0 3477 1969
0 3481 2122
0 3484 2275
0 3485 2426
0 3483 2576
0 3479 2724
0 3472 2869
0 3463 3012
0 3475 3174
0 3548 3394
0 3612 3612
0 3745 3910
0 3692 0
0 3692 170
0 3693 321
0 3695 473
0 3698 625
0 3701 778
0 3705 932
0 3710 1087
0 3714 1243
0 3720 1399
0 3725 1556
0 3730 1713
0 3734 1870
0 3737 2027
0 3740 2184
0 3741 2340
0 3741 2496
0 3739 2650
0 3735 2803
0 3730 2954
0 3723 3103
0 3714 3250
0 3731 3421
0 3790 3632
0 3841 3841
174 48 48
189 103 177
255 206 386
328 291 590
393 360 802
449 416 1028
490 457 1254
525 489 1486
553 514 1718
578 536 1950
604 559 2181
633 586 2412
671 623 2641
721 673 2869
786 741 3091
858 815 3297
897 847 3442
938 881 3574
976 911 3692
1022 948 3788
1171 1088 3791
1196 1103 3824
1140 1033 3885
1018 898 3976
841 707 4095
26 110 0
171 171 171
257 209 391
328 291 590
393 360 802
449 416 1028
490 457 1254
525 489 1486
553 514 1718
578 536 1950
604 559 2181
633 586 2412
671 623 2641
721 673 2869
786 741 3091
858 818 3297
897 865 3442
938 914 3574
976 958 3692
1022 1009 3788
1171 1164 3791
1196 1193 3824
1140 1138 3885
1018 1018 3976
841 840 4095
0 222 0
0 262 132
155 336 336
318 322 588
393 360 802
449 416 1028
490 457 1254
525 489 1486
553 514 1718
578 536 1950
604 559 2181
633 586 2412
671 623 2641
721 673 2869
786 741 3091
858 822 3297
897 883 3442
938 946 3574
976 1005 3692
1022 1071 3788
1171 1240 3791
1196 1283 3824
1140 1243 3885
1018 1137 3976
841 974 4095
0 336 0
0 362 126
0 422 284
123 500 500
341 484 773
446 419 1036
490 457 1254
525 489 1486
553 514 1718
578 536 1950
604 559 2181
633 586 2412
671 623 2641
721 673 2869
786 741 3091
858 825 3297
897 901 3442
938 978 3574
976 1052 3692
1022 1132 3788
1171 1316 3791
1196 1374 3824
1140 1348 3885
1018 1256 3976
841 1108 4095
0 448 0
0 467 123
0 520 264
0 585 440
61 665 665
345 657 951
467 545 1248
525 489 1486
553 514 1718
578 536 1950
604 559 2181
633 586 2412
671 623 2641
721 673 2869
786 741 3091
858 828 3297
897 919 3442
938 1011 3574
976 1099 3692
1022 1194 3788
1171 1392 3791
1196 1464 3824
1140 1453 3885
1018 1376 3976
841 1242 4095
0 559 0
0 575 126
0 619 255
0 682 414
0 744 597
0 827 827
337 832 1123
464 729 1436
546 518 1725
578 536 1950
604 559 2181
633 586 2412
671 623 2641
721 673 2869
786 741 3091
858 832 3297
897 937 3442
938 1043 3574
976 1146 3692
1022 1255 3788
1171 1468 3791
1196 1555 3824
1140 1558 3885
1018 1495 3976
841 1376 4095
0 670 0
0 684 129
0 721 250
0 778 396
0 842 566
0 900 753
0 988 988
324 1006 1289
452 921 1614
542 699 1937
604 559 2181
633 586 2412
671 623 2641
721 673 2869
786 741 3091
858 835 3297
897 955 3442
938 1076 3574
976 1193 3692
1022 1317 3788
1171 1544 3791
1196 1645 3824
1140 1663 3885
1018 1615 3976
841 1510 4095
0 781 0
0 793 132
0 825 248
0 877 386
0 937 542
0 1000 719
0 1056 907
0 1148 1148
306 1176 1452
442 1109 1781
542 928 2113
625 597 2418
671 623 2641
721 673 2869
786 741 3091
858 839 3297
897 972 3442
938 1108 3574
976 1240 3692
1022 1378 3788
1171 1620 3791
1196 1736 3824
1140 1768 3885
1018 1734 3976
841 1644 4095
0 891 0
0 901 139
0 928 250
0 975 377
0 1033 526
0 1095 692
0 1155 871
0 1209 1060
0 1305 1305
293 1345 1611
439 1294 1943
546 1149 2280
637 856 2614
721 673 2869
786 741 3091
858 842 3297
897 990 3442
938 1141 3574
976 1287 3692
1022 1439 3788
1171 1696 3791
1196 1826 3824
1140 1873 3885
1018 1854 3976
841 1778 4095
0 999 0
0 1008 145
0 1033 250
0 1074 374
0 1128 513
0 1189 669
0 1250 840
0 1307 1022
0 1358 1210
0 1459 1459
289 1508 1766
442 1474 2101
559 1357 2442
667 1128 2782
779 755 3095
858 846 3297
897 1008 3442
938 1173 3574
976 1334 3692
1022 1501 3788
1171 1772 3791
1196 1917 3824
1140 1978 3885
1018 1973 3976
841 1912 4095
0 1106 0
0 1115 149
0 1137 252
0 1173 370
0 1223 504
0 1281 652
0 1341 814
0 1401 987
0 1455 1169
0 1503 1355
0 1611 1611
289 1669 1918
452 1648 2255
584 1557 2599
713 1377 2943
833 1087 3262
897 1026 3442
938 1205 3574
976 1380 3692
1022 1562 3788
1171 1848 3791
1196 2007 3824
1140 2083 3885
1018 2093 3976
841 2046 4095
