Examples/Channels - No green 2.3dl
#25pt 3DLUT created by 3D LUT Creator Pro (c) Oleg Sharonov
#Copyright Oleg Sharonov
#IMAGEPROFILE 
#INPUTGAMMA 
#OUTPUTGAMMA 
0 256 512 768 1023
0 0 0
0 0 683
0 0 1434
0 0 2183
0 0 2929
0 145 0
0 788 1023
0 1023 1671
0 1024 2331
0 1023 3033
0 448 0
0 900 1023
0 1619 2048
0 2048 2742
0 2048 3339
0 751 0
0 1077 1024
0 1714 2048
0 2449 3071
0 3071 3834
0 1053 0
0 1298 1024
0 1849 2047
0 2538 3071
0 3280 4095
746 0 0
472 0 479
0 0 1356
0 0 2134
0 0 2898
1024 669 0
1024 1024 1024
107 1023 1607
0 1024 2289
0 1023 3003
1024 799 0
1024 1110 1024
1024 1733 2048
815 2048 2708
0 2048 3313
1023 996 0
1024 1253 1024
1023 1820 2047
1024 2519 3071
1024 3071 3813
1023 1234 0
1023 1443 1023
1024 1947 2048
1023 2604 3071
1024 3328 4095
1539 0 0
1439 0 0
1039 0 1052
0 0 1978
0 0 2795
1761 1024 0
1678 1024 530
1366 1024 1373
0 1023 2146
0 1023 2905
2047 1402 0
2048 1585 1023
2048 2048 2048
1571 2048 2594
0 2047 3227
2048 1514 0
2048 1683 1024
2048 2120 2048
2048 2726 3071
2036 3071 3741
2048 1669 0
2047 1821 1023
2048 2225 2048
2048 2804 3071
2047 3476 4095
2334 0 0
2276 0 0
2076 0 0
1610 0 1630
0 0 2584
2472 1023 0
2419 1023 0
2235 1024 696
1822 1024 1837
681 1023 2705
2861 2048 0
2817 2048 1024
2668 2048 1716
2353 2048 2360
1717 2048 3055
3071 2135 0
3071 2249 1023
3071 2572 2048
3071 3071 3071
2660 3071 3601
3071 2239 0
3071 2347 1024
3071 2656 2048
3071 3138 3071
3071 3735 4095
3129 0 0
3089 0 0
2958 0 0
2687 0 735
2180 0 2206
3225 1024 0
3187 1024 0
3062 1024 0
2804 1024 1159
2330 1024 2353
3512 2048 0
3478 2048 0
3367 2048 930
3142 2048 1924
2745 2048 2760
3983 2793 0
3955 2875 1024
3861 3071 2048
3676 3071 2779
3361 3071 3368
4095 2868 0
4095 2947 1023
4095 3184 2048
4095 3578 3071
4095 4095 4095
