Examples/Channels - Pale colds.3dl
#25pt 3DLUT created by 3D LUT Creator Pro (c) Oleg Sharonov
#Copyright Oleg Sharonov
#IMAGEPROFILE sRGB IEC61966-2.1 v.2.10
#INPUTGAMMA sRGB IEC61966-2.1 v.2.10
#OUTPUTGAMMA sRGB IEC61966-2.1 v.2.10
0 128 256 384 512 640 768 896 1023
0 0 0
322 445 512
644 889 1024
966 1334 1536
1288 1779 2048
1610 2223 2560
1932 2668 3071
2254 3112 3583
2576 3557 4095
324 512 419
431 528 537
694 925 1024
995 1354 1536
1307 1792 2047
1624 2233 2559
1943 2676 3071
2263 3119 3583
2584 3562 4095
649 1023 839
696 1024 891
862 1058 1075
1106 1437 1536
1386 1850 2048
1683 2275 2559
1990 2709 3071
2301 3145 3583
2615 3584 4095
973 1536 1259
1001 1536 1289
1110 1536 1407
1295 1588 1613
1530 1959 2048
1795 2358 2559
2079 2774 3071
2375 3199 3583
2677 3629 4095
1297 2048 1678
1317 2048 1699
1393 2048 1781
1533 2048 1935
1725 2117 2150
1956 2483 2560
2213 2875 3071
2487 3281 3583
2773 3699 4095
1622 2559 2098
1636 2559 2113
1693 2559 2175
1802 2559 2294
1960 2559 2467
2157 2646 2688
2384 3009 3071
2634 3394 3583
2900 3795 4095
1946 3071 2518
1957 3071 2529
2002 3071 2578
2090 3071 2672
2220 3071 2815
2388 3071 3001
2588 3175 3225
2814 3536 3583
3059 3917 4095
2270 3583 2937
2279 3583 2947
2316 3583 2986
2388 3583 3064
2497 3583 3182
2642 3583 3341
2818 3583 3536
3020 3705 3763
3244 4064 4095
2595 4095 3357
2602 4095 3365
2633 4095 3397
2693 4095 3462
2786 4095 3563
2911 4095 3700
3066 4095 3870
3248 4095 4072
3451 4095 4095
512 0 0
512 422 512
693 880 1023
995 1330 1536
1308 1775 2048
1624 2221 2560
1943 2666 3071
2263 3111 3583
2584 3556 4095
512 512 383
512 512 512
738 917 1023
1023 1350 1536
1327 1789 2048
1639 2231 2559
1954 2674 3071
2272 3117 3583
2591 3561 4095
697 1024 826
741 1024 879
896 1052 1066
1131 1433 1536
1404 1846 2047
1697 2274 2559
2000 2707 3071
2309 3144 3583
2622 3583 4095
1002 1536 1251
1028 1536 1282
1134 1536 1401
1314 1584 1607
1545 1956 2047
1808 2356 2559
2089 2772 3071
2383 3197 3583
2684 3628 4095
1317 2047 1673
1335 2048 1694
1411 2048 1777
1548 2047 1931
1739 2114 2147
1967 2481 2559
2222 2873 3071
2494 3280 3583
2779 3698 4095
1636 2559 2094
1650 2560 2109
1707 2559 2171
1814 2559 2290
1971 2559 2464
2166 2644 2685
2393 3007 3071
2642 3393 3583
2907 3794 4095
1957 3071 2515
1968 3071 2526
2013 3071 2575
2100 3071 2670
2229 3071 2812
2397 3071 2999
2596 3174 3223
2821 3535 3583
3065 3916 4095
2279 3583 2935
2288 3583 2944
2324 3583 2984
2396 3583 3061
2505 3583 3180
2649 3583 3339
2824 3583 3534
3026 3704 3761
3249 4063 4095
2602 4095 3355
2609 4095 3363
2640 4095 3395
2700 4095 3461
2793 4095 3561
2918 4095 3698
3072 4095 3869
3253 4095 4070
3456 4095 4095
1023 0 0
1023 297 512
1023 844 1023
1107 1309 1536
1387 1762 2048
1684 2211 2559
1990 2658 3071
2301 3105 3583
2615 3551 4095
1023 512 0
1023 512 512
1023 883 1023
1131 1330 1536
1405 1776 2048
1697 2221 2559
2001 2666 3071
2310 3111 3583
2622 3556 4095
1024 1024 765
1024 1024 823
1024 1024 1024
1226 1415 1536
1476 1834 2048
1753 2264 2559
2045 2699 3071
2346 3138 3583
2653 3578 4095
1113 1536 1218
1136 1536 1250
1230 1536 1373
1393 1568 1584
1608 1944 2048
1859 2347 2559
2132 2765 3071
2418 3191 3583
2714 3623 4095
1395 2048 1652
1412 2048 1672
1482 2048 1757
1612 2048 1913
1793 2104 2131
2013 2473 2559
2261 2866 3071
2528 3275 3583
2808 3693 4095
1695 2559 2079
1708 2559 2094
1762 2559 2156
1866 2559 2276
2016 2559 2452
2207 2637 2674
2428 3001 3071
2672 3388 3583
2934 3789 4095
2003 3071 2503
2014 3071 2514
2057 3071 2563
2142 3071 2658
2268 3071 2802
2432 3071 2989
2627 3168 3215
2848 3530 3583
3090 3911 4095
2317 3583 2925
2325 3583 2934
2361 3583 2974
2431 3583 3052
2538 3583 3171
2679 3583 3331
2852 3583 3527
3051 3699 3754
3272 4059 4095
2634 4095 3347
2641 4095 3354
2671 4095 3387
2730 4095 3453
2821 4095 3554
2944 4095 3691
3097 4095 3862
3276 4095 4064
3477 4095 4095
1535 0 0
1535 0 512
1536 763 1024
1535 1266 1535
1535 1734 2047
1796 2191 2559
2080 2643 3071
2375 3092 3583
2678 3540 4095
1535 512 0
1535 512 512
1536 806 1024
1536 1288 1536
1546 1749 2048
1809 2201 2559
2090 2651 3071
2384 3099 3583
2685 3546 4095
1535 1023 612
1536 1024 689
1535 1023 1023
1536 1377 1536
1609 1808 2048
1860 2244 2559
2132 2684 3071
2419 3126 3583
2715 3568 4095
1536 1536 1147
1536 1536 1181
1536 1536 1313
1536 1536 1536
1728 1920 2048
1958 2329 2559
2214 2750 3071
2488 3179 3583
2773 3613 4095
1538 2047 1606
1553 2048 1627
1615 2047 1715
1731 2048 1876
1896 2083 2099
2102 2456 2559
2337 2852 3071
2593 3263 3583
2865 3683 4095
1806 2559 2045
1818 2559 2061
1868 2559 2125
1964 2559 2247
2105 2559 2426
2286 2621 2651
2497 2988 3071
2733 3377 3583
2987 3780 4095
2093 3071 2477
2103 3071 2489
2144 3071 2539
2223 3071 2635
2344 3071 2780
2501 3071 2970
2689 3156 3197
2904 3520 3583
3139 3902 4095
2391 3583 2905
2399 3583 2914
2433 3583 2954
2500 3583 3033
2603 3583 3153
2740 3583 3314
2908 3583 3511
3102 3689 3740
3318 4050 4095
2696 4095 3330
2702 4095 3338
2731 4095 3371
2789 4095 3437
2878 4095 3538
2998 4095 3676
3146 4095 3848
3322 4095 4051
3520 4095 4095
2048 0 0
2048 0 512
2048 596 1024
2047 1194 1536
2048 1689 2048
2048 2158 2559
2214 2618 3071
2488 3073 3583
2773 3524 4095
2048 512 0
2048 512 512
2048 656 1024
2048 1218 1536
2047 1703 2047
2048 2169 2559
2223 2626 3071
2496 3079 3583
2780 3529 4095
2048 1024 0
2048 1024 512
2048 1024 1024
2048 1313 1536
2048 1765 2048
2048 2213 2559
2262 2660 3071
2529 3106 3583
2809 3552 4095
2047 1535 1017
2048 1536 1057
2048 1536 1208
2047 1536 1536
2048 1881 2048
2103 2299 2559
2338 2727 3071
2594 3160 3583
2865 3597 4095
2048 2048 1529
2048 2048 1552
2048 2048 1645
2048 2048 1815
2048 2048 2048
2234 2428 2559
2452 2830 3071
2693 3244 3583
2952 3667 4095
2048 2559 1991
2048 2559 2008
2048 2559 2074
2108 2559 2200
2237 2559 2383
2404 2596 2614
2602 2967 3071
2826 3359 3583
3070 3765 4095
2226 3071 2436
2235 3071 2448
2272 3071 2499
2347 3071 2598
2458 3071 2745
2606 3071 2938
2785 3137 3168
2990 3503 3583
3217 3888 4095
2502 3583 2872
2510 3583 2882
2542 3583 2922
2605 3583 3002
2703 3583 3124
2833 3583 3287
2994 3583 3486
3181 3673 3717
3390 4037 4095
2791 4095 3303
2797 4095 3311
2825 4095 3344
2880 4095 3411
2965 4095 3514
3080 4095 3653
3224 4095 3826
3393 4095 4031
3586 4095 4095
2559 0 0
2559 0 512
2559 0 1023
2559 1080 1536
2559 1621 2048
2559 2111 2559
2559 2582 3071
2637 3044 3583
2903 3500 4095
2559 512 0
2559 512 512
2559 512 1023
2559 1107 1536
2559 1637 2048
2559 2122 2559
2559 2590 3071
2644 3050 3583
2909 3506 4095
2559 1024 0
2559 1024 512
2559 1023 1023
2559 1214 1536
2560 1701 2048
2559 2167 2559
2559 2625 3071
2674 3078 3583
2935 3528 4095
2559 1536 778
2559 1536 835
2560 1536 1033
2560 1536 1536
2559 1823 2048
2560 2256 2560
2559 2693 3071
2734 3133 3583
2989 3574 4095
2559 2048 1409
2559 2048 1435
2559 2048 1538
2559 2048 1722
2559 2048 2048
2559 2388 2559
2603 2798 3071
2827 3218 3583
3071 3645 4095
2559 2559 1911
2559 2559 1928
2559 2559 1998
2559 2559 2130
2559 2559 2321
2559 2559 2559
2742 2937 3071
2952 3334 3583
3183 3743 4095
2559 3071 2376
2559 3071 2389
2559 3071 2441
2559 3071 2543
2609 3071 2695
2745 3071 2892
2913 3109 3127
3107 3479 3583
3322 3867 4095
2650 3583 2825
2657 3583 2835
2686 3583 2876
2745 3583 2957
2836 3583 3082
2958 3583 3248
3110 3583 3450
3288 3651 3684
3488 4017 4095
2918 4095 3264
2925 4095 3272
2951 4095 3306
3002 4095 3374
3082 4095 3478
3192 4095 3619
3329 4095 3795
3492 4095 4002
3677 4095 4095
3071 0 0
3071 0 512
3071 0 1023
3071 894 1536
3071 1524 2048
3071 2045 2559
3071 2533 3071
3071 3005 3583
3071 3469 4095
3071 512 0
3071 512 512
3071 512 1023
3071 929 1536
3071 1541 2047
3071 2057 2559
3071 2541 3071
3071 3012 3583
3071 3474 4095
3071 1023 0
3071 1023 512
3071 1023 1023
3071 1063 1536
3071 1611 2048
3071 2104 2559
3071 2577 3071
3071 3040 3583
3092 3497 4095
3071 1536 0
3071 1536 512
3071 1536 1024
3071 1536 1536
3071 1742 2048
3071 2196 2560
3071 2647 3071
3071 3096 3583
3142 3543 4095
3071 2048 1223
3071 2048 1255
3071 2048 1378
3071 2048 1588
3071 2048 2048
3071 2333 2559
3071 2754 3071
3071 3182 3583
3218 3615 4095
3071 2559 1796
3071 2559 1815
3071 2559 1890
3071 2559 2033
3071 2559 2235
3071 2559 2559
3071 2897 3071
3108 3300 3583
3323 3714 4095
3071 3071 2293
3071 3071 2306
3071 3071 2361
3071 3071 2468
3071 3071 2626
3071 3071 2830
3071 3071 3071
3252 3447 3583
3455 3840 4095
3071 3583 2760
3071 3583 2770
3071 3583 2813
3071 3583 2897
3071 3583 3025
3113 3583 3195
3255 3583 3402
3423 3621 3640
3613 3991 4095
3076 4095 3212
3082 4095 3220
3106 4095 3255
3154 4095 3324
3230 4095 3430
3332 4095 3574
3462 4095 3752
3616 4095 3962
3793 4095 4095
3583 0 0
3583 0 512
3583 0 1024
3583 526 1536
3583 1389 2048
3583 1959 2559
3583 2469 3071
3583 2955 3583
3583 3428 4095
3583 512 0
3583 512 512
3583 512 1024
3583 595 1536
3583 1408 2048
3583 1971 2559
3583 2478 3071
3583 2962 3583
3583 3433 4095
3583 1024 0
3583 1024 512
3583 1024 1024
3583 1024 1536
3583 1487 2048
3583 2021 2559
3583 2515 3071
3583 2991 3583
3583 3457 4095
3583 1536 0
3583 1536 512
3583 1536 1024
3583 1536 1536
3583 1631 2048
3583 2118 2559
3583 2587 3071
3583 3048 3583
3583 3504 4095
3583 2048 911
3583 2048 957
3583 2048 1127
3583 2048 1536
3583 2048 2048
3583 2261 2559
3583 2698 3071
3583 3136 3583
3583 3577 4095
3583 2559 1635
3583 2559 1656
3583 2559 1742
3583 2559 1900
3583 2559 2120
3583 2559 2559
3583 2844 3071
3583 3256 3583
3583 3677 4095
3583 3071 2182
3583 3071 2196
3583 3071 2255
3583 3071 2368
3583 3071 2534
3583 3071 2748
3583 3071 3071
3583 3406 3583
3614 3805 4095
3583 3583 2675
3583 3583 2686
3583 3583 2731
3583 3583 2818
3583 3583 2951
3583 3583 3126
3583 3583 3339
3583 3583 3583
3762 3958 4095
3583 4095 3143
3583 4095 3152
3583 4095 3188
3583 4095 3259
3583 4095 3368
3583 4095 3515
3620 4095 3698
3765 4095 3912
3933 4095 4095
4095 0 0
4095 0 512
4095 0 1023
4095 0 1536
4095 1193 2048
4095 1845 2559
4095 2388 3071
4095 2893 3583
4095 3377 4095
4095 512 0
4095 512 512
4095 512 1024
4095 512 1536
4095 1216 2048
4095 1858 2559
4095 2398 3071
4095 2900 3583
4095 3383 4095
4095 1023 0
4095 1023 512
4095 1024 1024
4095 1024 1536
4095 1312 2048
4095 1912 2559
4095 2436 3071
4095 2929 3583
4095 3407 4095
4095 1536 0
4095 1536 512
4095 1536 1024
4095 1536 1536
4095 1536 2048
4095 2016 2559
4095 2512 3071
4095 2988 3583
4095 3455 4095
4095 2048 0
4095 2048 512
4095 2048 1024
4095 2048 1536
4095 2048 2048
4095 2169 2559
4095 2626 3071
4095 3079 3583
4095 3529 4095
4095 2559 1401
4095 2559 1427
4095 2559 1531
4095 2559 1717
4095 2559 2048
4095 2559 2559
4095 2778 3071
4095 3202 3583
4095 3632 4095
4095 3071 2034
4095 3071 2049
4095 3071 2114
4095 3071 2237
4095 3071 2416
4095 3071 2643
4095 3071 3071
4095 3355 3583
4095 3761 4095
4095 3583 2566
4095 3583 2578
4095 3583 2625
4095 3583 2717
4095 3583 2857
4095 3583 3039
4095 3583 3260
4095 3583 3583
4095 3916 4095
4095 4095 3058
4095 4095 3066
4095 4095 3103
4095 4095 3177
4095 4095 3290
4095 4095 3442
4095 4095 3630
4095 4095 3849
4095 4095 4095
