Examples/Channels - Fix Skin Tone.3dl
#25pt 3DLUT created by 3D LUT Creator Pro (c) Oleg Sharonov
#Copyright Oleg Sharonov
#IMAGEPROFILE sRGB IEC61966-2.1 v.2.10
#INPUTGAMMA sRGB IEC61966-2.1 v.2.10
#OUTPUTGAMMA sRGB IEC61966-2.1 v.2.10
0 128 256 384 512 640 768 896 1023
0 0 0
0 0 512
0 0 1023
0 0 1535
0 0 2047
0 0 2559
0 0 3071
0 0 3583
0 0 4095
557 394 0
328 470 455
0 512 1023
0 512 1535
0 512 2047
0 512 2559
0 512 3071
0 512 3583
0 512 4095
1099 820 119
1038 854 404
712 953 928
0 1024 1536
0 1024 2047
0 1024 2559
0 1023 3071
0 1023 3583
0 1024 4095
1641 1250 273
1607 1269 464
1492 1323 835
1095 1435 1400
0 1536 2048
0 1536 2560
0 1536 3071
0 1536 3583
0 1536 4095
2183 1678 417
2161 1692 559
2093 1728 851
1926 1798 1283
1479 1918 1873
0 2048 2559
0 2048 3071
0 2048 3583
0 2048 4095
2726 2107 562
2709 2117 672
2662 2144 912
2560 2194 1269
2349 2275 1740
1863 2400 2346
0 2559 3071
0 2559 3583
0 2559 4095
2965 2647 838
2977 2645 911
3007 2642 1077
3058 2635 1332
3013 2664 1701
2763 2753 2201
2247 2883 2818
0 3071 3583
0 3071 4095
3148 3183 1322
3150 3184 1370
3157 3187 1484
3168 3193 1666
3183 3202 1913
3211 3210 2214
3171 3233 2665
2631 3366 3291
1056 3555 4037
3606 3618 2062
3607 3619 2100
3610 3621 2192
3616 3625 2348
3624 3630 2561
3634 3638 2825
3646 3647 3132
3659 3659 3471
3215 3799 3800
512 0 0
512 0 512
512 0 1023
512 0 1535
512 0 2047
512 0 2559
512 0 3071
512 0 3583
512 0 4095
695 443 0
512 512 512
512 512 1024
512 512 1535
512 512 2047
512 512 2559
512 512 3071
512 512 3583
512 512 4095
1169 846 136
1109 878 423
805 975 957
512 1024 1536
512 1024 2048
512 1024 2559
512 1023 3071
512 1023 3583
512 1023 4095
1684 1266 280
1651 1285 474
1538 1338 849
1154 1449 1419
512 1536 2048
512 1536 2560
512 1536 3071
512 1536 3583
512 1536 4095
2214 1689 423
2191 1703 566
2124 1739 860
1959 1809 1294
1520 1928 1886
512 2048 2559
512 2048 3071
512 2048 3583
512 2048 4095
2748 2116 566
2732 2126 678
2685 2152 917
2584 2202 1276
2374 2283 1748
1894 2408 2355
512 2559 3071
512 2559 3583
513 2559 4095
2979 2656 844
2991 2654 917
3020 2650 1083
3072 2643 1339
3032 2670 1707
2783 2760 2208
2271 2889 2826
512 3071 3583
513 3071 4095
3156 3191 1323
3159 3193 1371
3165 3196 1485
3176 3201 1671
3191 3210 1915
3222 3217 2220
3188 3238 2670
2651 3371 3297
1110 3560 4046
3613 3625 2063
3614 3626 2101
3617 3628 2194
3623 3631 2349
3631 3637 2563
3641 3645 2828
3653 3654 3135
3665 3666 3477
3228 3804 3805
1023 0 0
1023 0 512
1023 0 1023
1023 0 1535
1024 0 2047
1024 0 2559
1024 0 3071
1024 0 3583
1024 0 4095
1024 512 0
1024 512 512
1024 512 1024
1024 512 1536
1024 512 2048
1024 512 2560
1024 512 3071
1024 512 3583
1023 512 4095
1338 902 158
1284 932 464
1024 1024 1024
1024 1024 1536
1024 1024 2048
1023 1024 2560
1024 1024 3071
1024 1023 3583
1024 1023 4095
1792 1304 299
1760 1323 499
1652 1375 883
1297 1484 1463
1024 1536 2048
1024 1536 2559
1024 1536 3071
1024 1536 3583
1024 1536 4095
2290 1717 437
2268 1731 583
2202 1766 881
2042 1835 1320
1622 1953 1918
1024 2048 2560
1024 2048 3071
1023 2048 3583
1023 2048 4095
2806 2137 578
2790 2147 690
2744 2173 932
2644 2223 1293
2438 2303 1769
1972 2427 2380
1024 2559 3071
1024 2559 3583
1024 2559 4095
3014 2678 857
3026 2676 931
3055 2672 1098
3106 2665 1356
3080 2687 1722
2835 2776 2224
2333 2905 2845
1024 3071 3583
1024 3071 4095
3177 3212 1328
3180 3213 1376
3186 3216 1492
3197 3222 1678
3212 3230 1924
3249 3234 2238
3231 3251 2684
2702 3383 3313
1237 3571 4070
3630 3642 2068
3632 3643 2106
3635 3645 2199
3640 3649 2356
3648 3654 2571
3658 3662 2836
3670 3671 3144
3682 3682 3485
3264 3816 3816
1536 0 0
1536 0 512
1536 0 1023
1536 0 1536
1536 0 2047
1536 0 2559
1536 0 3071
1536 0 3583
1536 0 4095
1536 512 0
1536 512 512
1535 512 1024
1535 512 1535
1536 512 2047
1536 512 2560
1536 512 3071
1536 512 3583
1536 512 4095
1623 977 129
1578 1003 506
1536 1024 1024
1536 1023 1536
1536 1024 2048
1535 1024 2560
1536 1024 3071
1536 1023 3583
1536 1023 4095
1979 1364 316
1948 1382 530
1848 1432 935
1536 1536 1536
1536 1536 2048
1536 1536 2559
1536 1536 3071
1536 1536 3583
1536 1536 4095
2424 1764 458
2402 1777 607
2339 1811 914
2186 1878 1364
1797 1994 1972
1536 2048 2559
1536 2048 3071
1536 2048 3583
1536 2048 4095
2908 2173 595
2892 2183 710
2847 2209 956
2749 2258 1322
2550 2337 1805
2107 2460 2422
1536 2559 3071
1536 2559 3583
1536 2559 4095
3075 2716 882
3087 2714 956
3116 2710 1126
3167 2702 1386
3165 2715 1747
2925 2803 2255
2442 2931 2879
1536 3071 3583
1536 3071 4095
3214 3248 1337
3217 3250 1386
3223 3253 1503
3234 3258 1689
3248 3266 1940
3297 3265 2268
3306 3274 2709
2791 3405 3341
1536 3583 4095
3662 3673 2076
3663 3674 2114
3666 3676 2209
3672 3679 2365
3679 3685 2583
3688 3692 2851
3699 3701 3161
3712 3712 3503
3326 3837 3837
2048 0 0
2048 0 512
2048 0 1024
2048 0 1535
2048 0 2048
2048 0 2560
2048 0 3071
2048 0 3583
2048 0 4095
2048 512 0
2048 512 512
2048 512 1024
2048 512 1536
2048 512 2048
2048 512 2559
2048 512 3072
2048 512 3583
2047 513 4095
2048 1024 0
2048 1024 512
2047 1024 1024
2047 1024 1535
2047 1024 2047
2047 1024 2559
2047 1024 3071
2047 1024 3583
2047 1024 4095
2247 1438 304
2220 1455 552
2131 1500 995
2047 1536 1536
2048 1536 2048
2047 1536 2559
2048 1536 3071
2048 1536 3583
2048 1536 4095
2619 1826 474
2599 1839 633
2539 1872 956
2396 1936 1422
2048 2048 2048
2048 2048 2559
2048 2048 3071
2048 2048 3583
2048 2048 4095
3058 2224 615
3043 2234 734
2999 2260 988
2905 2307 1363
2715 2384 1855
2303 2505 2482
2048 2559 3071
2048 2559 3583
2048 2559 4095
3166 2772 917
3177 2770 991
3206 2765 1163
3256 2756 1429
3291 2755 1784
3060 2842 2297
2600 2968 2928
2048 3071 3583
2047 3071 4095
3270 3302 1348
3272 3304 1394
3278 3306 1514
3288 3311 1707
3302 3319 1962
3370 3311 2311
3419 3306 2746
2922 3437 3382
2048 3583 4095
3708 3719 2086
3710 3720 2126
3713 3722 2221
3718 3725 2380
3725 3730 2601
3733 3737 2871
3744 3745 3184
3756 3756 3529
3418 3868 3868
2559 0 0
2559 0 512
2559 0 1023
2559 0 1536
2559 0 2048
2559 0 2559
2559 0 3071
2559 0 3583
2559 0 4095
2559 512 0
2559 512 512
2559 512 1023
2559 512 1536
2559 512 2048
2559 512 2559
2559 512 3071
2559 512 3583
2559 512 4095
2559 1024 0
2559 1024 512
2559 1024 1023
2559 1024 1536
2559 1024 2048
2559 1024 2559
2560 1023 3071
2559 1024 3583
2559 1024 4095
2597 1512 149
2574 1527 522
2560 1536 1024
2560 1536 1536
2560 1536 2048
2560 1536 2560
2560 1536 3071
2559 1536 3583
2560 1535 4095
2878 1899 467
2859 1911 648
2804 1943 997
2675 2003 1491
2559 2048 2048
2559 2048 2559
2559 2048 3071
2559 2048 3583
2559 2048 4095
3260 2288 631
3245 2298 756
3203 2322 1022
3114 2368 1412
2935 2443 1918
2559 2559 2559
2559 2559 3071
2559 2559 3583
2559 2559 4095
3288 2845 955
3299 2843 1033
3328 2838 1211
3378 2828 1484
3451 2811 1834
3240 2892 2352
2810 3016 2993
2559 3071 3583
2559 3071 4095
3344 3374 1356
3346 3376 1407
3352 3378 1530
3361 3383 1728
3386 3385 2000
3468 3371 2367
3570 3349 2794
3098 3478 3436
2560 3583 4095
3772 3781 2096
3773 3781 2136
3775 3783 2234
3780 3786 2398
3786 3791 2621
3794 3797 2898
3804 3805 3214
3815 3815 3563
3541 3909 3909
3071 0 0
3071 0 512
3071 0 1023
3071 0 1536
3071 0 2047
3071 0 2559
3071 0 3071
3071 0 3583
3071 0 4095
3071 512 0
3071 512 512
3071 512 1023
3071 512 1536
3071 512 2048
3071 512 2559
3071 512 3071
3071 512 3583
3071 512 4095
3071 1024 0
3071 1024 512
3071 1024 1023
3071 1024 1536
3071 1024 2048
3071 1024 2559
3071 1024 3071
3071 1024 3583
3071 1023 4095
3071 1536 0
3071 1536 512
3071 1536 1024
3071 1536 1536
3071 1536 2048
3071 1536 2559
3071 1536 3071
3071 1535 3583
3071 1535 4095
3200 1975 393
3184 1986 622
3135 2015 1023
3071 2048 1536
3071 2048 2048
3071 2048 2559
3071 2048 3071
3071 2048 3583
3071 2048 4095
3504 2365 634
3499 2370 766
3459 2393 1052
3376 2437 1464
3212 2508 1990
3071 2559 2559
3071 2559 3071
3071 2559 3583
3071 2559 4095
3443 2935 998
3454 2933 1079
3483 2927 1265
3532 2915 1548
3604 2896 1911
3468 2951 2418
3071 3071 3071
3071 3071 3583
3071 3071 4095
3437 3465 1362
3439 3466 1417
3444 3468 1545
3453 3473 1750
3512 3463 2061
3592 3446 2438
3695 3422 2873
3318 3527 3503
3071 3583 4095
3851 3859 2110
3852 3859 2151
3855 3861 2252
3859 3864 2418
3864 3868 2649
3871 3874 2929
3880 3881 3251
3890 3890 3604
3695 3961 3961
3583 0 0
3583 0 512
3583 0 1024
3583 0 1536
3583 0 2048
3583 0 2559
3583 0 3071
3583 0 3583
3583 0 4095
3583 512 0
3583 512 512
3583 512 1024
3583 512 1536
3583 512 2048
3583 512 2559
3583 512 3071
3583 512 3583
3583 513 4095
3583 1024 0
3583 1024 512
3583 1024 1024
3583 1024 1536
3583 1024 2048
3583 1024 2559
3583 1024 3071
3583 1024 3583
3583 1024 4095
3583 1536 0
3583 1536 512
3583 1536 1024
3583 1536 1536
3583 1536 2048
3583 1536 2559
3583 1536 3071
3583 1536 3583
3583 1536 4095
3586 2045 16
3583 2048 512
3583 2048 1024
3583 2048 1536
3583 2048 2048
3583 2048 2559
3583 2048 3071
3583 2048 3583
3583 2048 4095
3739 2477 631
3753 2472 773
3769 2467 1067
3693 2508 1510
3583 2559 2048
3583 2559 2559
3583 2559 3071
3583 2559 3583
3583 2559 4095
3632 3039 1033
3643 3037 1120
3670 3030 1319
3719 3016 1619
3790 2995 1997
3744 3015 2493
3583 3071 3071
3583 3071 3583
3583 3071 4095
3549 3574 1365
3551 3574 1423
3566 3573 1569
3606 3566 1813
3665 3554 2135
3745 3535 2522
3847 3508 2968
3583 3583 3583
3583 3583 4095
3948 3953 2117
3949 3953 2160
3951 3955 2265
3954 3957 2440
3959 3961 2676
3965 3966 2963
3972 3973 3292
3980 3981 3651
3880 4023 4023
4095 0 0
4095 0 512
4095 0 1023
4095 0 1536
4095 0 2047
4095 0 2559
4095 0 3071
4095 0 3583
4095 0 4095
4095 512 0
4095 512 512
4095 513 1024
4095 513 1535
4095 513 2047
4095 513 2559
4095 510 3071
4095 512 3583
4095 512 4095
4095 1024 0
4095 1023 512
4095 1024 1024
4095 1024 1536
4095 1024 2048
4095 1024 2559
4095 1024 3071
4095 1023 3583
4095 1023 4095
4095 1536 0
4095 1536 513
4095 1536 1024
4095 1536 1536
4095 1536 2048
4095 1536 2559
4095 1536 3071
4095 1536 3583
4095 1536 4095
4095 2048 0
4095 2047 512
4095 2048 1024
4095 2048 1536
4095 2048 2048
4095 2048 2559
4095 2047 3071
4095 2047 3583
4095 2047 4095
4017 2596 542
4030 2590 733
4064 2575 1077
4095 2559 1535
4095 2559 2048
4095 2559 2559
4095 2559 3071
4095 2559 3583
4095 2559 4095
3855 3156 1049
3866 3152 1148
3893 3144 1366
3941 3129 1690
4012 3104 2092
4095 3071 2559
4095 3071 3071
4095 3071 3583
4095 3071 4095
3718 3687 1389
3727 3685 1456
3749 3680 1620
3789 3672 1878
3847 3658 2215
3926 3637 2618
4029 3606 3077
4095 3583 3583
4095 3583 4095
4062 4063 2118
4062 4063 2164
4064 4065 2274
4066 4067 2457
4070 4070 2702
4074 4074 3002
4080 4080 3337
4087 4087 3706
4095 4095 4095
