Examples/Channels - Darken Reds.3dl
#25pt 3DLUT created by 3D LUT Creator Pro (c) Oleg Sharonov
#Copyright Oleg Sharonov
#IMAGEPROFILE sRGB IEC61966-2.1 v.2.10
#INPUTGAMMA sRGB IEC61966-2.1 v.2.10
#OUTPUTGAMMA sRGB IEC61966-2.1 v.2.10
0 128 256 384 512 640 768 896 1023
0 0 0
0 0 512
0 0 1022
0 0 1535
0 0 2047
0 0 2559
0 0 3071
0 0 3583
0 0 4095
0 512 0
0 512 512
0 512 1023
0 512 1535
0 512 2047
0 512 2559
0 512 3071
0 512 3583
0 512 4095
0 1023 0
0 1023 512
0 1023 1023
0 1023 1535
0 1023 2047
0 1023 2559
0 1023 3071
0 1023 3583
0 1024 4095
0 1535 0
0 1535 512
0 1536 1024
0 1536 1536
0 1536 2048
0 1536 2560
0 1536 3072
0 1535 3583
0 1536 4095
0 2048 0
0 2048 512
0 2047 1023
0 2047 1536
0 2047 2047
0 2047 2559
0 2048 3071
0 2048 3583
0 2048 4095
0 2559 0
0 2559 512
0 2559 1024
0 2559 1536
0 2559 2048
0 2559 2559
0 2559 3071
0 2559 3583
0 2559 4095
0 3071 0
0 3071 512
0 3071 1024
0 3071 1536
0 3071 2048
0 3071 2559
0 3071 3071
0 3071 3583
0 3071 4095
0 3583 0
0 3583 512
0 3583 1024
0 3583 1536
0 3583 2048
0 3583 2559
0 3583 3071
0 3583 3583
3 3583 4095
0 4078 0
0 4078 512
0 4078 1024
0 4078 1536
0 4079 2048
0 4079 2559
0 4080 3071
0 4081 3583
0 4082 4095
107 0 0
81 0 506
23 0 1027
23 0 1537
23 0 2049
23 0 2560
23 0 3072
23 0 3582
23 0 4094
512 512 0
512 512 512
512 512 1023
512 512 1535
512 512 2047
512 512 2559
512 512 3071
512 512 3583
512 512 4095
512 1023 0
512 1023 512
512 1023 1023
512 1023 1535
512 1023 2047
512 1023 2559
512 1023 3071
512 1023 3583
512 1023 4095
512 1535 0
512 1535 512
512 1536 1024
512 1536 1536
512 1536 2048
512 1536 2560
512 1536 3072
512 1535 3583
512 1535 4095
512 2048 0
512 2048 512
512 2047 1023
512 2047 1536
512 2048 2048
512 2047 2559
512 2048 3071
512 2048 3583
512 2048 4095
512 2559 0
512 2559 512
512 2559 1024
512 2559 1536
512 2559 2048
512 2559 2559
512 2559 3071
512 2559 3583
513 2559 4095
512 3071 0
512 3071 512
512 3071 1024
512 3071 1536
512 3071 2048
512 3071 2559
512 3071 3071
512 3071 3583
513 3071 4095
512 3583 0
512 3583 512
512 3583 1024
512 3583 1536
512 3583 2048
512 3583 2559
512 3583 3071
512 3583 3583
513 3583 4095
512 4078 0
512 4078 512
512 4078 1024
514 4079 1536
512 4079 2047
509 4079 2559
510 4080 3071
514 4081 3583
512 4082 4095
328 0 0
310 0 510
269 0 1022
180 0 1535
81 0 2049
81 0 2561
81 0 3070
81 0 3583
81 0 4095
1023 512 0
1023 512 512
1024 512 1024
1024 512 1536
1022 512 2047
977 512 2559
914 512 3071
828 512 3583
711 513 4095
1023 1023 0
1023 1023 512
1024 1024 1024
1024 1024 1536
1024 1024 2048
1024 1024 2560
1023 1023 3071
1023 1023 3583
1023 1023 4095
1024 1536 0
1024 1536 512
1024 1536 1024
1024 1536 1536
1024 1536 2048
1024 1536 2559
1024 1536 3071
1024 1536 3583
1024 1536 4095
1023 2047 0
1023 2047 512
1023 2047 1023
1024 2048 1536
1024 2048 2048
1024 2048 2560
1023 2047 3071
1023 2048 3583
1023 2048 4095
1024 2559 0
1024 2559 512
1024 2559 1024
1024 2559 1536
1024 2559 2048
1024 2559 2559
1024 2559 3071
1024 2559 3583
1024 2559 4095
1024 3071 0
1024 3071 512
1024 3071 1024
1024 3071 1536
1024 3071 2048
1024 3071 2559
1024 3071 3071
1024 3071 3583
1024 3071 4095
1024 3583 0
1024 3583 512
1024 3583 1024
1024 3583 1536
1024 3583 2048
1024 3583 2559
1024 3583 3071
1024 3583 3583
1024 3583 4095
1024 4079 0
1025 4079 514
1023 4079 1023
1023 4079 1536
1025 4079 2048
1024 4080 2559
1025 4081 3071
1024 4082 3583
1023 4083 4095
553 0 0
542 0 512
518 0 1023
472 0 1536
393 0 2048
252 0 2560
183 0 3071
183 0 3583
183 0 4095
1174 512 0
1169 512 512
1159 512 1023
1141 512 1536
1111 512 2048
1070 512 2560
1014 512 3071
939 512 3583
838 512 4095
1535 1023 0
1535 1023 512
1535 1023 1023
1536 1024 1536
1535 1023 2047
1536 1024 2560
1535 1023 3071
1536 1023 3583
1536 1023 4095
1536 1536 0
1536 1536 512
1536 1536 1024
1536 1536 1536
1536 1536 2048
1536 1536 2559
1536 1536 3071
1536 1536 3583
1535 1535 4095
1536 2048 0
1536 2048 512
1536 2047 1023
1536 2047 1536
1536 2047 2047
1536 2047 2559
1536 2048 3071
1536 2048 3583
1536 2048 4095
1536 2559 0
1536 2559 512
1536 2559 1024
1536 2559 1536
1536 2559 2048
1536 2559 2559
1536 2559 3071
1536 2559 3583
1536 2559 4095
1536 3071 0
1536 3071 512
1536 3071 1024
1536 3071 1536
1536 3071 2048
1536 3071 2559
1536 3071 3071
1536 3071 3583
1536 3071 4095
1536 3583 0
1536 3583 512
1536 3583 1024
1536 3583 1536
1536 3583 2048
1536 3583 2559
1536 3583 3071
1536 3583 3583
1536 3583 4095
1536 4079 0
1536 4080 512
1535 4080 1023
1536 4080 1536
1536 4080 2048
1535 4081 2559
1536 4082 3071
1536 4082 3583
1536 4084 4095
779 0 0
771 0 512
754 0 1023
724 0 1536
675 0 2048
600 0 2560
486 0 3071
302 0 3582
302 0 4095
1286 512 0
1283 512 512
1273 512 1024
1257 512 1536
1232 512 2048
1195 512 2560
1146 512 3071
1081 512 3584
997 512 4095
2003 1023 0
2001 1024 512
1996 1024 1024
1987 1023 1536
1973 1024 2048
1955 1024 2559
1930 1024 3072
1898 1024 3583
1859 1024 4095
2048 1536 0
2048 1536 512
2048 1536 1023
2047 1536 1536
2048 1536 2048
2047 1536 2559
2048 1536 3071
2048 1536 3583
2048 1536 4095
2048 2048 0
2048 2048 512
2048 2048 1024
2048 2048 1536
2048 2048 2048
2048 2048 2559
2048 2048 3071
2048 2048 3583
2048 2048 4095
2048 2559 0
2048 2559 512
2048 2560 1024
2048 2559 1536
2048 2560 2048
2048 2559 2559
2048 2559 3071
2048 2559 3583
2048 2559 4095
2048 3071 0
2048 3071 512
2048 3071 1024
2048 3071 1536
2048 3071 2048
2048 3071 2559
2048 3071 3071
2048 3071 3583
2047 3071 4095
2048 3583 0
2048 3583 512
2048 3583 1024
2048 3583 1536
2048 3583 2048
2048 3583 2559
2048 3583 3071
2048 3583 3583
2048 3583 4095
2048 4081 0
2047 4081 509
2047 4081 1023
2048 4081 1536
2048 4082 2048
2048 4082 2559
2048 4083 3071
2048 4084 3583
2047 4085 4095
1003 0 0
999 0 512
986 0 1024
964 0 1536
928 0 2048
877 0 2560
806 0 3072
705 0 3582
559 0 4095
1423 512 0
1421 512 512
1412 512 1024
1398 512 1536
1375 512 2048
1344 512 2559
1302 512 3071
1247 512 3583
1177 512 4095
2082 1024 0
2079 1023 512
2075 1024 1024
2067 1024 1536
2054 1024 2048
2036 1024 2559
2013 1024 3071
1983 1024 3583
1947 1024 4095
2559 1536 0
2559 1536 512
2560 1536 1024
2560 1536 1536
2560 1536 2048
2560 1536 2560
2560 1536 3071
2559 1536 3583
2559 1535 4095
2559 2048 0
2559 2048 512
2559 2048 1024
2559 2048 1536
2559 2048 2048
2559 2048 2559
2559 2048 3071
2559 2048 3583
2559 2048 4095
2559 2559 0
2559 2559 512
2559 2559 1024
2559 2559 1536
2559 2559 2048
2559 2559 2559
2559 2559 3071
2559 2559 3583
2559 2559 4095
2559 3071 0
2559 3071 512
2559 3071 1024
2559 3071 1536
2559 3071 2048
2559 3071 2559
2559 3071 3071
2559 3071 3583
2559 3071 4095
2559 3583 0
2559 3583 512
2559 3583 1024
2559 3583 1536
2559 3583 2048
2559 3583 2559
2560 3583 3071
2560 3583 3583
2560 3583 4095
2559 4083 0
2559 4083 510
2559 4083 1023
2560 4083 1536
2559 4084 2048
2559 4084 2559
2559 4085 3071
2560 4086 3583
2559 4087 4095
1228 0 0
1226 0 512
1216 0 1024
1198 0 1536
1171 0 2048
1132 0 2560
1080 0 3071
1010 0 3582
917 0 4095
1580 512 0
1578 512 512
1571 512 1024
1558 512 1536
1538 512 2048
1511 512 2559
1475 512 3072
1429 512 3584
1369 512 4095
2177 1024 0
2175 1024 512
2171 1024 1024
2163 1023 1536
2151 1024 2048
2134 1023 2559
2113 1023 3071
2085 1024 3583
2052 1024 4095
2808 1536 0
2807 1536 512
2805 1536 1024
2800 1536 1536
2794 1536 2048
2785 1536 2559
2773 1536 3071
2757 1536 3583
2739 1536 4095
3071 2048 0
3071 2048 512
3071 2048 1023
3071 2048 1536
3071 2048 2048
3071 2048 2559
3071 2048 3071
3071 2048 3583
3071 2048 4095
3071 2559 0
3071 2559 512
3071 2559 1024
3071 2559 1536
3071 2559 2048
3071 2559 2559
3071 2559 3071
3071 2559 3583
3071 2559 4095
3071 3071 0
3071 3071 512
3071 3071 1024
3071 3071 1536
3071 3071 2048
3071 3071 2559
3071 3071 3071
3071 3071 3583
3071 3071 4095
3071 3583 0
3071 3583 512
3071 3583 1024
3071 3583 1536
3071 3583 2048
3071 3583 2559
3071 3583 3071
3071 3583 3583
3071 3583 4095
3071 4085 0
3071 4085 516
3071 4085 1025
3071 4086 1535
3071 4086 2048
3071 4087 2559
3071 4087 3071
3071 4088 3583
3071 4089 4095
1453 0 0
1451 0 512
1443 0 1024
1429 0 1536
1407 0 2048
1376 0 2560
1335 0 3071
1282 0 3583
1214 0 4095
1751 512 0
1748 512 512
1741 512 1023
1730 512 1535
1714 512 2048
1690 512 2559
1659 512 3072
1619 512 3583
1570 512 4095
2287 1024 0
2285 1024 512
2281 1023 1023
2274 1024 1536
2263 1023 2048
2248 1024 2560
2228 1024 3071
2203 1023 3583
2172 1024 4095
2874 1536 0
2873 1536 512
2871 1536 1024
2867 1536 1536
2861 1536 2048
2852 1536 2559
2841 1536 3071
2827 1536 3583
2810 1536 4095
3351 2048 0
3351 2048 512
3350 2048 1023
3348 2048 1536
3344 2048 2048
3340 2048 2559
3335 2048 3071
3327 2048 3583
3319 2048 4095
3583 2559 0
3583 2559 512
3583 2559 1024
3583 2559 1536
3583 2559 2048
3583 2559 2559
3583 2559 3071
3583 2559 3583
3583 2559 4095
3583 3071 0
3583 3071 512
3583 3071 1024
3583 3071 1536
3583 3071 2048
3583 3071 2559
3583 3071 3071
3583 3071 3583
3583 3071 4095
3583 3583 0
3583 3583 512
3583 3583 1024
3583 3583 1536
3583 3583 2048
3583 3583 2559
3583 3583 3071
3583 3583 3583
3583 3583 4095
3583 4088 0
3583 4088 513
3583 4088 1025
3583 4089 1535
3583 4089 2048
3583 4089 2559
3583 4090 3071
3583 4091 3583
3583 4092 4095
1676 0 0
1675 0 512
1668 0 1024
1656 0 1536
1638 0 2048
1613 0 2559
1580 0 3071
1537 0 3583
1483 0 4095
1929 512 0
1928 512 512
1922 512 1023
1913 512 1535
1898 512 2048
1878 512 2559
1851 512 3071
1817 512 3583
1774 512 4095
2409 1024 0
2407 1023 512
2404 1024 1024
2398 1024 1536
2387 1024 2048
2374 1024 2559
2356 1024 3071
2333 1024 3583
2305 1024 4095
2950 1536 0
2949 1536 512
2947 1536 1024
2943 1536 1536
2938 1536 2048
2930 1536 2559
2919 1536 3071
2907 1536 3583
2890 1536 4095
3397 2048 0
3396 2048 512
3395 2048 1023
3393 2048 1536
3390 2048 2048
3386 2048 2559
3381 2048 3071
3374 2048 3583
3366 2048 4095
3701 2559 0
3701 2559 512
3700 2559 1024
3700 2559 1536
3698 2559 2047
3696 2559 2559
3694 2559 3071
3691 2559 3583
3687 2559 4095
3895 3071 0
3895 3071 512
3894 3071 1024
3894 3071 1536
3893 3071 2048
3892 3071 2559
3891 3071 3071
3889 3071 3583
3887 3071 4095
4017 3583 0
4017 3583 512
4017 3583 1025
4017 3583 1535
4016 3583 2048
4016 3583 2559
4015 3583 3071
4014 3583 3583
4013 3583 4095
4095 4091 13
4095 4091 518
4095 4091 1020
4095 4092 1535
4095 4092 2048
4095 4092 2559
4095 4093 3072
4095 4094 3584
4095 4095 4095
