Examples/Channels - Black and White.3dl
#25pt 3DLUT created by 3D LUT Creator Pro (c) Oleg Sharonov
#Copyright Oleg Sharonov
0 256 512 768 1023
0 0 0
103 103 103
206 206 206
308 308 308
411 411 411
665 665 665
768 768 768
871 871 871
973 973 973
1076 1076 1076
1330 1330 1330
1433 1433 1433
1536 1536 1536
1638 1638 1638
1741 1741 1741
1996 1996 1996
2098 2098 2098
2201 2201 2201
2303 2303 2303
2406 2406 2406
2661 2661 2661
2764 2764 2764
2866 2866 2866
2969 2969 2969
3071 3071 3071
255 255 255
358 358 358
461 461 461
564 564 564
666 666 666
921 921 921
1024 1024 1024
1126 1126 1126
1229 1229 1229
1331 1331 1331
1586 1586 1586
1689 1689 1689
1792 1792 1792
1894 1894 1894
1997 1997 1997
2252 2252 2252
2354 2354 2354
2457 2457 2457
2559 2559 2559
2662 2662 2662
2917 2917 2917
3020 3020 3020
3122 3122 3122
3225 3225 3225
3327 3327 3327
512 512 512
614 614 614
717 717 717
819 819 819
922 922 922
1177 1177 1177
1280 1280 1280
1382 1382 1382
1485 1485 1485
1588 1588 1588
1842 1842 1842
1945 1945 1945
2048 2048 2048
2150 2150 2150
2253 2253 2253
2508 2508 2508
2610 2610 2610
2713 2713 2713
2815 2815 2815
2918 2918 2918
3173 3173 3173
3275 3275 3275
3378 3378 3378
3481 3481 3481
3583 3583 3583
768 768 768
871 871 871
973 973 973
1076 1076 1076
1178 1178 1178
1433 1433 1433
1536 1536 1536
1638 1638 1638
1741 1741 1741
1843 1843 1843
2098 2098 2098
2201 2201 2201
2303 2303 2303
2406 2406 2406
2509 2509 2509
2764 2764 2764
2866 2866 2866
2969 2969 2969
3071 3071 3071
3174 3174 3174
3429 3429 3429
3531 3531 3531
3634 3634 3634
3737 3737 3737
3839 3839 3839
1024 1024 1024
1126 1126 1126
1229 1229 1229
1331 1331 1331
1434 1434 1434
1689 1689 1689
1792 1792 1792
1894 1894 1894
1997 1997 1997
2099 2099 2099
2354 2354 2354
2457 2457 2457
2559 2559 2559
2662 2662 2662
2764 2764 2764
3020 3020 3020
3122 3122 3122
3225 3225 3225
3327 3327 3327
3430 3430 3430
3685 3685 3685
3787 3787 3787
3890 3890 3890
3993 3993 3993
4095 4095 4095
