Examples/Channels - No green 2.3dl
#25pt 3DLUT created by 3D LUT Creator Pro (c) Oleg Sharonov
#Copyright Oleg Sharonov
#IMAGEPROFILE 
#INPUTGAMMA 
#OUTPUTGAMMA 
0 43 86 128 171 214 256 299 341 384 427 469 512 555 597 640 682 725 768 810 853 896 938 981 1023 
0 0 0
0 0 90
0 0 177
0 0 314
0 0 434
0 0 564
0 0 683
0 0 806
0 0 940
0 0 1064
0 0 1188
0 0 1312
0 0 1434
0 0 1561
0 0 1686
0 0 1809
0 0 1934
0 0 2058
0 0 2183
0 0 2306
0 0 2431
0 0 2556
0 0 2682
0 0 2805
0 0 2929
0 10 0
0 103 171
0 171 287
0 171 388
0 171 494
0 171 610
0 171 725
0 171 842
0 171 962
0 171 1083
0 171 1205
0 171 1326
0 171 1452
0 171 1573
0 171 1696
0 171 1822
0 171 1943
0 171 2070
0 171 2191
0 171 2316
0 171 2440
0 171 2565
0 171 2687
0 171 2813
0 171 2936
0 23 0
0 119 174
0 235 341
0 341 470
0 341 562
0 341 664
0 341 771
0 341 885
0 341 999
0 341 1116
0 341 1235
0 341 1353
0 341 1472
0 341 1595
0 341 1716
0 341 1838
0 341 1960
0 341 2083
0 341 2206
0 341 2328
0 341 2451
0 341 2575
0 341 2699
0 341 2822
0 341 2945
0 42 0
0 136 171
0 248 339
0 374 513
0 501 653
0 512 743
0 512 839
0 512 942
0 512 1049
0 512 1160
0 512 1273
0 512 1390
0 512 1506
0 512 1623
0 512 1742
0 512 1863
0 512 1982
0 512 2105
0 512 2224
0 512 2347
0 512 2469
0 512 2592
0 512 2713
0 512 2837
0 512 2959
0 68 0
0 165 171
0 269 339
0 388 513
0 512 683
0 639 838
0 682 923
0 683 1018
0 683 1117
0 683 1221
0 683 1328
0 683 1438
0 682 1550
0 683 1665
0 683 1780
0 683 1897
0 683 2015
0 683 2134
0 683 2253
0 682 2372
0 682 2493
0 683 2614
0 683 2736
0 683 2857
0 682 2978
0 103 0
0 192 171
0 293 341
0 404 512
0 525 682
0 650 853
0 777 1022
0 853 1106
0 853 1197
0 853 1293
0 853 1394
0 852 1498
0 853 1606
0 853 1715
0 853 1827
0 852 1940
0 853 2055
0 852 2170
0 853 2287
0 853 2406
0 853 2524
0 853 2644
0 853 2762
0 853 2883
0 853 3003
0 145 0
0 230 171
0 318 339
0 427 512
0 542 683
0 662 852
0 788 1023
0 915 1195
0 1024 1289
0 1024 1378
0 1024 1472
0 1024 1570
0 1023 1671
0 1024 1777
0 1024 1884
0 1024 1993
0 1024 2105
0 1024 2217
0 1024 2331
0 1023 2446
0 1023 2562
0 1023 2679
0 1024 2797
0 1023 2915
0 1023 3033
0 198 0
0 269 171
0 351 341
0 449 510
0 562 683
0 679 853
0 802 1025
0 927 1195
0 1053 1365
0 1182 1473
0 1195 1560
0 1195 1652
0 1195 1748
0 1195 1847
0 1195 1950
0 1195 2055
0 1195 2162
0 1195 2271
0 1195 2382
0 1195 2494
0 1194 2607
0 1195 2721
0 1195 2837
0 1195 2953
0 1194 3070
0 245 0
0 310 171
0 386 341
0 478 512
0 584 682
0 698 853
0 817 1023
0 940 1194
0 1065 1365
0 1192 1535
0 1320 1657
0 1365 1742
0 1365 1833
0 1365 1926
0 1365 2024
0 1365 2125
0 1365 2227
0 1365 2333
0 1365 2440
0 1365 2549
0 1365 2659
0 1365 2771
0 1365 2883
0 1365 2998
0 1365 3112
0 295 0
0 354 171
0 420 339
0 508 512
0 609 683
0 719 853
0 835 1023
0 955 1195
0 1079 1365
0 1203 1536
0 1330 1707
0 1458 1841
0 1535 1926
0 1536 2014
0 1536 2107
0 1536 2202
0 1536 2301
0 1536 2402
0 1536 2506
0 1536 2611
0 1536 2718
0 1536 2827
0 1536 2937
0 1536 3048
0 1535 3160
0 345 0
0 398 171
0 460 341
0 540 512
0 635 682
0 742 853
0 854 1023
0 971 1194
0 1093 1365
0 1216 1535
0 1342 1707
0 1468 1877
0 1596 2025
0 1706 2108
0 1706 2196
0 1707 2287
0 1706 2381
0 1707 2479
0 1706 2578
0 1707 2680
0 1707 2783
0 1707 2889
0 1706 2996
0 1707 3105
0 1707 3214
0 398 0
0 443 171
0 499 341
0 576 512
0 666 683
0 766 852
0 876 1024
0 991 1195
0 1110 1365
0 1231 1536
0 1355 1706
0 1480 1877
0 1607 2047
0 1734 2210
0 1863 2293
0 1877 2379
0 1877 2469
0 1877 2561
0 1877 2657
0 1877 2755
0 1877 2855
0 1877 2957
0 1877 3061
0 1877 3167
0 1877 3274
0 448 0
0 489 171
0 540 341
0 612 512
0 697 683
0 793 852
0 900 1023
0 1011 1195
0 1127 1364
0 1247 1535
0 1369 1707
0 1493 1877
0 1619 2048
0 1745 2218
0 1873 2389
0 2001 2477
0 2048 2562
0 2047 2650
0 2048 2742
0 2048 2836
0 2048 2933
0 2048 3032
0 2048 3132
0 2048 3235
0 2048 3339
0 499 0
0 535 171
0 584 341
0 649 512
0 730 682
0 823 853
0 926 1024
0 1034 1195
0 1147 1365
0 1265 1536
0 1385 1706
0 1508 1877
0 1632 2048
0 1757 2218
0 1884 2389
0 2011 2559
0 2140 2660
0 2218 2745
0 2218 2832
0 2218 2923
0 2218 3016
0 2218 3112
0 2218 3209
0 2218 3309
0 2218 3410
0 548 0
0 582 171
0 627 341
0 689 512
0 765 683
0 854 853
0 953 1024
0 1058 1195
0 1168 1365
0 1284 1536
0 1403 1707
0 1523 1877
0 1645 2047
0 1770 2218
0 1895 2389
0 2022 2559
0 2149 2730
0 2278 2845
0 2389 2928
0 2389 3015
0 2389 3105
0 2389 3197
0 2389 3291
0 2389 3388
0 2389 3486
0 600 0
0 630 171
0 671 341
0 728 512
0 802 683
0 886 853
0 981 1024
0 1084 1195
0 1192 1364
0 1304 1536
0 1420 1706
0 1540 1877
0 1661 2047
0 1784 2218
0 1908 2389
0 2034 2559
0 2160 2730
0 2288 2900
0 2416 3029
0 2544 3112
0 2559 3198
0 2559 3287
0 2559 3378
0 2559 3471
0 2559 3567
0 649 0
0 678 171
0 717 341
0 771 512
0 839 682
0 921 853
0 1011 1023
0 1111 1195
0 1216 1365
0 1326 1535
0 1440 1706
0 1558 1877
0 1677 2047
0 1799 2218
0 1922 2389
0 2046 2560
0 2172 2730
0 2299 2901
0 2426 3071
0 2554 3213
0 2683 3296
0 2730 3381
0 2730 3469
0 2730 3559
0 2730 3651
0 699 0
0 727 171
0 763 341
0 814 512
0 878 683
0 956 853
0 1043 1023
0 1139 1195
0 1242 1364
0 1350 1535
0 1462 1707
0 1577 1877
0 1695 2048
0 1815 2218
0 1937 2389
0 2060 2559
0 2185 2730
0 2311 2901
0 2437 3071
0 2564 3242
0 2692 3398
0 2821 3480
0 2900 3564
0 2900 3651
0 2901 3741
0 751 0
0 776 171
0 809 341
0 856 512
0 918 682
0 992 853
0 1077 1024
0 1169 1194
0 1269 1365
0 1374 1535
0 1484 1707
0 1597 1877
0 1714 2048
0 1832 2218
0 1953 2389
0 2075 2559
0 2199 2730
0 2323 2900
0 2449 3071
0 2576 3242
0 2703 3412
0 2831 3582
0 2959 3664
0 3071 3748
0 3071 3834
0 801 0
0 825 171
0 855 341
0 901 512
0 959 683
0 1030 852
0 1111 1024
0 1200 1195
0 1298 1365
0 1400 1536
0 1508 1707
0 1619 1877
0 1733 2048
0 1850 2218
0 1970 2389
0 2091 2559
0 2213 2730
0 2337 2900
0 2462 3071
0 2588 3242
0 2714 3412
0 2841 3583
0 2969 3754
0 3097 3848
0 3226 3931
0 852 0
0 874 171
0 903 341
0 945 512
0 1001 682
0 1068 853
0 1146 1023
0 1233 1194
0 1327 1365
0 1427 1535
0 1533 1707
0 1642 1877
0 1754 2048
0 1870 2218
0 1988 2389
0 2107 2559
0 2229 2730
0 2352 2901
0 2476 3071
0 2600 3242
0 2726 3412
0 2852 3583
0 2980 3754
0 3107 3924
0 3236 4033
0 902 0
0 923 171
0 950 341
0 991 512
0 1044 683
0 1109 853
0 1183 1024
0 1267 1195
0 1358 1365
0 1456 1536
0 1558 1706
0 1666 1877
0 1777 2048
0 1890 2218
0 2007 2389
0 2125 2559
0 2245 2730
0 2367 2900
0 2490 3071
0 2614 3242
0 2739 3412
0 2864 3583
0 2991 3754
0 3118 3924
0 3245 4095
0 953 0
0 971 171
0 998 341
0 1036 512
0 1087 683
0 1148 853
0 1220 1024
0 1301 1195
0 1390 1365
0 1485 1536
0 1586 1706
0 1690 1877
0 1800 2048
0 1912 2218
0 2027 2389
0 2144 2559
0 2262 2730
0 2383 2900
0 2505 3071
0 2628 3242
0 2752 3412
0 2877 3583
0 3003 3754
0 3129 3924
0 3256 4095
0 1003 0
0 1021 171
0 1046 341
0 1082 512
0 1130 682
0 1189 853
0 1258 1023
0 1336 1194
0 1423 1365
0 1515 1535
0 1614 1707
0 1717 1877
0 1824 2048
0 1934 2218
0 2047 2389
0 2163 2559
0 2281 2730
0 2400 2900
0 2521 3071
0 2643 3242
0 2766 3412
0 2890 3583
0 3015 3754
0 3141 3924
0 3268 4095
0 1053 0
0 1071 171
0 1094 341
0 1129 512
0 1175 683
0 1231 853
0 1298 1024
0 1373 1194
0 1456 1365
0 1547 1536
0 1643 1706
0 1744 1877
0 1849 2047
0 1958 2218
0 2069 2389
0 2183 2559
0 2300 2730
0 2418 2900
0 2538 3071
0 2659 3242
0 2781 3412
0 2905 3583
0 3029 3754
0 3154 3924
0 3280 4095
90 0 0
45 0 45
0 0 136
0 0 284
0 0 412
0 0 547
0 0 669
0 0 806
0 0 931
0 0 1056
0 0 1181
0 0 1305
0 0 1428
0 0 1556
0 0 1681
0 0 1804
0 0 1930
0 0 2054
0 0 2180
0 0 2303
0 0 2428
0 0 2553
0 0 2679
0 0 2803
0 0 2927
171 78 0
171 171 171
100 171 262
0 171 367
0 171 478
0 171 596
0 171 713
0 171 832
0 171 953
0 171 1075
0 171 1198
0 171 1325
0 171 1446
0 171 1571
0 171 1692
0 171 1818
0 171 1939
0 171 2066
0 171 2191
0 171 2313
0 171 2437
0 171 2562
0 171 2685
0 171 2810
0 171 2934
171 90 0
171 183 171
171 282 341
171 339 452
23 341 548
0 341 652
0 341 763
0 341 876
0 341 992
0 341 1109
0 341 1228
0 341 1347
0 341 1467
0 341 1590
0 341 1712
0 341 1834
0 341 1957
0 341 2079
0 341 2202
0 341 2325
0 341 2448
0 341 2572
0 341 2696
0 341 2819
0 341 2942
171 107 0
171 201 171
171 297 343
171 408 512
171 512 641
100 512 731
0 512 829
0 512 933
0 513 1044
0 513 1155
0 512 1269
0 512 1385
0 512 1501
0 512 1621
0 512 1740
0 512 1859
0 512 1981
0 512 2101
0 512 2223
0 512 2344
0 512 2466
0 512 2589
0 512 2712
0 512 2834
0 512 2957
171 136 0
171 222 171
171 312 339
171 422 512
171 538 683
171 660 828
171 683 916
0 683 1010
0 683 1110
0 683 1215
0 683 1323
0 683 1433
0 682 1545
0 683 1660
0 683 1777
0 682 1893
0 683 2012
0 682 2130
0 683 2250
0 682 2369
0 682 2490
0 682 2611
0 683 2733
0 682 2854
0 683 2977
171 171 0
171 248 171
171 334 341
171 437 510
171 552 683
171 670 853
171 795 1015
171 853 1100
81 853 1192
0 852 1287
0 852 1389
0 853 1495
0 853 1602
0 852 1711
0 852 1823
0 853 1937
0 852 2052
0 853 2169
0 852 2285
0 853 2403
0 853 2522
0 853 2641
0 853 2760
0 853 2881
0 853 3001
171 206 0
171 280 171
171 360 341
171 457 512
171 566 682
171 684 853
171 805 1023
171 930 1194
171 1023 1284
171 1023 1373
0 1024 1467
0 1023 1565
0 1023 1667
0 1024 1773
0 1024 1880
0 1023 1990
0 1024 2101
0 1023 2214
0 1024 2328
0 1023 2443
0 1024 2560
0 1023 2676
0 1024 2794
0 1023 2912
0 1024 3032
171 250 0
171 312 171
171 388 341
171 481 513
171 586 683
171 699 852
171 819 1024
171 941 1195
171 1066 1364
171 1193 1468
171 1195 1555
45 1195 1648
0 1194 1744
0 1195 1844
0 1195 1946
0 1195 2052
0 1195 2159
0 1195 2268
0 1195 2379
0 1194 2491
0 1194 2604
0 1194 2719
0 1195 2835
0 1194 2951
0 1194 3068
171 291 0
171 351 171
171 419 341
171 505 512
171 606 682
171 717 853
171 833 1023
171 954 1194
171 1077 1365
171 1203 1536
171 1330 1653
171 1365 1739
171 1365 1829
0 1365 1923
0 1365 2021
0 1365 2122
0 1365 2225
0 1365 2330
0 1365 2438
0 1365 2546
0 1365 2657
0 1365 2769
0 1365 2881
0 1365 2996
0 1365 3110
171 337 0
171 389 171
171 454 341
171 535 512
171 631 682
171 738 853
171 851 1023
171 969 1194
171 1090 1365
171 1214 1535
171 1340 1707
171 1467 1837
171 1536 1922
171 1536 2011
0 1536 2104
0 1536 2199
0 1536 2298
0 1536 2399
0 1536 2503
0 1535 2608
0 1536 2716
0 1535 2824
0 1536 2935
0 1536 3046
0 1536 3159
171 384 0
171 431 171
171 489 341
171 565 512
171 657 682
171 760 853
171 870 1023
171 985 1194
171 1105 1365
171 1227 1535
171 1351 1706
171 1477 1877
171 1604 2022
171 1707 2106
171 1707 2193
171 1706 2284
0 1707 2379
0 1707 2476
0 1707 2576
0 1707 2677
0 1706 2781
0 1707 2887
0 1706 2994
0 1707 3103
0 1706 3212
