Examples/Channels - Pale colds + warmth.3dl
#25pt 3DLUT created by 3D LUT Creator Pro (c) Oleg Sharonov
#Copyright Oleg Sharonov
#IMAGEPROFILE sRGB IEC61966-2.1 v.2.10
#INPUTGAMMA sRGB IEC61966-2.1 v.2.10
#OUTPUTGAMMA sRGB IEC61966-2.1 v.2.10
0 43 86 128 171 214 256 299 341 384 427 469 512 555 597 640 682 725 768 810 853 896 938 981 1023 
0 0 0
109 151 148
220 302 296
330 453 445
441 604 595
551 757 747
663 915 906
776 1077 1069
892 1241 1234
1010 1410 1401
1132 1580 1568
1260 1750 1736
1392 1921 1901
1529 2091 2064
1669 2259 2223
1812 2424 2378
1955 2586 2525
2100 2744 2664
2245 2896 2795
2389 3042 2919
2531 3179 3038
2671 3310 3153
2806 3435 3267
2938 3556 3380
3065 3673 3495
109 174 121
149 180 156
236 313 296
340 459 445
447 609 594
556 761 748
667 917 906
779 1079 1068
894 1244 1233
1013 1412 1401
1134 1581 1568
1262 1752 1736
1394 1922 1901
1530 2091 2064
1671 2260 2223
1813 2425 2378
1957 2587 2525
2102 2744 2664
2246 2897 2795
2390 3042 2919
2532 3180 3038
2671 3311 3153
2807 3436 3267
2939 3556 3380
3065 3674 3495
222 347 243
238 347 258
294 358 311
378 488 446
475 628 594
578 776 748
683 929 906
793 1089 1069
906 1252 1234
1022 1418 1400
1144 1587 1569
1270 1757 1736
1402 1926 1901
1538 2096 2064
1677 2263 2223
1818 2428 2378
1962 2590 2525
2106 2747 2664
2251 2899 2795
2394 3044 2919
2536 3182 3038
2675 3312 3153
2810 3437 3267
2941 3558 3380
3068 3675 3495
332 521 364
342 522 373
380 521 408
443 538 467
524 666 595
616 805 748
715 953 906
819 1108 1069
929 1269 1234
1043 1433 1401
1162 1600 1569
1286 1768 1736
1417 1937 1901
1551 2104 2064
1689 2271 2223
1831 2435 2377
1973 2596 2525
2116 2752 2664
2260 2904 2795
2403 3049 2919
2543 3186 3038
2682 3316 3153
2817 3440 3267
2947 3560 3380
3073 3678 3495
444 697 486
450 696 493
478 697 517
524 696 561
592 721 625
672 849 748
761 990 906
860 1139 1068
964 1295 1234
1074 1456 1401
1190 1620 1568
1312 1785 1735
1441 1952 1901
1573 2119 2064
1710 2283 2223
1849 2446 2377
1990 2606 2525
2133 2762 2664
2275 2912 2795
2416 3056 2919
2556 3192 3038
2693 3321 3153
2827 3445 3267
2957 3565 3380
3082 3682 3495
556 876 609
560 876 614
580 876 632
618 876 668
674 876 720
742 908 787
823 1039 906
913 1181 1069
1011 1332 1234
1116 1488 1401
1229 1647 1568
1349 1810 1736
1474 1974 1901
1604 2137 2064
1738 2300 2223
1875 2462 2377
2015 2619 2525
2155 2774 2664
2296 2923 2795
2435 3065 2919
2573 3200 3038
2709 3329 3153
2841 3452 3267
2970 3571 3380
3094 3687 3495
668 1061 735
672 1061 738
688 1061 753
718 1062 783
764 1061 826
824 1062 884
896 1100 954
980 1234 1069
1071 1378 1234
1171 1528 1401
1280 1683 1569
1395 1842 1736
1517 2002 1901
1644 2163 2064
1775 2323 2223
1910 2482 2377
2046 2638 2525
2184 2790 2664
2322 2937 2795
2460 3078 2919
2596 3211 3038
2730 3339 3153
2860 3461 3267
2987 3579 3380
3109 3695 3495
782 1251 864
785 1251 867
799 1252 879
824 1252 904
863 1251 941
916 1251 991
980 1251 1053
1056 1298 1126
1142 1433 1234
1237 1577 1400
1341 1727 1568
1452 1881 1735
1570 2037 1901
1693 2194 2064
1821 2351 2223
1952 2507 2377
2086 2660 2525
2221 2810 2664
2356 2955 2795
2491 3094 2919
2624 3225 3038
2756 3351 3153
2884 3472 3267
3009 3590 3380
3129 3705 3495
899 1445 996
902 1445 999
912 1445 1009
935 1445 1030
970 1445 1062
1016 1445 1106
1074 1446 1161
1143 1445 1226
1223 1499 1301
1313 1635 1401
1412 1779 1568
1519 1927 1735
1633 2078 1901
1751 2232 2064
1875 2385 2223
2002 2537 2378
2132 2687 2525
2264 2834 2664
2396 2977 2795
2527 3113 2919
2658 3242 3038
2786 3366 3153
2913 3486 3267
3034 3602 3380
3152 3716 3495
1019 1641 1131
1021 1641 1132
1030 1641 1141
1050 1641 1160
1080 1641 1187
1122 1641 1226
1175 1641 1275
1240 1641 1333
1315 1641 1401
1401 1701 1477
1494 1838 1568
1596 1980 1735
1704 2127 1901
1818 2275 2064
1938 2424 2223
2060 2572 2377
2186 2719 2525
2314 2862 2664
2442 3002 2795
2570 3134 2919
2697 3262 3038
2823 3384 3153
2945 3502 3267
3064 3617 3380
3179 3730 3495
1142 1838 1266
1144 1838 1269
1152 1838 1276
1170 1838 1292
1198 1838 1317
1236 1838 1351
1286 1838 1394
1346 1838 1447
1415 1838 1508
1495 1838 1577
1584 1904 1652
1680 2041 1736
1784 2181 1901
1894 2324 2064
2008 2468 2223
2126 2612 2377
2247 2754 2525
2371 2895 2664
2495 3030 2795
2619 3160 2919
2742 3284 3038
2863 3404 3153
2983 3520 3267
3098 3634 3380
3210 3746 3495
1270 2033 1403
1273 2033 1405
1280 2033 1412
1297 2033 1426
1322 2033 1448
1357 2033 1478
1403 2034 1517
1458 2034 1564
1524 2033 1620
1599 2034 1683
1682 2033 1752
1774 2106 1827
1872 2241 1908
1976 2378 2064
2085 2517 2223
2199 2657 2377
2315 2795 2525
2433 2930 2664
2553 3062 2795
2673 3188 2919
2792 3310 3038
2909 3427 3153
3024 3541 3267
3136 3653 3380
3244 3764 3495
1404 2228 1541
1406 2228 1542
1414 2228 1549
1428 2228 1561
1451 2228 1580
1483 2228 1607
1526 2228 1642
1578 2228 1685
1639 2228 1735
1709 2228 1793
1788 2228 1856
1873 2228 1925
1966 2306 2000
2065 2437 2078
2169 2571 2223
2278 2705 2378
2389 2839 2525
2502 2970 2664
2617 3097 2795
2732 3220 2919
2846 3338 3038
2959 3452 3153
3070 3565 3267
3178 3675 3380
3282 3784 3495
1542 2419 1678
1543 2418 1680
1550 2418 1685
1564 2418 1696
1585 2419 1714
1616 2419 1738
1654 2419 1769
1702 2418 1808
1759 2418 1853
1825 2419 1905
1898 2418 1963
1980 2419 2027
2067 2419 2096
2161 2502 2169
2259 2629 2245
2362 2758 2377
2468 2887 2525
2576 3013 2664
2686 3135 2795
2796 3254 2919
2905 3369 3038
3013 3481 3153
3120 3591 3267
3223 3699 3380
3322 3807 3495
1684 2605 1815
1685 2605 1816
1691 2605 1821
1703 2605 1831
1723 2605 1846
1751 2605 1868
1787 2605 1896
1831 2605 1931
1885 2605 1972
1946 2605 2020
2014 2605 2073
2090 2605 2131
2173 2605 2194
2261 2605 2262
2354 2691 2332
2451 2815 2406
2552 2938 2525
2655 3059 2664
2759 3176 2795
2863 3291 2919
2967 3402 3038
3071 3511 3153
3172 3619 3267
3271 3725 3380
3366 3832 3495
1827 2785 1950
1829 2785 1951
1834 2785 1956
1845 2785 1964
1864 2785 1978
1889 2785 1998
1923 2785 2023
1964 2785 2055
2013 2785 2092
2070 2785 2135
2134 2785 2184
2206 2785 2237
2282 2785 2295
2365 2785 2357
2453 2785 2422
2544 2874 2489
2639 2992 2559
2736 3107 2664
2835 3220 2795
2934 3330 2919
3033 3438 3038
3131 3544 3153
3228 3649 3267
3321 3754 3380
3411 3859 3495
1972 2959 2083
1973 2959 2084
1979 2959 2088
1990 2959 2096
2006 2959 2108
2030 2959 2126
2061 2959 2149
2099 2959 2177
2145 2959 2211
2198 2959 2250
2257 2959 2294
2324 2959 2343
2396 2959 2396
2473 2959 2452
2555 2959 2512
2641 2959 2574
2730 3048 2638
2821 3158 2702
2914 3266 2795
3008 3372 2919
3102 3476 3038
3194 3580 3153
3285 3682 3267
3373 3785 3380
3458 3888 3495
2119 3121 2213
2119 3121 2214
2124 3122 2218
2134 3121 2225
2150 3121 2236
2171 3121 2252
2200 3121 2273
2235 3121 2298
2278 3121 2329
2327 3121 2364
2381 3121 2404
2443 3121 2448
2510 3122 2496
2583 3122 2548
2659 3122 2602
2740 3121 2658
2823 3122 2717
2909 3211 2776
2996 3314 2837
3084 3416 2919
3172 3517 3038
3259 3617 3153
3344 3718 3267
3427 3818 3380
3507 3920 3495
2264 3275 2340
2265 3275 2341
2269 3275 2344
2279 3275 2351
2293 3275 2361
2313 3275 2375
2339 3275 2393
2372 3275 2417
2410 3274 2444
2456 3275 2476
2507 3275 2512
2564 3275 2552
2626 3275 2595
2693 3275 2642
2765 3275 2691
2839 3275 2742
2917 3275 2796
2997 3275 2851
3079 3364 2907
3161 3462 2965
3244 3560 3038
3325 3657 3153
3404 3755 3267
3482 3854 3380
3557 3954 3495
2409 3420 2463
2410 3420 2464
2414 3420 2467
2422 3420 2473
2435 3420 2482
2454 3420 2494
2478 3420 2511
2508 3420 2532
2543 3420 2556
2585 3420 2585
2632 3420 2617
2685 3420 2653
2743 3420 2692
2805 3420 2733
2871 3420 2778
2940 3420 2825
3012 3420 2874
3087 3420 2925
3163 3420 2978
3239 3510 3032
3316 3604 3088
3391 3699 3153
3465 3795 3267
3538 3892 3380
3609 3990 3495
2552 3559 2581
2552 3559 2582
2556 3559 2584
2564 3559 2589
2576 3559 2598
2593 3559 2609
2615 3559 2623
2642 3559 2642
2675 3559 2664
2713 3559 2689
2757 3559 2718
2805 3559 2750
2858 3559 2785
2915 3559 2823
2976 3559 2864
3040 3559 2907
3107 3559 2952
3176 3559 3000
3246 3559 3049
3317 3560 3100
3387 3651 3153
3457 3743 3208
3526 3836 3267
3594 3931 3380
3660 4029 3495
2691 3694 2693
2692 3694 2694
2696 3694 2696
2703 3694 2700
2713 3694 2707
2729 3694 2717
2749 3694 2730
2774 3694 2747
2804 3694 2767
2839 3694 2789
2879 3694 2815
2923 3694 2844
2972 3694 2876
3025 3694 2911
3081 3694 2949
3139 3694 2988
3201 3694 3031
3264 3694 3075
3329 3694 3122
3393 3694 3170
3458 3699 3220
3523 3789 3273
3587 3880 3327
3650 3974 3383
3712 4070 3495
2828 3827 2800
2828 3827 2800
2831 3827 2802
2838 3827 2806
2848 3827 2812
2862 3827 2821
2880 3827 2833
2903 3827 2848
2930 3827 2865
2963 3827 2886
2999 3827 2910
3039 3827 2936
3084 3827 2965
3132 3827 2998
3183 3827 3032
3237 3827 3069
3293 3827 3109
3351 3827 3151
3409 3827 3195
3468 3827 3241
3528 3827 3289
3588 3837 3339
3647 3926 3392
3706 4018 3447
3760 4095 3495
2960 3960 2901
2960 3960 2902
2963 3960 2903
2969 3960 2907
2978 3960 2913
2990 3960 2921
3007 3960 2932
3028 3960 2945
3053 3960 2961
3082 3960 2980
3115 3960 3002
3152 3960 3026
3192 3960 3053
3236 3960 3083
3282 3960 3115
3331 3960 3150
3382 3960 3187
3434 3960 3227
3488 3960 3269
3542 3960 3313
3597 3960 3359
3652 3960 3408
3707 3974 3459
3758 4065 3495
3805 4095 3495
3086 4095 2999
3087 4095 3000
3090 4095 3002
3095 4095 3005
3103 4095 3010
3114 4095 3017
3129 4095 3027
3148 4095 3039
3170 4095 3054
3197 4095 3072
3227 4095 3092
3260 4095 3114
3296 4095 3140
3335 4095 3168
3377 4095 3198
3421 4095 3231
3467 4095 3266
3515 4095 3304
3564 4095 3344
3614 4095 3387
3665 4095 3432
3715 4095 3479
3762 4095 3495
3806 4095 3495
3846 4095 3495
172 0 0
175 141 148
236 298 296
340 450 445
447 603 595
557 757 748
667 914 906
779 1076 1068
894 1241 1234
1013 1410 1401
1135 1580 1569
1262 1750 1735
1394 1920 1901
1531 2090 2064
1671 2259 2223
1813 2424 2377
1957 2586 2525
2101 2744 2664
2246 2896 2795
2390 3042 2919
2532 3179 3038
2671 3310 3153
2807 3435 3267
2939 3556 3380
3065 3673 3495
175 174 112
175 174 148
254 311 296
350 459 446
455 609 595
561 760 748
671 916 906
782 1078 1068
897 1243 1234
1016 1411 1401
1136 1580 1568
1264 1751 1736
1396 1922 1901
1532 2091 2064
1672 2259 2223
1814 2425 2377
1958 2587 2525
2103 2744 2664
2247 2897 2795
2391 3042 2919
2533 3180 3038
2672 3311 3153
2808 3436 3267
2939 3556 3380
3066 3674 3495
238 347 239
254 347 254
307 357 309
387 487 445
481 628 595
581 775 748
688 930 906
796 1088 1069
909 1252 1234
1025 1418 1401
1146 1587 1569
1272 1757 1736
1404 1927 1901
1539 2095 2064
1678 2263 2223
1820 2428 2378
1964 2589 2525
2108 2747 2664
2252 2899 2795
2395 3045 2919
2536 3182 3038
2676 3312 3153
2811 3437 3267
2942 3557 3380
3069 3675 3495
342 521 362
352 522 372
389 522 405
449 537 466
530 665 595
621 804 748
718 953 906
822 1108 1068
932 1268 1234
1045 1432 1401
1164 1599 1569
1288 1768 1735
1418 1936 1901
1553 2104 2064
1691 2271 2223
1832 2435 2377
1974 2596 2525
2118 2753 2664
2261 2904 2795
2404 3049 2919
2544 3186 3038
2683 3316 3153
2817 3440 3267
2948 3560 3380
3074 3678 3495
450 697 485
457 697 491
482 696 515
530 697 561
596 720 624
675 848 748
765 989 906
862 1139 1069
966 1295 1234
1076 1455 1400
1192 1619 1568
1315 1786 1736
1442 1952 1901
1575 2118 2064
1711 2283 2223
1851 2446 2377
1991 2606 2525
2134 2761 2664
2276 2912 2795
2417 3056 2919
2557 3192 3038
2694 3321 3153
2828 3445 3267
2957 3565 3380
3082 3682 3495
561 876 609
565 876 613
585 876 631
623 876 667
677 876 719
746 907 786
826 1038 906
917 1181 1069
1014 1331 1234
1119 1487 1400
1231 1647 1568
1350 1810 1736
1476 1974 1901
1606 2138 2064
1740 2301 2223
1877 2462 2377
2016 2620 2525
2156 2774 2664
2296 2923 2795
2436 3065 2919
2574 3200 3038
2710 3328 3153
2842 3452 3267
2971 3571 3380
3094 3687 3495
672 1061 734
676 1061 737
692 1062 753
721 1061 781
767 1061 825
827 1062 884
899 1099 954
982 1234 1069
1073 1377 1234
1173 1528 1401
1281 1683 1568
1397 1841 1736
1519 2002 1901
1645 2163 2064
1777 2323 2223
1911 2482 2377
2048 2637 2525
2185 2790 2664
2323 2937 2795
2461 3078 2919
2597 3211 3038
2731 3338 3153
2861 3461 3267
2988 3579 3380
3110 3695 3495
785 1252 863
789 1252 866
801 1252 879
827 1252 903
867 1252 940
919 1252 991
983 1252 1053
1058 1297 1125
1144 1433 1234
1239 1577 1401
1343 1727 1568
1454 1881 1735
1572 2037 1901
1695 2194 2064
1822 2351 2223
1954 2507 2377
2087 2660 2525
2221 2810 2664
2357 2955 2795
2492 3094 2919
2625 3225 3038
2756 3351 3153
2885 3472 3267
3009 3589 3380
3129 3705 3495
902 1446 996
904 1446 998
916 1445 1008
937 1446 1029
971 1445 1061
1018 1445 1105
1076 1445 1160
1145 1445 1226
1225 1498 1300
1315 1635 1401
1414 1779 1569
1521 1927 1735
1634 2078 1901
1753 2231 2064
1876 2384 2223
2003 2537 2377
2133 2687 2525
2265 2834 2664
2397 2977 2795
2528 3112 2919
2659 3242 3038
2787 3366 3153
2913 3486 3267
3035 3602 3380
3152 3716 3495
1021 1641 1130
1023 1641 1132
1033 1641 1141
1052 1641 1159
1082 1641 1187
1124 1641 1226
1178 1641 1275
1242 1641 1333
1317 1641 1400
1402 1701 1476
1495 1838 1568
1597 1980 1735
1706 2127 1901
1819 2275 2064
1939 2424 2223
2062 2572 2377
2187 2718 2525
2315 2862 2664
2443 3001 2795
2571 3135 2919
2698 3261 3038
2823 3384 3153
2946 3502 3267
3065 3617 3380
3180 3730 3495
1143 1838 1266
1145 1838 1268
1155 1838 1276
1172 1838 1292
1200 1838 1316
1238 1838 1350
1287 1838 1394
1347 1838 1447
1417 1838 1508
1497 1838 1576
1585 1904 1652
1683 2040 1736
1786 2181 1901
1895 2324 2064
2009 2468 2223
2128 2612 2378
2249 2754 2525
2372 2895 2664
2495 3030 2795
2620 3160 2919
2743 3284 3038
2864 3404 3153
2983 3520 3267
3099 3634 3380
3210 3746 3495
