Examples/Channels - Colds to cyan.3dl
#25pt 3DLUT created by 3D LUT Creator Pro (c) Oleg Sharonov
#Copyright Oleg Sharonov
#IMAGEPROFILE sRGB IEC61966-2.1 v.2.10
#INPUTGAMMA sRGB IEC61966-2.1 v.2.10
#OUTPUTGAMMA sRGB IEC61966-2.1 v.2.10
0 128 256 384 512 640 768 896 1023
0 0 0
168 467 557
337 934 1115
505 1401 1672
673 1868 2229
842 2335 2787
1010 2802 3344
1179 3269 3902
1347 3736 4095
113 512 369
192 527 636
347 958 1147
510 1415 1691
677 1877 2242
845 2342 2796
1013 2807 3351
1180 3273 3907
1348 3739 4095
225 1024 738
267 1024 877
386 1052 1272
535 1472 1766
694 1916 2294
857 2370 2834
1022 2829 3381
1188 3291 3931
1355 3754 4095
339 1536 1107
363 1536 1192
451 1536 1484
578 1579 1908
725 1992 2394
880 2427 2910
1040 2874 3441
1203 3327 3980
1368 3784 4095
452 2047 1477
470 2047 1535
535 2047 1753
641 2048 2107
771 2105 2544
916 2514 3025
1069 2943 3533
1227 3384 4055
1387 3832 4095
565 2560 1846
578 2559 1889
628 2559 2058
716 2559 2352
831 2559 2737
964 2631 3179
1108 3038 3658
1259 3462 4095
1415 3898 4095
678 3071 2215
688 3071 2249
728 3071 2384
802 3071 2630
902 3071 2966
1023 3071 3369
1157 3158 3816
1300 3563 4095
1450 3983 4095
791 3583 2585
799 3583 2611
832 3583 2722
894 3583 2930
982 3583 3225
1091 3583 3589
1215 3583 4002
1350 3684 4095
1493 4088 4095
904 4095 2954
911 4095 2976
938 4095 3069
991 4095 3247
1068 4095 3506
1167 4095 3834
1280 4095 4095
1407 4095 4095
1542 4095 4095
512 0 0
512 449 512
565 928 1064
665 1397 1644
790 1866 2211
931 2333 2773
1081 2801 3334
1237 3268 3893
1396 3735 4095
512 512 0
512 512 512
570 952 1098
669 1411 1663
793 1875 2223
934 2340 2782
1083 2806 3341
1238 3272 3899
1397 3738 4095
522 1024 643
536 1024 804
591 1047 1231
685 1468 1740
807 1914 2276
944 2369 2821
1092 2828 3371
1246 3290 3923
1403 3753 4095
566 1536 1057
579 1535 1146
629 1535 1450
717 1576 1885
832 1990 2378
965 2425 2897
1109 2873 3430
1259 3326 3971
1415 3784 4095
630 2048 1443
641 2048 1503
685 2048 1727
764 2048 2087
871 2103 2528
997 2513 3013
1135 2942 3523
1281 3383 4047
1434 3831 4095
707 2559 1822
716 2559 1865
754 2559 2037
824 2560 2335
921 2559 2723
1039 2630 3168
1171 3037 3649
1312 3461 4095
1460 3897 4095
794 3071 2196
802 3071 2230
835 3071 2367
896 3071 2615
984 3071 2954
1093 3071 3359
1216 3156 3807
1351 3562 4095
1494 3983 4095
888 3583 2569
894 3583 2597
923 3583 2708
977 3583 2918
1055 3583 3214
1155 3583 3579
1271 3583 3994
1398 3683 4095
1535 4087 4095
986 4095 2941
992 4095 2964
1017 4095 3057
1064 4095 3236
1134 4095 3496
1225 4095 3825
1332 4095 4095
1453 4095 4095
1583 4095 4095
1023 0 0
1023 363 512
1023 899 1023
1060 1382 1536
1131 1855 2128
1222 2326 2714
1330 2795 3288
1450 3263 3856
1580 3731 4095
1023 512 0
1023 512 512
1024 925 1024
1063 1396 1536
1133 1865 2141
1223 2332 2723
1331 2800 3295
1451 3267 3862
1582 3735 4095
1023 1023 0
1023 1023 512
1024 1024 1024
1071 1454 1623
1141 1904 2197
1231 2361 2763
1337 2822 3326
1457 3285 3887
1587 3750 4095
1024 1536 783
1024 1536 912
1042 1536 1293
1088 1562 1780
1157 1980 2303
1245 2418 2841
1350 2867 3386
1468 3322 3936
1597 3780 4095
1043 2048 1285
1048 2047 1355
1071 2048 1607
1115 2048 1997
1182 2094 2460
1268 2506 2960
1371 2936 3481
1486 3379 4013
1613 3827 4095
1083 2559 1712
1088 2559 1759
1110 2559 1944
1152 2559 2259
1216 2559 2662
1299 2623 3119
1398 3032 3609
1512 3457 4095
1635 3894 4095
1133 3071 2113
1138 3071 2149
1159 3071 2292
1198 3071 2550
1259 3071 2900
1338 3071 3313
1434 3152 3769
1543 3557 4095
1664 3979 4095
1193 3583 2503
1197 3583 2531
1216 3583 2647
1254 3583 2862
1311 3583 3166
1386 3583 3538
1477 3583 3959
1583 3679 4095
1699 4083 4095
1260 4095 2887
1264 4095 2910
1282 4095 3006
1317 4095 3188
1370 4095 3454
1441 4095 3787
1528 4095 4095
1629 4095 4095
1741 4095 4095
1535 0 0
1535 0 512
1535 839 1023
1535 1350 1535
1562 1834 2048
1622 2310 2587
1697 2783 3192
1785 3253 3781
1884 3723 4095
1535 512 0
1535 512 512
1535 867 1023
1535 1364 1535
1564 1843 2047
1623 2317 2597
1698 2788 3200
1786 3258 3786
1885 3727 4095
1535 1023 0
1535 1023 512
1535 1023 1023
1536 1424 1536
1569 1884 2048
1628 2346 2639
1702 2811 3232
1790 3276 3812
1889 3742 4095
1536 1536 0
1536 1536 512
1536 1536 1024
1536 1536 1536
1579 1961 2141
1638 2404 2723
1711 2855 3295
1798 3312 3862
1897 3772 4095
1536 2048 828
1536 2048 949
1536 2048 1317
1552 2048 1795
1595 2076 2313
1653 2492 2849
1726 2926 3393
1812 3369 3941
1909 3820 4095
1536 2559 1451
1536 2559 1510
1549 2559 1732
1576 2560 2091
1618 2559 2532
1675 2610 3016
1746 3021 3525
1831 3448 4049
1927 3886 4095
1564 3071 1928
1567 3071 1968
1580 3071 2129
1606 3071 2411
1647 3071 2785
1703 3071 3219
1772 3141 3690
1855 3549 4095
1950 3972 4095
1602 3583 2360
1605 3583 2391
1618 3583 2515
1643 3583 2745
1683 3583 3065
1737 3583 3452
1805 3583 3885
1886 3671 4095
1979 4076 4095
1648 4095 2771
1650 4095 2795
1663 4095 2897
1687 4095 3089
1726 4095 3365
1778 4095 3709
1844 4095 4095
1922 4095 4095
2013 4095 4095
2048 0 0
2048 0 512
2048 727 1024
2047 1296 1536
2048 1800 2048
2067 2285 2559
2120 2764 3071
2186 3238 3654
2262 3710 4095
2048 512 0
2048 512 512
2048 761 1024
2048 1311 1536
2048 1809 2048
2067 2292 2559
2121 2769 3071
2187 3242 3661
2263 3714 4095
2048 1024 0
2048 1024 512
2048 1024 1024
2048 1374 1536
2047 1850 2047
2071 2322 2559
2125 2792 3073
2190 3261 3687
2266 3729 4095
2048 1536 0
2048 1536 512
2048 1536 1023
2047 1536 1536
2048 1930 2048
2078 2381 2559
2131 2837 3141
2196 3298 3740
2272 3760 4095
2048 2048 0
2048 2048 512
2048 2048 1024
2048 2048 1536
2048 2048 2048
2089 2470 2657
2142 2908 3245
2206 3355 3822
2282 3807 4095
2048 2560 774
2048 2559 904
2048 2559 1289
2048 2559 1777
2063 2559 2301
2104 2589 2840
2157 3004 3385
2221 3434 3935
2295 3874 4095
2048 3071 1565
2048 3071 1619
2048 3071 1824
2056 3071 2162
2085 3071 2586
2125 3071 3059
2177 3125 3560
2240 3535 4077
2313 3960 4095
2053 3583 2103
2055 3583 2138
2064 3583 2283
2082 3583 2542
2111 3583 2893
2150 3583 3307
2201 3583 3764
2263 3658 4095
2336 4065 4095
2085 4095 2571
2087 4095 2598
2096 4095 2710
2114 4095 2919
2142 4095 3215
2180 4095 3580
2230 4095 3995
2291 4095 4095
2363 4095 4095
2559 0 0
2559 0 512
2559 505 1023
2559 1213 1536
2560 1749 2048
2559 2250 2559
2572 2736 3071
2622 3216 3583
2681 3692 4095
2559 512 0
2559 512 512
2559 558 1024
2560 1230 1536
2559 1759 2047
2559 2256 2559
2572 2742 3071
2622 3221 3583
2682 3696 4095
2559 1024 0
2559 1024 512
2559 1023 1023
2559 1299 1536
2559 1801 2048
2559 2287 2559
2575 2765 3071
2625 3239 3583
2684 3711 4095
2559 1536 0
2559 1536 512
2560 1536 1024
2560 1536 1536
2559 1884 2048
2559 2346 2559
2580 2811 3071
2630 3276 3583
2689 3742 4095
2559 2048 0
2559 2048 512
2559 2048 1024
2559 2048 1536
2559 2048 2048
2559 2437 2559
2588 2882 3071
2638 3334 3644
2697 3790 4095
2559 2559 0
2559 2559 512
2559 2559 1024
2559 2559 1536
2559 2559 2048
2559 2559 2559
2600 2980 3172
2649 3414 3764
2708 3857 4095
2559 3071 540
2559 3071 733
2559 3071 1193
2559 3071 1718
2559 3071 2260
2575 3071 2809
2614 3102 3362
2664 3516 3916
2722 3944 4095
2559 3583 1634
2559 3583 1684
2559 3583 1879
2559 3583 2206
2564 3583 2621
2594 3583 3086
2634 3583 3582
2682 3639 4095
2740 4049 4095
2559 4095 2241
2559 4095 2274
2559 4095 2407
2566 4095 2650
2588 4095 2984
2618 4095 3383
2657 4095 3828
2705 4095 4095
2762 4095 4095
3071 0 0
3071 0 512
3071 0 1023
3071 1091 1536
3071 1678 2048
3071 2200 2559
3071 2699 3071
3077 3187 3583
3125 3668 4095
3071 512 0
3071 512 512
3071 512 1023
3071 1110 1536
3071 1689 2048
3071 2208 2559
3071 2705 3071
3077 3191 3583
3125 3672 4095
3071 1023 0
3071 1023 512
3071 1023 1023
3071 1188 1536
3071 1734 2048
3071 2239 2559
3071 2728 3071
3079 3210 3583
3127 3687 4095
3071 1536 0
3071 1536 512
3071 1536 1024
3071 1536 1536
3071 1820 2048
3071 2300 2559
3071 2775 3071
3083 3248 3583
3131 3718 4095
3071 2048 0
3071 2048 512
3071 2048 1023
3071 2048 1536
3071 2048 2048
3071 2394 2559
3071 2848 3071
3090 3306 3583
3137 3767 4095
3071 2559 0
3071 2559 512
3071 2559 1024
3071 2559 1536
3071 2559 2048
3071 2559 2559
3071 2947 3071
3099 3387 3583
3146 3834 4095
3071 3071 0
3071 3071 512
3071 3071 1024
3071 3071 1536
3071 3071 2048
3071 3071 2559
3071 3071 3071
3111 3490 3686
3158 3921 4095
3071 3583 0
3071 3583 512
3071 3583 1024
3071 3583 1603
3071 3583 2184
3071 3583 2754
3086 3583 3319
3125 3615 3881
3173 4028 4095
3071 4095 1657
3071 4095 1706
3071 4095 1898
3071 4095 2222
3071 4095 2633
3074 4095 3096
3105 4095 3590
3144 4095 4095
3190 4095 4095
3583 0 0
3583 0 512
3583 0 1024
3583 900 1536
3583 1583 2048
3583 2136 2559
3583 2652 3071
3583 3149 3583
3583 3637 4095
3583 512 0
3583 512 512
3583 512 1024
3583 926 1536
3583 1595 2048
3583 2144 2559
3583 2657 3071
3583 3154 3583
3583 3641 4095
3583 1024 0
3583 1024 512
3583 1024 1024
3583 1024 1536
3583 1643 2048
3583 2176 2559
3583 2681 3071
3583 3172 3583
3584 3656 4095
3583 1536 0
3583 1536 512
3583 1536 1024
3583 1536 1536
3583 1736 2048
3583 2240 2559
3583 2729 3071
3583 3211 3583
3588 3688 4095
3583 2048 0
3583 2048 512
3583 2048 1024
3583 2048 1536
3583 2048 2048
3583 2337 2559
3583 2804 3071
3583 3270 3583
3593 3737 4095
3583 2559 0
3583 2559 512
3583 2559 1024
3583 2559 1536
3583 2559 2048
3583 2559 2559
3583 2905 3071
3583 3353 3583
3600 3806 4095
3583 3071 0
3583 3071 512
3583 3071 1024
3583 3071 1536
3583 3071 2048
3583 3071 2559
3583 3071 3071
3583 3457 3583
3610 3894 4095
3583 3583 0
3583 3583 512
3583 3583 1024
3583 3583 1536
3583 3583 2048
3583 3583 2559
3583 3583 3071
3583 3583 3583
3622 4001 4095
3583 4095 0
3583 4095 512
3583 4095 1024
3583 4095 1536
3583 4095 2063
3583 4095 2668
3583 4095 3253
3598 4095 3829
3637 4095 4095
4095 0 0
4095 0 512
4095 0 1023
4095 533 1536
4095 1454 2048
4095 2055 2559
4095 2592 3071
4095 3102 3583
4095 3599 4095
4095 512 0
4095 512 512
4095 512 1024
4095 584 1536
4095 1467 2048
4095 2063 2559
4095 2597 3071
4095 3107 3583
4095 3603 4095
4095 1023 0
4095 1023 512
4095 1024 1024
4095 1024 1536
4095 1521 2048
4095 2097 2559
4095 2622 3071
4095 3126 3583
4095 3619 4095
4095 1536 0
4095 1536 512
4095 1536 1024
4095 1536 1536
4095 1624 2048
4095 2164 2559
4095 2672 3071
4095 3165 3583
4095 3650 4095
4095 2048 0
4095 2048 512
4095 2048 1024
4095 2048 1536
4095 2048 2048
4095 2265 2559
4095 2748 3071
4095 3226 3583
4095 3700 4095
4095 2559 0
4095 2559 512
4095 2559 1024
4095 2559 1536
4095 2559 2048
4095 2559 2559
4095 2852 3071
4095 3309 3583
4095 3769 4095
4095 3071 0
4095 3071 512
4095 3071 1024
4095 3071 1536
4095 3071 2048
4095 3071 2559
4095 3071 3071
4095 3416 3583
4095 3859 4095
4095 3583 0
4095 3583 512
4095 3583 1024
4095 3583 1536
4095 3583 2048
4095 3583 2559
4095 3583 3071
4095 3583 3583
4095 3967 4095
4095 4095 0
4095 4095 512
4095 4095 1024
4095 4095 1536
4095 4095 2048
4095 4095 2559
4095 4095 3071
4095 4095 3583
4095 4095 4095
