Examples/Channels - Zero Blue Channel.3dl
#25pt 3DLUT created by 3D LUT Creator Pro (c) Oleg Sharonov
#Copyright Oleg Sharonov
#IMAGEPROFILE 
#INPUTGAMMA 
#OUTPUTGAMMA 
0 256 512 768 1023
0 0 0
0 0 0
0 0 0
0 0 0
0 0 0
0 1023 0
0 1023 0
0 1023 0
0 1023 0
0 1023 0
0 2048 0
0 2048 0
0 2048 0
0 2048 0
0 2048 0
0 3071 0
0 3071 0
0 3071 0
0 3071 0
0 3071 0
3 4095 3
3 4095 3
3 4095 3
3 4095 3
3 4095 3
1023 0 0
1023 0 0
1023 0 0
1023 0 0
1023 0 0
1023 1023 0
1023 1023 0
1023 1023 0
1023 1023 0
1024 1024 0
1023 2047 0
1023 2047 0
1023 2047 0
1023 2047 0
1023 2047 0
1024 3071 0
1024 3071 0
1024 3071 0
1024 3071 0
1024 3071 0
1023 4095 0
1023 4095 0
1023 4095 0
1023 4095 0
1023 4095 0
2048 0 0
2048 0 0
2048 0 0
2048 0 0
2048 0 0
2048 1024 0
2048 1024 0
2048 1024 0
2048 1024 0
2048 1024 0
2048 2048 0
2048 2048 0
2048 2048 0
2048 2048 0
2048 2048 0
2048 3071 0
2048 3071 0
2048 3071 0
2048 3071 0
2048 3071 0
2048 4095 0
2048 4095 0
2048 4095 0
2048 4095 0
2048 4095 0
3071 0 0
3071 0 0
3071 0 0
3071 0 0
3071 0 0
3071 1023 0
3071 1023 0
3071 1023 0
3071 1023 0
3072 1024 0
3071 2048 0
3071 2048 0
3071 2048 0
3071 2048 0
3071 2048 0
3071 3071 0
3071 3071 0
3071 3071 0
3071 3071 0
3071 3071 0
3071 4095 3
3071 4095 3
3071 4095 3
3071 4095 3
3071 4095 3
4095 0 0
4095 0 0
4095 0 0
4095 0 0
4095 0 0
4095 1023 0
4095 1023 0
4095 1023 0
4095 1023 0
4095 1024 0
4095 2048 0
4095 2048 0
4095 2048 0
4095 2048 0
4095 2048 0
4095 3071 0
4095 3071 0
4095 3071 0
4095 3071 0
4095 3071 0
4095 4095 0
4095 4095 0
4095 4095 0
4095 4095 0
4095 4095 0
