Examples/Channels - Red saturation.3dl
#25pt 3DLUT created by 3D LUT Creator Pro (c) Oleg Sharonov
#Copyright Oleg Sharonov
#IMAGEPROFILE sRGB IEC61966-2.1 v.2.10
#INPUTGAMMA sRGB IEC61966-2.1 v.2.10
#OUTPUTGAMMA sRGB IEC61966-2.1 v.2.10
0 256 512 768 1023
0 0 0
28 45 1045
86 118 2086
145 190 3127
203 263 4095
0 1029 0
27 1038 1045
86 1063 2085
145 1103 3126
203 1154 4095
0 2058 0
27 2061 1045
86 2073 2086
145 2094 3126
203 2124 4095
0 3086 0
27 3088 1045
86 3095 2086
145 3108 3126
203 3128 4095
0 4095 1
27 4095 1045
86 4095 2086
145 4095 3126
203 4095 4095
1018 0 0
1024 0 1024
1040 88 2077
1067 174 3121
1104 252 4095
1018 1015 0
1024 1024 1024
1107 1160 2198
1206 1311 3280
1143 1205 4095
1018 2052 0
1024 2087 1024
1107 2148 2197
1206 2219 3280
1143 2154 4095
1018 3082 0
1024 3127 1024
1092 3157 2170
1206 3212 3280
1143 3151 4095
1018 4095 1
1024 4095 1024
1048 4095 2091
1089 4095 3146
1143 4095 4095
2038 0 0
2040 0 928
2048 0 2048
2061 103 3105
2081 213 4095
2038 955 0
2010 741 534
2047 925 2047
2104 1161 3210
2098 1163 4095
2038 2031 0
2010 1983 535
2048 2048 2048
2117 2163 3241
2124 2172 4095
2038 3070 0
2016 3078 623
2048 3116 2048
2117 3185 3241
2124 3168 4095
2038 4095 1
2036 4095 881
2048 4095 2048
2079 4095 3147
2124 4095 4095
3057 0 0
3058 0 823
3063 0 1983
3071 0 3071
3084 93 4095
3057 823 0
3017 186 186
3036 186 1778
3071 756 3071
3090 1067 4095
3057 1987 0
3018 1815 186
3029 1838 1718
3071 1970 3071
3100 2094 4095
3057 3047 0
3018 2980 186
3029 2999 1718
3071 3071 3071
3118 3150 4095
3057 4088 0
3052 4087 725
3052 4095 1901
3071 4095 3071
3118 4095 4095
4076 0 0
4077 0 823
4080 0 1830
4086 0 3014
4095 0 4095
4076 823 0
4069 725 725
4073 725 1725
4082 725 2986
4095 725 4095
4076 1901 0
4069 1840 725
4062 1777 1555
4075 1853 2942
4095 1955 4095
4076 3008 0
4069 2981 725
4062 2953 1555
4062 2934 2859
4095 3019 4095
4076 4063 0
4069 4050 725
4062 4039 1556
4062 4039 2859
4095 4095 4095
