Examples/Channels - Pale colds 2.3dl
#25pt 3DLUT created by 3D LUT Creator Pro (c) Oleg Sharonov
#Copyright Oleg Sharonov
#IMAGEPROFILE sRGB IEC61966-2.1 v.2.10
#INPUTGAMMA sRGB IEC61966-2.1 v.2.10
#OUTPUTGAMMA sRGB IEC61966-2.1 v.2.10
0 43 86 128 171 214 256 299 341 384 427 469 512 555 597 640 682 725 768 810 853 896 938 981 1023 
0 0 0
0 0 177
0 0 339
0 0 510
0 3 678
0 3 850
0 10 1022
0 16 1192
0 26 1362
0 42 1537
0 65 1708
0 94 1878
0 129 2047
0 177 2219
0 238 2389
0 308 2560
0 396 2730
0 501 2900
0 625 3072
0 770 3242
0 938 3413
0 1133 3641
0 1355 4076
0 1610 4095
0 1897 4095
139 171 0
110 171 171
0 171 341
0 171 513
0 171 684
0 171 852
0 171 1023
0 171 1196
0 171 1364
0 171 1535
0 171 1705
0 171 1878
0 171 2047
0 177 2219
0 238 2389
0 310 2559
0 396 2729
0 501 2902
0 625 3071
0 770 3241
0 939 3412
0 1133 3641
0 1357 4078
0 1611 4095
0 1898 4095
276 341 3
267 341 171
220 341 341
0 341 510
0 341 681
0 341 854
0 341 1025
0 341 1194
0 341 1366
0 341 1537
0 341 1707
0 341 1876
0 341 2049
0 341 2219
0 341 2390
0 341 2560
0 399 2731
0 504 2900
0 628 3071
0 774 3243
0 942 3412
0 1138 3646
0 1361 4081
0 1615 4095
0 1903 4095
416 512 13
411 512 171
386 512 341
332 513 513
198 512 682
0 512 852
0 512 1023
0 512 1195
0 512 1366
0 512 1535
0 512 1708
0 512 1877
0 512 2047
0 512 2217
0 512 2388
0 512 2559
0 512 2731
0 512 2900
0 635 3072
0 781 3242
0 950 3413
0 1147 3654
0 1370 4089
0 1625 4095
0 1914 4095
553 683 23
550 682 171
535 683 341
503 683 512
442 683 683
330 683 853
0 682 1023
0 683 1194
0 683 1365
0 682 1535
0 683 1707
0 682 1877
0 682 2047
0 682 2217
0 682 2388
0 682 2559
0 683 2731
0 682 2900
0 682 3071
0 793 3242
0 963 3412
0 1160 3667
0 1385 4095
0 1641 4095
0 1930 4095
692 852 42
690 853 171
679 853 341
656 853 512
616 853 683
552 853 853
448 852 1023
220 853 1195
0 852 1364
0 853 1535
0 852 1706
0 853 1877
0 853 2047
0 853 2218
0 853 2389
0 853 2559
0 853 2731
0 853 2900
0 853 3071
0 853 3242
0 981 3413
0 1179 3685
0 1405 4095
0 1663 4095
0 1954 4095
831 1024 65
828 1024 171
820 1024 341
802 1023 512
773 1024 683
728 1023 853
663 1024 1024
564 1024 1195
394 1024 1365
0 1023 1535
0 1024 1707
0 1023 1877
0 1023 2047
0 1023 2218
0 1023 2388
0 1023 2559
0 1024 2730
0 1023 2900
0 1023 3071
0 1024 3242
0 1024 3412
0 1205 3709
0 1433 4095
0 1692 4095
0 1985 4095
969 1195 94
967 1194 171
961 1194 341
946 1195 512
924 1195 683
889 1195 853
841 1194 1023
773 1194 1194
678 1195 1365
532 1194 1535
180 1195 1706
0 1195 1877
0 1195 2048
0 1195 2218
0 1195 2389
0 1195 2559
0 1194 2730
0 1195 2901
0 1195 3071
0 1194 3242
0 1195 3413
0 1238 3739
0 1468 4095
0 1730 4095
0 2025 4095
1107 1365 129
1106 1365 171
1101 1365 341
1088 1365 512
1070 1365 683
1043 1365 853
1004 1365 1023
953 1365 1194
884 1365 1365
792 1365 1536
658 1365 1707
431 1365 1877
0 1365 2048
0 1365 2219
0 1365 2389
0 1365 2560
0 1365 2730
0 1365 2900
0 1365 3071
0 1365 3242
0 1365 3412
0 1365 3777
0 1512 4095
0 1776 4095
0 2074 4095
1246 1536 171
1245 1535 174
1240 1535 341
1230 1536 512
1214 1536 683
1191 1535 853
1160 1536 1024
1118 1535 1194
1064 1536 1365
995 1536 1536
904 1536 1707
779 1535 1877
592 1536 2048
0 1536 2218
0 1536 2389
0 1536 2560
0 1536 2730
0 1536 2901
0 1536 3072
0 1536 3242
0 1536 3413
0 1536 3821
0 1564 4095
0 1831 4095
0 2133 4095
1384 1706 220
1383 1707 222
1379 1707 341
1371 1707 512
1357 1706 683
1337 1706 853
1311 1707 1024
1276 1706 1195
1232 1706 1365
1176 1706 1536
1105 1706 1706
1015 1707 1877
898 1707 2048
732 1706 2218
440 1707 2389
0 1707 2560
0 1706 2730
0 1707 2901
0 1707 3071
0 1706 3242
0 1707 3465
0 1706 3872
0 1706 4095
0 1897 4095
0 2202 4095
1523 1877 278
1522 1877 280
1518 1877 341
1511 1877 512
1499 1877 683
1482 1877 853
1459 1877 1024
1429 1877 1194
1391 1877 1365
1345 1877 1536
1287 1877 1706
1216 1877 1877
1127 1877 2048
1014 1877 2218
862 1877 2389
632 1877 2560
0 1877 2730
0 1877 2901
0 1877 3071
0 1877 3242
0 1877 3524
0 1877 3932
0 1877 4095
0 1974 4095
0 2283 4095
1661 2048 345
1660 2048 347
1657 2048 356
1650 2047 512
1640 2048 683
1625 2048 853
1605 2048 1024
1579 2047 1194
1546 2048 1365
1506 2047 1536
1457 2048 1707
1398 2048 1877
1326 2047 2047
1239 2048 2218
1129 2047 2389
987 2047 2559
789 2048 2730
422 2048 2901
0 2048 3071
0 2048 3242
0 2048 3592
0 2048 3999
0 2048 4095
0 2062 4095
0 2377 4095
1800 2218 419
1799 2218 420
1796 2218 431
1790 2218 512
1781 2218 683
1768 2218 853
1750 2218 1024
1726 2218 1194
1698 2218 1365
1663 2218 1536
1620 2218 1706
1570 2218 1877
1509 2218 2048
1436 2218 2218
1350 2218 2389
1243 2218 2559
1109 2218 2730
931 2218 2900
655 2218 3071
0 2218 3288
0 2218 3667
0 2218 4075
0 2218 4095
0 2218 4095
0 2484 4095
1938 2389 500
1937 2389 503
1935 2389 513
1930 2389 535
1921 2389 683
1909 2389 853
1893 2389 1023
1873 2389 1195
1847 2389 1365
1816 2389 1536
1779 2389 1706
1734 2389 1877
1682 2389 2048
1620 2389 2218
1547 2389 2389
1461 2389 2559
1357 2389 2730
1229 2389 2901
1064 2389 3071
832 2389 3373
360 2389 3752
0 2389 4095
0 2389 4095
0 2389 4095
0 2605 4095
2076 2559 592
2076 2559 594
2074 2560 604
2069 2559 626
2061 2559 683
2050 2559 853
2036 2559 1024
2017 2559 1195
1994 2560 1365
1966 2559 1536
1933 2559 1707
1894 2559 1877
1848 2559 2048
1794 2559 2218
1731 2559 2389
1658 2559 2559
1572 2559 2730
1470 2560 2901
1346 2559 3114
1192 2559 3466
986 2559 3845
661 2559 4095
0 2559 4095
0 2559 4095
0 2741 4095
2215 2730 692
2214 2730 695
2212 2730 705
2208 2730 725
2201 2730 759
2191 2730 853
2178 2730 1024
2161 2730 1195
2140 2730 1365
2115 2730 1536
2085 2730 1706
2049 2730 1877
2008 2730 2048
1960 2730 2218
1906 2730 2389
1842 2730 2559
1769 2730 2730
1683 2730 2901
1582 2730 3216
1463 2730 3569
1317 2730 3948
1129 2730 4095
862 2730 4095
192 2730 4095
0 2894 4095
2353 2900 802
2353 2900 804
2351 2900 815
2347 2900 835
2340 2900 869
2331 2901 917
2319 2900 1024
2304 2900 1195
2285 2901 1365
2262 2900 1536
2235 2900 1706
2203 2901 1877
2166 2900 2048
2122 2900 2218
2074 2901 2389
2017 2900 2559
1953 2900 2730
1879 2900 3002
1794 2900 3328
1695 2900 3680
1578 2900 4060
1439 2900 4095
1264 2901 4095
1030 2901 4095
647 3064 4095
2492 3071 921
2491 3071 924
2489 3071 934
2486 3071 955
2480 3071 989
2471 3071 1037
2460 3071 1101
2446 3071 1195
2429 3071 1365
2407 3071 1536
2382 3071 1706
2353 3071 1877
2320 3071 2048
2281 3071 2218
2237 3071 2389
2186 3071 2559
2129 3071 2823
2063 3071 3123
1989 3071 3449
1905 3071 3802
1807 3071 4095
1693 3071 4095
1559 3071 4095
1394 3071 4095
1184 3253 4095
2630 3242 1050
2630 3242 1053
2628 3242 1063
2625 3242 1084
2619 3242 1118
2611 3242 1167
2601 3242 1230
2588 3242 1311
2572 3242 1409
2552 3242 1536
2529 3242 1707
2502 3242 1877
2472 3242 2048
2436 3242 2218
2396 3242 2430
2350 3242 2680
2298 3242 2954
2240 3242 3254
2174 3242 3580
2100 3242 3933
2015 3242 4095
1919 3242 4095
1808 3242 4095
1677 3242 4095
1521 3462 4095
2768 3412 1190
2768 3412 1192
2767 3412 1202
2763 3412 1224
2758 3412 1258
2751 3412 1306
2741 3412 1370
2729 3412 1451
2714 3412 1549
2696 3412 1667
2675 3412 1804
2650 3412 1962
2622 3412 2142
2589 3412 2345
2552 3412 2571
2510 3412 2821
2463 3412 3095
2411 3412 3395
2352 3412 3721
2285 3412 4074
2210 3412 4095
2126 3412 4095
2031 3412 4095
1921 3412 4095
1795 3692 4095
2907 3583 1340
2907 3583 1342
2905 3583 1352
2902 3583 1373
2897 3583 1407
2890 3583 1456
2882 3583 1520
2870 3583 1600
2856 3583 1699
2840 3583 1817
2820 3583 1954
2797 3583 2113
2770 3583 2293
2740 3583 2496
2706 3583 2722
2668 3583 2972
2625 3583 3246
2577 3583 3547
2523 3583 3873
2463 3583 4095
2396 3583 4095
2321 3583 4095
2237 3583 4095
2142 3583 4095
2035 3945 4095
3045 3754 1500
3045 3754 1502
3043 3754 1512
3041 3754 1534
3036 3754 1568
3030 3754 1616
3022 3754 1680
3011 3754 1761
2998 3754 1860
2982 3754 1977
2964 3754 2115
2943 3754 2274
2918 3754 2454
2890 3754 2657
2858 3754 2883
2823 3754 3133
2783 3754 3408
2739 3754 3709
2689 3754 4035
2635 3754 4095
2574 3754 4095
2506 3754 4095
2431 3754 4095
2348 3829 4095
2254 4095 4095
3184 3924 1670
3183 3924 1673
3182 3924 1683
3179 3924 1704
3175 3924 1739
3169 3924 1787
3161 3924 1851
3152 3924 1932
3139 3924 2031
3125 3924 2149
3108 3924 2287
3087 3924 2446
3064 3924 2626
3038 3924 2829
3009 3924 3055
2976 3924 3306
2939 3924 3581
2898 3924 3881
2853 3924 4095
2802 3924 4095
2747 3924 4095
2685 3924 4095
2617 3924 4095
2542 4095 4095
2458 4095 4095
3322 4095 1852
3322 4095 1855
3321 4095 1865
3318 4095 1887
3314 4095 1921
3309 4095 1969
3301 4095 2033
3292 4095 2114
3280 4095 2213
3266 4095 2331
3250 4095 2469
3231 4095 2628
3210 4095 2809
3185 4095 3012
3158 4095 3238
3127 4095 3489
3093 4095 3764
3055 4095 4065
3012 4095 4095
2966 4095 4095
2915 4095 4095
2858 4095 4095
2796 4095 4095
2728 4095 4095
2653 4095 4095
168 0 0
171 0 171
168 0 337
168 0 508
171 3 686
171 3 857
171 10 1021
171 16 1196
171 26 1366
171 42 1536
171 65 1707
171 94 1878
171 129 2046
171 177 2219
171 235 2389
171 308 2559
171 396 2729
171 500 2900
171 624 3072
171 769 3242
171 938 3413
171 1132 3640
171 1355 4075
171 1609 4095
171 1897 4095
186 171 0
171 171 171
171 171 341
171 171 512
171 171 682
171 171 851
171 171 1023
171 171 1195
171 171 1367
171 171 1535
171 171 1705
171 171 1877
171 171 2047
171 177 2218
171 238 2388
171 310 2559
171 396 2731
171 501 2901
171 625 3071
171 771 3242
171 939 3413
171 1133 3641
171 1356 4076
171 1610 4095
171 1898 4095
297 339 3
291 339 171
250 341 341
171 341 513
171 341 684
171 341 853
171 341 1025
171 341 1193
171 341 1365
171 341 1536
171 341 1707
171 341 1878
171 341 2048
171 341 2219
171 341 2389
171 341 2560
171 399 2731
171 504 2900
171 628 3071
171 774 3242
171 942 3412
171 1137 3644
171 1361 4080
171 1615 4095
171 1903 4095
428 512 10
423 512 171
401 512 341
349 513 513
230 512 683
171 512 854
171 513 1025
171 512 1194
171 512 1365
171 512 1536
171 512 1707
171 512 1876
171 512 2048
171 512 2219
171 512 2389
171 512 2560
171 512 2730
171 512 2900
171 635 3071
171 781 3242
171 950 3413
171 1146 3653
171 1370 4088
171 1625 4095
171 1914 4095
562 682 23
559 683 171
545 683 341
512 682 512
454 682 682
347 683 853
171 683 1024
171 682 1194
171 683 1365
171 683 1536
171 683 1707
171 682 1876
171 683 2048
171 683 2219
171 683 2389
171 683 2560
171 683 2730
171 683 2901
171 683 3072
171 793 3242
171 963 3412
171 1160 3665
171 1384 4095
171 1641 4095
171 1930 4095
698 853 39
696 853 171
685 853 341
662 853 512
624 853 683
562 853 853
461 853 1023
250 853 1194
171 853 1365
171 852 1535
171 853 1707
171 853 1877
171 852 2047
171 852 2218
171 853 2388
171 852 2559
171 853 2730
171 853 2900
171 853 3071
171 853 3242
171 981 3413
171 1179 3683
171 1405 4095
171 1662 4095
171 1954 4095
835 1023 61
834 1023 171
825 1023 341
807 1023 512
779 1023 683
735 1024 853
670 1024 1024
572 1023 1194
408 1023 1364
171 1024 1536
171 1024 1707
171 1023 1876
171 1024 2048
171 1024 2219
171 1024 2389
171 1024 2560
171 1024 2730
171 1023 2900
171 1024 3072
171 1023 3242
171 1023 3412
171 1205 3707
171 1433 4095
171 1692 4095
171 1985 4095
973 1194 90
972 1195 171
964 1194 341
950 1194 512
928 1195 683
894 1194 853
845 1194 1023
779 1195 1195
685 1194 1365
541 1195 1536
217 1195 1707
171 1195 1877
171 1194 2047
171 1194 2218
171 1194 2389
171 1194 2559
171 1195 2731
171 1195 2900
171 1195 3071
171 1195 3242
171 1195 3412
171 1238 3738
171 1468 4095
171 1729 4095
171 2024 4095
1110 1365 126
1110 1365 171
1103 1365 341
1093 1365 512
1073 1365 683
1046 1365 853
1008 1365 1023
957 1365 1195
888 1365 1365
797 1365 1536
665 1365 1706
443 1365 1877
171 1365 2048
171 1365 2218
171 1365 2389
171 1365 2560
171 1365 2730
171 1365 2901
171 1365 3072
171 1365 3242
171 1365 3412
171 1365 3775
171 1512 4095
171 1775 4095
171 2074 4095
1249 1536 171
1247 1535 171
1243 1536 341
1233 1535 512
1217 1536 683
1194 1536 853
1163 1536 1024
1122 1536 1195
1068 1536 1365
998 1535 1535
908 1536 1706
785 1536 1877
600 1536 2047
171 1536 2218
171 1536 2389
171 1536 2559
171 1536 2730
171 1536 2901
171 1536 3071
171 1535 3242
171 1536 3413
171 1536 3819
171 1564 4095
171 1831 4095
171 2133 4095
1386 1706 220
1386 1706 222
1382 1707 341
1373 1707 512
1359 1706 683
1340 1706 853
1313 1706 1024
1279 1706 1194
1235 1707 1365
1178 1706 1535
1109 1706 1706
1019 1706 1877
902 1706 2047
738 1707 2218
452 1707 2389
171 1706 2559
171 1706 2730
171 1707 2901
171 1707 3071
171 1706 3242
171 1706 3463
171 1707 3871
171 1707 4095
171 1897 4095
171 2202 4095
