Examples/Channels - No green.3dl
#25pt 3DLUT created by 3D LUT Creator Pro (c) Oleg Sharonov
#Copyright Oleg Sharonov
0 43 86 128 171 214 256 299 341 384 427 469 512 555 597 640 682 725 768 810 853 896 938 981 1023 
0 0 0
0 0 177
0 0 341
0 0 512
0 0 683
0 0 850
0 0 1022
0 0 1196
0 0 1362
0 0 1535
0 0 1704
0 0 1877
0 0 2047
0 0 2217
0 0 2388
0 0 2559
0 0 2731
0 0 2900
0 0 3071
0 0 3243
0 0 3413
0 0 3583
0 0 3754
0 0 3925
0 0 4095
0 10 0
0 90 171
0 171 341
0 171 513
0 171 684
0 171 852
0 171 1023
0 171 1196
0 171 1364
0 171 1535
0 171 1705
0 171 1878
0 171 2047
0 171 2218
0 171 2389
0 171 2559
0 171 2729
0 171 2901
0 171 3071
0 171 3243
0 171 3413
0 171 3583
0 171 3754
0 171 3925
0 171 4095
0 19 0
0 103 174
0 212 343
0 332 513
0 341 681
0 341 854
0 341 1025
0 341 1194
0 341 1366
0 341 1537
0 341 1707
0 341 1876
0 341 2049
0 341 2219
0 341 2390
0 341 2560
0 341 2730
0 341 2900
0 341 3070
0 341 3242
0 341 3412
0 341 3583
0 341 3753
0 341 3924
0 341 4095
0 36 0
0 119 168
0 228 343
0 343 513
0 462 682
0 512 852
0 512 1023
0 512 1195
0 512 1366
0 512 1535
0 512 1708
0 512 1877
0 512 2047
0 512 2217
0 512 2388
0 512 2559
0 512 2731
0 512 2900
0 512 3071
0 512 3242
0 512 3412
0 512 3583
0 512 3754
0 512 3924
0 512 4095
0 65 0
0 145 171
0 245 341
0 356 512
0 474 683
0 594 853
0 682 1023
0 683 1194
0 683 1365
0 682 1535
0 683 1707
0 682 1877
0 682 2047
0 682 2217
0 682 2388
0 682 2559
0 683 2731
0 682 2900
0 682 3071
0 683 3242
0 683 3412
0 683 3583
0 683 3754
0 683 3924
0 683 4095
0 94 0
0 177 171
0 267 341
0 374 512
0 488 683
0 605 853
0 725 1023
0 847 1195
0 852 1364
0 853 1535
0 852 1706
0 853 1877
0 853 2047
0 853 2218
0 853 2389
0 853 2559
0 853 2731
0 853 2900
0 853 3071
0 853 3242
0 853 3413
0 853 3583
0 853 3754
0 853 3925
0 853 4095
0 132 0
0 209 171
0 295 343
0 394 513
0 503 682
0 617 852
0 735 1023
0 856 1195
0 977 1365
0 1023 1535
0 1024 1707
0 1023 1877
0 1023 2047
0 1023 2218
0 1023 2388
0 1023 2559
0 1024 2730
0 1023 2900
0 1023 3071
0 1024 3242
0 1024 3412
0 1023 3583
0 1023 3754
0 1024 3924
0 1024 4095
0 180 0
0 248 171
0 324 341
0 417 512
0 522 683
0 633 853
0 750 1024
0 867 1194
0 988 1365
0 1109 1535
0 1194 1706
0 1195 1877
0 1195 2048
0 1195 2218
0 1195 2389
0 1195 2559
0 1194 2730
0 1195 2901
0 1195 3071
0 1194 3242
0 1195 3413
0 1195 3583
0 1195 3754
0 1195 3925
0 1195 4095
0 228 0
0 287 171
0 356 339
0 445 513
0 543 682
0 651 852
0 765 1023
0 880 1195
0 999 1365
0 1119 1536
0 1240 1707
0 1362 1877
0 1365 2048
0 1365 2219
0 1365 2389
0 1365 2560
0 1365 2730
0 1365 2900
0 1365 3071
0 1365 3242
0 1365 3412
0 1365 3583
0 1365 3754
0 1365 3924
0 1365 4095
0 278 0
0 330 171
0 393 341
0 474 512
0 569 683
0 672 853
0 782 1024
0 895 1195
0 1011 1365
0 1129 1535
0 1250 1707
0 1371 1877
0 1493 2047
0 1536 2218
0 1536 2389
0 1536 2560
0 1536 2730
0 1536 2901
0 1536 3072
0 1536 3242
0 1535 3412
0 1535 3583
0 1535 3754
0 1536 3924
0 1536 4095
0 324 0
0 370 171
0 428 339
0 506 513
0 594 682
0 695 852
0 801 1023
0 912 1195
0 1026 1365
0 1143 1536
0 1261 1707
0 1381 1877
0 1502 2048
0 1623 2218
0 1707 2389
0 1707 2560
0 1706 2730
0 1707 2901
0 1707 3071
0 1706 3242
0 1706 3412
0 1707 3583
0 1706 3754
0 1706 3924
0 1706 4095
0 374 0
0 416 171
0 468 341
0 538 512
0 624 682
0 719 852
0 822 1024
0 930 1194
0 1042 1365
0 1157 1536
0 1274 1706
0 1393 1877
0 1512 2048
0 1633 2218
0 1755 2389
0 1877 2560
0 1877 2730
0 1877 2901
0 1877 3071
0 1877 3242
0 1877 3412
0 1877 3583
0 1877 3754
0 1877 3924
0 1877 4095
0 422 0
0 460 171
0 508 341
0 573 512
0 654 682
0 745 853
0 845 1024
0 950 1194
0 1060 1365
0 1173 1536
0 1288 1706
0 1405 1877
0 1524 2048
0 1643 2218
0 1765 2389
0 1886 2559
0 2008 2730
0 2048 2900
0 2048 3071
0 2048 3242
0 2048 3412
0 2048 3583
0 2048 3754
0 2048 3924
0 2048 4095
0 470 0
0 505 171
0 551 341
0 612 512
0 688 683
0 775 853
0 870 1023
0 973 1195
0 1079 1365
0 1190 1536
0 1304 1707
0 1419 1877
0 1536 2048
0 1655 2218
0 1775 2389
0 1896 2560
0 2017 2730
0 2139 2901
0 2218 3071
0 2218 3242
0 2218 3412
0 2218 3583
0 2218 3754
0 2218 3924
0 2218 4095
0 518 0
0 551 171
0 592 341
0 649 512
0 721 682
0 804 852
0 896 1024
0 995 1194
0 1100 1365
0 1209 1536
0 1320 1706
0 1434 1877
0 1550 2048
0 1668 2218
0 1786 2389
0 1906 2559
0 2027 2730
0 2148 2901
0 2270 3071
0 2389 3242
0 2389 3412
0 2389 3583
0 2389 3754
0 2389 3924
0 2389 4095
0 568 0
0 596 171
0 634 341
0 689 512
0 756 682
0 835 852
0 924 1024
0 1021 1195
0 1122 1365
0 1229 1536
0 1339 1707
0 1451 1877
0 1565 2048
0 1682 2219
0 1799 2389
0 1918 2559
0 2038 2730
0 2158 2901
0 2279 3071
0 2401 3242
0 2523 3412
0 2559 3583
0 2559 3754
0 2559 3924
0 2559 4095
0 616 0
0 643 171
0 678 341
0 728 512
0 793 683
0 868 853
0 955 1024
0 1047 1194
0 1147 1365
0 1250 1535
0 1358 1706
0 1468 1877
0 1582 2048
0 1696 2218
0 1812 2389
0 1930 2559
0 2049 2730
0 2169 2900
0 2289 3071
0 2410 3242
0 2532 3412
0 2654 3583
0 2730 3754
0 2730 3924
3 2730 4095
0 664 0
0 690 171
0 722 341
0 769 512
0 831 682
0 903 852
0 985 1024
0 1076 1195
0 1171 1365
0 1273 1536
0 1379 1707
0 1487 1877
0 1599 2047
0 1712 2218
0 1827 2389
0 1944 2559
0 2062 2730
0 2181 2901
0 2300 3071
0 2420 3242
0 2541 3412
0 2663 3583
0 2785 3754
0 2900 3924
0 2900 4095
0 713 0
0 736 171
0 767 341
0 812 512
0 869 682
0 938 853
0 1017 1024
0 1104 1194
0 1198 1365
0 1297 1536
0 1401 1707
0 1507 1877
0 1617 2048
0 1729 2218
0 1843 2389
0 1958 2559
0 2075 2730
0 2193 2900
0 2312 3071
0 2431 3242
0 2551 3412
0 2672 3583
0 2794 3754
0 2916 3924
3 3038 4095
0 762 0
0 783 171
0 812 341
0 854 512
0 909 683
0 975 853
0 1051 1024
0 1134 1194
0 1226 1365
0 1322 1535
0 1423 1706
0 1528 1877
0 1637 2048
0 1747 2218
0 1859 2389
0 1973 2559
0 2089 2730
0 2206 2900
0 2324 3071
0 2443 3242
0 2563 3412
0 2683 3583
0 2804 3754
0 2925 3924
0 3047 4095
0 810 0
0 831 171
0 857 341
0 897 512
0 949 682
0 1012 852
0 1085 1024
0 1166 1194
0 1254 1365
0 1349 1536
0 1447 1706
0 1550 1877
0 1657 2047
0 1765 2218
0 1877 2389
0 1990 2559
0 2104 2730
0 2220 2900
0 2337 3071
0 2455 3242
0 2574 3412
0 2694 3583
0 2814 3754
0 2935 3924
0 3056 4095
0 859 0
0 877 171
0 904 341
0 942 512
0 990 682
0 1051 853
0 1120 1023
0 1199 1195
0 1285 1365
0 1376 1536
0 1473 1707
0 1574 1877
0 1678 2047
0 1786 2218
0 1895 2389
0 2007 2559
0 2120 2730
0 2235 2900
0 2352 3071
0 2469 3242
0 2587 3412
0 2706 3583
0 2825 3754
0 2945 3924
0 3066 4095
0 907 0
0 926 171
0 950 341
0 985 512
0 1032 683
0 1090 853
0 1156 1023
0 1233 1195
0 1315 1365
0 1405 1536
0 1500 1707
0 1599 1877
0 1701 2048
0 1807 2218
0 1915 2389
0 2025 2559
0 2137 2730
0 2251 2900
0 2366 3071
0 2483 3242
0 2600 3412
0 2718 3583
0 2837 3754
0 2957 3924
0 3077 4095
0 955 0
0 973 171
0 996 341
0 1030 512
0 1074 683
0 1129 853
0 1194 1023
0 1267 1195
0 1347 1365
0 1435 1536
0 1527 1707
0 1624 1877
0 1724 2047
0 1829 2218
0 1935 2389
0 2044 2559
0 2155 2730
0 2268 2900
0 2382 3071
0 2497 3242
0 2614 3412
0 2731 3583
0 2849 3754
0 2968 3924
3 3088 4095
0 1004 0
0 1020 171
0 1043 341
0 1074 512
0 1117 683
0 1170 853
0 1232 1023
0 1303 1195
0 1380 1365
0 1465 1536
0 1556 1707
0 1650 1877
0 1749 2047
0 1851 2218
0 1956 2389
0 2064 2559
0 2174 2730
0 2285 2900
0 2398 3071
0 2513 3242
0 2628 3412
0 2745 3583
0 2862 3754
0 2980 3924
0 3099 4095
168 0 0
171 0 171
168 0 337
168 0 509
171 0 680
171 0 857
171 0 1021
171 0 1194
171 0 1367
171 0 1533
171 0 1708
171 0 1876
171 0 2046
171 0 2220
171 0 2387
171 0 2561
171 0 2731
171 0 2900
171 0 3070
171 0 3242
171 0 3412
171 0 3583
171 0 3753
171 0 3924
171 0 4095
171 87 0
171 171 171
171 171 341
171 171 512
171 171 682
171 171 851
171 171 1023
171 171 1195
171 171 1367
171 171 1535
171 171 1705
171 171 1877
171 171 2047
171 171 2217
171 171 2388
171 171 2559
171 171 2731
171 171 2900
171 171 3071
171 171 3242
171 171 3412
171 171 3583
171 171 3754
171 171 3924
171 171 4095
168 100 0
171 180 171
171 273 341
171 341 513
171 341 684
171 341 853
171 341 1025
171 341 1193
171 341 1365
171 341 1536
171 341 1707
171 341 1878
171 341 2048
171 341 2219
171 341 2389
171 341 2560
171 341 2730
171 341 2901
171 341 3072
171 341 3241
171 341 3413
171 341 3584
171 341 3754
171 341 3924
171 341 4095
171 116 0
171 198 171
171 282 339
171 388 513
171 497 682
171 512 854
171 513 1025
171 512 1194
171 512 1365
171 512 1536
171 512 1707
171 512 1876
171 512 2048
171 512 2219
171 512 2389
171 512 2560
171 512 2730
171 512 2900
171 512 3072
171 512 3242
171 512 3412
171 512 3583
171 512 3753
171 512 3924
171 512 4095
168 139 0
171 220 171
171 299 341
171 399 512
171 508 683
171 622 854
171 683 1024
171 682 1194
171 683 1365
171 683 1536
171 683 1707
171 682 1876
171 683 2048
171 683 2219
171 683 2389
171 683 2560
171 683 2730
171 683 2901
171 683 3072
171 683 3242
171 682 3412
171 682 3582
171 682 3753
171 683 3924
168 682 4095
168 171 0
171 243 171
171 320 341
171 414 512
171 520 683
171 632 853
171 747 1023
171 853 1194
171 853 1365
171 852 1535
171 853 1707
171 853 1877
171 852 2047
171 852 2218
171 853 2388
171 852 2559
171 853 2730
171 853 2900
171 853 3071
171 853 3242
171 853 3412
171 853 3583
171 853 3754
171 853 3924
171 853 4095
171 206 0
171 271 171
171 343 341
171 434 513
171 535 682
171 644 852
171 758 1024
171 875 1195
171 994 1365
171 1024 1536
171 1024 1707
171 1023 1876
171 1024 2048
171 1024 2219
171 1024 2389
171 1024 2560
171 1024 2730
171 1023 2900
171 1024 3072
171 1023 3242
171 1023 3412
171 1023 3583
171 1023 3753
171 1023 3924
171 1023 4095
171 248 0
171 304 171
171 370 341
171 455 512
171 553 683
171 659 853
171 771 1024
171 885 1195
171 1004 1365
171 1123 1535
171 1194 1706
171 1195 1877
171 1194 2047
171 1194 2218
171 1194 2389
171 1194 2559
171 1195 2731
171 1195 2900
171 1195 3071
171 1195 3242
171 1195 3412
171 1195 3583
171 1195 3754
171 1195 3924
171 1195 4095
171 287 0
171 337 171
171 399 341
171 481 513
171 573 682
171 676 852
171 785 1024
171 898 1194
171 1014 1365
171 1133 1536
171 1251 1706
171 1365 1877
171 1365 2048
171 1365 2218
171 1365 2389
171 1365 2560
171 1365 2730
171 1365 2901
171 1365 3072
171 1365 3242
171 1365 3412
171 1365 3583
171 1365 3754
171 1365 3924
171 1365 4095
171 326 0
171 376 171
171 433 341
171 508 512
171 597 683
171 696 853
171 802 1023
171 913 1195
171 1027 1365
171 1143 1536
171 1262 1707
171 1382 1877
171 1503 2048
171 1536 2218
171 1536 2389
171 1536 2559
171 1536 2730
171 1536 2901
171 1536 3071
171 1535 3242
171 1536 3413
171 1536 3583
171 1536 3754
171 1536 3925
171 1536 4095
171 370 0
171 412 171
171 465 341
171 537 513
171 622 682
171 717 852
171 821 1024
171 928 1194
171 1041 1365
171 1156 1536
171 1273 1706
171 1392 1877
171 1512 2048
171 1633 2218
171 1707 2389
171 1706 2559
171 1706 2730
171 1707 2901
171 1707 3071
171 1706 3242
171 1707 3413
171 1707 3583
171 1707 3754
171 1707 3925
171 1707 4095
