Examples/Channels - Pale colds.3dl
#25pt 3DLUT created by 3D LUT Creator Pro (c) Oleg Sharonov
#Copyright Oleg Sharonov
#IMAGEPROFILE sRGB IEC61966-2.1 v.2.10
#INPUTGAMMA sRGB IEC61966-2.1 v.2.10
#OUTPUTGAMMA sRGB IEC61966-2.1 v.2.10
0 256 512 768 1023
0 0 0
644 889 1024
1288 1779 2048
1932 2668 3071
2576 3557 4095
649 1023 839
862 1058 1075
1386 1850 2048
1990 2709 3071
2615 3584 4095
1297 2048 1678
1393 2048 1781
1725 2117 2150
2213 2875 3071
2773 3699 4095
1946 3071 2518
2002 3071 2578
2220 3071 2815
2588 3175 3225
3059 3917 4095
2595 4095 3357
2633 4095 3397
2786 4095 3563
3066 4095 3870
3451 4095 4095
1023 0 0
1023 844 1023
1387 1762 2048
1990 2658 3071
2615 3551 4095
1024 1024 765
1024 1024 1024
1476 1834 2048
2045 2699 3071
2653 3578 4095
1395 2048 1652
1482 2048 1757
1793 2104 2131
2261 2866 3071
2808 3693 4095
2003 3071 2503
2057 3071 2563
2268 3071 2802
2627 3168 3215
3090 3911 4095
2634 4095 3347
2671 4095 3387
2821 4095 3554
3097 4095 3862
3477 4095 4095
2048 0 0
2048 596 1024
2048 1689 2048
2214 2618 3071
2773 3524 4095
2048 1024 0
2048 1024 1024
2048 1765 2048
2262 2660 3071
2809 3552 4095
2048 2048 1529
2048 2048 1645
2048 2048 2048
2452 2830 3071
2952 3667 4095
2226 3071 2436
2272 3071 2499
2458 3071 2745
2785 3137 3168
3217 3888 4095
2791 4095 3303
2825 4095 3344
2965 4095 3514
3224 4095 3826
3586 4095 4095
3071 0 0
3071 0 1023
3071 1524 2048
3071 2533 3071
3071 3469 4095
3071 1023 0
3071 1023 1023
3071 1611 2048
3071 2577 3071
3092 3497 4095
3071 2048 1223
3071 2048 1378
3071 2048 2048
3071 2754 3071
3218 3615 4095
3071 3071 2293
3071 3071 2361
3071 3071 2626
3071 3071 3071
3455 3840 4095
3076 4095 3212
3106 4095 3255
3230 4095 3430
3462 4095 3752
3793 4095 4095
4095 0 0
4095 0 1023
4095 1193 2048
4095 2388 3071
4095 3377 4095
4095 1023 0
4095 1024 1024
4095 1312 2048
4095 2436 3071
4095 3407 4095
4095 2048 0
4095 2048 1024
4095 2048 2048
4095 2626 3071
4095 3529 4095
4095 3071 2034
4095 3071 2114
4095 3071 2416
4095 3071 3071
4095 3761 4095
4095 4095 3058
4095 4095 3103
4095 4095 3290
4095 4095 3630
4095 4095 4095
