Examples/Channels - Indian Summer masked.3dl
#25pt 3DLUT created by 3D LUT Creator Pro (c) Oleg Sharonov
#Copyright Oleg Sharonov
#IMAGEPROFILE sRGB IEC61966-2.1 v.2.10
#INPUTGAMMA sRGB IEC61966-2.1 v.2.10
#OUTPUTGAMMA sRGB IEC61966-2.1 v.2.10
0 128 256 384 512 640 768 896 1023
0 0 0
36 307 626
72 624 1270
110 922 1877
138 1169 2413
155 1282 2869
148 1199 3286
101 802 3691
0 0 4095
0 436 68
0 744 692
16 1062 1335
51 1356 1937
86 1595 2462
109 1706 2906
111 1626 3312
81 1254 3705
0 512 4095
0 860 133
0 1166 759
0 1475 1399
0 1759 1994
34 1986 2507
61 2092 2941
76 2023 3336
60 1691 3719
0 1024 4095
0 1283 193
0 1572 816
0 1860 1452
0 2135 2049
2 2347 2553
16 2450 2976
41 2402 3361
41 2120 3733
0 1536 4095
0 1702 241
0 1961 859
0 2214 1486
1 2451 2073
2 2674 2597
4 2784 3009
7 2765 3385
22 2542 3746
0 2048 4095
0 2136 260
0 2345 865
1 2547 1475
1 2736 2047
3 2916 2564
5 3093 3042
5 3112 3408
4 2957 3759
0 2559 4095
0 2615 236
1 2764 820
1 2908 1406
2 3044 1960
3 3175 2472
4 3305 2955
6 3440 3428
6 3362 3765
0 3071 4095
0 3229 153
1 3308 705
1 3385 1258
1 3458 1792
2 3530 2302
3 3602 2795
4 3677 3285
5 3758 3765
0 3583 4095
0 4095 0
0 4095 512
0 4095 1024
0 4095 1536
0 4095 2048
0 4095 2559
0 4095 3071
0 4095 3583
0 4095 4095
552 0 0
593 236 529
629 554 1175
664 855 1791
692 1105 2342
704 1229 2815
688 1160 3248
630 782 3671
512 0 4095
494 368 0
531 675 595
569 994 1242
605 1292 1852
637 1536 2392
656 1656 2852
651 1590 3274
609 1236 3685
512 512 4095
438 792 36
474 1097 661
513 1409 1306
550 1696 1909
585 1930 2438
609 2046 2888
616 1990 3299
589 1674 3698
512 1024 4095
381 1217 98
419 1508 722
456 1799 1362
495 2077 1966
533 2296 2485
564 2409 2923
581 2371 3323
569 2104 3712
512 1536 4095
337 1643 153
371 1904 771
408 2161 1400
443 2401 1995
480 2627 2530
520 2746 2957
547 2736 3348
549 2527 3725
512 2048 4095
316 2087 182
347 2299 788
376 2504 1401
408 2695 1980
442 2878 2506
476 3057 2990
513 3085 3371
531 2942 3738
512 2559 4095
331 2580 176
354 2731 760
378 2877 1349
403 3015 1909
428 3147 2428
454 3278 2915
484 3413 3392
513 3348 3750
512 3071 4095
394 3210 118
407 3290 671
420 3368 1226
435 3442 1763
449 3514 2277
465 3587 2773
481 3662 3264
498 3743 3760
512 3583 4095
512 4095 0
512 4095 512
512 4095 1024
512 4095 1536
512 4095 2048
512 4095 2559
512 4095 3071
512 4095 3583
512 4095 4095
1143 0 0
1176 161 424
1214 481 1074
1247 785 1699
1270 1039 2265
1271 1173 2756
1242 1118 3208
1165 760 3649
1024 0 4095
1083 294 0
1118 603 494
1156 922 1142
1189 1221 1760
1216 1472 2316
1225 1602 2794
1206 1552 3234
1144 1215 3663
1024 512 4095
1026 720 0
1062 1025 560
1099 1338 1206
1134 1629 1819
1164 1870 2364
1180 1997 2831
1172 1955 3259
1125 1656 3677
1024 1024 4095
969 1146 0
1005 1440 622
1043 1733 1265
1079 2014 1877
1112 2241 2411
1135 2364 2866
1137 2339 3284
1106 2087 3690
1024 1536 4095
920 1578 59
955 1843 676
990 2103 1309
1026 2347 1911
1063 2577 2457
1091 2704 2902
1104 2706 3308
1087 2510 3703
1024 2048 4095
891 2034 101
920 2249 706
951 2458 1321
982 2652 1908
1015 2837 2443
1049 3018 2935
1071 3056 3332
1068 2926 3716
1024 2559 4095
890 2542 113
913 2696 697
938 2844 1288
962 2983 1854
987 3117 2380
1014 3249 2873
1042 3385 3353
1052 3332 3728
1024 3071 4095
933 3190 82
946 3271 635
960 3350 1191
974 3425 1732
988 3498 2250
1003 3571 2749
1019 3646 3242
1037 3727 3738
1024 3583 4095
1024 4095 0
1024 4095 512
1024 4095 1024
1024 4095 1536
1024 4095 2048
1024 4095 2559
1024 4095 3071
1024 4095 3583
1024 4095 4095
1707 0 0
1739 90 327
1772 398 973
1806 712 1605
1824 972 2186
1818 1116 2697
1778 1076 3167
1689 737 3627
1536 0 4095
1652 228 0
1684 528 394
1718 840 1040
1753 1151 1667
1774 1407 2238
1774 1549 2736
1745 1513 3193
1670 1195 3641
1536 512 4095
1598 653 0
1632 954 458
1666 1262 1104
1701 1562 1726
1725 1809 2288
1732 1947 2772
1713 1920 3219
1652 1637 3655
1536 1024 4095
1545 1076 0
1579 1370 523
1614 1666 1166
1649 1951 1785
1677 2185 2336
1690 2318 2809
1681 2306 3244
1634 2069 3668
1536 1536 4095
1495 1513 0
1527 1781 580
1561 2044 1217
1594 2292 1826
1629 2525 2383
1648 2662 2844
1649 2675 3268
1616 2494 3682
1536 2048 4095
1459 1980 19
1487 2199 622
1517 2411 1241
1546 2608 1834
1577 2795 2379
1608 2978 2878
1618 3027 3292
1599 2910 3695
1536 2559 4095
1447 2503 50
1469 2659 633
1492 2810 1226
1515 2951 1798
1539 3086 2331
1563 3220 2830
1590 3357 3313
1583 3316 3706
1536 3071 4095
1470 3169 46
1483 3252 598
1496 3332 1156
1510 3408 1700
1523 3481 2222
1537 3554 2725
1553 3631 3220
1569 3712 3716
1536 3583 4095
1536 4095 0
1536 4095 512
1536 4095 1024
1536 4095 1536
1536 4095 2048
1536 4095 2559
1536 4095 3071
1536 4095 3583
1536 4095 4095
2230 0 0
2258 15 241
2285 309 880
2314 605 1510
2342 904 2105
2329 1058 2635
2286 1033 3125
2197 714 3605
2048 0 4095
2183 177 0
2211 459 303
2239 753 943
2268 1048 1569
2296 1341 2157
2290 1493 2675
2257 1473 3151
2180 1174 3619
2048 512 4095
2138 604 0
2167 889 364
2195 1180 1003
2224 1466 1627
2253 1746 2208
2253 1896 2712
2229 1883 3177
2164 1618 3633
2048 1024 4095
2093 1033 0
2121 1312 424
2150 1594 1063
2180 1866 1682
2209 2127 2257
2216 2272 2749
2200 2273 3203
2148 2051 3646
2048 1536 4095
2047 1447 0
2076 1716 484
2106 1983 1122
2135 2235 1737
2166 2472 2306
2178 2619 2786
2172 2644 3227
2132 2477 3659
2048 2048 4095
2009 1925 0
2034 2147 537
2061 2362 1159
2087 2562 1758
2114 2752 2313
2142 2938 2820
2144 2997 3251
2117 2894 3672
2048 2559 4095
1991 2463 0
2010 2622 568
2031 2775 1162
2052 2918 1739
2073 3055 2280
2096 3190 2785
2119 3328 3273
2103 3300 3684
2048 3071 4095
2001 3148 9
2013 3232 561
2025 3313 1120
2037 3390 1667
2049 3464 2194
2062 3538 2700
2076 3614 3197
2090 3696 3694
2048 3583 4095
2048 4095 0
2048 4095 512
2048 4095 1024
2048 4095 1536
2048 4095 2048
2048 4095 2559
2048 4095 3071
2048 4095 3583
2048 4095 4095
2705 1 1
2726 1 188
2746 207 810
2767 465 1427
2787 726 2020
2809 996 2569
2770 987 3080
2691 690 3581
2559 0 4095
2670 155 1
2691 403 240
2711 660 865
2732 918 1481
2753 1175 2067
2775 1435 2609
2744 1430 3107
2676 1152 3595
2559 512 4095
2635 594 1
2657 843 294
2677 1099 917
2698 1350 1530
2719 1597 2112
2742 1841 2648
2719 1844 3133
2662 1597 3609
2559 1024 4095
2600 1033 1
2622 1279 345
2643 1527 971
2664 1767 1581
2686 1998 2157
2709 2222 2686
2694 2237 3159
2648 2032 3623
2559 1536 4095
2566 1462 1
2587 1699 399
2609 1935 1022
2631 2159 1629
2653 2370 2200
2676 2573 2722
2669 2610 3184
2634 2459 3636
2559 2048 4095
2532 1866 1
2554 2091 448
2576 2310 1071
2598 2514 1676
2621 2707 2241
2645 2895 2758
2645 2965 3208
2620 2876 3649
2559 2559 4095
2515 2420 1
2532 2582 498
2549 2738 1095
2567 2883 1677
2584 3022 2226
2603 3158 2737
2623 3298 3230
2608 3283 3661
2559 3071 4095
2522 3125 0
2532 3211 521
2542 3293 1082
2552 3371 1632
2562 3446 2163
2573 3520 2673
2585 3598 3172
2597 3679 3671
2559 3583 4095
2559 4095 0
2559 4095 512
2559 4095 1024
2559 4095 1536
2559 4095 2048
2559 4095 2559
2559 4095 3071
2559 4095 3583
2559 4095 4095
3163 2 2
3177 2 195
3191 105 783
3205 306 1379
3218 508 1959
3233 718 2509
3249 936 3029
3182 662 3555
3071 0 4095
3139 195 2
3153 374 227
3167 573 825
3180 772 1421
3194 972 1997
3209 1175 2541
3225 1382 3057
3169 1127 3570
3071 512 4095
3115 638 2
3129 831 267
3143 1029 867
3157 1224 1459
3171 1417 2032
3186 1608 2571
3202 1800 3083
3156 1574 3583
3071 1024 4095
3091 1094 1
3105 1284 310
3119 1477 907
3134 1665 1499
3148 1847 2068
3163 2023 2601
3180 2197 3110
3143 2011 3597
3071 1536 4095
3068 1543 1
3082 1727 349
3096 1912 947
3110 2088 1537
3125 2254 2102
3140 2414 2631
3157 2573 3135
3131 2439 3610
3071 2048 4095
3045 1973 1
3059 2149 388
3074 2322 986
3088 2482 1573
3103 2634 2134
3119 2782 2658
3136 2930 3160
3119 2857 3623
3071 2559 4095
3024 2373 1
3038 2537 422
3053 2696 1020
3068 2844 1606
3083 2985 2164
3099 3124 2683
3116 3264 3182
3108 3265 3635
3071 3071 4095
3034 3100 1
3042 3187 478
3051 3271 1039
3059 3350 1592
3068 3426 2128
3077 3501 2642
3087 3579 3145
3098 3661 3645
3071 3583 4095
3071 4095 0
3071 4095 512
3071 4095 1024
3071 4095 1536
3071 4095 2048
3071 4095 2559
3071 4095 3071
3071 4095 3583
3071 4095 4095
3624 2 2
3631 2 332
3639 28 839
3646 140 1400
3653 255 1954
3661 375 2493
3669 501 3015
3678 631 3526
3583 0 4095
3611 332 2
3619 399 332
3626 513 863
3633 627 1424
3640 741 1976
3648 857 2512
3656 977 3031
3665 1099 3541
3583 512 4095
3599 770 2
3606 880 332
3613 993 886
3620 1105 1446
3628 1216 1997
3635 1326 2530
3644 1438 3047
3653 1548 3554
3583 1024 4095
3586 1250 2
3594 1359 349
3601 1470 910
3608 1578 1469
3615 1683 2017
3623 1785 2548
3632 1887 3062
3641 1987 3568
3583 1536 4095
3574 1727 1
3581 1833 372
3589 1939 932
3596 2041 1491
3603 2138 2037
3611 2231 2565
3620 2323 3077
3630 2417 3582
3583 2048 4095
3562 2193 1
3569 2295 393
3577 2395 954
3584 2489 1512
3592 2577 2056
3600 2662 2581
3608 2748 3091
3618 2836 3595
3583 2559 4095
3551 2643 1
3559 2739 413
3566 2831 974
3573 2917 1531
3581 2999 2074
3589 3079 2596
3598 3160 3104
3608 3244 3607
3583 3071 4095
3542 3071 1
3549 3160 431
3557 3246 992
3564 3327 1548
3572 3404 2088
3580 3480 2608
3589 3558 3115
3599 3640 3617
3583 3583 4095
3583 4095 0
3583 4095 512
3583 4095 1024
3583 4095 1536
3583 4095 2048
3583 4095 2559
3583 4095 3071
3583 4095 3583
3583 4095 4095
4095 0 0
4095 0 512
4095 0 1024
4095 0 1536
4095 0 2048
4095 0 2559
4095 0 3071
4095 0 3583
4095 0 4095
4095 512 0
4095 512 512
4095 512 1024
4095 512 1536
4095 512 2048
4095 512 2559
4095 512 3071
4095 512 3583
4095 512 4095
4095 1024 0
4095 1024 512
4095 1024 1024
4095 1024 1536
4095 1024 2048
4095 1024 2559
4095 1024 3071
4095 1024 3583
4095 1024 4095
4095 1536 0
4095 1536 512
4095 1536 1024
4095 1536 1536
4095 1536 2048
4095 1536 2559
4095 1536 3071
4095 1536 3583
4095 1536 4095
4095 2048 0
4095 2048 512
4095 2048 1024
4095 2048 1536
4095 2048 2048
4095 2048 2559
4095 2048 3071
4095 2048 3583
4095 2048 4095
4095 2559 0
4095 2559 512
4095 2559 1024
4095 2559 1536
4095 2559 2048
4095 2559 2559
4095 2559 3071
4095 2559 3583
4095 2559 4095
4095 3071 0
4095 3071 512
4095 3071 1024
4095 3071 1536
4095 3071 2048
4095 3071 2559
4095 3071 3071
4095 3071 3583
4095 3071 4095
4095 3583 0
4095 3583 512
4095 3583 1024
4095 3583 1536
4095 3583 2048
4095 3583 2559
4095 3583 3071
4095 3583 3583
4095 3583 4095
4095 4095 0
4095 4095 512
4095 4095 1024
4095 4095 1536
4095 4095 2048
4095 4095 2559
4095 4095 3071
4095 4095 3583
4095 4095 4095
