Examples/Channels - Indian Summer masked.3dl
#25pt 3DLUT created by 3D LUT Creator Pro (c) Oleg Sharonov
#Copyright Oleg Sharonov
#IMAGEPROFILE sRGB IEC61966-2.1 v.2.10
#INPUTGAMMA sRGB IEC61966-2.1 v.2.10
#OUTPUTGAMMA sRGB IEC61966-2.1 v.2.10
0 43 86 128 171 214 256 299 341 384 427 469 512 555 597 640 682 725 768 810 853 896 938 981 1023 
0 0 0
12 97 194
24 198 409
36 307 626
48 411 842
60 516 1055
72 624 1270
84 730 1479
100 833 1683
110 922 1877
120 1008 2063
129 1090 2242
138 1169 2413
146 1230 2573
152 1261 2723
155 1282 2869
159 1294 3013
158 1291 3156
148 1199 3286
135 1087 3418
120 955 3554
101 802 3691
72 565 3824
38 295 3945
0 0 4095
0 157 24
0 251 218
4 354 431
16 463 649
28 569 866
40 674 1079
52 781 1293
64 889 1503
76 990 1706
87 1080 1899
101 1164 2084
110 1245 2261
120 1322 2431
127 1384 2590
135 1414 2738
138 1434 2882
140 1445 3025
143 1441 3167
133 1350 3295
123 1239 3426
111 1108 3560
94 957 3696
68 725 3827
36 460 3945
0 171 4095
0 298 44
0 391 236
0 496 454
0 603 670
8 711 888
20 817 1103
32 923 1315
48 1029 1524
60 1130 1726
71 1218 1917
81 1303 2101
91 1384 2278
101 1460 2446
113 1521 2605
118 1551 2750
122 1571 2894
128 1582 3036
129 1578 3177
124 1489 3304
115 1381 3433
103 1253 3566
88 1106 3701
63 880 3830
33 622 3945
0 341 4095
0 436 68
0 531 258
0 638 474
0 744 692
0 851 909
4 957 1124
16 1062 1335
28 1168 1545
40 1269 1746
51 1356 1937
62 1441 2120
72 1520 2295
86 1595 2462
95 1655 2618
101 1685 2764
109 1706 2906
113 1717 3047
115 1713 3187
111 1626 3312
104 1520 3440
94 1397 3571
81 1254 3705
59 1034 3833
31 784 3945
0 512 4095
0 576 88
0 674 282
0 779 498
0 885 714
0 992 931
0 1097 1144
0 1201 1357
8 1306 1565
20 1406 1766
31 1493 1956
47 1576 2138
57 1654 2311
68 1729 2477
77 1788 2633
84 1817 2776
93 1837 2917
98 1848 3058
103 1845 3196
99 1760 3320
94 1658 3447
86 1539 3577
74 1401 3710
54 1188 3835
29 946 3945
0 683 4095
0 718 109
0 814 304
0 920 519
0 1027 736
0 1131 953
0 1235 1167
0 1339 1379
0 1442 1586
4 1541 1786
16 1627 1975
27 1709 2155
38 1786 2328
49 1859 2492
59 1917 2647
70 1946 2789
77 1966 2929
85 1977 3068
89 1973 3206
89 1893 3328
83 1795 3454
77 1679 3582
67 1547 3714
49 1342 3835
26 1108 3945
0 853 4095
0 860 133
0 955 325
0 1061 540
0 1166 759
0 1270 974
0 1372 1188
0 1475 1399
0 1576 1606
0 1673 1806
0 1759 1994
8 1839 2173
20 1914 2344
34 1986 2507
45 2043 2661
53 2072 2802
61 2092 2941
70 2103 3079
75 2100 3215
76 2023 3336
74 1929 3461
70 1819 3588
60 1691 3719
45 1494 3835
24 1269 3945
0 1024 4095
0 1000 153
0 1095 348
0 1198 563
0 1303 779
0 1406 996
0 1508 1210
0 1609 1421
0 1708 1627
0 1804 1826
0 1887 2012
1 1966 2190
5 2040 2360
16 2111 2523
27 2166 2675
36 2194 2815
48 2214 2952
55 2226 3089
64 2224 3225
64 2151 3345
64 2062 3467
61 1957 3594
55 1835 3723
41 1646 3835
22 1431 3945
0 1194 4095
0 1141 177
0 1234 369
0 1336 583
0 1439 801
0 1540 1016
0 1639 1230
0 1738 1440
0 1835 1645
0 1930 1846
0 2013 2031
1 2090 2208
1 2163 2376
1 2231 2538
9 2285 2689
23 2313 2828
32 2333 2964
43 2346 3100
49 2346 3234
54 2277 3353
53 2193 3474
52 2094 3599
48 1978 3728
36 1798 3835
20 1591 3945
0 1365 4095
0 1283 193
0 1373 386
0 1473 601
0 1572 816
0 1669 1031
0 1765 1244
0 1860 1452
0 1954 1657
0 2045 1856
0 2135 2049
1 2210 2225
1 2281 2393
2 2347 2553
2 2400 2703
6 2429 2840
16 2450 2976
28 2464 3110
35 2465 3244
41 2402 3361
45 2323 3481
45 2230 3605
41 2120 3733
32 1949 3835
18 1752 3945
0 1536 4095
0 1423 209
0 1512 402
0 1608 616
0 1703 832
0 1797 1045
0 1890 1257
0 1981 1464
0 2070 1668
0 2157 1866
1 2242 2058
1 2326 2242
1 2395 2408
2 2460 2568
2 2512 2717
3 2542 2853
3 2564 2987
13 2579 3121
24 2583 3254
29 2524 3369
34 2452 3488
36 2364 3611
35 2262 3737
28 2100 3835
15 1913 3945
0 1706 4095
0 1564 226
0 1649 418
0 1742 632
0 1833 846
0 1923 1059
0 2012 1269
0 2099 1476
0 2184 1678
1 2267 1875
1 2348 2065
1 2427 2249
2 2505 2424
2 2569 2582
3 2621 2731
3 2652 2865
3 2676 2998
4 2692 3131
10 2698 3263
19 2645 3377
26 2579 3495
27 2498 3616
28 2402 3741
23 2250 3835
13 2073 3945
0 1877 4095
0 1702 241
0 1784 435
0 1873 647
0 1961 859
0 2048 1071
0 2132 1280
0 2214 1486
0 2295 1687
1 2374 1883
1 2451 2073
1 2526 2254
2 2601 2429
2 2674 2597
3 2727 2744
3 2759 2878
4 2784 3009
4 2803 3141
4 2811 3272
7 2765 3385
15 2705 3501
20 2631 3622
22 2542 3746
19 2399 3835
11 2233 3945
0 2048 4095
0 1842 253
0 1920 445
0 2004 656
0 2088 868
0 2169 1078
0 2249 1286
0 2327 1490
1 2402 1690
1 2476 1884
1 2549 2073
2 2620 2254
2 2690 2427
2 2760 2595
3 2828 2757
4 2863 2889
4 2890 3020
4 2911 3151
5 2922 3281
5 2882 3392
5 2829 3508
11 2762 3627
15 2681 3750
14 2549 3835
9 2393 3945
0 2218 4095
0 1989 259
0 2061 448
0 2139 657
0 2217 868
0 2291 1076
0 2365 1282
1 2436 1484
1 2506 1682
1 2574 1874
1 2641 2061
2 2707 2241
2 2772 2413
3 2836 2580
3 2900 2743
4 2963 2901
4 2993 3031
5 3017 3161
5 3031 3290
5 2998 3400
5 2952 3514
5 2893 3633
10 2820 3755
10 2697 3835
7 2552 3945
0 2389 4095
0 2136 260
0 2202 450
0 2274 658
0 2345 865
0 2414 1071
1 2481 1275
1 2547 1475
1 2611 1670
1 2674 1862
1 2736 2047
2 2797 2225
2 2857 2397
3 2916 2564
3 2975 2726
4 3034 2885
5 3093 3042
5 3120 3171
5 3137 3299
5 3112 3408
5 3074 3521
5 3022 3638
4 2957 3759
5 2845 3835
5 2712 3945
0 2559 4095
0 2283 261
0 2344 450
0 2411 655
0 2475 860
1 2538 1064
1 2600 1265
1 2660 1464
1 2719 1658
1 2777 1847
2 2834 2031
2 2890 2208
2 2945 2380
3 3000 2546
3 3055 2708
4 3109 2867
5 3164 3024
5 3220 3180
6 3241 3307
5 3223 3415
5 3193 3527
5 3150 3643
4 3093 3763
3 2993 3835
3 2871 3945
0 2730 4095
0 2433 257
0 2489 446
0 2549 648
0 2608 852
1 2665 1053
1 2721 1252
1 2776 1449
1 2830 1641
1 2884 1828
2 2935 2010
2 2987 2187
2 3038 2357
3 3088 2524
3 3138 2686
4 3189 2846
5 3239 3003
5 3290 3159
6 3342 3315
6 3333 3422
5 3311 3533
5 3276 3648
4 3228 3765
3 3140 3835
2 3029 3945
0 2901 4095
0 2615 236
0 2663 422
0 2714 621
1 2764 820
1 2813 1018
1 2861 1213
1 2908 1406
1 2954 1595
1 2999 1780
2 3044 1960
2 3088 2135
2 3131 2306
3 3175 2472
3 3218 2635
4 3261 2796
4 3305 2955
5 3349 3112
5 3394 3270
6 3440 3428
6 3427 3538
5 3401 3652
6 3362 3765
3 3286 3835
2 3188 3945
0 3071 4095
0 2807 212
0 2846 396
0 2889 590
1 2931 785
1 2972 978
1 3012 1170
1 3052 1360
1 3091 1546
1 3128 1728
2 3166 1907
2 3203 2081
2 3240 2251
2 3276 2418
3 3313 2582
3 3349 2743
4 3386 2904
4 3424 3063
5 3462 3223
5 3501 3383
6 3541 3544
5 3525 3657
5 3495 3765
5 3431 3835
2 3344 3945
0 3242 4095
0 3011 183
0 3043 365
0 3078 556
1 3112 746
1 3145 936
1 3178 1124
1 3210 1310
1 3242 1494
1 3273 1674
1 3304 1851
2 3334 2024
2 3364 2194
2 3394 2361
3 3424 2526
3 3454 2689
3 3485 2851
4 3516 3012
4 3547 3173
5 3580 3335
5 3613 3497
6 3647 3661
6 3627 3765
3 3575 3835
2 3494 3945
0 3412 4095
0 3229 153
0 3254 332
0 3281 518
1 3308 705
1 3334 890
1 3360 1075
1 3385 1258
1 3410 1438
1 3434 1617
1 3458 1792
1 3482 1964
2 3506 2134
2 3530 2302
2 3553 2468
2 3577 2632
3 3602 2795
3 3626 2959
3 3651 3122
4 3677 3285
4 3703 3449
5 3730 3614
5 3758 3765
4 3705 3835
2 3644 3945
0 3583 4095
0 3492 106
0 3509 283
0 3527 464
0 3544 645
0 3561 826
0 3579 1006
1 3595 1184
1 3612 1362
1 3628 1537
1 3644 1711
1 3660 1883
1 3676 2053
1 3691 2221
1 3707 2388
2 3723 2555
2 3739 2720
2 3756 2886
2 3773 3051
3 3790 3217
3 3807 3383
3 3826 3550
4 3835 3705
4 3835 3835
2 3794 3945
0 3754 4095
0 3782 55
0 3790 228
0 3799 404
0 3807 580
0 3816 756
0 3824 931
0 3832 1106
0 3841 1280
0 3849 1453
0 3856 1625
1 3864 1796
1 3872 1966
1 3880 2136
1 3888 2305
1 3896 2473
1 3904 2641
1 3912 2809
1 3920 2977
1 3929 3145
1 3938 3314
2 3945 3482
2 3945 3644
2 3945 3794
2 3945 3945
0 3924 4095
0 4095 0
0 4095 171
0 4095 341
0 4095 512
0 4095 683
0 4095 853
0 4095 1024
0 4095 1194
0 4095 1365
0 4095 1536
0 4095 1706
0 4095 1877
0 4095 2048
0 4095 2218
0 4095 2389
0 4095 2559
0 4095 2730
0 4095 2901
0 4095 3071
0 4095 3242
0 4095 3412
0 4095 3583
0 4095 3754
0 4095 3924
0 4095 4095
169 0 0
173 72 161
190 177 376
202 282 593
214 391 813
229 496 1028
240 602 1240
251 709 1452
264 812 1656
276 902 1851
287 989 2039
297 1070 2220
306 1149 2392
316 1213 2554
319 1244 2705
323 1266 2853
325 1279 2999
327 1277 3143
316 1187 3275
305 1077 3409
289 947 3546
271 796 3685
242 561 3820
208 293 3945
171 0 4095
145 137 0
157 233 190
169 334 402
181 443 619
194 548 836
206 654 1052
218 760 1264
233 867 1475
244 969 1678
256 1060 1873
265 1145 2059
276 1226 2239
286 1304 2409
294 1366 2571
301 1397 2720
304 1418 2866
308 1431 3011
312 1428 3154
303 1338 3284
293 1229 3417
279 1100 3552
264 952 3690
237 721 3823
206 458 3945
171 171 4095
125 275 16
137 370 210
149 476 424
161 582 641
173 689 857
185 796 1073
198 901 1286
214 1009 1496
225 1110 1700
235 1199 1892
248 1283 2077
257 1365 2255
268 1442 2425
277 1503 2585
286 1534 2733
290 1556 2878
295 1568 3022
298 1565 3164
291 1478 3292
283 1372 3423
272 1246 3558
257 1101 3695
233 876 3826
204 620 3945
171 341 4095
105 416 40
117 512 233
129 617 445
141 724 664
153 830 879
169 936 1095
181 1043 1308
194 1147 1516
206 1248 1719
217 1337 1911
227 1421 2096
240 1502 2272
252 1577 2440
263 1639 2599
270 1669 2746
275 1690 2890
279 1703 3032
284 1700 3173
279 1615 3300
273 1512 3430
262 1389 3563
250 1249 3699
228 1031 3829
201 783 3945
171 512 4095
88 558 60
101 654 254
113 759 468
125 865 685
137 970 901
149 1076 1116
161 1182 1330
173 1286 1538
186 1386 1739
197 1474 1931
212 1557 2113
223 1636 2289
233 1711 2456
244 1771 2614
253 1801 2759
260 1823 2902
265 1835 3043
271 1832 3183
268 1750 3309
263 1650 3437
254 1532 3569
243 1395 3704
224 1185 3832
199 945 3945
171 683 4095
68 697 80
80 793 275
92 900 489
104 1004 706
117 1111 924
129 1216 1138
141 1319 1350
153 1421 1558
169 1521 1760
181 1608 1949
193 1690 2131
205 1768 2305
215 1841 2471
228 1901 2628
235 1931 2772
243 1952 2913
250 1964 3054
258 1962 3193
255 1882 3317
252 1786 3444
247 1673 3575
237 1541 3708
219 1338 3835
197 1106 3945
171 853 4095
48 840 105
60 935 298
72 1040 512
84 1144 728
96 1249 945
109 1353 1160
125 1455 1371
137 1556 1579
149 1655 1780
162 1740 1968
174 1821 2149
186 1897 2322
201 1969 2487
211 2027 2642
219 2057 2785
229 2078 2925
237 2090 3064
244 2088 3202
243 2013 3325
242 1921 3451
237 1812 3580
230 1686 3713
215 1491 3835
194 1268 3945
171 1024 4095
32 979 125
40 1075 319
52 1179 535
68 1283 752
80 1386 967
92 1488 1181
105 1589 1393
117 1689 1599
129 1785 1800
142 1869 1987
154 1948 2167
170 2024 2338
182 2094 2502
193 2151 2656
203 2180 2797
214 2201 2936
224 2213 3075
231 2213 3212
233 2141 3333
232 2054 3458
229 1950 3586
223 1830 3717
211 1643 3835
192 1429 3945
171 1194 4095
13 1120 144
25 1213 339
37 1317 555
49 1418 771
61 1520 987
73 1619 1201
85 1719 1412
97 1816 1618
113 1912 1819
126 1995 2005
139 2073 2185
151 2146 2355
163 2215 2517
175 2270 2670
189 2300 2810
199 2321 2948
210 2334 3085
216 2335 3222
220 2268 3341
223 2186 3465
221 2087 3592
217 1973 3722
206 1795 3835
190 1590 3945
171 1365 4095
4 1263 165
8 1354 358
19 1453 573
31 1552 788
43 1651 1003
55 1746 1216
71 1841 1425
83 1935 1631
95 2027 1831
107 2117 2024
120 2194 2202
133 2265 2371
149 2332 2532
161 2386 2684
172 2416 2823
182 2438 2960
195 2452 3096
203 2454 3231
209 2393 3350
212 2316 3472
213 2223 3597
210 2116 3726
201 1946 3835
188 1751 3945
171 1536 4095
7 1405 182
7 1493 375
7 1590 590
18 1685 803
30 1779 1018
42 1872 1229
53 1963 1438
65 2052 1642
77 2140 1841
89 2226 2034
104 2310 2219
118 2380 2387
130 2445 2548
143 2498 2698
155 2529 2836
170 2552 2971
180 2568 3106
191 2572 3241
197 2516 3358
202 2444 3479
204 2358 3603
204 2257 3731
197 2096 3835
186 1911 3945
171 1706 4095
