Examples/Channels - Colds to cyan.3dl
#25pt 3DLUT created by 3D LUT Creator Pro (c) Oleg Sharonov
#Copyright Oleg Sharonov
#IMAGEPROFILE sRGB IEC61966-2.1 v.2.10
#INPUTGAMMA sRGB IEC61966-2.1 v.2.10
#OUTPUTGAMMA sRGB IEC61966-2.1 v.2.10
0 43 86 128 171 214 256 299 341 384 427 469 512 555 597 640 682 725 768 810 853 896 938 981 1023 
0 0 0
55 155 183
113 312 372
168 467 557
225 623 743
280 778 929
337 934 1115
393 1089 1300
449 1246 1486
505 1401 1672
562 1557 1858
617 1712 2044
673 1868 2229
730 2024 2415
786 2179 2601
842 2335 2787
898 2490 2972
955 2646 3158
1010 2802 3344
1067 2957 3530
1122 3113 3716
1179 3269 3902
1235 3424 4087
1291 3580 4095
1347 3736 4095
39 171 123
65 174 212
116 320 383
171 471 563
225 626 748
282 781 932
337 936 1117
393 1091 1303
449 1247 1488
505 1402 1673
562 1557 1859
617 1713 2045
674 1868 2230
730 2024 2416
786 2180 2602
842 2335 2788
898 2491 2973
955 2646 3159
1011 2802 3345
1067 2958 3530
1123 3114 3716
1179 3269 3902
1235 3425 4088
1291 3580 4095
1347 3736 4095
74 341 245
87 339 291
129 351 423
177 490 588
230 639 764
287 790 945
341 943 1127
396 1097 1310
452 1251 1495
508 1406 1679
563 1561 1864
619 1716 2049
675 1871 2234
731 2027 2419
787 2182 2605
843 2337 2790
899 2493 2976
955 2648 3161
1011 2804 3347
1067 2959 3532
1123 3115 3718
1179 3271 3904
1236 3426 4090
1291 3581 4095
1348 3737 4095
113 512 369
123 512 396
152 512 494
192 527 636
243 664 798
293 809 970
347 958 1147
401 1109 1327
455 1261 1508
510 1415 1691
566 1568 1874
622 1723 2058
677 1877 2242
733 2032 2426
788 2187 2611
845 2342 2796
901 2497 2981
957 2652 3166
1013 2807 3351
1068 2962 3537
1124 3118 3722
1180 3273 3907
1237 3428 4093
1293 3584 4095
1348 3739 4095
152 683 492
155 682 512
177 682 584
214 683 702
257 701 848
306 838 1008
356 981 1177
409 1128 1352
462 1278 1530
517 1428 1708
571 1580 1890
626 1733 2071
681 1886 2254
736 2040 2437
792 2194 2621
848 2348 2805
903 2503 2989
959 2658 3173
1015 2812 3358
1070 2967 3543
1126 3122 3728
1182 3277 3913
1238 3432 4095
1294 3588 4095
1350 3743 4095
189 853 615
192 853 630
209 852 686
238 853 784
278 853 912
322 877 1060
369 1013 1219
420 1154 1386
471 1299 1558
525 1447 1734
578 1597 1911
632 1747 2091
687 1899 2271
742 2052 2453
797 2204 2635
852 2358 2817
907 2511 3001
962 2665 3184
1018 2820 3368
1073 2974 3552
1129 3128 3736
1185 3283 3921
1241 3438 4095
1296 3593 4095
1352 3747 4095
225 1024 738
230 1024 750
243 1024 794
267 1024 877
302 1024 989
341 1024 1123
386 1052 1272
433 1188 1431
484 1328 1596
535 1472 1766
587 1618 1940
640 1766 2116
694 1916 2294
748 2067 2473
802 2218 2653
857 2370 2834
912 2523 3016
967 2676 3198
1022 2829 3381
1077 2983 3564
1132 3137 3748
1188 3291 3931
1244 3446 4095
1299 3600 4095
1355 3754 4095
264 1195 862
267 1195 871
278 1194 907
297 1195 977
328 1195 1075
363 1195 1196
404 1195 1334
449 1228 1484
497 1363 1642
547 1502 1806
597 1645 1975
650 1790 2147
702 1937 2322
756 2085 2498
809 2235 2676
863 2386 2855
917 2537 3035
972 2689 3216
1027 2842 3397
1081 2995 3579
1137 3148 3762
1192 3301 3945
1248 3455 4095
1303 3608 4095
1358 3762 4095
302 1365 984
304 1365 992
312 1365 1023
330 1365 1083
356 1365 1169
389 1365 1278
427 1365 1405
470 1365 1546
514 1403 1696
562 1538 1854
611 1676 2017
661 1818 2185
713 1962 2355
765 2108 2528
818 2256 2703
871 2405 2880
925 2555 3058
979 2705 3237
1033 2857 3417
1087 3008 3598
1142 3161 3779
1197 3313 3961
1252 3466 4095
1307 3619 4095
1363 3773 4095
339 1536 1107
341 1536 1114
349 1535 1141
363 1536 1192
386 1536 1268
416 1536 1367
451 1536 1484
490 1535 1614
533 1535 1757
578 1579 1908
626 1713 2065
674 1851 2228
725 1992 2394
776 2135 2564
827 2280 2736
880 2427 2910
933 2575 3085
986 2724 3262
1040 2874 3441
1094 3025 3620
1148 3176 3799
1203 3327 3980
1258 3479 4095
1312 3632 4095
1368 3784 4095
377 1706 1231
379 1706 1236
384 1706 1259
399 1707 1304
419 1706 1372
445 1706 1461
477 1706 1568
514 1707 1690
554 1706 1825
597 1706 1968
643 1754 2120
690 1888 2277
738 2025 2438
788 2166 2605
839 2308 2773
891 2453 2944
943 2599 3117
995 2746 3292
1049 2894 3468
1102 3043 3645
1156 3193 3823
1210 3344 4002
1264 3495 4095
1318 3646 4095
1373 3798 4095
414 1877 1354
416 1877 1359
422 1877 1379
434 1877 1419
452 1877 1479
475 1877 1560
505 1877 1659
540 1877 1772
577 1877 1898
618 1877 2035
661 1877 2180
707 1930 2332
754 2063 2488
802 2200 2650
852 2340 2815
903 2482 2982
954 2626 3152
1006 2771 3324
1058 2917 3498
1111 3065 3673
1164 3213 3850
1218 3363 4027
1272 3513 4095
1325 3663 4095
1379 3814 4095
452 2047 1477
454 2047 1481
458 2047 1499
470 2047 1535
485 2047 1589
508 2048 1663
535 2047 1753
566 2048 1859
602 2048 1978
641 2048 2107
682 2048 2246
725 2047 2392
771 2105 2544
818 2238 2700
867 2375 2861
916 2514 3025
967 2656 3192
1018 2799 3362
1069 2943 3533
1121 3089 3706
1174 3236 3880
1227 3384 4055
1280 3533 4095
1333 3682 4095
1387 3832 4095
489 2218 1600
490 2218 1604
496 2218 1620
505 2218 1652
520 2218 1701
540 2218 1769
565 2218 1852
594 2218 1950
627 2218 2062
664 2218 2185
704 2218 2317
746 2218 2457
790 2218 2604
835 2280 2755
883 2413 2912
931 2550 3072
980 2689 3236
1030 2830 3402
1081 2972 3571
1132 3116 3741
1184 3261 3913
1237 3408 4087
1289 3555 4095
1342 3703 4095
1396 3852 4095
527 2389 1723
528 2389 1726
532 2389 1741
541 2389 1770
554 2389 1815
573 2389 1876
596 2389 1954
624 2389 2045
654 2389 2150
690 2389 2266
727 2389 2392
767 2389 2527
810 2389 2668
854 2389 2815
900 2456 2968
946 2589 3124
995 2725 3284
1044 2863 3447
1094 3004 3613
1144 3146 3781
1196 3289 3950
1247 3434 4095
1299 3580 4095
1352 3726 4095
1404 3874 4095
565 2560 1846
566 2559 1849
570 2559 1862
578 2559 1889
590 2559 1930
606 2559 1986
628 2559 2058
654 2559 2144
683 2559 2242
716 2559 2352
751 2559 2472
790 2559 2601
831 2559 2737
874 2559 2879
919 2559 3027
964 2631 3179
1011 2764 3336
1059 2900 3496
1108 3038 3658
1158 3178 3823
1208 3319 3990
1259 3462 4095
1311 3607 4095
1362 3752 4095
1415 3898 4095
603 2730 1969
604 2730 1972
607 2730 1984
614 2730 2008
626 2730 2046
641 2730 2098
661 2730 2165
685 2730 2245
713 2730 2337
744 2730 2442
777 2730 2556
815 2730 2679
853 2730 2810
895 2730 2947
938 2730 3091
982 2730 3239
1028 2807 3391
1075 2940 3548
1123 3075 3707
1172 3213 3869
1221 3352 4034
1272 3493 4095
1323 3636 4095
1374 3780 4095
1426 3924 4095
641 2900 2092
641 2900 2095
645 2901 2106
651 2900 2128
661 2900 2163
676 2901 2212
695 2900 2273
716 2900 2348
743 2900 2436
772 2900 2534
805 2900 2643
840 2901 2761
877 2901 2887
917 2900 3019
959 2900 3158
1002 2900 3302
1047 2900 3451
1093 2982 3603
1139 3115 3760
1187 3250 3919
1236 3388 4080
1286 3527 4095
1336 3668 4095
1386 3810 4095
1437 3953 4095
678 3071 2215
679 3071 2218
682 3071 2228
688 3071 2249
697 3071 2281
711 3071 2326
728 3071 2384
749 3071 2454
773 3071 2536
802 3071 2630
832 3071 2733
866 3071 2846
902 3071 2966
940 3071 3095
981 3071 3229
1023 3071 3369
1066 3071 3514
1111 3071 3663
1157 3158 3816
1203 3290 3972
1251 3425 4095
1300 3563 4095
1350 3701 4095
1399 3842 4095
1450 3983 4095
716 3242 2338
716 3242 2341
719 3242 2350
725 3242 2369
734 3242 2399
746 3242 2441
762 3242 2496
782 3242 2562
805 3242 2639
831 3242 2728
861 3242 2826
893 3242 2934
928 3242 3050
965 3242 3173
1004 3242 3303
1044 3242 3439
1087 3242 3580
1130 3242 3725
1175 3242 3875
1221 3333 4028
1268 3466 4095
1316 3601 4095
1364 3738 4095
1413 3876 4095
1463 4016 4095
753 3412 2461
754 3412 2464
757 3412 2472
762 3412 2490
771 3412 2518
782 3412 2558
797 3412 2609
815 3412 2671
838 3412 2744
862 3412 2828
891 3412 2922
921 3412 3025
955 3412 3136
990 3412 3255
1028 3412 3381
1067 3412 3512
1108 3412 3649
1151 3412 3791
1195 3412 3937
1240 3412 4086
1286 3508 4095
1332 3641 4095
1380 3776 4095
1428 3913 4095
1477 4051 4095
791 3583 2585
792 3583 2586
794 3583 2595
799 3583 2611
807 3583 2638
818 3583 2675
832 3583 2722
849 3583 2781
870 3583 2850
894 3583 2930
921 3583 3020
950 3583 3118
982 3583 3225
1017 3583 3340
1052 3583 3461
1091 3583 3589
1131 3583 3722
1172 3583 3860
1215 3583 4002
1259 3583 4095
1304 3583 4095
1350 3684 4095
1396 3816 4095
1444 3951 4095
1493 4088 4095
829 3754 2708
829 3754 2709
831 3754 2717
836 3754 2733
844 3754 2758
854 3754 2792
868 3754 2837
884 3754 2893
903 3754 2959
926 3754 3035
951 3754 3120
979 3754 3214
1010 3754 3317
1043 3754 3427
1078 3754 3544
1115 3754 3668
1154 3754 3797
1194 3754 3931
1236 3754 4070
1279 3754 4095
1323 3754 4095
1368 3754 4095
1414 3859 4095
1461 3992 4095
1508 4095 4095
867 3924 2831
867 3924 2832
869 3924 2840
874 3924 2854
880 3924 2878
890 3924 2910
903 3924 2953
919 3924 3006
937 3924 3068
958 3924 3140
982 3924 3222
1010 3924 3312
1039 3924 3410
1071 3924 3517
1105 3924 3630
1140 3924 3749
1178 3924 3875
1217 3924 4005
1258 3924 4095
1300 3924 4095
1343 3924 4095
1387 3924 4095
1432 3924 4095
1478 4035 4095
1525 4095 4095
904 4095 2954
904 4095 2955
907 4095 2962
911 4095 2976
917 4095 2998
926 4095 3029
938 4095 3069
953 4095 3119
971 4095 3179
991 4095 3247
1015 4095 3325
1040 4095 3412
1068 4095 3506
1099 4095 3609
1132 4095 3718
1167 4095 3834
1203 4095 3956
1241 4095 4083
1280 4095 4095
1321 4095 4095
1364 4095 4095
1407 4095 4095
1451 4095 4095
1496 4095 4095
1542 4095 4095
168 0 0
171 149 171
189 310 356
222 465 548
264 623 737
310 778 925
360 934 1111
412 1089 1297
465 1245 1484
520 1401 1670
573 1556 1856
628 1712 2042
683 1868 2228
738 2023 2414
793 2179 2600
849 2335 2786
904 2491 2972
960 2646 3158
1015 2802 3343
1071 2957 3529
1127 3113 3715
1183 3269 3901
1239 3424 4087
1295 3580 4095
1351 3735 4095
171 171 0
171 171 171
189 316 365
222 471 554
264 625 741
312 780 928
362 935 1114
412 1091 1299
465 1246 1485
520 1402 1671
573 1558 1858
628 1713 2043
683 1868 2229
738 2024 2415
793 2180 2601
849 2335 2787
904 2491 2972
960 2646 3158
1016 2802 3344
1071 2958 3530
1127 3113 3716
1183 3269 3901
1239 3425 4087
1295 3580 4095
1351 3736 4095
174 341 214
180 341 269
198 349 409
228 490 580
269 639 759
314 790 940
363 943 1123
416 1097 1307
468 1251 1492
521 1406 1677
575 1561 1862
630 1716 2048
684 1871 2233
739 2027 2418
794 2182 2604
850 2337 2789
905 2493 2975
961 2648 3161
1017 2804 3346
1072 2959 3532
1128 3115 3717
1184 3270 3903
1240 3426 4089
1295 3581 4095
1351 3737 4095
189 512 352
192 513 383
209 512 484
238 525 628
278 663 793
322 809 966
369 957 1144
420 1109 1324
472 1261 1506
525 1414 1688
578 1568 1872
632 1722 2056
687 1877 2240
742 2032 2425
797 2187 2610
852 2341 2795
907 2497 2980
962 2652 3165
1018 2807 3350
1073 2962 3536
1129 3117 3721
1185 3273 3907
1241 3429 4092
1296 3584 4095
1352 3739 4095
209 683 481
214 683 501
228 683 576
255 683 696
289 700 842
332 838 1004
379 981 1174
427 1127 1349
478 1277 1527
530 1428 1707
583 1580 1888
636 1733 2070
691 1886 2253
744 2040 2436
799 2194 2620
854 2348 2804
909 2503 2988
965 2658 3173
1020 2812 3357
1076 2967 3543
1131 3122 3727
1186 3277 3912
1242 3432 4095
1298 3587 4095
1353 3743 4095
235 853 607
238 853 622
252 852 679
276 852 778
308 852 907
347 877 1056
391 1012 1216
437 1154 1384
486 1299 1556
537 1447 1732
590 1596 1910
642 1748 2089
696 1899 2270
750 2051 2451
804 2204 2634
859 2358 2816
913 2511 3000
968 2665 3183
1023 2820 3367
1078 2974 3551
1133 3128 3736
1189 3283 3920
1245 3438 4095
1300 3593 4095
1355 3748 4095
264 1024 732
267 1024 744
278 1024 789
299 1023 871
328 1024 984
363 1023 1119
406 1052 1269
451 1187 1428
497 1327 1594
547 1471 1764
599 1618 1938
650 1766 2114
702 1916 2293
756 2067 2472
809 2218 2652
863 2370 2833
918 2523 3015
972 2676 3197
1027 2829 3380
1082 2983 3563
1137 3137 3747
1192 3291 3931
1248 3445 4095
1303 3600 4095
1359 3754 4095
295 1194 856
297 1194 865
308 1195 903
326 1195 973
352 1194 1071
384 1194 1193
423 1195 1331
465 1228 1481
512 1362 1640
559 1501 1804
609 1644 1973
659 1789 2146
711 1937 2320
763 2085 2497
816 2235 2675
870 2386 2854
924 2537 3034
978 2689 3215
1032 2841 3397
1087 2994 3579
1142 3147 3761
1196 3301 3944
1251 3454 4095
1306 3608 4095
1362 3762 4095
328 1365 981
330 1365 988
339 1365 1019
354 1365 1079
377 1365 1166
409 1365 1275
445 1365 1403
485 1365 1543
527 1403 1694
573 1537 1852
622 1676 2015
671 1818 2183
722 1962 2354
772 2108 2527
825 2256 2703
877 2405 2879
931 2554 3057
984 2705 3237
1038 2856 3416
1093 3008 3597
1147 3160 3778
1201 3313 3960
1256 3466 4095
1311 3619 4095
1366 3772 4095
362 1535 1104
363 1535 1110
372 1536 1137
386 1535 1188
406 1536 1265
434 1536 1364
467 1536 1481
505 1535 1612
546 1536 1755
590 1579 1906
636 1713 2064
684 1850 2226
734 1991 2393
783 2135 2563
835 2280 2735
886 2427 2909
939 2575 3085
992 2724 3262
1046 2874 3440
1099 3024 3619
1153 3176 3799
1207 3327 3979
1261 3479 4095
1316 3632 4095
1371 3784 4095
398 1706 1228
399 1706 1233
404 1706 1256
417 1707 1302
436 1706 1369
461 1707 1458
492 1706 1566
527 1707 1688
566 1706 1823
609 1707 1967
653 1754 2118
698 1888 2276
747 2025 2438
796 2165 2603
846 2308 2772
897 2453 2943
948 2598 3116
1001 2746 3291
1053 2894 3467
1107 3043 3644
1160 3193 3822
1214 3344 4001
1268 3495 4095
1322 3646 4095
1376 3798 4095
