Examples/Channels - 2-Strip.3dl
#25pt 3DLUT created by 3D LUT Creator Pro (c) Oleg Sharonov
#Copyright Oleg Sharonov
#INPUTGAMMA sRGB IEC61966-2.1 v.2.10
#IMAGEPROFILE sRGB IEC61966-2.1 v.2.10
#OUTPUTGAMMA sRGB IEC61966-2.1 v.2.10
0 43 86 128 171 214 256 299 341 384 427 469 512 555 597 640 682 725 768 810 853 896 938 981 1023 
0 0 0
71 129 145
145 262 293
217 393 439
291 523 586
363 654 733
436 785 880
509 916 1026
582 1047 1173
654 1177 1318
727 1309 1466
799 1439 1612
872 1570 1759
945 1701 1905
1017 1832 2052
1090 1963 2198
1163 2094 2345
1236 2224 2491
1308 2355 2638
1381 2486 2785
1454 2617 2931
1526 2748 3078
1599 2879 3224
1672 3009 3371
1745 3141 3517
0 55 84
19 186 230
90 318 377
165 448 525
238 579 671
310 710 818
383 842 964
455 973 1111
528 1103 1258
601 1234 1404
673 1365 1551
746 1496 1697
819 1627 1844
891 1757 1990
964 1888 2137
1037 2019 2284
1110 2150 2430
1182 2281 2577
1255 2411 2723
1328 2543 2870
1400 2673 3016
1473 2804 3163
1546 2935 3309
1618 3066 3456
1691 3197 3603
0 113 171
0 245 318
39 374 462
110 505 611
183 635 757
257 766 903
330 897 1049
403 1029 1197
475 1160 1343
547 1290 1489
620 1422 1636
693 1552 1783
765 1683 1929
838 1814 2076
911 1945 2222
983 2075 2369
1056 2206 2515
1129 2337 2662
1201 2468 2808
1274 2599 2955
1347 2730 3101
1420 2861 3248
1493 2992 3395
1565 3122 3541
1638 3253 3688
0 171 257
0 299 403
0 430 548
58 560 695
129 692 842
203 823 989
276 954 1134
349 1086 1282
422 1216 1428
494 1347 1574
566 1478 1721
640 1609 1868
712 1739 2014
785 1870 2161
858 2001 2308
930 2132 2454
1003 2263 2601
1076 2394 2747
1148 2525 2894
1221 2655 3040
1294 2786 3187
1366 2917 3333
1439 3048 3480
1512 3179 3626
1585 3310 3773
0 228 343
0 356 488
0 486 633
3 617 780
78 749 927
149 880 1073
222 1011 1220
295 1141 1367
369 1273 1514
440 1403 1660
513 1534 1806
586 1665 1953
658 1796 2100
732 1927 2246
804 2058 2393
877 2188 2539
949 2319 2686
1022 2450 2832
1095 2581 2979
1168 2712 3125
1240 2843 3272
1313 2973 3419
1386 3104 3565
1458 3235 3712
1531 3366 3858
0 282 425
0 412 572
0 543 720
0 675 866
23 805 1012
97 936 1159
168 1067 1305
243 1198 1452
314 1329 1599
388 1460 1745
460 1590 1892
532 1721 2038
605 1852 2185
678 1983 2331
751 2114 2478
823 2245 2625
896 2376 2771
969 2506 2918
1041 2637 3064
1114 2768 3211
1187 2899 3357
1259 3030 3504
1332 3161 3650
1405 3291 3797
1477 3422 3944
0 337 510
0 470 658
0 600 804
0 731 951
0 862 1097
42 993 1245
116 1123 1390
189 1254 1537
262 1385 1684
334 1516 1831
406 1647 1977
479 1777 2123
552 1909 2270
625 2039 2417
697 2170 2563
770 2301 2710
842 2432 2856
915 2563 3003
988 2693 3149
1061 2825 3296
1133 2955 3443
1206 3086 3589
1279 3217 3736
1351 3348 3882
1424 3479 4029
0 394 596
0 525 743
0 656 889
0 788 1036
0 918 1183
0 1049 1329
61 1179 1476
136 1311 1623
209 1441 1769
280 1572 1916
352 1703 2062
427 1834 2209
499 1965 2356
571 2096 2502
644 2227 2648
716 2357 2795
789 2488 2941
862 2619 3088
935 2750 3235
1007 2881 3381
1080 3012 3528
1153 3143 3674
1225 3273 3821
1299 3404 3968
1371 3535 4095
0 452 682
0 582 828
0 713 975
0 843 1121
0 975 1269
0 1105 1414
10 1236 1561
81 1367 1708
155 1498 1854
228 1629 2001
299 1760 2148
372 1891 2294
445 2021 2441
518 2152 2587
591 2283 2734
663 2414 2880
735 2545 3027
808 2675 3173
881 2806 3320
954 2937 3466
1027 3068 3613
1099 3199 3760
1172 3330 3906
1245 3461 4053
1317 3592 4095
0 506 766
0 639 914
0 769 1060
0 900 1207
0 1031 1354
0 1162 1500
0 1293 1647
29 1423 1793
100 1554 1939
174 1685 2086
248 1816 2233
318 1947 2379
391 2078 2526
464 2209 2672
537 2339 2819
610 2470 2966
683 2601 3112
755 2732 3259
827 2863 3405
901 2994 3552
973 3124 3698
1046 3255 3845
1119 3386 3991
1192 3517 4095
1264 3648 4095
0 564 852
0 694 998
0 826 1145
0 957 1292
0 1087 1439
0 1218 1585
0 1349 1732
0 1480 1878
48 1611 2025
119 1741 2171
192 1872 2318
267 2003 2464
337 2134 2611
411 2265 2757
484 2396 2904
557 2527 3051
629 2657 3197
702 2788 3344
775 2919 3490
847 3050 3637
920 3181 3784
992 3312 3930
1065 3443 4076
1138 3573 4095
1210 3704 4095
0 619 937
0 751 1084
0 882 1231
0 1013 1377
0 1144 1524
0 1275 1671
0 1405 1817
0 1536 1964
0 1667 2110
68 1798 2257
139 1929 2403
212 2059 2550
284 2191 2696
358 2321 2843
430 2452 2989
503 2583 3136
576 2714 3282
648 2844 3429
721 2976 3576
793 3106 3722
867 3237 3869
939 3368 4015
1011 3499 4095
1084 3630 4095
1157 3761 4095
0 677 1023
0 807 1169
0 939 1317
0 1069 1463
0 1200 1609
0 1331 1756
0 1461 1902
0 1593 2049
0 1723 2195
13 1854 2342
87 1985 2488
158 2116 2635
233 2247 2782
304 2378 2928
377 2508 3075
449 2639 3221
522 2770 3368
595 2901 3514
667 3032 3661
740 3163 3807
813 3294 3954
886 3424 4095
959 3555 4095
1031 3686 4095
1103 3817 4095
0 733 1108
0 863 1254
0 995 1401
0 1126 1548
0 1256 1694
0 1387 1841
0 1518 1988
0 1649 2134
0 1780 2281
0 1910 2427
32 2042 2574
107 2172 2720
177 2303 2867
250 2434 3013
324 2565 3160
396 2696 3306
470 2827 3453
542 2957 3600
614 3088 3746
687 3219 3893
759 3350 4039
832 3481 4095
904 3612 4095
977 3743 4095
1052 3873 4095
0 789 1194
0 920 1340
0 1051 1486
0 1182 1633
0 1313 1780
0 1444 1926
0 1574 2072
0 1705 2219
0 1836 2366
0 1967 2512
0 2098 2659
52 2229 2806
126 2359 2952
198 2491 3099
271 2621 3245
343 2752 3392
416 2883 3538
488 3014 3685
560 3145 3831
633 3275 3978
706 3406 4095
779 3537 4095
852 3668 4095
925 3799 4095
997 3930 4095
0 845 1278
0 977 1425
0 1107 1572
0 1238 1718
0 1369 1865
0 1500 2011
0 1631 2158
0 1762 2304
0 1893 2451
0 2023 2597
0 2154 2744
0 2285 2891
71 2416 3037
145 2547 3184
217 2678 3330
289 2809 3477
362 2939 3623
434 3070 3770
508 3201 3916
580 3332 4063
653 3463 4095
725 3594 4095
798 3724 4095
871 3855 4095
945 3986 4095
0 902 1364
0 1033 1510
0 1163 1656
0 1295 1804
0 1426 1950
0 1556 2097
0 1687 2243
0 1818 2390
0 1949 2536
0 2080 2683
0 2211 2829
0 2341 2976
19 2472 3123
90 2603 3269
165 2734 3416
235 2865 3562
308 2996 3709
381 3127 3855
454 3257 4002
526 3388 4095
600 3519 4095
673 3650 4095
744 3781 4095
817 3912 4095
890 4042 4095
0 959 1449
0 1090 1596
0 1220 1742
0 1351 1889
0 1482 2035
0 1612 2182
0 1744 2329
0 1875 2475
0 2005 2621
0 2136 2768
0 2267 2915
0 2398 3061
0 2529 3208
39 2660 3354
110 2790 3501
183 2921 3647
255 3052 3794
328 3183 3941
399 3314 4087
472 3445 4095
545 3576 4095
617 3706 4095
691 3837 4095
763 3968 4095
838 4095 4095
0 1015 1535
0 1146 1681
0 1276 1827
0 1408 1974
0 1538 2120
0 1669 2267
0 1800 2413
0 1931 2560
0 2062 2707
0 2192 2853
0 2323 3000
0 2454 3147
0 2585 3293
0 2716 3439
55 2847 3586
129 2977 3732
201 3108 3879
276 3239 4026
347 3370 4095
419 3501 4095
493 3632 4095
566 3763 4095
639 3894 4095
712 4025 4095
784 4095 4095
0 1071 1619
0 1202 1766
0 1333 1912
0 1463 2059
0 1595 2206
0 1726 2352
0 1856 2499
0 1987 2645
0 2118 2792
0 2249 2939
0 2380 3085
0 2511 3232
0 2641 3378
0 2772 3525
3 2903 3671
78 3034 3818
149 3165 3965
220 3296 4095
295 3427 4095
365 3557 4095
440 3688 4095
512 3819 4095
585 3950 4095
656 4081 4095
731 4095 4095
0 1127 1705
0 1258 1851
0 1390 1998
0 1520 2145
0 1651 2291
0 1782 2437
0 1913 2584
0 2043 2731
0 2175 2877
0 2305 3024
0 2436 3170
0 2567 3317
0 2698 3463
0 2829 3610
0 2960 3757
23 3090 3903
94 3221 4050
171 3352 4095
238 3483 4095
314 3614 4095
388 3745 4095
457 3876 4095
533 4006 4095
604 4095 4095
677 4095 4095
0 1184 1790
0 1315 1936
0 1446 2084
0 1576 2229
0 1708 2376
0 1838 2523
0 1969 2669
0 2100 2816
0 2231 2962
0 2361 3109
0 2492 3255
0 2623 3402
0 2754 3549
0 2885 3695
0 3016 3842
0 3147 3988
39 3278 4095
113 3408 4095
186 3539 4095
260 3670 4095
330 3801 4095
408 3932 4095
481 4063 4095
550 4095 4095
624 4095 4095
0 1241 1875
0 1372 2022
0 1502 2169
0 1633 2315
0 1764 2462
0 1895 2608
0 2026 2755
0 2156 2901
0 2287 3048
0 2418 3194
0 2549 3341
0 2680 3487
0 2811 3634
0 2941 3781
0 3072 3927
0 3203 4074
3 3334 4095
65 3465 4095
136 3596 4095
206 3727 4095
280 3857 4095
354 3988 4095
427 4095 4095
494 4095 4095
571 4095 4095
0 1297 1961
0 1428 2107
0 1558 2254
0 1689 2400
0 1820 2547
0 1951 2694
0 2082 2840
0 2213 2986
0 2344 3133
0 2474 3279
0 2605 3426
0 2736 3573
0 2867 3719
0 2998 3866
0 3129 4012
0 3259 4095
0 3390 4095
10 3521 4095
81 3652 4095
149 3783 4095
225 3914 4095
295 4045 4095
372 4095 4095
442 4095 4095
513 4095 4095
0 1353 2046
0 1484 2192
0 1615 2339
0 1746 2485
0 1876 2632
0 2007 2778
0 2138 2925
0 2269 3071
0 2400 3218
0 2531 3365
0 2662 3511
0 2793 3658
0 2923 3804
0 3054 3951
0 3185 4095
3 3316 4095
3 3447 4095
3 3578 4095
23 3708 4095
97 3839 4095
177 3970 4095
248 4095 4095
320 4095 4095
389 4095 4095
462 4095 4095
152 0 0
222 113 84
295 245 230
369 376 377
443 508 526
514 637 671
587 769 819
660 899 965
733 1030 1111
806 1161 1258
878 1292 1404
950 1423 1551
1023 1554 1698
1096 1685 1844
1169 1815 1990
1242 1946 2137
1314 2077 2284
1387 2208 2430
1460 2339 2577
1532 2470 2723
1605 2600 2870
1678 2731 3017
1751 2862 3163
1823 2993 3310
1896 3124 3456
100 39 26
171 171 171
243 302 318
316 433 464
389 564 611
461 695 758
535 825 903
606 955 1050
679 1086 1196
752 1217 1343
825 1349 1490
897 1479 1636
970 1610 1783
1043 1741 1929
1115 1872 2076
1188 2003 2223
1261 2134 2369
1334 2264 2515
1406 2395 2662
1479 2526 2809
1551 2657 2955
1624 2788 3102
1697 2919 3248
1770 3050 3395
1842 3180 3541
45 97 110
116 228 257
189 358 403
262 488 548
336 619 696
408 750 842
481 881 989
553 1012 1136
626 1143 1282
698 1274 1429
771 1405 1575
844 1536 1721
917 1666 1868
990 1797 2015
1062 1928 2161
1135 2059 2308
1208 2190 2454
1280 2321 2601
1353 2451 2747
1426 2582 2894
1498 2713 3041
1571 2844 3187
1643 2975 3333
1716 3106 3480
1789 3237 3627
0 152 195
65 282 341
136 414 488
209 546 635
282 675 780
354 807 928
428 938 1074
500 1068 1220
572 1199 1367
646 1330 1514
718 1461 1660
791 1592 1806
863 1723 1954
936 1854 2100
1009 1984 2246
1081 2115 2393
1154 2246 2539
1227 2377 2686
1299 2508 2833
1372 2639 2979
1445 2770 3126
1518 2900 3272
1590 3031 3419
1663 3162 3565
1736 3293 3712
0 209 280
10 339 427
84 470 572
155 601 719
228 732 866
302 864 1013
374 994 1159
446 1125 1306
520 1256 1452
592 1387 1599
664 1517 1745
737 1648 1892
810 1779 2039
883 1910 2185
955 2041 2332
1028 2172 2478
1101 2303 2625
1174 2433 2771
1246 2564 2918
1319 2695 3064
1391 2826 3211
1464 2957 3358
1537 3088 3504
1610 3218 3651
1682 3349 3797
0 264 365
0 398 513
29 527 659
103 658 805
174 788 951
248 919 1098
320 1050 1244
393 1181 1391
465 1312 1537
538 1443 1684
612 1574 1830
684 1704 1977
757 1835 2124
829 1966 2270
902 2097 2417
975 2228 2563
1047 2359 2710
1120 2490 2857
1193 2621 3003
1265 2752 3150
1338 2882 3296
1411 3013 3443
1483 3144 3589
1556 3275 3736
1629 3406 3882
0 322 451
0 454 597
0 584 744
48 714 890
123 845 1036
195 976 1183
267 1106 1329
339 1238 1476
412 1368 1622
485 1499 1769
558 1630 1916
630 1761 2062
703 1892 2209
776 2023 2356
849 2154 2502
921 2284 2649
994 2415 2795
1067 2546 2942
1139 2677 3088
1212 2808 3235
1285 2939 3381
1357 3069 3528
1430 3200 3674
1503 3331 3821
1575 3462 3968
0 377 535
0 508 681
0 640 828
0 771 975
68 902 1122
142 1033 1269
214 1163 1415
287 1294 1562
360 1425 1708
431 1556 1854
504 1687 2001
577 1818 2148
650 1948 2294
723 2079 2441
795 2210 2588
868 2341 2734
940 2472 2880
1013 2603 3027
1086 2733 3173
1159 2864 3320
1232 2995 3467
1304 3126 3613
1377 3257 3760
1449 3388 3906
1522 3519 4053
0 434 619
0 566 768
0 696 913
0 827 1061
16 958 1207
87 1089 1354
161 1219 1500
233 1351 1647
306 1481 1793
379 1612 1940
451 1743 2086
523 1874 2233
596 2005 2379
669 2135 2526
742 2266 2673
815 2397 2819
888 2528 2966
960 2659 3112
1033 2790 3259
1105 2921 3405
1178 3051 3552
1251 3182 3698
1324 3313 3845
1396 3444 3992
1469 3575 4095
0 492 707
0 622 852
0 753 999
0 883 1145
0 1014 1292
36 1145 1439
107 1276 1586
180 1406 1732
252 1538 1878
326 1669 2025
398 1799 2171
471 1930 2318
543 2061 2465
616 2192 2611
689 2323 2758
761 2454 2904
834 2584 3051
907 2715 3197
979 2846 3344
1052 2977 3491
1124 3108 3637
1197 3239 3784
1270 3370 3930
1343 3500 4077
1415 3631 4095
0 547 792
0 678 938
0 808 1084
0 940 1231
0 1071 1378
0 1201 1524
55 1332 1670
126 1463 1817
198 1594 1964
271 1725 2110
345 1856 2257
417 1986 2403
489 2118 2550
563 2248 2696
635 2379 2843
708 2510 2990
780 2641 3136
853 2772 3283
926 2903 3429
999 3034 3576
1071 3164 3722
1144 3295 3869
1216 3426 4016
1290 3557 4095
1363 3688 4095
