Examples/Channels - No green.3dl
#25pt 3DLUT created by 3D LUT Creator Pro (c) Oleg Sharonov
#Copyright Oleg Sharonov
0 256 512 768 1023
0 0 0
0 0 1022
0 0 2047
0 0 3071
0 0 4095
0 132 0
0 735 1023
0 1023 2047
0 1023 3071
0 1024 4095
0 422 0
0 845 1024
0 1524 2048
0 2048 3071
0 2048 4095
0 713 0
0 1017 1024
0 1617 2048
0 2312 3071
3 3038 4095
0 1004 0
0 1232 1023
0 1749 2047
0 2398 3071
0 3099 4095
1023 0 0
1023 0 1023
1023 0 2047
1023 0 3071
1023 0 4095
1024 723 0
1024 1024 1024
1024 1024 2048
1023 1023 3071
1023 1023 4095
1023 833 0
1023 1102 1023
1023 1667 2047
1023 2047 3071
1023 2048 4095
1023 1008 0
1023 1235 1023
1023 1751 2047
1023 2400 3071
1024 3071 4095
1024 1224 0
1024 1412 1024
1023 1871 2047
1023 2482 3071
1023 3160 4095
2048 0 0
2048 0 1024
2048 0 2048
2048 0 3072
2047 0 4095
2048 1024 0
2048 1024 1024
2048 1024 2048
2048 1024 3071
2048 1024 4095
2048 1499 0
2048 1650 1024
2048 2048 2048
2048 2048 3071
2048 2048 4095
2048 1594 0
2048 1735 1024
2048 2113 2048
2048 2657 3071
2047 3071 4095
2047 1728 0
2048 1857 1023
2048 2210 2048
2048 2730 3071
2048 3346 4095
3071 0 0
3071 0 1023
3071 0 2047
3071 0 3071
3071 0 4095
3071 1023 0
3071 1023 1023
3071 1023 2047
3071 1023 3071
3071 1023 4095
3071 2048 0
3071 2048 1023
3071 2048 2048
3071 2048 3071
3071 2048 4095
3071 2276 0
3071 2369 1024
3071 2640 2048
3071 3071 3071
3071 3071 4095
3071 2365 0
3071 2453 1024
3071 2713 2048
3071 3132 3071
3071 3664 4095
4095 0 0
4095 0 1023
4095 0 2047
4095 0 3071
4095 0 4095
4095 1023 0
4095 1024 1024
4095 1024 2048
4095 1024 3071
4095 1023 4095
4095 2048 0
4095 2048 1024
4095 2048 2048
4095 2047 3071
4095 2047 4095
4095 2990 0
4095 3057 1024
4095 3071 2047
4095 3071 3071
4095 3071 4095
4095 3053 0
4095 3117 1023
4095 3313 2048
4095 3647 3071
4095 4095 4095
