Examples/Channels - Pale colds 2.3dl
#25pt 3DLUT created by 3D LUT Creator Pro (c) Oleg Sharonov
#Copyright Oleg Sharonov
#IMAGEPROFILE sRGB IEC61966-2.1 v.2.10
#INPUTGAMMA sRGB IEC61966-2.1 v.2.10
#OUTPUTGAMMA sRGB IEC61966-2.1 v.2.10
0 128 256 384 512 640 768 896 1023
0 0 0
0 0 510
0 10 1022
0 42 1537
0 129 2047
0 308 2560
0 625 3072
0 1133 3641
0 1897 4095
416 512 13
332 513 513
0 512 1023
0 512 1535
0 512 2047
0 512 2559
0 635 3072
0 1147 3654
0 1914 4095
831 1024 65
802 1023 512
663 1024 1024
0 1023 1535
0 1023 2047
0 1023 2559
0 1023 3071
0 1205 3709
0 1985 4095
1246 1536 171
1230 1536 512
1160 1536 1024
995 1536 1536
592 1536 2048
0 1536 2560
0 1536 3072
0 1536 3821
0 2133 4095
1661 2048 345
1650 2047 512
1605 2048 1024
1506 2047 1536
1326 2047 2047
987 2047 2559
0 2048 3071
0 2048 3999
0 2377 4095
2076 2559 592
2069 2559 626
2036 2559 1024
1966 2559 1536
1848 2559 2048
1658 2559 2559
1346 2559 3114
661 2559 4095
0 2741 4095
2492 3071 921
2486 3071 955
2460 3071 1101
2407 3071 1536
2320 3071 2048
2186 3071 2559
1989 3071 3449
1693 3071 4095
1184 3253 4095
2907 3583 1340
2902 3583 1373
2882 3583 1520
2840 3583 1817
2770 3583 2293
2668 3583 2972
2523 3583 3873
2321 3583 4095
2035 3945 4095
3322 4095 1852
3318 4095 1887
3301 4095 2033
3266 4095 2331
3210 4095 2809
3127 4095 3489
3012 4095 4095
2858 4095 4095
2653 4095 4095
512 0 0
512 0 512
512 10 1023
513 42 1537
512 129 2048
512 306 2559
512 622 3071
512 1129 3622
512 1893 4095
563 512 0
512 512 512
512 512 1023
512 512 1535
512 512 2047
512 512 2559
512 632 3071
512 1143 3635
512 1910 4095
896 1023 45
872 1024 512
751 1023 1023
512 1023 1535
512 1023 2047
512 1023 2559
512 1023 3071
512 1202 3690
512 1981 4095
1285 1535 152
1270 1536 512
1202 1536 1024
1047 1536 1536
693 1536 2047
512 1536 2560
512 1536 3072
512 1535 3801
512 2129 4095
1687 2047 326
1677 2048 512
1633 2048 1024
1536 2048 1536
1362 2048 2048
1041 2047 2559
512 2048 3071
512 2048 3980
512 2373 4095
2095 2559 573
2088 2559 606
2056 2559 1024
1987 2559 1536
1870 2560 2048
1684 2559 2559
1381 2559 3095
749 2559 4095
512 2737 4095
2507 3071 902
2501 3071 936
2476 3071 1081
2423 3071 1536
2336 3071 2048
2204 3071 2559
2010 3071 3430
1719 3071 4095
1225 3248 4095
2919 3583 1320
2914 3583 1355
2894 3583 1500
2852 3583 1798
2783 3583 2274
2681 3583 2952
2537 3583 3854
2337 3583 4095
2055 3940 4095
3332 4095 1833
3328 4095 1868
3311 4095 2014
3277 4095 2312
3221 4095 2790
3138 4095 3470
3024 4095 4095
2871 4095 4095
2666 4095 4095
1023 0 0
1023 0 512
1024 6 1024
1024 39 1536
1024 123 2048
1024 299 2560
1023 612 3071
1024 1117 3583
1023 1878 4095
1023 512 0
1023 512 512
1024 512 1024
1024 512 1536
1024 512 2048
1024 512 2560
1023 622 3071
1024 1129 3583
1024 1894 4095
1125 1024 0
1106 1024 512
1024 1024 1024
1024 1024 1536
1024 1024 2048
1024 1024 2560
1023 1023 3071
1024 1188 3607
1024 1965 4095
1435 1536 74
1422 1536 512
1365 1536 1023
1239 1536 1536
1024 1536 2048
1024 1536 2559
1024 1536 3071
1023 1535 3719
1023 2112 4095
1794 2048 245
1784 2048 512
1744 2048 1024
1656 2048 1536
1502 2048 2048
1234 2048 2560
1023 2047 3071
1024 2048 3898
1024 2356 4095
2176 2559 492
2169 2559 526
2137 2559 1023
2073 2559 1536
1963 2559 2048
1791 2559 2559
1519 2559 3071
1024 2559 4095
1024 2718 4095
2570 3071 821
2564 3071 855
2539 3071 1024
2489 3071 1536
2405 3071 2048
2279 3071 2559
2095 3071 3348
1823 3071 4095
1384 3228 4095
2970 3583 1239
2965 3583 1273
2945 3583 1419
2905 3583 1716
2838 3583 2192
2739 3583 2871
2599 3583 3771
2406 3583 4095
2137 3919 4095
3375 4095 1752
3371 4095 1786
3354 4095 1933
3320 4095 2230
3265 4095 2708
3184 4095 3388
3073 4095 4095
2923 4095 4095
2724 4095 4095
1535 0 0
1535 0 512
1536 3 1024
1535 32 1535
1536 113 2047
1535 282 2559
1536 591 3072
1536 1090 3583
1536 1845 4095
1535 512 0
1535 512 512
1535 512 1023
1535 512 1535
1535 512 2047
1536 512 2560
1535 601 3071
1535 1103 3583
1536 1862 4095
1535 1023 0
1535 1023 512
1535 1023 1023
1536 1024 1536
1535 1023 2047
1536 1024 2560
1535 1023 3071
1536 1161 3583
1536 1932 4095
1687 1536 0
1677 1536 512
1632 1536 1024
1536 1536 1536
1536 1536 2048
1536 1536 2559
1536 1536 3071
1536 1536 3583
1536 2078 4095
1986 2048 84
1978 2048 512
1943 2048 1023
1869 2048 1536
1741 2048 2048
1536 2047 2559
1536 2048 3071
1536 2047 3730
1536 2320 4095
2326 2559 330
2320 2559 512
2292 2559 1024
2233 2559 1536
2135 2559 2048
1984 2559 2559
1754 2559 3071
1536 2559 3984
1536 2681 4095
2691 3071 657
2685 3071 691
2663 3071 1024
2615 3071 1536
2538 3071 2048
2421 3071 2559
2253 3071 3181
2012 3071 4095
1647 3189 4095
3070 3583 1074
3066 3583 1108
3046 3583 1254
3008 3583 1551
2944 3583 2048
2850 3583 2704
2719 3583 3604
2539 3583 4095
2291 3876 4095
3459 4095 1586
3455 4095 1620
3439 4095 1767
3406 4095 2064
3353 4095 2541
3275 4095 3221
3168 4095 4095
3025 4095 4095
2836 4095 4095
2048 0 0
2048 0 512
2048 0 1024
2047 19 1535
2048 94 2048
2048 257 2560
2048 557 3072
2048 1048 3583
2048 1794 4095
2048 512 0
2048 512 512
2048 512 1024
2048 512 1536
2048 512 2048
2048 512 2559
2048 568 3071
2047 1061 3583
2048 1810 4095
2048 1024 0
2048 1024 512
2048 1024 1024
2048 1024 1536
2048 1024 2048
2048 1024 2559
2048 1024 3071
2048 1118 3583
2048 1880 4095
2048 1536 0
2048 1536 512
2048 1536 1023
2047 1536 1536
2048 1536 2048
2047 1536 2559
2048 1536 3071
2048 1536 3583
2048 2024 4095
2249 2048 0
2242 2048 512
2213 2048 1024
2151 2048 1536
2048 2048 2048
2048 2048 2559
2048 2048 3071
2048 2048 3583
2048 2264 4095
2542 2559 71
2537 2559 512
2512 2559 1024
2461 2559 1536
2376 2560 2048
2247 2559 2559
2059 2559 3071
2048 2559 3717
2048 2622 4095
2870 3071 396
2865 3071 512
2844 3071 1024
2802 3071 1536
2731 3071 2048
2626 3071 2559
2478 3071 3071
2270 3071 4053
2048 3125 4095
3221 3583 811
3217 3583 845
3199 3583 1024
3163 3583 1536
3103 3583 2048
3017 3583 2559
2896 3583 3337
2732 3583 4095
2512 3808 4095
3588 4095 1322
3584 4095 1356
3569 4095 1502
3538 4095 1799
3487 4095 2275
3414 4095 2954
3313 4095 3855
3179 4095 4095
3004 4095 4095
2559 0 0
2559 0 512
2559 0 1023
2559 10 1535
2559 71 2048
2559 225 2559
2559 512 3071
2559 989 3583
2559 1722 4095
2559 512 0
2559 512 512
2559 512 1023
2559 512 1535
2559 512 2047
2559 512 2559
2559 521 3071
2559 1003 3583
2560 1738 4095
2559 1024 0
2559 1024 512
2559 1023 1023
2559 1023 1535
2559 1023 2047
2559 1023 2559
2559 1023 3071
2559 1058 3583
2559 1807 4095
2559 1536 0
2559 1536 512
2560 1536 1024
2560 1536 1536
2560 1536 2048
2560 1536 2560
2560 1536 3071
2559 1536 3583
2559 1949 4095
2561 2048 0
2559 2048 512
2559 2048 1024
2559 2048 1536
2559 2048 2048
2559 2048 2559
2559 2048 3071
2559 2048 3583
2559 2186 4095
2811 2559 0
2806 2559 512
2785 2559 1024
2740 2559 1536
2668 2559 2048
2559 2559 2559
2559 2559 3071
2559 2559 3583
2559 2559 4095
3101 3071 29
3096 3071 512
3078 3071 1024
3039 3071 1536
2977 3071 2048
2884 3071 2559
2755 3071 3071
2579 3071 3673
2559 3071 4095
3420 3583 440
3416 3583 512
3400 3583 1024
3367 3583 1536
3312 3583 2048
3233 3583 2559
3124 3583 3071
2978 3583 4095
2784 3712 4095
3760 4095 948
3757 4095 982
3743 4095 1127
3714 4095 1536
3666 4095 2048
3598 4095 2576
3504 4095 3476
3381 4095 4095
3221 4095 4095
3071 0 0
3071 0 512
3071 0 1023
3071 0 1535
3071 45 2047
3071 183 2560
3071 454 3071
3071 914 3583
3071 1628 4095
3071 512 0
3071 512 512
3071 512 1023
3071 512 1535
3071 512 2047
3071 512 2559
3071 512 3071
3071 926 3583
3071 1644 4095
3071 1023 0
3071 1023 512
3071 1023 1023
3071 1023 1535
3071 1023 2047
3071 1023 2559
3071 1023 3071
3071 1023 3583
3071 1711 4095
3071 1536 0
3071 1536 512
3071 1536 1024
3071 1536 1536
3071 1536 2048
3071 1536 2559
3071 1536 3071
3071 1536 3583
3071 1851 4095
3071 2048 0
3071 2048 512
3071 2048 1023
3071 2048 1536
3071 2048 2048
3071 2048 2559
3071 2048 3071
3071 2048 3583
3071 2083 4095
3119 2559 0
3115 2559 512
3097 2559 1024
3071 2559 1536
3071 2559 2048
3071 2559 2559
3071 2559 3071
3071 2559 3583
3071 2559 4095
3373 3071 0
3370 3071 512
3353 3071 1024
3319 3071 1536
3264 3071 2048
3183 3071 2559
3071 3071 3071
3071 3071 3583
3071 3071 4095
3660 3583 0
3657 3583 512
3642 3583 1024
3612 3583 1536
3563 3583 2048
3492 3583 2559
3394 3583 3071
3265 3583 3595
3096 3587 4095
3973 4095 455
3970 4095 512
3957 4095 1024
3930 4095 1536
3886 4095 2048
3823 4095 2559
3738 4095 3071
3625 4095 4095
3481 4095 4095
3583 0 0
3583 0 512
3583 0 1024
3583 0 1536
3583 19 2048
3583 132 2559
3583 383 3071
3583 822 3583
3583 1513 4095
3583 512 0
3583 512 512
3583 512 1024
3583 512 1536
3583 512 2048
3583 512 2559
3583 512 3071
3583 834 3583
3583 1528 4095
3583 1024 0
3583 1024 512
3583 1024 1024
3583 1024 1536
3583 1024 2048
3583 1024 2559
3583 1024 3071
3583 1024 3583
3583 1594 4095
3583 1536 0
3583 1536 512
3583 1536 1024
3583 1536 1536
3583 1536 2048
3583 1536 2559
3583 1536 3071
3583 1536 3583
3583 1730 4095
3583 2048 0
3583 2048 512
3583 2048 1024
3583 2048 1536
3583 2048 2048
3583 2048 2559
3583 2048 3071
3583 2048 3583
3583 2048 4095
3583 2559 0
3583 2559 512
3583 2559 1024
3583 2559 1536
3583 2559 2048
3583 2559 2559
3583 2559 3071
3583 2559 3583
3583 2559 4095
3679 3071 0
3676 3071 512
3661 3071 1024
3631 3071 1536
3583 3071 2048
3583 3071 2559
3583 3071 3071
3583 3071 3583
3583 3071 4095
3936 3583 0
3933 3583 512
3919 3583 1024
3892 3583 1536
3848 3583 2048
3784 3583 2559
3697 3583 3071
3583 3583 3583
3583 3583 4095
4095 4095 0
4095 4095 512
4095 4095 1024
4095 4095 1536
4095 4095 2048
4084 4095 2559
4006 4095 3071
3904 4095 3583
3775 4095 4095
4095 0 0
4095 0 512
4095 0 1023
4095 0 1536
4095 0 2048
4095 84 2559
4095 304 3071
4095 714 3583
4095 1377 4095
4095 512 0
4095 512 512
4095 512 1024
4095 512 1536
4095 512 2048
4095 512 2559
4095 512 3071
4095 725 3583
4095 1391 4095
4095 1023 0
4095 1023 512
4095 1024 1024
4095 1024 1536
4095 1024 2048
4095 1024 2559
4095 1024 3071
4095 1023 3583
4095 1455 4095
4095 1536 0
4095 1536 512
4095 1536 1024
4095 1536 1536
4095 1536 2048
4095 1536 2559
4095 1536 3071
4095 1536 3583
4095 1586 4095
4095 2048 0
4095 2048 512
4095 2048 1024
4095 2048 1536
4095 2048 2048
4095 2048 2559
4095 2048 3071
4095 2048 3583
4095 2048 4095
4095 2559 0
4095 2559 512
4095 2559 1024
4095 2559 1536
4095 2559 2048
4095 2559 2559
4095 2559 3071
4095 2559 3583
4095 2559 4095
4095 3071 0
4095 3071 512
4095 3071 1024
4095 3071 1536
4095 3071 2048
4095 3071 2559
4095 3071 3071
4095 3071 3583
4095 3071 4095
4095 3583 0
4095 3583 512
4095 3583 1024
4095 3583 1536
4095 3583 2048
4095 3583 2559
4095 3583 3071
4095 3583 3583
4095 3583 4095
4095 4095 0
4095 4095 512
4095 4095 1024
4095 4095 1536
4095 4095 2048
4095 4095 2559
4095 4095 3071
4095 4095 3583
4095 4095 4095
