Examples/Channels - Pale colds + warmth.3dl
#25pt 3DLUT created by 3D LUT Creator Pro (c) Oleg Sharonov
#Copyright Oleg Sharonov
#IMAGEPROFILE sRGB IEC61966-2.1 v.2.10
#INPUTGAMMA sRGB IEC61966-2.1 v.2.10
#OUTPUTGAMMA sRGB IEC61966-2.1 v.2.10
0 128 256 384 512 640 768 896 1023
0 0 0
330 453 445
663 915 906
1010 1410 1401
1392 1921 1901
1812 2424 2378
2245 2896 2795
2671 3310 3153
3065 3673 3495
332 521 364
443 538 467
715 953 906
1043 1433 1401
1417 1937 1901
1831 2435 2377
2260 2904 2795
2682 3316 3153
3073 3678 3495
668 1061 735
718 1062 783
896 1100 954
1171 1528 1401
1517 2002 1901
1910 2482 2377
2322 2937 2795
2730 3339 3153
3109 3695 3495
1019 1641 1131
1050 1641 1160
1175 1641 1275
1401 1701 1477
1704 2127 1901
2060 2572 2377
2442 3002 2795
2823 3384 3153
3179 3730 3495
1404 2228 1541
1428 2228 1561
1526 2228 1642
1709 2228 1793
1966 2306 2000
2278 2705 2378
2617 3097 2795
2959 3452 3153
3282 3784 3495
1827 2785 1950
1845 2785 1964
1923 2785 2023
2070 2785 2135
2282 2785 2295
2544 2874 2489
2835 3220 2795
3131 3544 3153
3411 3859 3495
2264 3275 2340
2279 3275 2351
2339 3275 2393
2456 3275 2476
2626 3275 2595
2839 3275 2742
3079 3364 2907
3325 3657 3153
3557 3954 3495
2691 3694 2693
2703 3694 2700
2749 3694 2730
2839 3694 2789
2972 3694 2876
3139 3694 2988
3329 3694 3122
3523 3789 3273
3712 4070 3495
3086 4095 2999
3095 4095 3005
3129 4095 3027
3197 4095 3072
3296 4095 3140
3421 4095 3231
3564 4095 3344
3715 4095 3479
3846 4095 3495
526 0 0
526 429 445
714 905 906
1043 1405 1401
1417 1917 1901
1831 2421 2378
2260 2894 2795
2682 3309 3153
3073 3673 3495
526 521 332
526 521 445
762 944 906
1074 1428 1401
1441 1933 1901
1850 2433 2377
2275 2903 2795
2693 3314 3153
3082 3677 3495
719 1062 723
765 1062 771
933 1092 945
1200 1523 1401
1540 1998 1901
1928 2480 2377
2337 2936 2795
2741 3337 3153
3118 3694 3495
1051 1641 1123
1081 1641 1153
1204 1641 1269
1425 1697 1471
1725 2123 1901
2077 2570 2377
2455 3000 2795
2833 3383 3153
3187 3729 3495
1428 2227 1536
1452 2228 1556
1549 2228 1638
1729 2227 1788
1984 2303 1997
2292 2703 2377
2629 3096 2795
2969 3451 3153
3289 3783 3495
1846 2785 1946
1864 2786 1961
1941 2785 2020
2087 2785 2132
2297 2785 2292
2557 2873 2487
2845 3218 2795
3139 3543 3153
3417 3858 3495
2279 3275 2338
2293 3275 2348
2354 3275 2391
2469 3275 2474
2638 3275 2594
2850 3275 2740
3087 3363 2906
3332 3656 3153
3563 3953 3495
2703 3694 2691
2714 3694 2699
2760 3694 2729
2849 3694 2787
2981 3694 2875
3148 3694 2987
3335 3694 3120
3528 3788 3272
3716 4069 3495
3095 4095 2998
3103 4095 3003
3138 4095 3026
3204 4095 3071
3303 4095 3138
3427 4095 3230
3569 4095 3343
3719 4095 3478
3849 4095 3495
1075 0 0
1075 302 445
1075 866 906
1172 1382 1401
1518 1902 1901
1910 2411 2377
2323 2887 2795
2730 3304 3153
3109 3668 3495
1075 521 0
1075 521 445
1075 908 906
1200 1405 1401
1541 1918 1902
1928 2422 2377
2337 2895 2795
2741 3309 3153
3118 3673 3495
1076 1062 668
1076 1062 720
1076 1062 906
1315 1502 1401
1634 1984 1901
2004 2469 2377
2397 2928 2795
2787 3332 3153
3152 3690 3495
1179 1641 1091
1206 1641 1122
1320 1641 1241
1525 1679 1448
1809 2110 1901
2147 2560 2377
2511 2993 2795
2877 3377 3153
3220 3725 3495
1529 2228 1515
1551 2228 1535
1642 2228 1618
1814 2228 1771
2057 2291 1982
2354 2694 2377
2679 3089 2795
3008 3447 3153
3319 3780 3495
1925 2785 1931
1943 2785 1946
2016 2785 2006
2156 2785 2119
2358 2785 2281
2609 2865 2477
2888 3213 2795
3174 3539 3153
3443 3855 3495
2341 3275 2327
2355 3274 2337
2413 3275 2381
2524 3275 2464
2688 3275 2585
2893 3275 2733
3123 3358 2900
3360 3652 3153
3585 3950 3495
2750 3694 2684
2761 3694 2691
2805 3694 2721
2892 3694 2781
3020 3694 2868
3182 3694 2981
3363 3694 3115
3551 3784 3267
3733 4066 3495
3130 4095 2992
3138 4095 2998
3172 4095 3020
3237 4095 3065
3332 4095 3133
3453 4095 3225
3591 4095 3339
3736 4095 3474
3860 4095 3495
1712 0 0
1712 0 445
1713 780 906
1712 1333 1400
1712 1870 1901
2062 2388 2377
2444 2871 2795
2824 3293 3153
3180 3661 3495
1712 521 0
1712 521 445
1713 826 906
1712 1358 1401
1726 1886 1901
2078 2400 2377
2456 2879 2795
2834 3298 3153
3188 3665 3495
1712 1061 532
1712 1062 600
1712 1061 906
1712 1459 1401
1810 1954 1901
2148 2448 2377
2512 2913 2795
2877 3322 3153
3220 3682 3495
1712 1641 1023
1712 1641 1056
1712 1641 1183
1712 1641 1401
1969 2083 1901
2280 2540 2377
2619 2979 2795
2961 3367 3153
3283 3717 3495
1715 2227 1470
1735 2228 1491
1817 2227 1577
1973 2228 1735
2197 2267 1951
2472 2676 2377
2776 3076 2795
3084 3437 3153
3376 3772 3495
2075 2785 1899
2092 2785 1914
2159 2785 1976
2288 2785 2092
2477 2785 2257
2711 2849 2458
2972 3201 2795
3240 3530 3153
3493 3847 3495
2460 3274 2304
2473 3275 2315
2527 3275 2359
2631 3275 2444
2784 3275 2567
2976 3275 2718
3193 3348 2887
3414 3644 3153
3627 3943 3495
2842 3694 2668
2852 3694 2675
2894 3694 2706
2976 3694 2766
3096 3694 2855
3247 3694 2970
3418 3694 3105
3595 3777 3258
3766 4059 3495
3199 4095 2981
3207 4095 2986
3238 4095 3009
3299 4095 3054
3389 4095 3123
3502 4095 3215
3633 4095 3329
3768 4095 3465
3882 4095 3495
2401 0 0
2401 0 445
2400 608 906
2400 1251 1401
2400 1818 1901
2400 2352 2377
2619 2846 2795
2961 3276 3153
3283 3647 3495
2400 521 0
2400 521 445
2400 669 906
2400 1278 1401
2400 1834 1901
2400 2364 2377
2631 2854 2795
2970 3281 3153
3290 3652 3495
2400 1062 0
2400 1062 445
2400 1062 906
2400 1386 1401
2400 1905 1901
2400 2413 2377
2680 2888 2795
3009 3305 3153
3320 3669 3495
2400 1641 900
2400 1641 937
2400 1641 1082
2400 1641 1401
2400 2038 1901
2473 2507 2377
2776 2956 2795
3085 3351 3153
3376 3705 3495
2400 2228 1394
2400 2228 1417
2400 2228 1508
2400 2228 1675
2400 2228 1901
2645 2647 2377
2917 3055 2795
3197 3422 3153
3460 3760 3495
2400 2785 1847
2400 2785 1863
2400 2785 1927
2481 2785 2047
2649 2785 2218
2859 2823 2425
3095 3182 2795
3337 3516 3153
3567 3836 3495
2634 3275 2267
2645 3275 2278
2694 3275 2323
2788 3275 2411
2925 3275 2538
3099 3275 2693
3295 3331 2866
3496 3631 3153
3691 3932 3495
2978 3694 2642
2987 3694 2649
3025 3694 2681
3098 3694 2743
3207 3694 2834
3344 3694 2950
3499 3694 3088
3661 3765 3242
3811 4048 3495
3301 4095 2962
3307 4095 2968
3336 4095 2991
3391 4095 3037
3472 4095 3106
3576 4095 3200
3696 4095 3315
3813 4095 3452
3913 4095 3495
3045 0 0
3045 0 445
3045 0 906
3045 1123 1401
3045 1739 1901
3045 2299 2377
3045 2809 2795
3134 3250 3153
3413 3629 3495
3045 521 0
3045 521 445
3045 521 906
3045 1154 1401
3045 1757 1901
3045 2311 2377
3045 2817 2795
3142 3256 3153
3419 3633 3495
3045 1062 0
3045 1062 445
3045 1061 906
3045 1274 1401
3046 1832 1901
3045 2362 2377
3045 2852 2795
3176 3280 3153
3444 3651 3495
3045 1641 680
3045 1641 732
3046 1641 915
3046 1641 1401
3045 1971 1901
3046 2460 2378
3045 2922 2795
3241 3328 3153
3494 3687 3495
3045 2228 1277
3045 2228 1302
3045 2228 1403
3045 2228 1584
3045 2228 1901
3045 2604 2377
3096 3025 2795
3338 3400 3153
3568 3742 3495
3045 2785 1769
3045 2785 1785
3045 2785 1853
3045 2785 1981
3045 2785 2161
3045 2785 2377
3250 3155 2795
3460 3495 3153
3663 3819 3495
3045 3275 2212
3045 3275 2223
3045 3275 2271
3045 3275 2363
3103 3275 2495
3253 3275 2658
3423 3307 2836
3599 3612 3153
3768 3916 3495
3149 3694 2603
3157 3694 2612
3189 3694 2645
3253 3694 2709
3347 3694 2803
3466 3694 2923
3602 3694 3063
3744 3747 3221
3866 4033 3495
3428 4095 2935
3434 4095 2940
3459 4095 2964
3507 4095 3011
3578 4095 3082
3671 4095 3177
3773 4095 3294
3868 4095 3432
3951 4095 3495
3568 0 0
3568 0 445
3568 0 906
3568 920 1401
3568 1628 1901
3568 2225 2377
3568 2758 2795
3568 3216 3153
3568 3604 3495
3568 521 0
3568 521 445
3568 521 906
3568 958 1401
3568 1648 1901
3569 2238 2377
3568 2767 2795
3568 3222 3153
3568 3608 3495
3568 1061 0
3568 1061 445
3568 1061 906
3569 1104 1401
3568 1728 1901
3568 2291 2377
3568 2804 2795
3568 3247 3153
3587 3626 3495
3569 1641 0
3568 1641 445
3569 1641 906
3569 1641 1401
3568 1878 1901
3569 2394 2378
3569 2876 2795
3568 3296 3153
3629 3663 3495
3568 2228 1096
3569 2228 1127
3569 2228 1246
3568 2228 1452
3568 2228 1901
3568 2545 2377
3568 2982 2795
3568 3370 3153
3692 3719 3495
3568 2785 1657
3568 2785 1675
3568 2785 1749
3568 2785 1887
3568 2785 2080
3568 2785 2377
3568 3118 2795
3600 3468 3153
3769 3796 3495
3568 3275 2135
3568 3275 2147
3568 3275 2198
3568 3275 2295
3568 3275 2436
3568 3275 2607
3568 3275 2795
3718 3587 3153
3849 3894 3495
3568 3694 2550
3568 3694 2559
3568 3694 2594
3568 3694 2662
3568 3694 2760
3605 3694 2885
3721 3694 3030
3830 3724 3191
3925 4012 3495
3573 4095 2897
3578 4095 2903
3599 4095 2928
3640 4095 2976
3701 4095 3050
3775 4095 3147
3852 4095 3266
3926 4095 3405
3995 4095 3495
3912 0 0
3912 0 445
3912 0 906
3912 536 1401
3911 1473 1901
3911 2127 2377
3911 2691 2795
3911 3172 3153
3911 3571 3495
3912 521 0
3912 521 445
3912 521 906
3911 607 1401
3912 1495 1901
3911 2141 2377
3911 2700 2795
3912 3178 3153
3912 3576 3495
3912 1062 0
3912 1062 445
3912 1062 906
3911 1062 1401
3912 1585 1901
3911 2198 2377
3912 2739 2795
3912 3203 3153
3911 3594 3495
3911 1641 0
3911 1641 445
3911 1641 906
3911 1641 1401
3912 1751 1901
3912 2307 2377
3912 2814 2795
3911 3254 3153
3911 3632 3495
3912 2228 801
3911 2228 844
3911 2228 1004
3911 2228 1401
3912 2228 1901
3911 2466 2377
3911 2926 2795
3911 3331 3153
3911 3689 3495
3911 2785 1498
3911 2785 1519
3911 2785 1603
3912 2785 1758
3911 2785 1971
3912 2785 2377
3911 3069 2795
3911 3432 3153
3911 3768 3495
3911 3275 2030
3911 3275 2043
3912 3275 2099
3911 3275 2204
3911 3275 2355
3911 3275 2540
3911 3275 2795
3911 3554 3153
3925 3867 3495
3911 3694 2479
3911 3694 2488
3911 3694 2526
3911 3694 2598
3912 3694 2704
3911 3694 2835
3912 3694 2987
3911 3694 3153
3984 3986 3495
3912 4095 2848
3911 4095 2854
3911 4095 2880
3911 4095 2931
3912 4095 3007
3912 4095 3108
3928 4095 3229
3985 4095 3372
4042 4095 3495
4095 0 0
4095 0 445
4095 0 906
4095 0 1401
4095 1250 1901
4095 1997 2377
4095 2604 2795
4095 3114 3153
4095 3531 3495
4095 521 0
4095 521 445
4095 521 906
4095 521 1401
4095 1276 1901
4095 2012 2377
4095 2614 2795
4095 3121 3153
4095 3535 3495
4095 1061 0
4095 1061 445
4095 1062 906
4095 1062 1401
4095 1384 1901
4095 2074 2377
4095 2655 2795
4095 3148 3153
4095 3554 3495
4095 1641 0
4095 1641 445
4095 1641 906
4095 1641 1401
4095 1641 1901
4095 2193 2377
4095 2736 2795
4095 3201 3153
4095 3593 3495
4095 2228 0
4095 2228 445
4095 2228 906
4095 2228 1401
4095 2228 1901
4095 2364 2377
4095 2854 2795
4095 3281 3153
4095 3652 3495
4095 2785 1269
4095 2785 1294
4095 2785 1396
4095 2785 1579
4095 2785 1901
4095 2785 2377
4095 3005 2795
4095 3386 3153
4095 3732 3495
4095 3275 1888
4095 3275 1903
4095 3275 1965
4095 3275 2082
4095 3275 2249
4095 3275 2451
4095 3275 2795
4095 3513 3153
4095 3833 3495
4095 3694 2384
4095 3694 2393
4095 3694 2435
4095 3694 2515
4095 3694 2629
4095 3694 2771
4095 3694 2932
4095 3694 3153
4095 3954 3495
4095 4095 2785
4095 4095 2791
4095 4095 2819
4095 4095 2873
4095 4095 2953
4095 4095 3058
4095 4095 3184
4095 4095 3330
4095 4095 3495
