Examples/CL - Swap colors.3dl
#25pt 3DLUT created by 3D LUT Creator Pro (c) Oleg Sharonov
#Copyright Oleg Sharonov
#IMAGEPROFILE sRGB
#INPUTGAMMA sRGB
#OUTPUTGAMMA sRGB
0 43 86 128 171 214 256 299 341 384 427 469 512 555 597 640 682 725 768 810 853 896 938 981 1023 
6 0 0
116 110 0
255 252 0
398 396 0
542 541 0
686 685 0
830 829 0
975 973 0
1118 1117 0
1262 1261 0
1406 1406 0
1551 1550 0
1695 1694 0
1839 1838 0
1983 1982 0
2127 2126 0
2271 2270 0
2415 2414 0
2559 2559 0
2703 2703 0
2847 2847 0
2991 2991 0
3135 3135 0
3279 3279 0
3423 3423 0
152 0 113
243 32 58
343 189 0
461 356 0
590 512 0
724 663 0
861 811 0
1000 959 0
1140 1105 0
1282 1251 0
1423 1396 0
1566 1541 0
1709 1686 0
1851 1831 0
1994 1975 0
2137 2120 0
2280 2265 0
2424 2410 0
2567 2554 0
2711 2699 0
2854 2843 0
2998 2988 0
3141 3132 0
3285 3276 0
3428 3421 0
302 0 252
365 0 209
436 87 136
535 297 16
648 472 0
771 633 0
899 788 0
1033 940 0
1168 1089 0
1306 1237 0
1445 1384 0
1585 1530 0
1726 1676 0
1867 1822 0
2009 1968 0
2150 2113 0
2292 2259 0
2435 2404 0
2577 2549 0
2720 2694 0
2863 2839 0
3006 2983 0
3149 3128 0
3292 3273 0
3435 3418 0
452 0 398
501 0 367
553 0 322
631 177 240
727 403 90
837 584 0
956 751 0
1081 909 0
1210 1064 0
1342 1216 0
1477 1366 0
1614 1514 0
1752 1662 0
1891 1809 0
2030 1956 0
2170 2103 0
2310 2249 0
2451 2395 0
2593 2540 0
2734 2686 0
2876 2832 0
3018 2977 0
3161 3122 0
3303 3267 0
3445 3412 0
605 0 541
642 0 520
688 0 488
744 0 434
826 280 349
921 506 201
1029 694 0
1144 865 0
1265 1027 0
1391 1186 0
1520 1340 0
1653 1491 0
1787 1642 0
1923 1791 0
2059 1939 0
2196 2088 0
2335 2236 0
2474 2383 0
2614 2529 0
2754 2676 0
2894 2822 0
3035 2968 0
3176 3114 0
3318 3259 0
3459 3405 0
756 0 686
785 0 668
823 0 644
876 0 604
937 32 545
1020 384 457
1116 611 318
1222 801 42
1334 977 0
1452 1144 0
1574 1305 0
1701 1461 0
1831 1615 0
1963 1767 0
2096 1918 0
2230 2068 0
2366 2218 0
2503 2366 0
2641 2514 0
2779 2662 0
2917 2810 0
3057 2957 0
3197 3103 0
3337 3249 0
3478 3396 0
907 0 830
931 0 815
963 0 796
1009 0 765
1065 0 720
1131 139 655
1214 488 565
1311 713 431
1415 907 192
1524 1088 0
1639 1259 0
1760 1422 0
1885 1580 0
2012 1737 0
2141 1891 0
2272 2044 0
2405 2196 0
2539 2346 0
2674 2496 0
2810 2645 0
2946 2794 0
3084 2942 0
3222 3089 0
3361 3237 0
3500 3384 0
1058 0 974
1078 0 962
1105 0 946
1144 0 920
1196 0 884
1252 0 833
1324 273 765
1409 590 673
1505 817 543
1608 1015 336
1715 1199 0
1829 1372 0
1948 1537 0
2070 1699 0
2194 1858 0
2321 2014 0
2450 2168 0
2581 2321 0
2713 2473 0
2847 2625 0
2981 2775 0
3116 2924 0
3253 3073 0
3390 3221 0
3528 3369 0
1207 0 1118
1224 0 1107
1248 0 1094
1282 0 1073
1329 0 1042
1384 0 1001
1442 0 946
1517 394 874
1603 694 781
1698 922 654
1800 1123 465
1906 1309 74
2019 1484 0
2135 1653 0
2255 1817 0
2378 1978 0
2503 2136 0
2630 2291 0
2759 2446 0
2890 2600 0
3021 2752 0
3154 2903 0
3289 3053 0
3424 3203 0
3560 3352 0
1357 0 1262
1372 0 1253
1392 0 1242
1423 0 1223
1463 0 1197
1514 0 1162
1571 0 1116
1632 0 1058
1710 509 984
1797 798 889
1892 1028 764
1992 1231 588
2098 1419 287
2209 1597 0
2323 1769 0
2441 1934 0
2562 2097 0
2686 2256 0
2811 2414 0
2938 2570 0
3067 2725 0
3197 2878 0
3330 3030 0
3462 3181 0
3596 3331 0
1505 0 1406
1519 0 1399
1537 0 1388
1564 0 1372
1601 0 1349
1647 0 1319
1700 0 1280
1760 0 1231
1824 129 1169
1903 623 1093
1991 904 997
2085 1134 874
2185 1339 707
2289 1530 451
2398 1710 0
2511 1883 0
2628 2051 0
2748 2215 0
2869 2376 0
2993 2536 0
3119 2693 0
3246 2849 0
3376 3003 0
3506 3156 0
3638 3308 0
1654 0 1550
1666 0 1543
1682 0 1534
1707 0 1520
1739 0 1500
1781 0 1473
1830 0 1439
1887 0 1397
1945 0 1344
2016 318 1280
2096 735 1201
2184 1011 1105
2277 1242 982
2376 1449 823
2480 1641 594
2588 1823 113
2700 1997 0
2815 2167 0
2933 2333 0
3054 2496 0
3176 2657 0
3300 2816 0
3427 2972 0
3555 3127 0
3684 3281 0
1802 0 1694
1813 0 1688
1828 0 1680
1850 0 1667
1879 0 1649
1917 0 1626
1962 0 1596
2015 0 1558
2074 0 1513
2134 0 1457
2207 477 1391
2288 849 1311
2376 1120 1213
2469 1350 1092
2567 1558 938
2670 1752 727
2778 1935 372
2889 2111 0
3003 2283 0
3120 2451 0
3238 2615 0
3359 2778 0
3483 2936 0
3608 3094 0
3735 3250 0
1950 0 1838
1960 0 1833
1973 0 1825
1993 0 1814
2020 0 1798
2054 0 1777
2096 0 1750
2144 0 1717
2200 0 1676
2260 0 1628
2322 0 1570
2398 613 1501
2480 962 1419
2568 1229 1321
2661 1459 1201
2758 1670 1051
2862 1862 853
2968 2047 556
3078 2225 0
3191 2398 0
3306 2568 0
3423 2735 0
3544 2897 0
3666 3057 0
3790 3216 0
2097 0 1982
2106 0 1977
2118 0 1971
2136 0 1960
2161 0 1946
2192 0 1926
2229 0 1902
2274 0 1872
2327 0 1836
2384 0 1793
2447 0 1742
2512 110 1682
2589 744 1611
2672 1076 1528
2759 1341 1429
2850 1573 1310
2950 1779 1163
3053 1973 976
3158 2159 711
3267 2339 158
3378 2515 0
3491 2687 0
3610 2852 0
3729 3015 0
3850 3177 0
2242 0 2127
2250 0 2122
2261 0 2116
2278 0 2106
2301 0 2093
2330 0 2075
2365 0 2053
2406 0 2026
2455 0 1994
2510 0 1955
2570 0 1909
2631 0 1855
2701 377 1793
2779 875 1721
2861 1195 1636
2948 1457 1536
3042 1682 1418
3141 1888 1275
3243 2084 1095
3348 2273 852
3455 2455 452
3565 2633 0
3679 2803 0
3796 2969 0
3915 3134 0
2387 0 2271
2395 0 2266
2405 0 2261
2420 0 2252
2442 0 2240
2468 0 2224
2500 0 2204
2540 0 2179
2585 0 2149
2637 0 2114
2694 0 2072
2755 0 2024
2818 0 1969
2890 576 1904
2968 1006 1830
3050 1315 1745
3139 1568 1644
3234 1791 1527
3333 1999 1386
3433 2197 1213
3536 2388 987
3642 2573 651
3754 2748 0
3868 2918 0
3983 3086 0
2531 0 2415
2538 0 2411
2548 0 2406
2562 0 2397
2582 0 2386
2606 0 2371
2637 0 2353
2674 0 2330
2716 0 2303
2764 0 2270
2818 0 2233
2877 0 2189
2939 0 2139
3004 0 2081
3077 746 2015
3156 1138 1939
3240 1432 1853
3331 1678 1753
3424 1903 1636
3522 2113 1497
3621 2313 1329
3724 2505 1115
3832 2686 818
3943 2861 209
4056 3034 0
2675 0 2559
2682 0 2555
2690 0 2550
2703 0 2543
2722 0 2532
2745 0 2519
2774 0 2501
2808 0 2480
2847 0 2455
2892 0 2426
2943 0 2391
3000 0 2351
3060 0 2305
3125 0 2253
3190 233 2193
3264 904 2126
3344 1265 2049
3430 1546 1961
3520 1793 1861
3614 2018 1744
3710 2228 1608
3809 2429 1444
3914 2618 1241
4022 2799 970
4095 2977 526
2818 0 2703
2824 0 2700
2832 0 2695
2845 0 2688
2861 0 2678
2883 0 2666
2910 0 2650
2942 0 2630
2979 0 2607
3021 0 2579
3070 0 2547
3124 0 2511
3181 0 2469
3244 0 2421
3308 0 2367
3376 533 2305
3450 1055 2236
3533 1388 2158
3619 1665 2070
3709 1909 1968
3803 2133 1853
3898 2345 1718
4000 2542 1558
4095 2730 1364
4095 2914 1111
2961 0 2847
2966 0 2844
2974 0 2840
2985 0 2833
3001 0 2824
3021 0 2812
3046 0 2797
3076 0 2779
3111 0 2757
3151 0 2732
3197 0 2702
3248 0 2668
3304 0 2629
3364 0 2585
3427 0 2536
3490 0 2480
3559 760 2417
3639 1191 2346
3722 1513 2267
3808 1784 2178
3898 2026 2076
3991 2250 1961
4088 2458 1827
4095 2655 1671
4095 2845 1483
3102 0 2991
3108 0 2988
3115 0 2984
3125 0 2978
3140 0 2970
3159 0 2959
3183 0 2944
3211 0 2927
3244 0 2907
3282 0 2883
3326 0 2856
3374 0 2824
3427 0 2788
3484 0 2747
3545 0 2702
3610 0 2650
3672 71 2593
3746 932 2528
3827 1326 2456
3909 1637 2376
3996 1903 2286
4085 2145 2184
4095 2364 2069
4095 2571 1937
4095 2769 1784
3244 0 3135
3249 0 3133
3255 0 3129
3265 0 3123
3279 0 3115
3297 0 3105
3319 0 3092
3346 0 3076
3377 0 3057
3414 0 3034
3455 0 3008
3501 0 2979
3551 0 2945
3606 0 2907
3664 0 2865
3726 0 2817
3791 0 2764
3857 509 2705
3934 1090 2639
4014 1461 2566
4095 1762 2485
4095 2027 2394
4095 2260 2292
4095 2478 2178
4095 2685 2047
3384 0 3279
3389 0 3277
3395 0 3273
3404 0 3268
3418 0 3260
3434 0 3250
3455 0 3238
3480 0 3223
3510 0 3205
3545 0 3184
3585 0 3160
3628 0 3132
3676 0 3101
3728 0 3065
3784 0 3026
3844 0 2981
3907 0 2932
3970 0 2878
4043 749 2817
4095 1243 2750
4095 1597 2676
4095 1892 2594
4095 2144 2502
4095 2374 2400
4095 2593 2286
3523 0 3423
3528 0 3421
3533 0 3418
3542 0 3412
3555 0 3405
3570 0 3396
3590 0 3385
3615 0 3370
3644 0 3354
3678 0 3334
3715 0 3311
3756 0 3285
3802 0 3255
3852 0 3222
3906 0 3185
3963 0 3144
4024 0 3098
4088 0 3047
4095 0 2991
4095 956 2929
4095 1396 2861
4095 1734 2786
4095 2011 2703
4095 2258 2611
4095 2490 2508
0 81 113
81 201 58
225 316 0
377 443 0
526 577 0
673 714 0
819 853 0
965 994 0
1110 1135 0
1256 1276 0
1401 1419 0
1546 1561 0
1690 1704 0
1835 1847 0
1979 1990 0
2124 2134 0
2268 2278 0
2412 2421 0
2556 2565 0
2701 2709 0
2844 2853 0
2989 2996 0
3133 3141 0
3277 3284 0
3421 3428 0
74 39 222
183 155 171
299 287 94
430 422 0
565 560 0
704 700 0
845 842 0
986 984 0
1128 1127 0
1271 1270 0
1415 1413 0
1558 1556 0
1701 1700 0
1845 1843 0
1988 1987 0
2131 2130 0
2275 2274 0
2419 2418 0
2563 2562 0
2707 2706 0
2850 2850 0
2994 2994 0
3138 3138 0
3282 3282 0
3426 3426 0
262 0 330
336 26 293
409 198 238
513 363 129
630 518 0
756 669 0
887 817 0
1022 963 0
1159 1109 0
1297 1255 0
1437 1399 0
1578 1544 0
1720 1689 0
1861 1834 0
2003 1978 0
2146 2122 0
2288 2267 0
2431 2411 0
2574 2556 0
2717 2701 0
2859 2845 0
3003 2989 0
3146 3134 0
3289 3278 0
3433 3423 0
428 0 452
478 0 425
537 23 386
614 267 320
713 455 201
824 622 0
945 780 0
1071 933 0
1201 1084 0
1334 1234 0
1470 1381 0
1607 1528 0
1746 1674 0
1885 1820 0
2025 1966 0
2165 2112 0
2306 2258 0
2447 2403 0
2589 2548 0
2731 2693 0
2873 2838 0
3015 2983 0
3158 3128 0
3300 3272 0
3443 3417 0
586 0 584
624 0 563
672 0 533
732 68 485
813 347 409
909 551 287
1019 725 52
1135 890 0
1257 1048 0
1383 1203 0
1514 1355 0
1646 1505 0
1781 1654 0
1917 1802 0
2054 1950 0
2192 2097 0
2331 2244 0
2470 2390 0
2610 2536 0
2751 2683 0
2891 2828 0
3032 2974 0
3174 3120 0
3315 3265 0
3457 3410 0
742 0 719
771 0 702
811 0 679
865 0 642
927 139 587
1010 437 506
1106 647 383
1214 828 155
1326 999 0
1445 1162 0
1568 1321 0
1696 1475 0
1826 1628 0
1958 1778 0
2091 1928 0
2226 2078 0
2362 2227 0
2499 2374 0
2637 2522 0
2776 2669 0
2914 2816 0
3054 2963 0
3194 3109 0
3335 3255 0
3475 3401 0
895 0 857
919 0 843
952 0 824
999 0 795
1056 0 751
1122 238 691
1206 532 605
1303 744 482
1408 931 280
1518 1107 0
1633 1276 0
1755 1436 0
1880 1593 0
2007 1748 0
2137 1901 0
2268 2053 0
2401 2205 0
2535 2354 0
2671 2503 0
2807 2652 0
2943 2800 0
3081 2948 0
3220 3095 0
3359 3242 0
3498 3389 0
1047 0 997
1068 0 985
1095 0 969
1135 0 945
1188 0 909
1247 0 861
1317 341 795
1403 627 707
1498 844 585
1602 1036 398
1710 1217 0
1824 1387 0
1943 1550 0
2065 1711 0
2190 1868 0
2317 2023 0
2447 2177 0
2578 2329 0
2710 2481 0
2844 2631 0
2978 2781 0
3114 2930 0
3250 3078 0
3388 3226 0
3525 3374 0
1199 0 1137
1216 0 1128
1239 0 1114
1274 0 1093
1321 0 1063
1377 0 1023
1436 0 970
1510 448 901
1597 725 810
1693 946 689
1795 1142 513
1901 1325 186
2015 1497 0
2131 1665 0
2250 1828 0
2374 1987 0
2499 2145 0
2627 2300 0
2756 2454 0
2886 2607 0
3018 2758 0
3151 2909 0
3286 3059 0
3421 3208 0
3557 3357 0
1349 0 1279
1364 0 1271
1385 0 1259
1415 0 1241
1457 0 1215
1508 0 1180
1566 0 1136
1627 55 1079
1705 552 1006
1792 826 914
1887 1049 793
1988 1248 627
2094 1433 358
2204 1610 0
2319 1780 0
2437 1944 0
2559 2106 0
2682 2265 0
2808 2422 0
2935 2577 0
3064 2731 0
3195 2884 0
3327 3036 0
3460 3186 0
3594 3336 0
1499 0 1421
1512 0 1414
1530 0 1403
1558 0 1387
1595 0 1365
1641 0 1335
1695 0 1297
1755 0 1249
1819 228 1188
1899 658 1113
1986 928 1019
2080 1153 899
2180 1355 740
2285 1543 501
2394 1722 0
2508 1893 0
2625 2060 0
2744 2223 0
2866 2384 0
2990 2543 0
3116 2700 0
3243 2855 0
3373 3008 0
3504 3161 0
3636 3313 0
