Examples/CL - More colors.3dl
#25pt 3DLUT created by 3D LUT Creator Pro (c) Oleg Sharonov
#Copyright Oleg Sharonov
0 128 256 384 512 640 768 896 1023
0 0 0
0 0 568
0 0 1086
0 0 1604
0 0 2117
0 0 2636
0 0 3140
0 0 3639
0 0 4095
0 560 10
0 596 484
0 362 1088
0 212 1607
0 42 2117
0 0 2636
0 0 3140
0 0 3642
0 0 4095
0 1084 84
0 1136 557
0 1148 973
19 962 1568
13 773 2136
0 730 2647
0 700 3148
0 687 3648
0 723 4095
0 1604 195
0 1634 612
0 1677 1027
0 1677 1469
0 1517 2064
123 1386 2627
26 1292 3158
0 1298 3656
0 1331 4095
0 2119 304
0 2136 654
0 2180 1104
0 2205 1515
0 2207 1973
0 2059 2554
155 1958 3111
161 1867 3659
58 1879 4095
0 2639 403
0 2651 705
0 2680 1155
0 2706 1573
0 2719 2003
0 2711 2476
0 2595 3049
168 2513 3612
201 2456 4095
0 3146 497
0 3153 761
0 3171 1185
0 3194 1631
0 3206 2056
0 3210 2502
0 3208 2990
0 3124 3555
45 3054 4095
0 3646 593
0 3650 823
0 3661 1214
0 3682 1677
0 3689 2096
0 3693 2557
0 3686 3015
0 3692 3516
0 3630 4066
0 4095 691
0 4095 894
0 4095 1258
0 4095 1706
0 4095 2127
0 4095 2579
0 4095 3055
0 4095 3545
0 4095 4062
536 0 87
564 0 523
299 0 1157
262 0 1649
212 0 2148
161 0 2659
136 0 3156
198 0 3648
343 0 4095
575 591 0
512 512 512
334 324 1162
276 220 1649
203 55 2146
126 0 2655
81 0 3151
119 0 3644
186 0 4095
503 1090 0
310 1126 455
171 1130 1026
422 940 1605
422 783 2151
399 747 2653
389 727 3147
341 713 3647
341 749 4095
282 1604 0
0 1628 505
0 1693 1047
0 1670 1497
428 1508 2085
522 1378 2636
506 1301 3157
461 1308 3655
443 1340 4095
0 2118 45
0 2135 568
0 2180 1089
0 2215 1531
0 2201 1990
434 2051 2567
570 1953 3113
568 1864 3662
527 1884 4095
0 2639 245
0 2650 633
0 2676 1124
0 2711 1583
0 2722 2012
0 2706 2486
449 2590 3052
577 2511 3612
586 2454 4095
0 3145 396
0 3152 700
0 3169 1157
0 3196 1639
0 3208 2061
0 3211 2508
0 3204 2996
383 3120 3557
530 3053 4095
0 3645 525
0 3649 777
0 3660 1192
0 3680 1666
0 3691 2101
0 3694 2559
0 3686 3018
0 3690 3517
297 3627 4067
0 4095 647
0 4095 862
0 4095 1238
0 4095 1696
0 4095 2130
0 4095 2581
0 4095 3059
0 4095 3545
107 4095 4063
1058 0 233
1077 0 575
1099 0 1040
855 0 1685
777 0 2201
788 0 2695
800 0 3182
838 0 3666
918 0 4095
1035 452 100
1081 328 547
1092 222 1057
840 110 1702
789 0 2206
793 0 2697
807 0 3182
845 0 3666
921 0 4095
1108 1129 0
1126 1144 0
1023 1023 1023
835 835 1725
815 798 2207
806 770 2691
813 758 3174
842 771 3659
907 836 4095
1079 1619 0
1030 1631 0
861 1667 935
758 1645 1561
896 1482 2138
928 1350 2677
944 1318 3168
976 1335 3654
977 1364 4095
977 2123 0
921 2136 168
735 2169 977
161 2239 1555
675 2183 2031
921 2039 2595
1004 1939 3132
1040 1873 3661
1020 1897 4095
844 2638 0
781 2646 389
582 2668 1027
0 2708 1573
55 2729 2031
655 2692 2512
965 2579 3070
1057 2506 3615
1057 2450 4095
686 3143 0
617 3149 531
396 3162 1077
0 3187 1598
0 3213 2075
280 3214 2522
738 3196 3012
981 3111 3561
1033 3051 4095
528 3642 284
455 3646 651
183 3657 1130
0 3675 1632
0 3694 2114
0 3695 2565
637 3685 3026
802 3682 3521
946 3620 4071
411 4095 516
362 4095 771
158 4095 1188
0 4095 1670
0 4095 2139
107 4095 2587
619 4095 3065
826 4095 3547
900 4095 4065
1576 0 381
1579 0 665
1628 0 1040
1622 0 1547
1440 0 2179
1288 0 2741
1320 0 3213
1359 0 3692
1426 0 4095
1565 87 351
1576 0 681
1634 0 1049
1617 0 1559
1436 0 2188
1296 0 2743
1325 0 3214
1364 0 3692
1431 0 4095
1531 1042 0
1557 1001 477
1622 884 1000
1605 805 1582
1419 793 2210
1314 710 2743
1337 662 3215
1378 666 3691
1443 739 4095
1628 1652 0
1639 1661 0
1656 1667 381
1538 1538 1538
1367 1372 2255
1350 1344 2735
1359 1343 3205
1399 1373 3678
1447 1416 4095
1636 2149 0
1613 2154 0
1548 2168 653
1401 2195 1445
1307 2145 2092
1406 2012 2645
1454 1919 3172
1491 1896 3672
1520 1922 4095
1556 2643 0
1533 2648 0
1472 2661 771
1336 2686 1469
1073 2741 2057
1297 2671 2553
1462 2560 3103
1540 2498 3624
1548 2448 4095
1482 3141 0
1457 3144 0
1388 3155 897
1272 3174 1507
1073 3208 2072
1147 3219 2544
1351 3184 3033
1519 3095 3571
1542 3045 4095
1402 3641 0
1379 3644 345
1320 3653 1002
1222 3667 1564
1099 3687 2093
1107 3695 2577
1297 3682 3039
1426 3669 3529
1498 3608 4078
1357 4095 152
1339 4095 596
1291 4095 1100
1202 4095 1619
1123 4095 2120
1152 4095 2596
1302 4095 3067
1428 4095 3551
1475 4095 4069
2088 0 512
2089 0 748
2097 0 1134
2183 0 1528
2139 0 2066
1997 0 2663
1838 0 3239
1872 0 3715
1929 0 4095
2086 0 527
2091 0 769
2100 0 1145
2183 0 1535
2136 0 2071
1993 0 2668
1836 0 3242
1877 0 3715
1932 0 4095
2062 898 341
2068 868 679
2105 762 1113
2184 587 1548
2130 699 2081
1981 742 2681
1833 691 3248
1887 683 3715
1941 738 4095
2048 1614 0
2062 1591 158
2097 1528 928
2154 1430 1484
2115 1355 2096
1960 1360 2701
1861 1328 3245
1906 1341 3712
1958 1376 4095
2148 2172 0
2153 2176 0
2164 2183 0
2156 2161 1150
2046 2046 2046
1917 1923 2729
1909 1906 3226
1935 1927 3695
1973 1961 4095
2175 2662 0
2160 2664 0
2120 2667 16
2052 2675 1270
1939 2690 1962
1873 2642 2598
1958 2538 3145
2010 2482 3651
2042 2471 4095
2104 3145 0
2092 3147 0
2061 3153 509
2003 3163 1353
1899 3183 1997
1760 3222 2569
1904 3162 3064
2016 3073 3597
2052 3036 4095
2051 3641 0
2041 3643 0
2017 3648 753
1964 3658 1440
1884 3670 2031
1788 3685 2582
1865 3677 3056
1975 3651 3544
2031 3596 4086
2016 4095 0
2005 4095 136
1977 4095 941
1926 4095 1531
1883 4095 2067
1813 4095 2599
1884 4095 3073
1984 4095 3558
2019 4095 4074
2608 0 628
2610 0 833
2612 0 1193
2631 0 1603
2706 0 2022
2644 0 2569
2533 0 3150
2430 0 3711
2436 0 4095
2609 0 649
2611 0 849
2612 0 1203
2634 0 1606
2707 0 2025
2643 0 2572
2531 0 3153
2427 0 3713
2438 0 4095
2594 697 564
2597 663 808
2607 564 1211
2640 501 1613
2707 343 2033
2638 613 2578
2525 724 3161
2423 758 3718
2446 792 4095
2567 1495 235
2569 1480 630
2582 1439 1102
2629 1349 1571
2699 1219 2045
2628 1317 2589
2515 1364 3172
2423 1376 3720
2460 1399 4095
2560 2151 0
2567 2139 0
2584 2107 764
2614 2043 1426
2657 1958 1992
2612 1911 2603
2509 1932 3181
2439 1930 3713
2485 1952 4095
2649 2669 0
2652 2671 0
2657 2674 0
2664 2678 966
2643 2648 1792
2562 2562 2562
2476 2480 3199
2476 2474 3687
2507 2502 4095
2681 3162 0
2683 3162 0
2661 3163 0
2619 3165 1136
2571 3168 1867
2488 3171 2506
2455 3127 3096
2516 3059 3617
2553 3023 4095
2643 3646 0
2634 3647 0
2613 3648 302
2574 3650 1297
2536 3652 1937
2474 3657 2527
2410 3669 3075
2502 3629 3566
2557 3584 4094
2595 4095 0
2589 4095 0
2576 4095 705
2551 4095 1406
2515 4095 1999
2461 4095 2563
2432 4095 3084
2516 4095 3570
2551 4095 4081
3117 0 714
3117 0 897
3118 0 1237
3119 0 1655
3147 0 2079
3209 0 2526
3150 0 3076
3062 0 3637
2981 0 4095
3117 0 727
3117 0 907
3118 0 1244
3119 0 1661
3148 0 2082
3209 0 2528
3150 0 3078
3060 0 3638
2980 55 4095
3111 408 712
3113 360 912
3117 306 1260
3118 391 1671
3148 406 2087
3208 235 2535
3146 629 3082
3055 790 3641
2982 870 4095
3089 1391 510
3090 1379 771
3095 1347 1187
3108 1283 1658
3154 1218 2094
3202 1202 2545
3134 1333 3091
3050 1404 3643
2984 1440 4095
3069 2047 0
3070 2039 531
3072 2018 1064
3098 1984 1553
3137 1923 2056
3188 1842 2561
3122 1919 3097
3046 1958 3645
2989 1978 4095
3069 2679 0
3073 2672 0
3083 2655 563
3099 2621 1343
3122 2563 1967
3148 2507 2517
3108 2475 3100
3030 2496 3653
3014 2506 4095
3144 3160 0
3146 3161 0
3148 3162 0
3150 3162 1038
3151 3159 1737
3129 3131 2404
3070 3070 3070
3023 3024 3654
3043 3041 4095
3157 3652 0
3156 3651 0
3156 3650 0
3152 3647 1064
3119 3642 1826
3073 3637 2466
3027 3633 3046
3031 3610 3584
3074 3579 4095
3151 4095 0
3146 4095 0
3133 4095 347
3111 4095 1294
3086 4095 1932
3061 4095 2505
3027 4095 3067
3039 4095 3585
3071 4095 4087
3621 0 769
3621 0 940
3622 0 1265
3624 0 1678
3626 0 2129
3655 0 2575
3691 0 3043
3640 0 3576
3576 0 4095
3621 0 777
3621 0 946
3622 0 1270
3624 0 1682
3626 0 2132
3655 0 2576
3689 0 3044
3638 0 3577
3574 168 4095
3621 0 795
3621 23 961
3623 100 1282
3625 250 1690
3627 427 2138
3653 500 2580
3686 470 3047
3633 749 3580
3572 903 4095
3609 1274 683
3611 1264 889
3616 1237 1258
3624 1191 1704
3626 1240 2149
3652 1260 2586
3679 1269 3052
3625 1389 3586
3571 1463 4095
3594 1981 414
3595 1974 713
3599 1958 1154
3606 1927 1644
3619 1887 2133
3647 1864 2593
3669 1877 3060
3617 1953 3589
3569 2002 4095
3581 2598 0
3582 2592 345
3584 2575 996
3587 2552 1551
3604 2523 2058
3626 2478 2572
3651 2448 3070
3609 2496 3590
3563 2532 4095
3577 3183 0
3577 3178 0
3579 3166 564
3587 3144 1334
3595 3112 1950
3607 3074 2515
3619 3038 3053
3596 3036 3594
3566 3059 4095
3624 3635 0
3625 3635 0
3625 3634 299
3624 3632 1223
3622 3628 1851
3618 3622 2429
3611 3613 2993
3584 3584 3584
3579 3579 4095
3623 4095 0
3622 4095 0
3621 4095 479
3618 4095 1281
3618 4095 1893
3613 4095 2470
3591 4095 3045
3577 4095 3585
3584 4095 4092
4095 0 793
4095 0 960
4095 0 1281
4095 0 1690
4095 0 2139
4095 0 2607
4095 0 3072
4095 0 3561
4095 0 4080
4095 0 798
4095 0 964
4095 0 1284
4095 0 1692
4095 0 2140
4095 0 2608
4095 0 3073
4095 0 3562
4095 206 4081
4095 0 811
4095 16 975
4095 113 1292
4095 260 1697
4095 422 2144
4095 600 2610
4095 696 3073
4095 740 3563
4095 919 4083
4095 1179 802
4095 1171 979
4095 1173 1301
4095 1202 1702
4095 1249 2147
4095 1312 2613
4095 1358 3080
4095 1385 3567
4095 1483 4086
4095 1921 606
4095 1916 831
4095 1904 1216
4095 1881 1673
4095 1862 2150
4095 1898 2616
4095 1934 3084
4095 1954 3572
4095 2023 4090
4095 2535 262
4095 2531 628
4095 2522 1101
4095 2506 1601
4095 2490 2104
4095 2465 2611
4095 2483 3090
4095 2505 3578
4095 2552 4091
4088 3121 0
4089 3118 0
4090 3108 891
4091 3091 1491
4095 3066 2046
4095 3047 2572
4095 3033 3089
4095 3047 3587
4095 3071 4094
4090 3654 0
4090 3653 0
4090 3651 606
4089 3643 1340
4090 3629 1950
4091 3612 2519
4095 3590 3069
4095 3578 3590
4095 3584 4095
4095 4095 0
4095 4095 0
4095 4095 849
4095 4095 1450
4095 4095 2001
4095 4095 2539
4095 4095 3065
4095 4095 3582
4095 4095 4095
