Examples/CL - Fourth of colorspace 2.3dl
#25pt 3DLUT created by 3D LUT Creator Pro (c) Oleg Sharonov
#Copyright Oleg Sharonov
#IMAGEPROFILE sRGB IEC61966-2.1 v.2.10
#INPUTGAMMA sRGB IEC61966-2.1 v.2.10
#OUTPUTGAMMA sRGB IEC61966-2.1 v.2.10
0 43 86 128 171 214 256 299 341 384 427 469 512 555 597 640 682 725 768 810 853 896 938 981 1023 
0 0 0
21 22 4
43 43 7
64 65 11
85 86 15
107 108 19
128 129 24
149 150 29
171 172 33
192 193 38
213 215 43
235 236 48
256 257 53
277 278 58
298 300 63
320 321 68
341 342 73
362 363 79
384 385 84
405 406 89
426 427 93
448 449 99
469 470 105
490 491 111
512 512 117
110 115 0
131 115 114
152 136 118
174 158 122
195 179 125
216 201 130
238 222 135
259 243 140
280 265 145
302 286 149
323 307 154
344 329 160
366 350 165
387 371 170
408 393 175
430 414 180
451 435 186
472 456 191
494 477 197
515 499 202
536 520 208
557 541 213
579 562 219
600 584 224
621 605 230
220 229 0
241 219 171
262 230 229
283 251 232
305 273 236
326 294 241
347 315 246
369 337 252
390 358 256
411 379 261
433 400 266
454 422 272
475 443 277
497 464 282
518 485 288
539 507 293
561 528 299
582 549 304
603 570 309
625 592 314
646 613 321
667 634 326
689 655 332
710 676 337
731 698 343
329 344 0
351 333 171
372 323 339
393 344 343
415 366 347
436 387 352
457 408 358
479 430 363
500 451 368
521 472 373
543 493 378
564 515 384
585 536 389
606 557 394
628 578 399
649 600 405
670 621 410
692 642 415
713 664 420
734 685 426
756 706 433
777 727 439
798 748 444
820 769 450
841 790 456
439 459 0
460 448 171
482 437 341
503 438 453
524 459 458
546 480 464
567 501 469
588 523 474
610 544 479
631 565 484
652 587 489
674 608 494
695 629 499
716 651 504
738 672 510
759 693 516
780 714 521
801 735 526
823 757 531
844 778 538
865 799 545
886 820 551
908 841 557
929 862 562
950 883 569
549 574 0
570 563 171
591 552 341
613 541 512
634 552 569
655 574 574
677 595 578
698 616 583
719 637 589
741 659 594
762 680 600
783 701 605
805 722 610
826 744 615
847 765 621
868 786 627
890 807 632
911 829 637
932 850 643
953 871 650
975 892 657
996 913 663
1017 934 670
1038 955 675
1060 976 682
659 688 0
680 677 171
701 667 341
723 656 512
744 646 678
765 667 683
787 688 688
808 710 693
829 731 699
850 752 704
872 773 710
893 795 715
914 816 720
935 837 726
957 858 732
978 880 737
999 901 743
1020 922 749
1041 943 755
1063 964 762
1084 985 768
1105 1006 775
1126 1027 782
1148 1048 788
1169 1069 794
768 803 0
790 792 171
811 781 341
832 770 512
853 760 683
875 760 793
896 782 798
917 803 803
938 824 809
960 846 814
981 867 820
1002 888 826
1023 909 831
1045 931 837
1066 952 842
1087 973 848
1108 994 854
1130 1015 860
1151 1036 867
1172 1057 873
1193 1078 880
1215 1099 886
1236 1120 893
1257 1141 900
1278 1162 907
878 918 0
899 907 171
920 896 341
942 885 512
963 875 683
984 864 853
1005 875 908
1027 897 913
1048 918 919
1069 939 925
1090 960 930
1112 982 936
1133 1003 942
1154 1024 947
1175 1045 953
1196 1066 959
1218 1088 964
1239 1109 971
1260 1130 978
1281 1151 984
1303 1172 991
1324 1193 998
1345 1214 1005
1366 1235 1012
1388 1256 1019
987 1033 0
1008 1022 171
1030 1011 341
1051 1000 512
1072 989 683
1093 979 853
1115 969 1018
1136 990 1023
1157 1012 1029
1178 1033 1034
1200 1054 1040
1221 1075 1045
1242 1096 1052
1263 1118 1057
1285 1139 1063
1306 1160 1069
1327 1181 1074
1348 1202 1082
1370 1223 1089
1391 1244 1096
1412 1265 1102
1433 1286 1109
1455 1307 1116
1476 1328 1123
1497 1349 1131
1097 1148 0
1118 1137 171
1139 1126 341
1160 1115 512
1182 1104 683
1203 1094 853
1224 1083 1024
1245 1084 1133
1267 1105 1138
1288 1126 1144
1309 1148 1149
1330 1169 1155
1352 1190 1161
1373 1211 1167
1394 1232 1173
1415 1253 1179
1436 1275 1185
1458 1295 1192
1479 1316 1200
1500 1337 1207
1521 1358 1213
1543 1379 1220
1564 1400 1227
1585 1421 1235
1606 1442 1242
1206 1263 0
1227 1252 171
1248 1241 341
1270 1230 512
1291 1219 683
1312 1208 853
1333 1198 1024
1355 1187 1194
1376 1199 1247
1397 1220 1253
1418 1241 1259
1440 1262 1265
1461 1284 1271
1482 1305 1277
1503 1326 1283
1525 1347 1289
1546 1368 1296
1567 1389 1303
1588 1410 1310
1610 1431 1317
1631 1452 1324
1652 1473 1332
1673 1494 1339
1695 1514 1346
1716 1535 1353
1315 1377 0
1337 1367 171
1358 1356 341
1379 1345 512
1400 1334 683
1422 1323 853
1443 1313 1024
1464 1302 1194
1485 1293 1357
1507 1314 1362
1528 1335 1368
1549 1356 1374
1570 1377 1381
1592 1398 1387
1613 1419 1393
1634 1440 1400
1655 1461 1407
1676 1482 1414
1698 1503 1421
1719 1524 1428
1740 1545 1435
1761 1566 1443
1783 1587 1450
1804 1608 1457
1825 1629 1464
1425 1492 0
1446 1482 171
1467 1471 341
1488 1460 512
1510 1449 683
1531 1438 853
1552 1427 1024
1573 1417 1194
1595 1406 1365
1616 1407 1472
1637 1429 1478
1658 1450 1484
1680 1471 1490
1701 1492 1497
1722 1513 1503
1743 1534 1510
1765 1555 1517
1786 1576 1524
1807 1597 1531
1828 1618 1538
1850 1639 1546
1871 1659 1553
1892 1680 1560
1913 1701 1568
1935 1722 1575
1534 1607 0
1555 1596 171
1577 1586 341
1598 1575 512
1619 1564 683
1640 1553 853
1662 1542 1024
1683 1532 1194
1704 1521 1365
1725 1510 1536
1747 1522 1587
1768 1543 1593
1789 1565 1599
1810 1586 1606
1831 1607 1612
1853 1628 1620
1874 1648 1627
1895 1669 1634
1916 1690 1641
1938 1711 1648
1959 1732 1656
1980 1753 1664
2001 1774 1671
2023 1795 1678
2044 1816 1686
1643 1722 0
1665 1711 171
1686 1701 341
1707 1690 512
1728 1679 683
1750 1668 853
1771 1657 1024
1792 1646 1194
1813 1636 1365
1835 1625 1536
1856 1616 1696
1877 1637 1702
1898 1658 1708
1920 1679 1714
1941 1700 1722
1962 1721 1729
1983 1742 1737
2005 1763 1744
2026 1784 1751
2047 1805 1759
2068 1826 1766
2090 1846 1774
2111 1867 1782
2132 1888 1789
2153 1909 1797
1753 1837 0
1774 1826 171
1795 1816 341
1817 1805 512
1838 1794 683
1859 1783 853
1880 1772 1024
1902 1761 1194
1923 1751 1365
1944 1740 1536
1965 1729 1706
1987 1731 1811
2008 1752 1817
2029 1773 1824
2050 1794 1831
2071 1815 1839
2093 1836 1846
2114 1856 1854
2135 1877 1861
2156 1898 1869
2178 1919 1877
2199 1940 1884
2220 1961 1892
2241 1981 1900
2263 2002 1908
1862 1952 0
1883 1941 171
1905 1930 341
1926 1920 512
1947 1909 683
1968 1898 853
1990 1887 1024
2011 1876 1194
2032 1866 1365
2053 1855 1536
2075 1844 1706
2096 1833 1877
2117 1846 1926
2138 1867 1933
2160 1888 1941
2181 1908 1948
2202 1929 1956
2223 1950 1964
2245 1971 1971
2266 1992 1979
2287 2013 1987
2308 2033 1994
2330 2054 2002
2351 2075 2010
2372 2096 2018
1972 2067 0
1993 2056 171
2014 2045 341
2035 2035 512
2057 2024 683
2078 2013 853
2099 2002 1024
2120 1991 1194
2142 1980 1365
2163 1970 1536
2184 1959 1706
2205 1948 1877
2226 1940 2035
2248 1960 2043
2269 1981 2050
2290 2002 2057
2311 2023 2065
2333 2044 2072
2354 2065 2081
2375 2085 2089
2396 2106 2096
2418 2127 2104
2439 2148 2112
2460 2168 2120
2482 2189 2128
2081 2182 0
2102 2171 171
2123 2160 341
2145 2149 512
2166 2139 683
2187 2128 853
2208 2117 1024
2230 2106 1194
2251 2095 1365
2272 2085 1536
2293 2074 1706
2315 2063 1877
2336 2052 2048
2357 2054 2151
2378 2075 2158
2400 2096 2166
2421 2117 2173
2442 2138 2181
2464 2158 2190
2485 2179 2198
2506 2200 2206
2528 2220 2214
2549 2241 2222
2570 2262 2230
2591 2282 2238
2190 2297 0
2212 2286 171
2233 2275 341
2254 2264 512
2275 2254 683
2297 2243 853
2318 2232 1024
2339 2221 1194
2360 2210 1365
2382 2199 1536
2403 2189 1706
2424 2178 1877
2445 2167 2048
2467 2156 2218
2488 2169 2266
2509 2190 2274
2531 2211 2281
2552 2231 2290
2573 2252 2299
2595 2272 2307
2616 2293 2316
2637 2314 2323
2659 2335 2331
2680 2355 2340
2701 2376 2348
2300 2412 0
2321 2401 171
2342 2390 341
2363 2379 512
2385 2368 683
2406 2358 853
2427 2347 1024
2449 2336 1194
2470 2325 1365
2491 2314 1536
2513 2303 1706
2534 2292 1877
2555 2282 2048
2577 2271 2218
2598 2263 2375
2619 2283 2382
2640 2304 2390
2662 2325 2399
2683 2345 2407
2704 2366 2416
2726 2386 2425
2747 2407 2433
2768 2428 2441
2790 2449 2450
2811 2469 2458
2409 2527 0
2430 2516 171
2452 2505 341
2473 2494 512
2494 2483 683
2516 2472 853
2537 2461 1024
2558 2451 1194
2580 2440 1365
2601 2429 1536
2622 2418 1706
2644 2407 1877
2665 2396 2048
2686 2385 2218
2708 2375 2389
2729 2377 2490
2750 2398 2499
2772 2418 2507
2793 2439 2516
2814 2460 2525
2836 2480 2533
2857 2501 2542
2878 2521 2550
2899 2542 2558
2921 2563 2567
2519 2641 0
2540 2630 171
2562 2620 341
2583 2609 512
2604 2598 683
2626 2587 853
2647 2576 1024
2668 2565 1194
2689 2554 1365
2711 2544 1536
2732 2533 1706
2753 2522 1877
2775 2511 2048
2796 2500 2218
2817 2489 2389
2839 2478 2559
2860 2492 2607
2881 2512 2615
2903 2533 2624
2924 2553 2632
2945 2574 2641
2967 2594 2650
2988 2615 2659
3009 2636 2667
3031 2656 2675
2629 2756 0
2650 2745 171
2671 2734 341
2693 2723 512
2714 2713 683
2735 2702 853
2757 2691 1024
2778 2680 1194
2799 2669 1365
2821 2658 1536
2842 2647 1706
2863 2637 1877
2885 2626 2048
2906 2615 2218
2927 2604 2389
2948 2593 2559
2970 2585 2714
2991 2606 2722
3012 2627 2731
3034 2647 2740
3055 2668 2749
3076 2688 2758
3098 2709 2767
3119 2729 2775
3140 2750 2783
171 0 0
171 21 60
171 54 64
171 86 68
171 119 71
171 151 75
171 183 81
189 206 85
210 228 90
231 249 95
253 270 100
274 291 105
295 313 110
317 334 115
338 355 120
359 377 125
381 398 131
402 419 136
423 440 142
445 462 147
466 483 152
487 504 157
509 525 163
530 546 169
551 568 175
171 171 0
171 171 171
192 192 174
213 214 178
235 235 182
256 257 187
277 278 192
299 299 197
320 321 202
341 342 206
362 363 211
384 384 217
405 406 222
426 427 228
448 448 232
469 469 238
490 491 243
512 512 249
533 533 254
554 554 260
576 576 265
597 597 271
618 618 276
640 639 282
661 660 287
259 296 0
280 285 171
302 285 285
323 307 289
344 328 293
366 350 298
387 371 303
408 392 308
430 414 313
451 435 318
472 456 323
494 477 329
515 499 334
536 520 339
558 541 345
579 562 350
600 584 355
621 605 360
643 626 366
664 647 371
685 668 378
707 690 383
728 711 389
749 732 394
771 753 400
369 411 0
390 400 171
411 389 341
433 400 399
454 422 404
475 443 409
497 464 414
518 485 419
539 507 425
561 528 430
582 549 435
603 571 440
625 592 445
646 613 450
667 634 456
689 656 461
710 677 466
731 698 472
753 719 477
774 740 483
795 761 490
817 782 496
838 804 502
859 825 507
880 846 513
479 526 0
500 515 171
521 504 341
543 493 510
564 515 515
585 536 520
607 557 525
628 579 530
649 600 535
670 621 540
692 642 545
713 664 550
734 685 556
756 706 561
777 727 566
798 749 572
820 770 578
841 791 583
862 812 588
884 833 595
905 854 602
926 875 608
948 896 614
969 918 620
990 939 626
588 640 0
610 629 171
631 619 341
652 608 512
674 608 625
695 629 629
716 651 634
738 672 639
759 693 645
780 715 650
802 736 656
823 757 661
844 778 666
866 800 671
887 821 677
908 842 683
929 863 689
951 884 694
972 905 700
993 926 707
1015 947 714
1036 968 720
1057 989 727
1078 1011 733
1100 1032 739
698 755 0
719 744 171
741 733 341
762 722 512
783 712 683
805 723 739
826 744 744
847 765 749
869 787 755
890 808 760
911 829 766
933 850 771
954 872 777
975 893 782
997 914 788
1018 935 794
1039 956 800
1060 978 805
1081 999 812
1103 1020 819
1124 1041 825
1145 1062 832
1166 1083 838
1188 1104 845
1209 1125 851
808 870 0
829 859 171
851 848 341
872 837 512
893 826 683
915 816 849
936 838 854
957 859 859
978 880 865
1000 901 871
1021 922 876
1042 944 882
1063 965 887
1085 986 893
1106 1007 899
1127 1029 905
1148 1050 910
1170 1071 917
1191 1092 923
1212 1113 930
1233 1134 936
1255 1155 943
1276 1176 950
1297 1197 957
1318 1218 964
918 984 0
939 974 171
960 963 341
982 952 512
1003 941 683
1024 930 853
1045 931 964
1067 952 969
1088 974 975
1109 995 981
1130 1016 986
1152 1037 992
1173 1058 998
1194 1080 1003
1215 1101 1009
1237 1122 1015
1258 1143 1020
1279 1164 1027
1300 1185 1034
1321 1206 1041
1343 1227 1048
1364 1248 1054
1385 1269 1061
1406 1290 1069
1428 1311 1076
1027 1099 0
1049 1088 171
1070 1078 341
1091 1067 512
1112 1056 683
1133 1045 853
1155 1034 1024
1176 1046 1079
1197 1067 1084
1218 1088 1090
1240 1110 1095
1261 1131 1101
1282 1152 1107
1303 1173 1113
1325 1194 1119
1346 1216 1125
1367 1237 1131
1388 1258 1138
1410 1279 1145
1431 1300 1152
1452 1321 1159
1473 1342 1165
1495 1362 1173
1516 1383 1180
1537 1404 1187
1137 1214 0
1158 1203 171
1179 1193 341
1200 1182 512
1222 1171 683
1243 1160 853
1264 1149 1024
1285 1140 1188
1307 1161 1194
1328 1182 1199
1349 1203 1205
1370 1225 1211
1392 1246 1217
1413 1267 1223
1434 1288 1229
1455 1309 1235
1476 1330 1242
1498 1351 1249
1519 1372 1256
1540 1393 1263
1561 1414 1270
1583 1435 1277
1604 1456 1284
1625 1477 1292
1646 1498 1299
