Examples/CL - Swap colors.3dl
#25pt 3DLUT created by 3D LUT Creator Pro (c) Oleg Sharonov
#Copyright Oleg Sharonov
#IMAGEPROFILE sRGB
#INPUTGAMMA sRGB
#OUTPUTGAMMA sRGB
0 256 512 768 1023
6 0 0
830 829 0
1695 1694 0
2559 2559 0
3423 3423 0
907 0 830
1214 488 565
1885 1580 0
2674 2496 0
3500 3384 0
1802 0 1694
1962 0 1596
2376 1120 1213
3003 2283 0
3735 3250 0
2675 0 2559
2774 0 2501
3060 0 2305
3520 1793 1861
4095 2977 526
3523 0 3423
3590 0 3385
3802 0 3255
4095 0 2991
4095 2490 2508
0 751 830
630 1152 565
1610 1861 0
2507 2664 0
3385 3499 0
615 510 1183
1043 1004 1024
1790 1782 0
2616 2613 0
3462 3462 0
1713 0 1873
1882 0 1786
2316 1386 1466
2958 2408 129
3701 3331 0
2619 0 2669
2720 0 2614
3015 0 2430
3483 1961 2021
4095 3068 1004
3483 0 3500
3551 0 3462
3766 0 3337
4095 789 3081
4095 2604 2621
0 1584 1694
0 1783 1596
1296 2298 1213
2327 2971 0
3260 3726 0
0 1477 1873
505 1691 1786
1537 2229 1466
2452 2923 129
3342 3691 0
1266 1156 2337
1505 1425 2272
2065 2030 2048
2788 2779 1505
3582 3581 0
2422 0 2987
2534 0 2940
2857 1332 2784
3357 2407 2451
4000 3341 1776
3346 0 3731
3420 0 3696
3647 0 3581
4024 1683 3351
4095 2935 2946
0 2441 2559
0 2563 2501
0 2914 2305
1924 3462 1861
3005 4095 526
0 2382 2669
0 2508 2614
757 2866 2430
2078 3424 2021
3094 4083 1004
0 2189 2987
784 2327 2940
1649 2712 2784
2493 3299 2451
3360 3984 1776
1895 1825 3491
2049 1993 3453
2469 2433 3328
3076 3066 3071
3795 3793 2608
3064 0 4095
3148 677 4091
3397 1665 3992
3815 2573 3794
4095 3454 3458
0 3323 3423
0 3409 3385
0 3659 3255
815 4090 2991
2526 4095 2508
0 3286 3500
0 3373 3462
0 3625 3337
1174 4059 3081
2637 4095 2621
0 3164 3731
0 3253 3696
0 3515 3581
1862 3960 3351
2956 4095 2946
920 2918 4095
1232 3016 4091
1876 3304 3992
2642 3773 3794
3461 4095 3458
2516 2500 4095
2628 2614 4095
2949 2942 4095
3458 3457 4095
4095 4095 4095
