Examples/CL - More colors.3dl
#25pt 3DLUT created by 3D LUT Creator Pro (c) Oleg Sharonov
#Copyright Oleg Sharonov
0 43 86 128 171 214 256 299 341 384 427 469 512 555 597 640 682 725 768 810 853 896 938 981 1023 
0 0 0
0 0 245
0 0 403
0 0 568
0 0 737
0 0 910
0 0 1086
0 0 1261
0 0 1433
0 0 1604
0 0 1775
0 0 1946
0 0 2117
0 0 2289
0 0 2463
0 0 2636
0 0 2805
0 0 2974
0 0 3140
0 0 3306
0 0 3472
0 0 3639
0 0 3807
0 0 3977
0 0 4095
0 225 0
0 228 171
0 139 374
0 45 569
0 6 740
0 0 911
0 0 1086
0 0 1259
0 0 1430
0 0 1602
0 0 1773
0 0 1944
0 0 2114
0 0 2287
0 0 2461
0 0 2634
0 0 2804
0 0 2971
0 0 3138
0 0 3305
0 0 3473
0 0 3640
0 0 3808
0 0 3978
0 0 4095
0 389 0
0 428 177
0 414 324
0 328 532
0 243 728
0 142 919
0 100 1091
0 55 1262
0 6 1433
0 0 1603
0 0 1773
0 0 1944
0 0 2114
0 0 2287
0 0 2461
0 0 2633
0 0 2803
0 0 2971
0 0 3138
0 0 3306
0 0 3474
0 0 3641
0 0 3810
0 0 3980
0 0 4095
0 560 10
0 590 201
0 607 332
0 596 484
0 518 693
0 449 891
0 362 1088
0 289 1269
0 252 1438
0 212 1607
0 158 1777
0 100 1947
0 42 2117
0 0 2290
0 0 2463
0 0 2636
0 0 2805
0 0 2973
0 0 3140
0 0 3308
0 0 3476
0 0 3642
0 0 3811
0 0 3981
0 0 4095
0 733 26
0 753 217
0 778 365
0 793 490
0 783 645
0 713 854
0 643 1054
13 572 1248
6 485 1439
0 439 1614
0 409 1784
0 379 1953
0 347 2122
0 312 2295
0 276 2467
0 240 2639
0 203 2807
0 165 2975
0 132 3142
0 94 3310
0 71 3477
0 55 3644
0 48 3813
0 65 3982
0 116 4095
0 907 55
0 923 240
0 946 398
0 965 523
0 980 650
0 967 811
0 898 1015
0 830 1216
23 766 1409
39 696 1599
10 615 1790
0 594 1958
0 573 2129
0 552 2301
0 532 2473
0 513 2643
0 493 2811
0 477 2978
0 464 3145
0 451 3312
0 440 3479
0 436 3646
0 434 3815
0 451 3984
0 475 4095
0 1084 84
0 1097 260
0 1114 412
0 1136 557
0 1150 684
0 1164 811
0 1148 973
0 1083 1176
0 1015 1378
19 962 1568
58 902 1758
48 831 1949
13 773 2136
0 758 2307
0 744 2478
0 730 2647
0 716 2815
0 707 2982
0 700 3148
0 692 3315
0 687 3481
0 687 3648
0 693 3817
0 704 3985
0 723 4095
0 1260 113
0 1270 282
0 1283 431
0 1304 587
0 1318 711
0 1327 845
0 1346 971
0 1326 1138
0 1265 1337
0 1196 1541
13 1145 1732
74 1093 1921
81 1038 2113
58 977 2305
19 940 2485
0 928 2652
0 920 2819
0 914 2985
0 908 3152
0 902 3318
0 899 3484
0 904 3650
0 912 3819
0 924 3987
0 940 4095
0 1433 165
0 1441 310
0 1451 446
0 1468 600
0 1486 741
0 1500 868
0 1507 1001
0 1526 1132
0 1504 1301
0 1446 1501
0 1381 1703
0 1334 1895
81 1288 2086
107 1237 2279
97 1183 2468
65 1127 2653
23 1113 2823
0 1108 2988
0 1102 3155
0 1099 3321
0 1101 3486
0 1106 3653
0 1113 3821
0 1125 3989
0 1141 4095
0 1604 195
0 1611 330
0 1620 461
0 1634 612
0 1654 771
0 1667 894
0 1677 1027
0 1685 1160
0 1704 1295
0 1677 1469
0 1625 1666
0 1569 1868
0 1517 2064
94 1474 2254
123 1432 2441
123 1386 2627
107 1338 2811
71 1295 2992
26 1292 3158
0 1292 3323
0 1294 3488
0 1298 3656
0 1306 3824
0 1318 3991
0 1331 4095
0 1777 233
0 1782 358
0 1790 485
0 1801 630
0 1817 783
0 1834 923
0 1845 1050
0 1854 1189
0 1863 1320
0 1883 1460
0 1858 1636
0 1809 1834
0 1753 2035
0 1701 2229
84 1662 2414
126 1622 2602
149 1576 2789
139 1536 2972
113 1495 3154
71 1479 3326
26 1481 3491
0 1486 3659
0 1494 3827
0 1506 3993
0 1517 4095
0 1948 280
0 1953 388
0 1959 504
0 1969 643
0 1982 794
0 2000 952
0 2011 1077
0 2023 1210
0 2027 1355
0 2041 1486
0 2060 1628
0 2032 1809
0 1983 2003
0 1933 2197
0 1878 2393
81 1841 2579
129 1806 2765
152 1772 2948
155 1737 3130
142 1698 3313
116 1665 3494
78 1671 3662
48 1679 3829
26 1690 3995
0 1699 4095
0 2119 304
0 2123 408
0 2128 520
0 2136 654
0 2149 807
0 2165 964
0 2180 1104
0 2191 1234
0 2200 1372
0 2205 1515
0 2221 1653
0 2236 1796
0 2207 1973
0 2162 2165
0 2112 2360
0 2059 2554
58 2024 2741
116 1993 2926
155 1958 3111
171 1923 3295
171 1895 3477
161 1867 3659
132 1862 3831
100 1871 3996
58 1879 4095
0 2292 343
0 2296 442
0 2301 550
0 2309 680
0 2319 823
0 2332 976
0 2349 1133
0 2359 1259
0 2370 1395
0 2379 1538
0 2380 1678
0 2392 1817
0 2406 1962
0 2375 2142
0 2329 2335
0 2285 2524
0 2240 2716
39 2201 2906
110 2170 3092
152 2145 3275
177 2121 3458
192 2095 3641
201 2066 3824
174 2052 3997
126 2062 4095
0 2466 386
0 2469 472
0 2474 571
0 2480 695
0 2489 835
0 2500 986
0 2515 1143
0 2528 1285
0 2536 1417
0 2542 1556
0 2546 1702
0 2550 1839
0 2561 1982
0 2575 2130
0 2547 2306
0 2507 2494
0 2464 2685
0 2419 2879
13 2380 3072
87 2357 3257
149 2333 3442
195 2307 3626
217 2282 3807
209 2261 3984
192 2242 4095
0 2639 403
0 2642 486
0 2646 583
0 2651 705
0 2659 845
0 2668 999
0 2680 1155
0 2692 1308
0 2699 1438
0 2706 1573
0 2712 1717
0 2711 1868
0 2719 2003
0 2728 2148
0 2738 2297
0 2711 2476
0 2670 2665
0 2630 2855
0 2595 3049
0 2559 3243
90 2536 3427
168 2513 3612
189 2495 3789
201 2476 3966
201 2456 4095
0 2811 443
0 2813 523
0 2816 617
0 2820 736
0 2826 869
0 2834 1012
0 2843 1164
0 2855 1321
0 2863 1459
0 2869 1593
0 2876 1734
0 2879 1880
0 2877 2027
0 2883 2167
0 2891 2315
0 2901 2467
0 2875 2645
0 2844 2830
0 2812 3022
0 2778 3217
0 2741 3410
68 2719 3593
123 2699 3773
161 2679 3951
186 2658 4095
0 2978 485
0 2980 556
0 2983 641
0 2986 751
0 2992 880
0 2999 1022
0 3007 1172
0 3017 1328
0 3027 1478
0 3032 1612
0 3037 1751
0 3041 1894
0 3042 2044
0 3041 2188
0 3047 2333
0 3055 2484
0 3063 2638
0 3044 2815
0 3012 3004
0 2979 3199
0 2947 3390
0 2917 3577
45 2892 3760
103 2874 3940
142 2855 4095
0 3146 497
0 3148 568
0 3150 651
0 3153 761
0 3158 889
0 3163 1031
0 3171 1185
0 3179 1341
0 3189 1496
0 3194 1631
0 3198 1767
0 3202 1907
0 3206 2056
0 3205 2210
0 3204 2354
0 3210 2502
0 3217 2656
0 3224 2814
0 3208 2990
0 3179 3180
0 3152 3367
0 3124 3555
0 3094 3743
13 3066 3928
45 3054 4095
0 3314 537
0 3315 605
0 3317 686
0 3320 794
0 3324 921
0 3329 1054
0 3335 1198
0 3342 1348
0 3351 1504
0 3356 1647
0 3360 1782
0 3364 1924
0 3367 2070
0 3368 2221
0 3365 2380
0 3367 2520
0 3373 2673
0 3379 2830
0 3383 2988
0 3374 3163
0 3348 3350
0 3320 3538
0 3290 3727
0 3264 3912
0 3240 4095
0 3480 583
0 3481 643
0 3482 716
0 3485 815
0 3488 933
0 3492 1066
0 3497 1208
0 3504 1356
0 3512 1511
0 3519 1661
0 3522 1798
0 3526 1939
0 3529 2083
0 3531 2231
0 3532 2388
0 3526 2543
0 3531 2692
0 3532 2844
0 3534 3002
0 3537 3166
0 3533 3339
0 3507 3526
0 3482 3712
0 3461 3895
0 3439 4079
0 3646 593
0 3647 652
0 3648 725
0 3650 823
0 3653 940
0 3657 1072
0 3661 1214
0 3668 1368
0 3675 1523
0 3682 1677
0 3685 1813
0 3687 1953
0 3689 2096
0 3692 2246
0 3695 2399
0 3693 2557
0 3686 2709
0 3685 2858
0 3686 3015
0 3688 3178
0 3691 3346
0 3692 3516
0 3673 3698
0 3652 3882
0 3630 4066
0 3813 627
0 3814 685
0 3815 758
0 3818 855
0 3820 973
0 3824 1104
0 3828 1240
0 3833 1383
0 3839 1533
0 3845 1687
0 3849 1825
0 3850 1964
0 3853 2109
0 3855 2259
0 3854 2410
0 3852 2563
0 3846 2725
0 3841 2873
0 3841 3028
0 3842 3188
0 3844 3356
0 3844 3526
0 3843 3697
0 3831 3876
0 3810 4059
0 3982 679
0 3982 731
0 3983 795
0 3985 884
0 3987 992
0 3989 1116
0 3993 1251
0 3997 1394
0 4002 1543
0 4007 1697
0 4010 1837
0 4013 1977
0 4013 2121
0 4012 2268
0 4011 2417
0 4009 2571
0 4008 2729
0 3997 2893
0 3997 3041
0 3996 3199
0 3997 3367
0 3997 3537
0 3995 3708
0 3993 3880
0 3990 4053
0 4095 691
0 4095 742
0 4095 806
0 4095 894
0 4095 1001
0 4095 1124
0 4095 1258
0 4095 1402
0 4095 1551
0 4095 1706
0 4095 1846
0 4095 1985
0 4095 2127
0 4095 2274
0 4095 2424
0 4095 2579
0 4095 2736
0 4095 2895
0 4095 3055
0 4095 3210
0 4095 3376
0 4095 3545
0 4095 3716
0 4095 3888
0 4095 4062
201 0 6
206 0 189
97 0 417
26 0 605
13 0 768
0 0 936
0 0 1107
0 0 1279
0 0 1448
0 0 1618
0 0 1787
0 0 1956
0 0 2126
0 0 2298
0 0 2471
0 0 2643
0 0 2811
0 0 2979
0 0 3145
0 0 3310
0 0 3476
0 0 3641
0 0 3806
0 0 3976
0 0 4095
228 238 0
168 168 168
61 65 449
39 36 607
23 3 769
3 0 936
0 0 1106
0 0 1277
0 0 1445
0 0 1615
0 0 1784
0 0 1954
0 0 2124
0 0 2295
0 0 2468
0 0 2641
0 0 2809
0 0 2976
0 0 3143
0 0 3308
0 0 3474
0 0 3639
0 0 3807
0 0 3977
0 0 4095
183 394 0
84 416 113
16 399 363
71 308 568
74 214 760
58 145 937
39 103 1106
16 61 1274
0 16 1443
0 0 1612
0 0 1781
0 0 1951
0 0 2121
0 0 2293
0 0 2466
0 0 2638
0 0 2807
0 0 2974
0 0 3140
0 0 3306
0 0 3473
0 0 3640
0 0 3809
0 0 3979
0 0 4095
129 562 0
26 582 123
0 620 345
0 588 512
61 506 718
94 436 912
90 343 1108
71 291 1280
48 257 1447
23 217 1615
0 168 1783
0 110 1952
0 55 2121
0 3 2294
0 0 2466
0 0 2638
0 0 2806
0 0 2972
0 0 3140
0 0 3308
0 0 3475
0 0 3642
0 0 3811
0 0 3981
0 0 4095
55 733 0
0 750 142
0 777 352
0 803 504
0 778 667
32 701 874
97 634 1070
119 562 1261
107 472 1452
90 442 1620
65 414 1788
36 386 1956
10 358 2124
0 326 2296
0 293 2468
0 262 2639
0 228 2807
0 195 2974
0 161 3142
0 126 3310
0 100 3477
0 87 3644
0 81 3813
0 97 3982
0 145 4095
0 907 0
0 921 174
0 942 363
0 975 536
0 988 662
0 963 827
0 891 1030
90 824 1228
132 759 1420
149 690 1608
129 617 1794
110 599 1960
87 579 2129
61 559 2301
23 540 2473
0 522 2643
0 503 2811
0 486 2978
0 475 3145
0 462 3312
0 451 3479
0 446 3645
0 445 3815
0 461 3983
0 486 4095
0 1084 3
0 1095 198
0 1111 377
0 1138 556
0 1157 692
0 1170 819
0 1144 985
0 1077 1188
71 1011 1387
142 957 1576
174 896 1766
177 826 1955
161 777 2136
136 763 2307
97 750 2478
61 735 2647
23 722 2815
0 713 2981
0 706 3148
0 697 3315
0 694 3481
0 693 3647
0 698 3817
0 710 3985
0 728 4095
0 1260 36
0 1268 228
0 1281 396
0 1301 568
0 1324 719
0 1335 851
0 1351 977
0 1324 1148
0 1261 1346
45 1193 1549
136 1142 1739
198 1090 1927
220 1035 2117
214 975 2307
177 943 2484
139 932 2652
100 924 2818
65 918 2985
26 912 3151
0 906 3318
0 904 3484
0 908 3650
0 916 3819
0 927 3986
0 943 4095
0 1433 87
0 1440 262
0 1450 414
0 1465 579
0 1490 746
0 1504 874
0 1511 1007
0 1529 1137
0 1501 1309
0 1442 1508
0 1378 1710
129 1331 1901
206 1286 2091
248 1234 2282
248 1180 2469
220 1126 2654
183 1115 2822
145 1111 2988
103 1105 3155
68 1102 3321
32 1104 3486
3 1109 3653
0 1116 3821
0 1128 3988
0 1143 4095
0 1604 126
0 1611 284
0 1619 430
0 1632 590
0 1652 758
0 1670 901
0 1681 1031
0 1688 1165
0 1706 1299
0 1676 1476
0 1623 1672
0 1566 1873
113 1515 2069
220 1472 2258
269 1430 2442
269 1385 2627
255 1336 2812
225 1297 2992
189 1294 3158
149 1294 3323
110 1296 3488
78 1301 3656
55 1308 3824
42 1319 3991
36 1333 4095
0 1777 174
0 1782 320
0 1789 457
0 1800 611
0 1815 770
0 1837 928
0 1848 1055
0 1858 1192
0 1866 1325
0 1885 1464
0 1856 1641
0 1806 1839
0 1750 2040
103 1699 2233
220 1661 2417
273 1619 2603
287 1574 2790
280 1535 2973
260 1495 3154
225 1480 3325
189 1483 3491
158 1488 3659
132 1496 3826
116 1508 3993
94 1518 4095
