Examples/CL - Gamut shaping 2.3dl
#25pt 3DLUT created by 3D LUT Creator Pro (c) Oleg Sharonov
#Copyright Oleg Sharonov
#IMAGEPROFILE sRGB IEC61966-2.1 v.2.10
#INPUTGAMMA sRGB IEC61966-2.1 v.2.10
#OUTPUTGAMMA sRGB IEC61966-2.1 v.2.10
0 256 512 768 1023
0 0 0
39 142 451
174 443 1004
341 714 1498
510 985 1988
0 1023 3
0 1023 1030
13 1029 1843
180 1144 2151
376 1320 2511
422 2029 428
203 2033 1220
78 2036 2137
10 2041 3108
100 2056 3564
1384 2971 1394
1194 2980 1908
923 2993 2664
611 3011 3474
1174 3005 4095
2427 3863 2450
2221 3874 2932
1888 3896 3598
2130 3869 4095
3220 3762 4095
777 209 48
545 349 460
470 510 1045
587 726 1489
730 971 1947
1050 1028 0
1024 1024 1024
798 1011 1603
768 1115 1985
823 1287 2383
1174 2035 412
1107 2032 1109
1037 2033 2165
979 2047 3107
849 2064 3458
1725 2968 1378
1648 2981 1656
1339 3001 2623
1266 3010 3431
1435 3018 4095
2605 3859 2433
2550 3875 2571
2132 3900 3525
2276 3880 4095
3279 3779 4095
1529 546 214
1359 558 516
1045 728 928
888 894 1558
999 1071 1995
1990 1051 308
1819 1041 882
1391 1099 1279
1133 1154 1871
1179 1282 2263
2044 2037 580
2116 2036 1132
2048 2048 2048
1767 1995 2691
1631 2001 3075
2378 2979 1377
2379 2983 1642
2272 3013 2276
2206 3012 3346
2103 3053 4095
3062 3861 2406
3032 3870 2538
2898 3913 2915
2482 3945 4089
3457 3831 4095
2169 940 643
1993 894 801
1773 969 969
1538 1102 1394
1297 1292 2016
2576 1276 732
2356 1244 1030
2011 1218 1216
1767 1332 1621
1462 1461 2216
2909 2084 1084
2931 2089 1380
2736 2035 1940
2390 2043 2283
1988 1994 2800
3163 2999 1524
3172 3004 1763
3166 3022 2345
3071 3071 3071
2806 3009 3718
3694 3874 2393
3680 3885 2507
3623 3914 2865
3442 3983 3454
3714 3940 4095
2762 1352 1085
2581 1277 1163
2402 1284 1267
2167 1376 1401
2027 1474 1867
3096 1627 1178
2890 1559 1336
2588 1470 1445
2345 1544 1563
2187 1633 2035
3661 2250 1579
3635 2253 1744
3258 2160 2017
2851 2071 2077
2670 2141 2542
3920 3069 1999
3924 3074 2154
3894 3113 2524
3691 3069 3014
3429 3049 3355
4095 3930 3513
4095 3936 3576
4095 3971 3675
4095 4022 3822
4095 4095 4095
