Examples/CL - Cooler shadows.3dl
#25pt 3DLUT created by 3D LUT Creator Pro (c) Oleg Sharonov
#Copyright Oleg Sharonov
#IMAGEPROFILE 
#INPUTGAMMA 
#OUTPUTGAMMA 
0 43 86 128 171 214 256 299 341 384 427 469 512 555 597 640 682 725 768 810 853 896 938 981 1023 
0 10 13
0 0 217
0 0 384
0 0 558
0 0 733
0 0 916
0 0 1100
0 0 1279
0 0 1460
0 0 1643
0 0 1827
0 0 2005
0 0 2185
19 32 2364
78 81 2545
107 110 2726
145 149 2905
195 201 3084
252 260 3262
318 326 3440
389 396 3613
468 475 3785
554 560 3953
648 653 4095
744 750 4095
0 206 32
0 209 220
0 198 388
0 192 563
0 189 740
0 186 924
0 183 1105
0 180 1284
0 177 1467
0 180 1653
0 186 1834
0 198 2013
0 214 2191
10 240 2371
74 271 2552
100 293 2732
139 320 2911
189 352 3089
250 394 3269
318 446 3446
391 503 3618
471 569 3789
558 645 3957
653 728 4095
756 822 4095
0 376 52
0 389 209
0 386 396
0 379 570
0 377 748
0 379 933
0 377 1113
0 377 1295
0 377 1478
0 379 1662
0 383 1841
0 388 2019
0 398 2197
13 414 2378
74 431 2558
103 446 2737
142 467 2916
192 490 3093
257 525 3274
324 565 3450
398 613 3622
478 669 3792
566 735 3960
664 812 4095
769 898 4095
0 551 74
0 557 235
0 563 383
0 570 580
0 572 765
0 571 945
0 570 1126
0 571 1309
0 571 1491
0 571 1673
0 572 1849
0 576 2027
0 583 2207
23 593 2387
78 604 2565
107 615 2744
149 630 2922
203 650 3101
267 677 3281
336 710 3456
409 748 3627
490 795 3797
579 852 3963
682 922 4095
787 999 4095
0 725 100
0 728 257
0 739 401
0 750 573
0 761 770
0 767 959
0 764 1138
0 762 1319
0 763 1502
0 764 1684
0 764 1862
0 765 2040
0 770 2218
36 777 2396
84 783 2574
113 792 2752
158 803 2930
217 820 3110
282 842 3289
351 868 3462
425 900 3633
508 940 3802
599 989 3968
705 1053 4095
810 1120 4095
0 899 129
0 905 280
0 913 419
0 928 575
0 943 765
0 955 961
0 965 1155
0 961 1336
0 959 1516
0 957 1695
0 956 1874
0 957 2053
0 959 2230
61 963 2407
90 967 2583
126 973 2762
174 984 2941
235 997 3120
302 1015 3298
370 1036 3469
446 1063 3639
530 1096 3807
627 1142 3975
734 1197 4095
839 1256 4095
0 1076 158
0 1081 299
0 1088 433
0 1102 588
0 1122 751
0 1135 954
0 1150 1154
0 1161 1350
0 1156 1528
0 1151 1705
0 1149 1884
0 1148 2062
6 1149 2240
78 1152 2418
103 1155 2597
145 1160 2775
198 1168 2954
257 1179 3131
324 1194 3306
394 1211 3477
472 1233 3646
562 1264 3815
662 1305 3982
768 1353 4095
875 1405 4095
0 1254 180
0 1260 314
0 1266 446
0 1273 596
0 1290 762
0 1313 940
0 1328 1144
0 1342 1341
0 1355 1538
0 1351 1719
0 1346 1896
0 1344 2074
45 1344 2252
90 1345 2431
123 1346 2611
171 1351 2790
225 1356 2967
287 1365 3143
354 1376 3315
425 1390 3485
509 1412 3656
602 1440 3824
704 1475 3989
809 1516 4095
918 1563 4095
0 1429 195
0 1434 326
0 1440 454
0 1449 604
0 1458 765
0 1476 937
0 1504 1132
0 1521 1333
0 1536 1530
0 1549 1728
0 1548 1910
10 1543 2087
78 1541 2265
107 1539 2443
149 1539 2622
198 1541 2800
257 1546 2978
322 1553 3154
391 1562 3326
470 1576 3497
554 1595 3666
649 1619 3833
752 1650 3996
857 1686 4095
968 1727 4095
0 1603 203
0 1607 330
0 1612 457
0 1619 605
0 1631 765
0 1648 939
0 1668 1119
0 1694 1319
0 1714 1521
0 1730 1719
0 1743 1915
68 1744 2100
97 1739 2277
132 1735 2455
177 1733 2633
233 1734 2811
297 1739 2990
365 1745 3167
440 1754 3339
521 1765 3509
607 1781 3677
704 1802 3841
808 1829 4002
913 1859 4095
1025 1897 4095
0 1779 198
0 1783 324
0 1788 452
0 1796 601
0 1806 764
0 1818 935
0 1836 1115
0 1859 1304
0 1884 1506
0 1903 1705
42 1918 1902
84 1936 2103
126 1942 2294
171 1937 2472
222 1934 2650
282 1934 2828
347 1936 3005
417 1939 3178
493 1946 3350
577 1956 3520
669 1970 3687
767 1988 3849
870 2010 4008
977 2037 4095
1094 2071 4095
0 1956 165
0 1961 306
0 1967 440
0 1974 594
0 1983 758
0 1993 930
0 2005 1107
0 2023 1293
0 2051 1494
32 2073 1693
61 2095 1894
100 2114 2095
158 2132 2297
222 2141 2490
278 2136 2667
339 2134 2844
404 2133 3018
475 2134 3190
553 2138 3360
640 2146 3528
735 2158 3694
838 2175 3856
942 2194 4012
1055 2218 4095
1175 2250 4095
0 2130 126
0 2134 278
0 2139 420
0 2146 578
0 2155 746
0 2167 920
0 2178 1098
0 2191 1282
19 2210 1476
36 2243 1684
74 2271 1887
123 2293 2089
189 2311 2290
262 2327 2489
341 2340 2683
404 2335 2858
470 2331 3030
542 2329 3200
623 2331 3369
713 2337 3537
812 2348 3702
919 2363 3863
1027 2380 4017
1143 2401 4095
1266 2430 4095
0 2304 61
0 2307 233
0 2311 388
0 2317 554
0 2325 726
0 2334 902
16 2347 1086
23 2363 1275
36 2383 1470
48 2405 1668
87 2436 1875
145 2462 2077
220 2483 2278
297 2501 2478
383 2518 2675
481 2537 2873
550 2531 3044
625 2528 3214
710 2528 3382
802 2533 3548
904 2541 3711
1008 2550 3868
1120 2564 4020
1240 2584 4095
1367 2610 4095
10 2477 0
10 2481 174
10 2485 354
13 2491 536
16 2500 717
19 2510 899
26 2522 1084
36 2536 1272
48 2552 1462
71 2572 1658
97 2598 1861
174 2628 2066
252 2651 2266
336 2671 2465
427 2691 2665
527 2710 2862
637 2729 3057
721 2727 3228
807 2725 3394
903 2727 3558
1004 2731 3717
1109 2737 3871
1222 2748 4021
1345 2765 4095
1477 2789 4095
16 2657 0
16 2660 174
19 2664 356
23 2670 537
26 2678 718
32 2687 900
42 2698 1084
52 2710 1270
71 2723 1457
97 2739 1649
132 2759 1846
195 2791 2056
291 2818 2256
381 2842 2457
477 2863 2656
580 2882 2852
694 2900 3046
817 2918 3235
918 2920 3406
1015 2919 3567
1114 2918 3722
1221 2922 3874
1337 2931 4021
1463 2945 4095
1599 2966 4095
26 2831 0
29 2834 183
32 2838 362
36 2843 540
42 2850 720
48 2859 901
61 2870 1084
78 2883 1269
100 2895 1455
129 2908 1644
174 2925 1837
233 2946 2035
324 2982 2247
425 3008 2447
530 3030 2646
639 3050 2843
756 3068 3036
883 3085 3224
1020 3102 3408
1138 3107 3574
1240 3105 3728
1351 3107 3877
1472 3114 4021
1603 3126 4095
1745 3145 4095
42 3005 10
45 3007 195
48 3010 369
55 3015 545
61 3021 723
71 3029 902
87 3039 1084
110 3050 1267
136 3062 1452
177 3076 1641
228 3093 1832
289 3114 2028
358 3136 2229
470 3169 2437
579 3192 2635
694 3212 2830
815 3229 3023
945 3245 3210
1090 3262 3395
1247 3281 3573
1387 3290 3734
1502 3289 3880
1626 3293 4020
1760 3303 4095
1891 3314 4095
68 3178 32
71 3180 212
74 3182 379
81 3187 552
90 3192 728
107 3200 906
126 3209 1087
155 3219 1269
189 3231 1454
233 3244 1640
282 3258 1828
341 3274 2020
414 3294 2216
501 3320 2422
632 3351 2626
752 3371 2820
879 3388 3011
1017 3404 3200
1167 3420 3383
1328 3436 3560
1502 3453 3729
1668 3466 3883
1796 3467 4018
1934 3474 4095
1987 3458 4095
103 3351 65
107 3354 240
113 3356 398
123 3361 566
136 3366 739
155 3373 915
180 3381 1094
212 3390 1274
248 3401 1457
291 3412 1642
341 3423 1828
399 3436 2016
471 3451 2208
556 3470 2404
675 3501 2616
814 3526 2811
953 3545 3004
1097 3560 3192
1250 3574 3374
1416 3587 3549
1594 3601 3716
1788 3617 3873
1984 3633 4016
2064 3620 4095
2093 3597 4095
149 3522 107
155 3524 271
161 3527 419
174 3530 582
189 3535 751
212 3541 925
238 3549 1102
271 3557 1281
308 3567 1462
354 3577 1645
406 3588 1830
465 3599 2016
532 3609 2204
615 3623 2395
717 3641 2592
871 3674 2803
1018 3693 2995
1169 3707 3182
1330 3719 3364
1501 3730 3538
1684 3741 3704
1882 3752 3859
2046 3755 3995
2143 3745 4095
2167 3722 4095
203 3692 165
212 3693 310
217 3695 448
230 3698 602
248 3703 767
269 3708 937
295 3714 1111
328 3722 1288
367 3730 1467
412 3738 1648
465 3747 1831
526 3757 2016
596 3767 2202
680 3779 2391
783 3793 2584
908 3810 2783
1087 3838 2988
1243 3850 3174
1409 3860 3354
1586 3868 3528
1775 3874 3693
1934 3873 3839
2026 3859 3965
2123 3848 4086
2225 3840 4095
267 3860 233
271 3861 356
278 3863 481
291 3865 628
308 3868 787
328 3873 953
356 3878 1124
389 3884 1298
428 3891 1475
475 3898 1655
530 3907 1836
593 3916 2019
666 3925 2204
750 3934 2391
845 3943 2578
963 3954 2770
1114 3969 2970
1324 3990 3170
1493 3996 3348
1674 4000 3521
1816 3994 3673
1903 3978 3807
1992 3964 3937
2085 3951 4061
2183 3942 4095
328 4025 299
334 4026 406
341 4027 520
352 4029 658
369 4032 811
391 4036 973
420 4041 1141
455 4047 1313
497 4054 1488
546 4060 1665
602 4067 1845
666 4074 2026
740 4081 2209
823 4087 2393
918 4093 2577
1027 4095 2763
1162 4095 2953
1367 4095 3159
1571 4095 3343
1702 4095 3501
1797 4095 3644
1876 4089 3780
1957 4074 3911
2042 4060 4039
2133 4049 4095
381 4095 354
386 4095 449
394 4095 556
408 4095 687
425 4095 834
446 4095 991
474 4095 1155
509 4095 1324
553 4095 1497
603 4095 1673
661 4095 1851
727 4095 2031
803 4095 2212
889 4095 2395
986 4095 2578
1097 4095 2762
1226 4095 2946
1366 4095 3129
1536 4095 3311
1663 4095 3469
1774 4095 3618
1883 4095 3761
1961 4095 3894
2043 4095 4023
2130 4095 4095
222 0 0
155 13 203
110 13 398
97 3 569
81 0 744
71 0 924
61 0 1104
58 0 1282
58 0 1461
58 0 1641
74 0 1824
110 0 2002
155 16 2181
201 48 2360
250 90 2541
269 119 2722
293 161 2902
326 209 3081
365 267 3259
416 332 3436
472 403 3610
538 479 3781
612 564 3949
695 654 4095
783 748 4095
201 195 0
168 206 217
145 177 399
129 168 575
119 158 749
107 152 931
100 145 1108
97 142 1285
94 139 1465
94 139 1650
113 149 1831
149 171 2008
180 195 2188
220 228 2367
262 264 2548
280 284 2728
306 310 2907
339 343 3086
381 386 3265
431 436 3442
488 493 3615
554 560 3786
630 635 3953
713 719 4095
804 809 4095
110 377 68
110 386 233
116 391 404
103 377 576
90 376 755
81 376 938
74 372 1115
68 370 1296
65 370 1478
68 372 1662
90 376 1840
123 384 2017
165 394 2195
214 412 2376
260 431 2556
278 445 2735
304 465 2914
337 490 3092
381 523 3272
433 564 3448
490 612 3621
558 667 3791
635 734 3958
723 811 4095
818 896 4095
55 551 94
68 559 252
87 569 388
90 576 587
78 575 771
68 571 949
65 569 1128
55 569 1311
55 569 1491
58 569 1673
90 571 1848
119 575 2026
165 582 2206
222 593 2385
262 604 2564
282 615 2743
308 630 2921
343 650 3100
389 677 3280
440 709 3454
500 748 3626
569 795 3795
647 852 3962
739 922 4095
835 998 4095
16 726 116
23 730 269
36 742 411
68 757 575
58 765 775
58 768 962
52 764 1140
45 762 1321
45 762 1503
61 763 1684
90 763 1861
126 765 2039
174 769 2217
235 777 2395
267 783 2573
287 792 2751
316 803 2929
354 820 3109
401 843 3288
452 868 3461
513 900 3632
584 940 3800
664 989 3967
760 1053 4095
858 1120 4095
0 902 145
0 908 291
0 917 427
13 931 582
42 948 767
45 957 963
39 965 1156
36 961 1336
42 959 1517
71 957 1695
97 956 1874
136 957 2052
192 959 2229
257 963 2406
273 967 2583
297 973 2761
328 984 2941
367 997 3120
416 1016 3297
470 1036 3468
531 1063 3638
603 1097 3806
691 1143 3974
787 1198 4095
886 1257 4095
0 1080 171
0 1084 308
0 1091 439
0 1105 594
0 1124 758
29 1137 955
26 1152 1155
29 1162 1351
48 1156 1528
78 1151 1705
110 1149 1883
155 1148 2061
217 1149 2239
264 1152 2418
284 1155 2596
310 1160 2775
343 1168 2953
384 1180 3131
434 1194 3306
490 1211 3476
554 1233 3645
633 1265 3814
723 1306 3981
819 1353 4095
920 1406 4095
0 1258 186
0 1262 320
0 1268 449
0 1275 600
0 1292 765
26 1316 933
13 1330 1145
29 1344 1343
68 1356 1539
94 1351 1718
132 1346 1896
186 1344 2073
250 1344 2252
276 1345 2431
299 1347 2610
328 1351 2789
363 1356 2966
408 1365 3142
458 1376 3315
516 1390 3484
587 1412 3655
669 1440 3823
761 1476 3988
859 1517 4095
961 1564 4095
0 1431 201
0 1436 330
0 1443 458
0 1451 607
0 1460 768
0 1477 940
16 1505 1131
45 1523 1334
81 1537 1531
116 1550 1728
165 1548 1910
225 1543 2087
271 1541 2265
291 1539 2443
316 1539 2622
347 1541 2800
388 1546 2978
436 1553 3154
489 1562 3325
553 1576 3497
628 1595 3665
713 1620 3832
807 1652 3995
904 1686 4095
1009 1728 4095
0 1605 209
0 1609 334
0 1614 460
0 1622 607
0 1632 767
0 1649 940
0 1669 1120
68 1695 1320
107 1715 1521
149 1731 1720
209 1744 1916
269 1744 2099
284 1739 2277
308 1735 2455
336 1734 2633
372 1735 2811
417 1739 2990
471 1746 3166
531 1754 3339
599 1766 3509
676 1782 3676
763 1803 3841
859 1830 4002
957 1860 4095
1064 1898 4095
0 1782 198
0 1786 326
0 1791 454
0 1798 601
0 1808 765
0 1819 935
3 1838 1117
81 1859 1304
139 1885 1507
189 1903 1705
250 1919 1902
280 1937 2104
308 1942 2294
334 1937 2472
367 1934 2650
408 1934 2828
458 1936 3005
513 1939 3178
577 1946 3350
650 1956 3519
731 1970 3686
821 1989 3849
917 2011 4007
1018 2038 4095
1130 2072 4095
