Examples/CL - Fourth of colorspace.3dl
#25pt 3DLUT created by 3D LUT Creator Pro (c) Oleg Sharonov
#Copyright Oleg Sharonov
#IMAGEPROFILE sRGB IEC61966-2.1 v.2.10
#INPUTGAMMA sRGB IEC61966-2.1 v.2.10
#OUTPUTGAMMA sRGB IEC61966-2.1 v.2.10
0 128 256 384 512 640 768 896 1023
0 0 0
58 59 55
116 118 110
174 177 166
232 236 222
291 295 278
350 353 335
408 412 390
467 471 448
137 442 0
331 387 289
418 417 414
476 476 469
535 535 524
593 594 580
651 653 636
710 712 693
769 770 750
273 885 0
468 847 197
662 773 577
779 775 772
837 834 827
895 894 883
953 953 938
1012 1011 995
1071 1070 1051
410 1327 0
604 1307 105
799 1233 485
993 1160 866
1139 1133 1131
1197 1193 1186
1255 1252 1241
1313 1311 1296
1373 1369 1352
546 1769 0
741 1767 13
935 1694 393
1130 1620 774
1324 1546 1155
1500 1492 1489
1558 1551 1545
1617 1609 1600
1676 1668 1655
683 2212 0
877 2212 0
1072 2154 301
1266 2080 682
1461 2006 1063
1656 1933 1443
1850 1859 1824
1920 1908 1903
1979 1966 1959
819 2654 0
1014 2654 0
1208 2614 209
1403 2540 590
1597 2467 971
1792 2393 1351
1988 2319 1731
2183 2245 2112
2281 2266 2261
956 3096 0
1150 3097 0
1345 3074 117
1539 3000 498
1734 2927 879
1929 2853 1259
2125 2779 1639
2320 2705 2019
2515 2631 2399
1092 3539 0
1287 3539 0
1481 3534 25
1676 3461 406
1871 3387 786
2066 3313 1166
2262 3239 1547
2457 3165 1927
2652 3091 2307
483 15 0
346 161 117
268 272 264
326 331 319
384 390 375
443 448 432
501 507 488
560 566 545
618 624 602
512 512 0
512 512 512
570 571 567
628 630 622
686 689 678
744 748 734
803 807 790
862 865 847
920 924 903
512 1024 0
648 972 420
843 898 801
930 929 926
988 988 981
1046 1047 1036
1105 1106 1092
1163 1165 1148
1222 1223 1205
590 1496 0
785 1432 328
980 1359 709
1174 1285 1089
1291 1287 1284
1349 1346 1339
1407 1405 1395
1465 1464 1450
1523 1523 1507
727 1938 0
922 1892 236
1116 1819 616
1311 1745 997
1505 1672 1378
1651 1645 1643
1710 1704 1699
1768 1763 1755
1826 1822 1811
864 2380 0
1058 2353 144
1253 2279 524
1447 2205 905
1642 2132 1286
1836 2058 1667
2012 2003 2001
2070 2062 2058
2129 2120 2114
1000 2823 0
1195 2813 52
1389 2739 432
1584 2666 813
1778 2592 1194
1973 2518 1575
2167 2445 1955
2362 2371 2336
2432 2420 2415
1137 3265 0
1331 3265 0
1526 3199 340
1720 3126 721
1915 3052 1102
2109 2979 1483
2304 2905 1863
2499 2831 2243
2695 2757 2624
1273 3707 0
1468 3708 0
1662 3660 248
1857 3586 629
2051 3512 1010
2246 3439 1390
2441 3365 1771
2637 3291 2151
2832 3217 2531
965 30 0
829 190 47
692 322 233
556 455 420
536 543 529
594 602 586
653 661 642
711 719 699
770 778 755
1024 512 0
994 540 442
858 673 628
779 784 776
838 843 831
896 902 887
955 960 944
1013 1019 1000
1072 1077 1057
1024 1024 0
1024 1024 512
1024 1024 1024
1082 1083 1079
1140 1142 1134
1198 1201 1189
1256 1260 1245
1315 1318 1302
1373 1377 1359
1024 1536 0
1024 1536 512
1160 1484 932
1355 1410 1312
1442 1441 1437
1500 1500 1493
1558 1559 1548
1617 1618 1604
1676 1676 1661
1024 2047 0
1102 2018 459
1297 1944 840
1491 1871 1220
1686 1797 1601
1803 1799 1797
1861 1857 1853
1920 1916 1910
1978 1975 1966
1044 2549 0
1239 2478 367
1433 2404 748
1628 2331 1128
1823 2257 1509
2017 2183 1890
2163 2157 2155
2222 2216 2211
2280 2274 2268
1181 2991 0
1375 2938 275
1570 2865 656
1765 2791 1036
1959 2717 1417
2154 2644 1798
2348 2570 2179
2523 2515 2513
2582 2574 2570
1317 3434 0
1512 3398 183
1706 3325 564
1901 3251 944
2096 3177 1325
2290 3104 1706
2485 3030 2086
2679 2957 2467
2874 2883 2848
1454 3876 0
1648 3859 91
1843 3785 472
2038 3711 852
2232 3638 1233
2427 3564 1614
2621 3490 1994
2816 3417 2375
3011 3343 2755
1448 45 0
1311 214 0
1175 351 163
1038 484 350
902 616 538
766 748 725
805 814 796
863 873 852
922 931 909
1536 512 0
1477 569 372
1341 702 559
1204 834 745
1068 967 931
1048 1055 1041
1106 1114 1097
1165 1173 1154
1223 1231 1211
1536 1024 0
1536 1024 512
1506 1052 954
1370 1185 1140
1291 1296 1288
1349 1355 1343
1408 1414 1399
1466 1472 1456
1525 1531 1512
1536 1536 0
1536 1536 512
1536 1536 1024
1536 1536 1536
1594 1595 1591
1652 1653 1647
1710 1712 1703
1769 1771 1759
1828 1829 1816
1536 2047 0
1536 2047 512
1536 2047 1024
1672 1996 1444
1867 1922 1824
1954 1952 1950
2013 2011 2007
2072 2070 2063
2130 2128 2120
1536 2559 0
1536 2559 512
1614 2530 971
1809 2456 1352
2003 2382 1732
2198 2309 2113
2315 2311 2309
2373 2369 2365
2432 2428 2422
1536 3071 0
1556 3063 498
1751 2990 879
1945 2916 1260
2140 2843 1640
2334 2769 2021
2529 2695 2402
2675 2669 2667
2734 2727 2723
1536 3583 0
1693 3524 406
1887 3450 787
2082 3376 1167
2276 3303 1548
2471 3229 1929
2665 3156 2310
2860 3082 2690
3035 3027 3025
1635 4045 0
1829 3984 314
2024 3910 695
2218 3837 1075
2413 3763 1456
2607 3689 1837
2802 3616 2218
2997 3542 2598
3191 3468 2979
1930 60 0
1794 229 0
1657 379 94
1521 512 281
1385 644 468
1249 776 656
1113 909 844
1015 1027 1006
1073 1085 1063
2047 512 0
1960 597 302
1823 730 489
1687 863 675
1550 995 862
1414 1128 1050
1278 1260 1237
1316 1326 1308
1375 1385 1364
2047 1024 0
2047 1024 512
1989 1081 884
1852 1213 1071
1716 1346 1257
1579 1479 1443
1560 1567 1553
1618 1626 1610
1677 1684 1667
2047 1536 0
2047 1536 512
2047 1536 1024
2018 1564 1466
1882 1696 1654
1804 1807 1802
1862 1866 1858
1921 1924 1914
1980 1982 1971
2047 2047 0
2047 2047 512
2047 2047 1024
2047 2047 1536
2048 2048 2047
2106 2106 2104
2165 2165 2161
2223 2223 2217
2282 2282 2274
2047 2559 0
2047 2559 512
2047 2559 1024
2047 2559 1536
2184 2508 1955
2379 2434 2336
2466 2464 2462
2525 2523 2519
2584 2581 2575
2047 3071 0
2047 3071 512
2047 3071 1024
2126 3042 1483
2321 2968 1863
2515 2894 2244
2710 2821 2625
2827 2823 2820
2885 2881 2877
2047 3583 0
2047 3583 512
2068 3575 1010
2263 3502 1391
2457 3428 1771
2652 3354 2152
2846 3281 2533
3041 3207 2914
3187 3181 3179
2047 4095 0
2047 4095 512
2205 4036 918
2399 3962 1299
2594 3888 1679
2788 3815 2060
2983 3741 2441
3177 3667 2822
3372 3594 3202
2413 75 0
2276 244 0
2140 408 24
2004 540 211
1868 672 399
1732 805 586
1596 937 774
1460 1069 962
1324 1201 1149
2559 512 0
2442 626 233
2306 758 419
2169 891 605
2033 1024 792
1897 1156 980
1761 1288 1168
1625 1420 1355
1527 1538 1518
2559 1024 0
2559 1024 512
2472 1109 814
2335 1242 1001
2199 1374 1188
2063 1507 1375
1927 1639 1563
1791 1771 1751
1829 1837 1822
2559 1536 0
2559 1536 512
2559 1536 1024
2501 1592 1397
2365 1725 1584
2229 1857 1772
2093 1989 1959
2073 2077 2069
2132 2136 2126
2559 2047 0
2559 2047 512
2559 2047 1024
2559 2047 1536
2530 2076 1978
2394 2208 2166
2316 2318 2314
2375 2377 2371
2433 2436 2427
2559 2559 0
2559 2559 512
2559 2559 1024
2559 2559 1536
2559 2559 2048
2559 2559 2559
2618 2618 2616
2677 2677 2672
2735 2735 2729
2559 3071 0
2559 3071 512
2559 3071 1024
2559 3071 1536
2559 3071 2048
2696 3020 2467
2890 2946 2848
2978 2976 2974
3037 3035 3031
2559 3583 0
2559 3583 512
2559 3583 1024
2559 3583 1536
2638 3553 1995
2832 3480 2375
3027 3406 2756
3222 3332 3137
3338 3334 3332
2559 4095 0
2559 4095 512
2559 4095 1024
2580 4087 1522
2774 4014 1903
2969 3940 2283
3164 3866 2664
3358 3793 3045
3553 3719 3425
2896 89 0
2759 258 0
2623 427 0
2487 569 141
2351 701 329
2215 833 517
2079 965 705
1943 1097 892
1807 1230 1080
3061 517 0
2925 654 163
2788 787 349
2652 920 536
2516 1052 723
2380 1184 911
2244 1316 1099
2108 1449 1286
1972 1581 1474
3071 1024 0
3071 1024 512
2954 1137 745
2818 1270 932
2682 1402 1119
2546 1535 1307
2410 1667 1495
2274 1799 1683
2139 1931 1871
3071 1536 0
3071 1536 512
3071 1536 1024
2984 1621 1327
2848 1753 1515
2712 1885 1702
2576 2017 1890
2440 2150 2078
2304 2282 2265
3071 2047 0
3071 2047 512
3071 2047 1024
3071 2047 1536
3013 2104 1908
2877 2236 2096
2741 2369 2284
2605 2501 2472
2585 2589 2581
3071 2559 0
3071 2559 512
3071 2559 1024
3071 2559 1536
3071 2559 2048
3042 2588 2490
2906 2720 2678
2828 2830 2826
2887 2889 2883
3071 3071 0
3071 3071 512
3071 3071 1024
3071 3071 1536
3071 3071 2048
3071 3071 2559
3071 3071 3071
3130 3130 3128
3188 3188 3184
3071 3583 0
3071 3583 512
3071 3583 1024
3071 3583 1536
3071 3583 2048
3071 3583 2559
3208 3531 2979
3402 3458 3360
3490 3488 3486
3071 4095 0
3071 4095 512
3071 4095 1024
3071 4095 1536
3071 4095 2048
3150 4065 2506
3344 3992 2887
3539 3918 3268
3733 3844 3649
3378 104 0
3242 273 0
3105 442 0
2969 597 72
2833 729 260
2697 861 447
2561 994 635
2425 1126 823
2289 1258 1010
3544 532 0
3407 683 93
3271 815 279
3134 948 466
2999 1080 654
2863 1212 842
2727 1344 1030
2591 1476 1218
2455 1609 1405
3583 1024 0
3573 1033 488
3437 1166 676
3301 1298 864
3165 1430 1051
3029 1562 1238
2893 1694 1427
2757 1827 1615
2622 1959 1802
3583 1536 0
3583 1536 512
3583 1536 1024
3466 1649 1258
3330 1781 1445
3195 1913 1633
3059 2046 1821
2923 2178 2008
2787 2310 2196
3583 2047 0
3583 2047 512
3583 2047 1024
3583 2047 1536
3496 2133 1839
3360 2265 2027
3224 2397 2214
3088 2529 2402
2952 2661 2590
3583 2559 0
3583 2559 512
3583 2559 1024
3583 2559 1536
3583 2559 2048
3525 2616 2420
3389 2748 2608
3253 2881 2796
3117 3013 2983
3583 3071 0
3583 3071 512
3583 3071 1024
3583 3071 1536
3583 3071 2048
3583 3071 2559
3554 3100 3002
3418 3232 3189
3340 3342 3338
3583 3583 0
3583 3583 512
3583 3583 1024
3583 3583 1536
3583 3583 2048
3583 3583 2559
3583 3583 3071
3583 3583 3583
3642 3642 3640
3583 4095 0
3583 4095 512
3583 4095 1024
3583 4095 1536
3583 4095 2048
3583 4095 2559
3583 4095 3071
3720 4043 3491
3914 3970 3872
3861 119 0
3724 288 0
3588 457 0
3452 625 2
3316 758 190
3180 890 378
3044 1022 565
2908 1154 753
2772 1286 941
4027 547 0
3890 711 24
3754 844 211
3618 976 398
3482 1108 586
3346 1240 774
3210 1372 962
3074 1504 1149
2938 1637 1336
4095 1024 0
4056 1062 419
3920 1194 607
3784 1326 794
3648 1458 982
3512 1591 1170
3376 1723 1357
3240 1855 1545
3104 1987 1733
4095 1536 0
4095 1536 512
4085 1545 1000
3949 1677 1188
3813 1810 1376
3677 1942 1563
3541 2074 1751
3405 2206 1939
3269 2338 2126
4095 2047 0
4095 2047 512
4095 2047 1024
4095 2047 1536
3978 2161 1769
3842 2293 1957
3706 2425 2145
3570 2558 2332
3434 2690 2520
4095 2559 0
4095 2559 512
4095 2559 1024
4095 2559 1536
4095 2559 2048
4007 2644 2351
3872 2777 2538
3736 2909 2726
3600 3041 2914
4095 3071 0
4095 3071 512
4095 3071 1024
4095 3071 1536
4095 3071 2048
4095 3071 2559
4037 3128 2932
3901 3260 3120
3765 3392 3308
4095 3583 0
4095 3583 512
4095 3583 1024
4095 3583 1536
4095 3583 2048
4095 3583 2559
4095 3583 3071
4066 3611 3514
3930 3744 3701
4095 4095 0
4095 4095 512
4095 4095 1024
4095 4095 1536
4095 4095 2048
4095 4095 2559
4095 4095 3071
4095 4095 3583
4095 4095 4095
