Examples/CL - Cooler shadows.3dl
#25pt 3DLUT created by 3D LUT Creator Pro (c) Oleg Sharonov
#Copyright Oleg Sharonov
#IMAGEPROFILE 
#INPUTGAMMA 
#OUTPUTGAMMA 
0 256 512 768 1023
0 10 13
0 0 1100
0 0 2185
252 260 3262
744 750 4095
0 1076 158
0 1150 1154
6 1149 2240
324 1194 3306
875 1405 4095
0 2130 126
0 2178 1098
189 2311 2290
623 2331 3369
1266 2430 4095
68 3178 32
126 3209 1087
414 3294 2216
1167 3420 3383
1987 3458 4095
381 4095 354
474 4095 1155
803 4095 2212
1536 4095 3311
2130 4095 4095
1168 0 0
1084 29 1088
1086 81 2176
1134 312 3246
1293 771 4095
1164 1137 0
1143 1159 1160
1138 1139 2223
1184 1186 3286
1397 1400 4095
1070 2159 48
1107 2196 1102
1200 2320 2298
1323 2337 3363
1676 2446 4095
1089 3197 68
1111 3225 1102
1212 3297 2224
1647 3424 3388
2205 3449 4095
1155 4095 425
1194 4095 1183
1361 4095 2228
1783 4095 3293
2318 4095 4095
2362 0 0
2426 0 848
2231 42 2166
2190 475 3238
2237 915 4095
2462 1083 0
2471 1030 792
2250 1143 2199
2213 1237 3257
2276 1465 4095
2309 2281 0
2305 2289 998
2340 2342 2339
2335 2337 3333
2466 2468 4095
2187 3246 267
2200 3261 1168
2271 3312 2263
2558 3444 3411
2724 3424 4095
2182 4095 665
2206 4095 1295
2300 4095 2291
2447 4095 3269
2776 4095 4095
3486 0 0
3491 0 902
3433 0 2194
3267 815 3232
3213 1181 4095
3515 1169 0
3517 1154 888
3436 1219 2222
3278 1409 3249
3223 1607 4095
3534 2334 0
3535 2356 1038
3456 2401 2326
3325 2416 3306
3252 2426 4095
3347 3343 698
3354 3351 1372
3382 3382 2422
3469 3471 3468
3337 3338 4095
3219 4095 1061
3217 4095 1506
3224 4095 2342
3266 4095 3263
3363 4095 4095
4095 1110 863
4095 1165 1429
4095 1339 2368
4095 1433 3279
4095 1076 4095
4095 1616 985
4095 1652 1504
4095 1776 2411
4095 1838 3308
4095 1487 4095
4095 2575 1418
4095 2597 1804
4095 2681 2603
4095 2612 3335
4095 2299 4095
4095 3435 1832
4095 3434 2096
4095 3442 2720
4095 3431 3409
4095 3235 4095
4095 4095 1569
4095 4095 1859
4095 4095 2485
4095 4095 3261
4095 4095 4095
