Examples/CL - Gamut shaping.3dl
#25pt 3DLUT created by 3D LUT Creator Pro (c) Oleg Sharonov
#Copyright Oleg Sharonov
0 256 512 768 1023
0 0 0
222 217 729
655 606 1545
1109 977 2397
1629 1376 3280
68 899 389
0 883 928
659 1046 1577
1171 1289 2398
1670 1673 3275
633 1784 810
280 1892 1270
0 1937 1901
1004 1958 2501
1789 2235 3334
1299 2638 1165
1225 2680 1492
907 2761 2064
291 2861 2617
2096 3122 3203
2048 3410 1510
2030 3433 1758
2061 3516 2270
1838 3595 2906
2634 3842 3374
1016 260 0
924 398 809
976 605 1564
1365 841 2454
1874 1273 3318
931 970 461
1023 1023 1023
959 967 1707
1303 1236 2514
1795 1601 3381
959 1885 908
812 1983 1333
0 1916 1944
1287 1935 2564
1928 2228 3400
1513 2691 1165
1461 2728 1484
1255 2823 2103
888 2873 2671
2241 3127 3262
2194 3445 1492
2192 3469 1723
2247 3549 2227
2137 3623 2930
2729 3860 3410
2007 704 0
2002 683 637
1897 912 1663
1906 1041 2471
2406 1532 3261
2041 1022 74
2045 1023 1022
1962 1136 1881
1877 1137 2664
2379 1631 3403
1974 2013 702
1994 2021 1190
2046 2046 2046
1862 1862 2878
2270 2183 3635
2063 2844 1035
2039 2870 1379
1977 2959 2042
1884 2923 2811
2571 3119 3494
2681 3575 1176
2701 3598 1434
2752 3663 2051
2806 3748 2857
3011 3915 3525
2992 1158 0
3001 1156 0
2986 1174 1624
2935 1518 2517
3086 1913 3271
3032 1312 0
3039 1322 370
3025 1363 1796
2966 1674 2628
3089 2023 3366
3059 2043 264
3066 2046 1029
3068 2047 2046
3028 2091 2959
3079 2329 3650
3020 3028 0
3028 3033 889
3065 3066 1935
3070 3070 3070
3058 3041 3935
3481 3860 0
3508 3881 0
3577 3934 1243
3570 3961 2667
3477 4000 3751
3960 1716 0
3999 1755 0
4042 1841 384
3939 1909 2516
3976 2382 3290
3975 1826 0
4011 1864 0
4051 1951 928
3995 2081 2512
3987 2494 3340
3992 2145 708
4020 2182 1008
4064 2285 1748
4068 2476 2672
4021 2838 3494
3964 3013 1385
3988 3025 1604
4028 3047 2241
4094 3071 3070
4063 3393 3755
4095 4095 0
4095 4095 0
4095 4095 1039
4095 4095 2741
4095 4095 4095
