Examples/CL - Fourth of colorspace.3dl
#25pt 3DLUT created by 3D LUT Creator Pro (c) Oleg Sharonov
#Copyright Oleg Sharonov
#IMAGEPROFILE sRGB IEC61966-2.1 v.2.10
#INPUTGAMMA sRGB IEC61966-2.1 v.2.10
#OUTPUTGAMMA sRGB IEC61966-2.1 v.2.10
0 43 86 128 171 214 256 299 341 384 427 469 512 555 597 640 682 725 768 810 853 896 938 981 1023 
0 0 0
19 20 18
39 39 37
58 59 55
77 79 74
97 99 92
116 118 110
135 138 129
155 158 147
174 177 166
193 197 184
213 217 203
232 236 222
252 256 241
272 275 259
291 295 278
311 314 297
330 334 316
350 353 335
369 373 353
388 393 372
408 412 390
427 432 409
447 451 428
467 471 448
46 147 0
110 129 96
139 139 138
159 159 156
178 178 175
198 198 193
217 218 212
236 238 230
256 257 248
275 277 267
294 297 285
314 316 304
333 336 322
353 356 341
372 375 360
392 395 379
411 414 398
431 434 417
450 453 435
470 473 454
489 492 473
509 512 492
528 531 511
548 551 530
567 570 548
91 295 0
156 282 66
221 258 192
260 258 257
279 278 276
298 298 294
318 318 313
337 337 331
356 357 349
376 377 368
395 396 386
414 416 405
434 436 423
453 455 442
473 475 461
492 494 479
512 514 498
531 534 517
551 553 536
570 573 555
590 592 574
609 612 592
629 631 611
648 651 630
668 670 649
137 442 0
201 436 35
266 411 162
331 387 289
380 378 377
399 398 395
418 417 414
438 437 432
457 457 451
476 476 469
496 496 487
515 516 506
535 535 524
554 555 543
573 575 561
593 594 580
612 614 599
632 633 618
651 653 636
671 672 655
690 692 674
710 712 693
729 731 712
749 751 731
769 770 750
182 590 0
247 589 4
312 565 131
377 540 258
441 515 385
500 497 496
519 517 515
539 537 533
558 556 552
577 576 570
597 596 588
616 615 607
635 635 625
655 655 644
674 675 662
693 694 681
713 714 699
732 733 718
752 753 737
771 772 756
791 792 775
810 811 794
830 831 812
850 850 831
869 870 850
228 737 0
292 737 0
357 718 100
422 693 227
487 669 354
552 644 481
617 620 608
639 636 634
659 656 653
678 676 671
697 695 690
717 715 708
736 735 726
755 754 745
775 774 763
794 794 782
813 814 800
833 833 819
852 853 838
872 872 856
892 892 875
911 911 894
931 931 913
950 950 932
970 970 951
273 885 0
338 885 0
403 871 70
468 847 197
532 822 324
597 798 450
662 773 577
727 749 704
759 756 754
779 775 772
798 795 791
817 815 809
837 834 827
856 854 846
876 874 864
895 894 883
914 913 901
934 933 920
953 953 938
973 972 957
992 992 976
1012 1011 995
1031 1031 1014
1051 1050 1032
1071 1070 1051
319 1032 0
383 1032 0
448 1025 39
513 1000 166
578 976 293
643 951 420
708 927 547
773 902 674
837 877 801
880 875 873
899 895 892
918 914 910
938 934 929
957 954 947
976 973 965
996 993 984
1015 1013 1002
1034 1033 1021
1054 1052 1039
1073 1072 1058
1093 1092 1076
1112 1111 1095
1132 1131 1114
1151 1150 1133
1171 1169 1151
364 1180 0
429 1180 0
494 1178 8
559 1154 135
624 1129 262
688 1104 389
753 1080 516
818 1055 643
883 1031 770
948 1006 897
1000 994 993
1019 1014 1011
1038 1034 1030
1058 1053 1048
1077 1073 1066
1096 1093 1085
1116 1113 1103
1135 1132 1122
1154 1152 1140
1174 1172 1159
1193 1191 1177
1213 1211 1196
1232 1230 1215
1252 1250 1233
1272 1269 1252
410 1327 0
474 1327 0
539 1327 0
604 1307 105
669 1282 232
734 1258 358
799 1233 485
864 1209 612
928 1184 739
993 1160 866
1058 1135 993
1120 1114 1112
1139 1133 1131
1159 1153 1149
1178 1173 1168
1197 1193 1186
1217 1212 1204
1236 1232 1223
1255 1252 1241
1275 1271 1260
1294 1291 1278
1313 1311 1296
1333 1330 1315
1353 1350 1334
1373 1369 1352
455 1474 0
520 1475 0
585 1475 0
650 1460 74
715 1436 201
779 1411 328
844 1387 455
909 1362 582
974 1338 708
1039 1313 835
1104 1289 962
1169 1264 1089
1233 1239 1216
1259 1253 1250
1279 1272 1269
1298 1292 1287
1317 1312 1305
1337 1332 1324
1356 1351 1342
1375 1371 1361
1395 1391 1379
1414 1410 1397
1434 1430 1416
1454 1449 1434
1473 1469 1453
501 1622 0
566 1622 0
630 1622 0
695 1614 43
760 1589 170
825 1565 297
890 1540 424
955 1516 551
1019 1491 678
1084 1467 805
1149 1442 932
1214 1417 1059
1279 1393 1185
1344 1368 1312
1379 1372 1370
1399 1392 1388
1418 1412 1407
1437 1431 1425
1457 1451 1443
1476 1471 1462
1496 1490 1480
1515 1510 1498
1535 1530 1517
1555 1549 1535
1574 1569 1553
546 1769 0
611 1769 0
676 1769 0
741 1767 13
806 1743 139
870 1718 266
935 1694 393
1000 1669 520
1065 1644 647
1130 1620 774
1195 1595 901
1260 1571 1028
1324 1546 1155
1389 1522 1282
1454 1497 1409
1500 1492 1489
1519 1511 1508
1538 1531 1526
1558 1551 1545
1577 1570 1563
1597 1590 1582
1617 1609 1600
1636 1629 1618
1656 1648 1637
1676 1668 1655
592 1917 0
657 1917 0
721 1917 0
786 1917 0
851 1896 109
916 1871 236
981 1847 363
1046 1822 490
1111 1798 616
1175 1773 743
1240 1749 870
1305 1724 997
1370 1700 1124
1435 1675 1251
1500 1651 1378
1564 1626 1505
1620 1611 1609
1639 1630 1628
1659 1650 1646
1679 1669 1665
1698 1689 1683
1718 1708 1702
1738 1728 1720
1757 1748 1739
1777 1767 1757
637 2064 0
702 2064 0
767 2064 0
832 2064 0
897 2049 78
961 2025 205
1026 2000 332
1091 1976 459
1156 1951 586
1221 1927 713
1286 1902 840
1351 1878 966
1415 1853 1093
1480 1829 1220
1545 1804 1347
1610 1779 1474
1675 1755 1601
1740 1730 1728
1760 1750 1747
1779 1769 1766
1799 1789 1784
1819 1808 1803
1839 1827 1822
1858 1847 1840
1878 1866 1859
683 2212 0
748 2212 0
812 2212 0
877 2212 0
942 2203 47
1007 2178 174
1072 2154 301
1137 2129 428
1202 2105 555
1266 2080 682
1331 2056 809
1396 2031 936
1461 2006 1063
1526 1982 1190
1591 1957 1317
1656 1933 1443
1720 1908 1570
1785 1884 1697
1850 1859 1824
1880 1869 1866
1900 1888 1885
1920 1908 1903
1939 1927 1922
1959 1947 1941
1979 1966 1959
728 2359 0
793 2359 0
858 2359 0
923 2359 0
988 2356 17
1053 2332 144
1117 2307 271
1182 2283 397
1247 2258 524
1312 2233 651
1377 2209 778
1442 2184 905
1506 2160 1032
1571 2135 1159
1636 2111 1286
1701 2086 1413
1766 2062 1540
1831 2037 1666
1896 2012 1793
1961 1988 1920
2001 1988 1985
2020 2008 2004
2040 2027 2022
2060 2046 2041
2080 2066 2060
774 2506 0
839 2507 0
903 2507 0
968 2507 0
1033 2507 0
1098 2485 113
1163 2461 240
1228 2436 367
1293 2411 494
1357 2387 621
1422 2362 748
1487 2338 874
1552 2313 1001
1617 2289 1128
1682 2264 1255
1747 2240 1382
1812 2215 1509
1877 2190 1636
1942 2166 1762
2007 2141 1889
2072 2116 2016
2121 2107 2104
2141 2127 2123
2161 2146 2142
2180 2166 2160
819 2654 0
884 2654 0
949 2654 0
1014 2654 0
1079 2654 0
1144 2638 82
1208 2614 209
1273 2589 336
1338 2565 463
1403 2540 590
1468 2516 717
1533 2491 844
1597 2467 971
1662 2442 1098
1727 2418 1224
1792 2393 1351
1857 2368 1478
1922 2344 1605
1988 2319 1731
2053 2294 1858
2118 2270 1985
2183 2245 2112
2242 2227 2223
2261 2246 2242
2281 2266 2261
865 2801 0
930 2801 0
995 2802 0
1059 2802 0
1124 2802 0
1189 2792 52
1254 2767 179
1319 2743 305
1384 2718 432
1448 2694 559
1513 2669 686
1578 2645 813
1643 2620 940
1708 2596 1067
1773 2571 1194
1838 2546 1320
1903 2522 1447
1968 2497 1574
2033 2472 1701
2098 2448 1827
2163 2423 1954
2229 2398 2081
2294 2374 2208
2359 2349 2334
2382 2365 2361
910 2949 0
975 2949 0
1040 2949 0
1105 2949 0
1170 2949 0
1235 2945 21
1299 2921 148
1364 2896 275
1429 2872 402
1494 2847 529
1559 2823 655
1624 2798 782
1689 2773 909
1753 2749 1036
1819 2724 1163
1884 2700 1290
1949 2675 1416
2014 2650 1543
2079 2626 1670
2144 2601 1797
2209 2576 1923
2274 2552 2050
2339 2527 2177
2404 2503 2304
2470 2478 2430
956 3096 0
1021 3096 0
1086 3096 0
1150 3097 0
1215 3097 0
1280 3097 0
1345 3074 117
1410 3050 244
1475 3025 371
1539 3000 498
1604 2976 625
1669 2951 752
1734 2927 879
1799 2902 1005
1864 2878 1132
1929 2853 1259
1994 2828 1386
2060 2804 1512
2125 2779 1639
2190 2754 1766
2255 2730 1893
2320 2705 2019
2385 2680 2146
2450 2656 2273
2515 2631 2399
1001 3244 0
1066 3244 0
1131 3244 0
1196 3244 0
1261 3244 0
1326 3244 0
1390 3228 86
1455 3203 213
1520 3178 340
1585 3154 467
1650 3129 594
1715 3105 721
1780 3080 848
1845 3056 975
1910 3031 1101
1975 3006 1228
2040 2982 1355
2105 2957 1482
2170 2932 1608
2235 2908 1735
2301 2883 1862
2366 2858 1988
2431 2834 2115
2496 2809 2242
2561 2785 2369
1047 3391 0
1112 3391 0
1177 3391 0
1241 3391 0
1306 3392 0
1371 3392 0
1436 3381 56
1501 3356 183
1566 3332 310
1631 3307 437
1695 3283 563
1760 3258 690
1825 3234 817
1890 3209 944
1956 3184 1071
2021 3160 1197
2086 3135 1324
2151 3110 1451
2216 3086 1577
2281 3061 1704
2346 3036 1831
2411 3012 1958
2476 2987 2084
2542 2962 2211
2607 2938 2338
1092 3539 0
1157 3539 0
1222 3539 0
1287 3539 0
1352 3539 0
1417 3539 0
1481 3534 25
1546 3510 152
1611 3485 279
1676 3461 406
1741 3436 533
1806 3412 660
1871 3387 786
1936 3362 913
2001 3338 1040
2066 3313 1166
2132 3288 1293
2197 3264 1420
2262 3239 1547
2327 3214 1673
2392 3190 1800
2457 3165 1927
2522 3140 2054
2587 3116 2180
2652 3091 2307
161 5 0
115 54 39
89 91 88
109 110 106
128 130 125
147 150 143
167 169 162
186 189 180
205 209 198
225 229 217
244 248 235
264 268 254
283 287 273
303 307 292
322 326 311
342 346 330
361 365 348
381 385 367
400 405 386
420 424 405
439 444 423
459 463 442
478 483 461
498 502 480
517 522 499
171 171 0
171 171 171
190 190 189
209 210 207
229 230 226
248 249 244
267 269 263
287 289 281
306 309 300
325 328 318
345 348 336
364 368 355
384 387 374
403 407 392
423 426 411
442 446 430
462 465 449
481 485 468
501 504 487
520 524 505
540 543 524
559 563 543
579 583 562
598 602 581
618 622 600
171 341 0
216 324 140
281 299 267
310 310 309
329 329 327
349 349 345
368 369 364
387 389 382
407 408 401
426 428 419
446 448 437
465 467 456
484 487 474
504 507 493
523 526 512
543 546 531
562 565 549
582 585 568
601 604 587
621 624 606
640 643 625
660 663 644
679 682 663
699 702 681
718 721 700
197 499 0
262 477 109
327 453 236
391 428 363
430 429 428
450 449 446
469 468 465
488 488 483
508 508 502
527 528 520
546 547 539
566 567 557
585 587 575
604 606 594
624 626 612
643 646 631
663 665 650
682 685 669
702 704 688
721 724 707
741 743 725
760 763 744
780 782 763
800 802 782
819 821 801
242 646 0
307 631 79
372 606 205
437 582 332
502 557 459
550 548 548
570 568 566
589 588 584
608 608 603
628 627 621
647 647 640
666 667 658
686 686 676
705 706 695
724 726 713
744 745 732
763 765 751
783 785 769
802 804 788
822 824 807
841 843 826
861 863 845
881 882 864
900 902 883
920 921 901
288 793 0
353 784 48
418 760 175
482 735 302
547 711 429
612 686 556
670 668 667
690 687 685
709 707 704
729 727 722
748 747 741
767 766 759
787 786 778
806 806 796
825 825 814
845 845 833
864 865 851
883 884 870
903 904 889
923 923 908
942 943 927
962 963 945
981 982 964
1001 1002 983
1020 1021 1002
333 941 0
398 938 17
463 913 144
528 889 271
593 864 398
658 839 525
722 815 652
787 790 779
810 807 805
829 827 823
849 846 842
868 866 860
887 886 879
907 905 897
926 925 915
945 945 934
965 965 952
984 984 971
1004 1004 989
1023 1023 1008
1043 1043 1027
1062 1062 1046
1082 1082 1065
1101 1101 1084
1121 1121 1102
379 1088 0
444 1088 0
509 1066 113
573 1042 240
638 1017 367
703 993 494
768 968 621
833 944 748
898 919 875
930 926 924
949 946 943
969 966 961
988 985 980
1007 1005 998
1027 1025 1017
1046 1044 1035
1066 1064 1053
1085 1084 1072
1104 1104 1090
1124 1123 1109
1143 1143 1128
1163 1162 1146
1182 1182 1165
1202 1201 1184
1221 1221 1203
424 1236 0
489 1236 0
554 1220 83
619 1195 210
684 1171 337
749 1146 463
813 1122 590
878 1097 717
943 1073 844
1008 1048 971
1050 1046 1044
1070 1065 1062
1089 1085 1081
1108 1105 1099
1128 1124 1118
1147 1144 1136
1166 1164 1154
1186 1184 1173
1205 1203 1191
1224 1223 1210
1244 1243 1228
1263 1262 1247
1283 1282 1266
1302 1301 1285
1322 1321 1303
470 1383 0
535 1383 0
600 1373 52
664 1349 179
729 1324 306
794 1300 433
859 1275 560
924 1251 687
989 1226 814
1054 1201 940
1118 1177 1067
1170 1165 1163
1190 1185 1182
1209 1204 1200
1228 1224 1219
1248 1244 1237
1267 1263 1256
1286 1283 1274
1306 1303 1292
1325 1323 1311
1344 1342 1329
1364 1362 1348
1383 1382 1366
1403 1401 1385
1423 1420 1404
515 1531 0
580 1531 0
645 1527 21
710 1502 148
775 1478 275
840 1453 402
905 1428 529
969 1404 656
1034 1379 783
1099 1355 910
1164 1330 1037
1229 1306 1164
1290 1284 1283
1310 1304 1301
1329 1324 1320
1348 1343 1338
1368 1363 1357
1387 1383 1375
1407 1403 1393
1426 1422 1412
1445 1442 1430
1465 1462 1449
1484 1481 1467
1504 1501 1486
1524 1520 1504
