Examples/CL - Fourth of colorspace 2.3dl
#25pt 3DLUT created by 3D LUT Creator Pro (c) Oleg Sharonov
#Copyright Oleg Sharonov
#IMAGEPROFILE sRGB IEC61966-2.1 v.2.10
#INPUTGAMMA sRGB IEC61966-2.1 v.2.10
#OUTPUTGAMMA sRGB IEC61966-2.1 v.2.10
0 128 256 384 512 640 768 896 1023
0 0 0
64 65 11
128 129 24
192 193 38
256 257 53
320 321 68
384 385 84
448 449 99
512 512 117
329 344 0
393 344 343
457 408 358
521 472 373
585 536 389
649 600 405
713 664 420
777 727 439
841 790 456
659 688 0
723 656 512
787 688 688
850 752 704
914 816 720
978 880 737
1041 943 755
1105 1006 775
1169 1069 794
987 1033 0
1051 1000 512
1115 969 1018
1178 1033 1034
1242 1096 1052
1306 1160 1069
1370 1223 1089
1433 1286 1109
1497 1349 1131
1315 1377 0
1379 1345 512
1443 1313 1024
1507 1314 1362
1570 1377 1381
1634 1440 1400
1698 1503 1421
1761 1566 1443
1825 1629 1464
1643 1722 0
1707 1690 512
1771 1657 1024
1835 1625 1536
1898 1658 1708
1962 1721 1729
2026 1784 1751
2090 1846 1774
2153 1909 1797
1972 2067 0
2035 2035 512
2099 2002 1024
2163 1970 1536
2226 1940 2035
2290 2002 2057
2354 2065 2081
2418 2127 2104
2482 2189 2128
2300 2412 0
2363 2379 512
2427 2347 1024
2491 2314 1536
2555 2282 2048
2619 2283 2382
2683 2345 2407
2747 2407 2433
2811 2469 2458
2629 2756 0
2693 2723 512
2757 2691 1024
2821 2658 1536
2885 2626 2048
2948 2593 2559
3012 2627 2731
3076 2688 2758
3140 2750 2783
512 0 0
512 64 180
512 161 194
512 258 208
512 354 224
512 450 240
512 547 256
566 615 273
630 679 289
512 512 0
512 512 512
576 576 527
640 640 542
704 703 558
768 767 574
832 831 590
896 894 610
960 957 628
777 889 0
841 856 512
905 856 856
969 920 873
1033 983 889
1097 1047 907
1161 1110 925
1225 1173 945
1289 1236 966
1107 1233 0
1171 1200 512
1234 1168 1024
1298 1200 1201
1362 1263 1219
1426 1327 1237
1490 1390 1258
1553 1453 1279
1617 1515 1301
1435 1577 0
1499 1545 512
1563 1512 1024
1627 1481 1529
1690 1544 1548
1754 1607 1568
1818 1670 1589
1881 1733 1612
1945 1795 1633
1764 1922 0
1827 1889 512
1891 1857 1024
1955 1824 1536
2018 1826 1875
2082 1888 1897
2146 1951 1919
2210 2013 1943
2273 2076 1966
2092 2267 0
2155 2234 512
2219 2202 1024
2283 2169 1536
2347 2137 2048
2410 2170 2223
2474 2232 2247
2538 2294 2271
2601 2356 2296
2420 2611 0
2483 2579 512
2547 2546 1024
2611 2514 1536
2675 2481 2048
2738 2451 2547
2802 2513 2573
2866 2575 2599
2930 2637 2624
2748 2956 0
2812 2924 512
2875 2891 1024
2939 2859 1536
3003 2826 2048
3067 2793 2559
3131 2795 2895
3195 2857 2923
3259 2918 2950
1024 0 0
1024 32 349
1024 128 364
1024 225 379
1024 321 395
1024 417 411
1024 514 426
1024 609 445
1024 706 462
1024 512 0
1024 512 512
1024 576 694
1024 672 711
1024 768 726
1024 864 744
1024 960 761
1024 1056 781
1078 1124 801
1024 1024 0
1024 1024 512
1024 1024 1024
1088 1087 1040
1152 1151 1058
1216 1214 1075
1280 1277 1095
1344 1340 1115
1407 1403 1137
1225 1433 0
1289 1400 512
1353 1368 1024
1417 1368 1368
1481 1431 1387
1545 1494 1406
1609 1557 1427
1673 1620 1449
1737 1682 1470
1554 1777 0
1618 1745 512
1682 1712 1024
1746 1679 1536
1810 1712 1714
1874 1774 1735
1938 1837 1757
2002 1900 1780
2065 1962 1803
1884 2121 0
1947 2089 512
2011 2056 1024
2075 2024 1536
2138 1993 2041
2202 2055 2063
2266 2118 2087
2330 2180 2110
2393 2242 2135
2212 2466 0
2275 2434 512
2339 2401 1024
2403 2369 1536
2467 2336 2048
2530 2337 2388
2594 2399 2414
2658 2461 2439
2721 2523 2464
2540 2811 0
2604 2778 512
2667 2746 1024
2731 2714 1536
2795 2681 2048
2858 2649 2559
2922 2681 2737
2986 2743 2764
3050 2805 2790
2868 3156 0
2932 3123 512
2995 3091 1024
3059 3058 1536
3123 3026 2048
3187 2993 2559
3250 2963 3059
3314 3025 3087
3378 3086 3115
1536 0 0
1536 0 512
1536 95 533
1536 192 548
1536 288 564
1536 384 581
1536 481 597
1536 576 617
1536 672 635
1536 512 0
1536 512 512
1536 543 862
1536 639 879
1536 736 896
1536 832 913
1536 927 932
1536 1023 951
1536 1118 972
1536 1024 0
1536 1024 512
1536 1024 1024
1536 1087 1208
1536 1183 1225
1536 1279 1243
1536 1375 1264
1536 1470 1285
1536 1565 1307
1536 1536 0
1536 1536 512
1536 1536 1024
1536 1536 1536
1600 1599 1554
1664 1662 1574
1727 1725 1595
1791 1787 1618
1855 1850 1640
1673 1977 0
1737 1945 512
1801 1912 1024
1865 1880 1536
1929 1880 1881
1993 1942 1903
2057 2005 1926
2121 2067 1949
2185 2129 1972
2002 2322 0
2066 2289 512
2130 2256 1024
2194 2224 1536
2258 2191 2048
2322 2223 2229
2386 2285 2253
2450 2347 2278
2513 2409 2303
2332 2666 0
2395 2633 512
2459 2601 1024
2523 2568 1536
2587 2536 2048
2650 2505 2553
2714 2567 2579
2778 2628 2605
2841 2691 2630
2660 3010 0
2724 2978 512
2787 2946 1024
2851 2913 1536
2915 2881 2048
2978 2848 2559
3042 2849 2901
3106 2910 2929
3170 2972 2956
2988 3355 0
3052 3323 512
3115 3290 1024
3179 3258 1536
3243 3225 2048
3307 3193 2559
3370 3160 3071
3434 3193 3250
3498 3254 3279
2047 0 0
2047 0 512
2047 63 701
2047 159 717
2048 255 733
2048 351 750
2048 447 768
2048 543 788
2048 639 807
2047 512 0
2047 512 512
2047 512 1024
2047 607 1047
2048 703 1064
2048 799 1081
2048 894 1101
2048 990 1121
2048 1085 1143
2047 1024 0
2047 1024 512
2047 1024 1024
2047 1055 1375
2048 1151 1393
2048 1247 1412
2048 1342 1433
2048 1437 1455
2048 1532 1477
2047 1536 0
2047 1536 512
2047 1536 1024
2047 1536 1536
2048 1599 1721
2048 1694 1742
2048 1790 1763
2048 1885 1786
2048 1980 1809
2047 2047 0
2047 2047 512
2047 2047 1024
2047 2047 1536
2048 2048 2047
2111 2110 2070
2175 2172 2093
2239 2235 2116
2303 2297 2141
2121 2522 0
2185 2489 512
2249 2457 1024
2313 2424 1536
2377 2392 2048
2441 2391 2394
2505 2453 2420
2569 2515 2445
2633 2577 2470
2450 2866 0
2514 2833 512
2578 2801 1024
2642 2768 1536
2706 2736 2048
2770 2703 2559
2834 2734 2743
2898 2796 2770
2962 2858 2796
2780 3210 0
2844 3178 512
2907 3145 1024
2971 3113 1536
3035 3080 2048
3098 3048 2559
3162 3017 3065
3226 3078 3093
3290 3140 3121
3108 3555 0
3172 3522 512
3235 3490 1024
3299 3457 1536
3363 3425 2048
3427 3393 2559
3490 3360 3071
3554 3361 3414
3618 3422 3443
2559 0 0
2559 0 512
2559 30 868
2559 126 885
2559 222 902
2559 319 919
2559 414 938
2559 510 958
2559 605 978
2559 512 0
2559 512 512
2559 512 1024
2559 574 1214
2559 670 1232
2559 766 1249
2559 862 1270
2559 957 1292
2559 1052 1314
2559 1024 0
2559 1024 512
2559 1024 1024
2559 1024 1536
2559 1118 1560
2559 1214 1580
2559 1309 1601
2559 1404 1624
2559 1499 1646
2559 1536 0
2559 1536 512
2559 1536 1024
2559 1536 1536
2559 1567 1887
2559 1662 1909
2559 1757 1932
2559 1852 1955
2559 1947 1978
2559 2047 0
2559 2047 512
2559 2047 1024
2559 2047 1536
2559 2047 2048
2559 2111 2235
2559 2205 2259
2559 2300 2284
2559 2394 2309
2559 2559 0
2559 2559 512
2559 2559 1024
2559 2559 1536
2559 2559 2048
2559 2559 2559
2623 2621 2585
2687 2683 2612
2751 2745 2636
2569 3066 0
2633 3034 512
2697 3001 1024
2761 2969 1536
2825 2936 2048
2889 2903 2559
2953 2903 2907
3017 2964 2935
3081 3026 2962
2898 3411 0
2962 3378 512
3026 3345 1024
3090 3313 1536
3154 3280 2048
3218 3248 2559
3282 3215 3071
3346 3246 3256
3410 3307 3285
3228 3755 0
3292 3722 512
3355 3689 1024
3419 3657 1536
3483 3625 2048
3547 3592 2559
3610 3560 3071
3674 3528 3577
3738 3590 3606
3071 0 0
3071 0 512
3071 0 1024
3071 94 1053
3071 190 1070
3071 286 1087
3071 381 1107
3071 477 1128
3071 572 1149
3071 512 0
3071 512 512
3071 512 1024
3071 542 1381
3071 638 1399
3071 733 1418
3071 829 1439
3071 924 1461
3071 1019 1483
3071 1024 0
3071 1024 512
3071 1024 1024
3071 1024 1536
3071 1086 1727
3071 1181 1748
3071 1277 1770
3071 1371 1793
3071 1466 1816
3071 1536 0
3071 1536 512
3071 1536 1024
3071 1536 1536
3071 1536 2048
3071 1630 2076
3071 1724 2099
3071 1819 2122
3071 1914 2147
3071 2047 0
3071 2047 512
3071 2047 1024
3071 2047 1536
3071 2047 2048
3071 2078 2400
3071 2173 2426
3071 2267 2452
3071 2362 2476
3071 2559 0
3071 2559 512
3071 2559 1024
3071 2559 1536
3071 2559 2048
3071 2559 2559
3071 2622 2749
3071 2716 2776
3071 2811 2802
3071 3071 0
3071 3071 512
3071 3071 1024
3071 3071 1536
3071 3071 2048
3071 3071 2559
3071 3071 3071
3135 3133 3099
3199 3194 3127
3071 3583 0
3081 3578 512
3145 3546 1024
3209 3513 1536
3273 3481 2048
3337 3448 2559
3401 3415 3071
3465 3415 3420
3528 3476 3449
3346 3955 0
3410 3922 512
3474 3890 1024
3538 3857 1536
3602 3825 2048
3666 3792 2559
3730 3759 3071
3794 3727 3583
3858 3758 3769
3583 0 0
3583 0 512
3583 0 1024
3583 61 1220
3583 157 1238
3583 253 1256
3583 349 1277
3583 444 1298
3583 539 1320
3583 512 0
3583 512 512
3583 512 1024
3583 512 1536
3583 605 1566
3583 701 1586
3583 796 1608
3583 891 1630
3583 986 1652
3583 1024 0
3583 1024 512
3583 1024 1024
3583 1024 1536
3583 1054 1893
3583 1149 1915
3583 1244 1938
3583 1339 1961
3583 1434 1985
3583 1536 0
3583 1536 512
3583 1536 1024
3583 1536 1536
3583 1536 2048
3583 1597 2241
3583 1692 2266
3583 1787 2290
3583 1881 2315
3583 2047 0
3583 2047 512
3583 2047 1024
3583 2047 1536
3583 2047 2048
3583 2047 2559
3583 2141 2591
3583 2235 2618
3583 2330 2642
3583 2559 0
3583 2559 512
3583 2559 1024
3583 2559 1536
3583 2559 2048
3583 2559 2559
3583 2590 2913
3583 2684 2941
3583 2778 2968
3583 3071 0
3583 3071 512
3583 3071 1024
3583 3071 1536
3583 3071 2048
3583 3071 2559
3583 3071 3071
3583 3134 3262
3583 3227 3291
3583 3583 0
3583 3583 512
3583 3583 1024
3583 3583 1536
3583 3583 2048
3583 3583 2559
3583 3583 3071
3583 3583 3583
3647 3644 3612
3583 4095 0
3583 4095 512
3593 4090 1024
3657 4058 1536
3721 4025 2048
3785 3992 2559
3848 3960 3071
3912 3927 3583
3976 3926 3932
4095 0 0
4095 0 512
4095 0 1024
4095 29 1387
4095 125 1405
4095 220 1424
4095 316 1446
4095 411 1467
4095 506 1489
4095 512 0
4095 512 512
4095 512 1024
4095 512 1536
4095 573 1733
4095 668 1754
4095 763 1776
4095 858 1799
4095 953 1822
4095 1024 0
4095 1024 512
4095 1024 1024
4095 1024 1536
4095 1024 2048
4095 1117 2082
4095 1211 2105
4095 1306 2129
4095 1401 2153
4095 1536 0
4095 1536 512
4095 1536 1024
4095 1536 1536
4095 1536 2048
4095 1565 2406
4095 1660 2432
4095 1754 2458
4095 1849 2482
4095 2047 0
4095 2047 512
4095 2047 1024
4095 2047 1536
4095 2047 2048
4095 2047 2559
4095 2109 2755
4095 2203 2782
4095 2297 2808
4095 2559 0
4095 2559 512
4095 2559 1024
4095 2559 1536
4095 2559 2048
4095 2559 2559
4095 2559 3071
4095 2652 3105
4095 2746 3133
4095 3071 0
4095 3071 512
4095 3071 1024
4095 3071 1536
4095 3071 2048
4095 3071 2559
4095 3071 3071
4095 3102 3426
4095 3196 3455
4095 3583 0
4095 3583 512
4095 3583 1024
4095 3583 1536
4095 3583 2048
4095 3583 2559
4095 3583 3071
4095 3583 3583
4095 3645 3775
4095 4095 0
4095 4095 512
4095 4095 1024
4095 4095 1536
4095 4095 2048
4095 4095 2559
4095 4095 3071
4095 4095 3583
4095 4095 4095
