Examples/CL - Gamut shaping.3dl
#25pt 3DLUT created by 3D LUT Creator Pro (c) Oleg Sharonov
#Copyright Oleg Sharonov
0 128 256 384 512 640 768 896 1023
0 0 0
52 58 360
222 217 729
436 412 1127
655 606 1545
880 796 1972
1109 977 2397
1341 1148 2814
1629 1376 3280
0 455 180
0 467 500
116 486 736
458 614 1127
688 758 1541
909 926 1967
1115 1110 2388
1332 1284 2803
1616 1515 3270
68 899 389
0 973 644
0 883 928
0 949 1238
659 1046 1577
935 1160 1984
1171 1289 2398
1393 1434 2804
1670 1673 3275
339 1339 605
116 1375 820
0 1442 1046
0 1415 1426
0 1455 1733
774 1508 2078
1179 1587 2431
1444 1709 2842
1746 1903 3296
633 1784 810
547 1809 976
280 1892 1270
0 1909 1539
0 1937 1901
195 1923 2175
1004 1958 2501
1416 2074 2905
1789 2235 3334
959 2234 996
916 2255 1130
803 2302 1393
540 2366 1686
0 2328 1972
0 2370 2267
734 2395 2570
1350 2492 2933
1853 2648 3310
1299 2638 1165
1278 2650 1271
1225 2680 1492
1131 2734 1796
907 2761 2064
0 2728 2369
291 2861 2617
1406 2973 2914
2096 3122 3203
1663 3028 1325
1653 3036 1409
1627 3056 1600
1583 3095 1876
1504 3147 2202
1285 3173 2464
1224 3236 2725
1836 3397 2913
2426 3570 3118
2048 3410 1510
2043 3417 1585
2030 3433 1758
2029 3465 1995
2061 3516 2270
2045 3554 2582
1838 3595 2906
2226 3707 3126
2634 3842 3374
509 45 0
471 142 414
377 220 693
563 367 1144
755 516 1589
969 696 2017
1190 872 2438
1417 1038 2853
1705 1271 3320
446 475 212
512 512 512
377 419 757
563 566 1172
747 731 1588
951 894 2011
1166 1058 2429
1389 1215 2842
1677 1443 3310
293 948 505
110 1012 712
0 896 939
372 937 1245
769 1036 1602
998 1148 2015
1215 1280 2427
1425 1435 2834
1691 1679 3300
477 1372 673
358 1409 862
0 1512 1104
0 1409 1439
326 1444 1748
895 1497 2091
1235 1579 2456
1488 1705 2868
1781 1902 3317
734 1811 845
668 1838 1001
485 1919 1289
0 1970 1553
0 1929 1914
490 1916 2192
1092 1952 2519
1476 2072 2927
1829 2233 3352
1037 2258 1013
1001 2276 1142
904 2320 1400
708 2391 1705
0 2357 1975
0 2366 2283
859 2395 2589
1411 2493 2955
1897 2647 3330
1363 2654 1168
1342 2665 1273
1296 2694 1491
1212 2746 1793
1016 2779 2077
0 2747 2372
503 2867 2631
1482 2976 2928
2138 3123 3219
1715 3040 1318
1705 3048 1403
1682 3068 1593
1641 3105 1871
1574 3162 2204
1379 3184 2477
1299 3248 2730
1890 3406 2918
2464 3576 3126
2090 3420 1505
2086 3427 1580
2074 3443 1754
2084 3476 1980
2115 3525 2258
2104 3565 2578
1910 3600 2917
2266 3713 3135
2661 3847 3384
1016 260 0
1015 248 365
924 398 809
823 499 1131
976 605 1564
1164 715 2011
1365 841 2454
1579 985 2872
1874 1273 3318
1026 514 3
1025 514 513
963 535 951
829 565 1258
946 642 1675
1131 744 2107
1333 884 2519
1550 1029 2930
1842 1290 3377
931 970 461
958 986 667
1023 1023 1023
871 904 1315
959 967 1707
1118 1101 2108
1303 1236 2514
1515 1385 2926
1795 1601 3381
752 1455 798
699 1491 953
571 1600 1213
569 1448 1468
815 1414 1786
1144 1470 2125
1360 1557 2520
1591 1696 2933
1862 1900 3372
959 1885 908
920 1912 1052
812 1983 1333
558 2105 1598
0 1916 1944
867 1899 2245
1287 1935 2564
1618 2067 2983
1928 2228 3400
1218 2310 1042
1193 2325 1161
1127 2363 1405
1001 2437 1731
271 2430 1981
349 2356 2320
1114 2394 2637
1556 2493 3010
2003 2646 3381
1513 2691 1165
1498 2702 1265
1461 2728 1484
1395 2775 1783
1255 2823 2103
633 2799 2371
888 2873 2671
1659 2983 2963
2241 3127 3262
1840 3069 1299
1833 3076 1383
1814 3096 1574
1779 3132 1857
1726 3186 2192
1602 3216 2490
1473 3276 2744
2018 3428 2932
2557 3583 3162
2194 3445 1492
2190 3452 1568
2192 3469 1723
2216 3502 1939
2247 3549 2227
2249 3595 2568
2137 3623 2930
2362 3728 3161
2729 3860 3410
1514 485 0
1517 475 0
1492 461 861
1409 654 1237
1339 755 1589
1419 816 2011
1617 937 2438
1836 1104 2857
2119 1388 3280
1529 583 0
1528 580 403
1519 596 963
1436 746 1325
1352 809 1675
1407 851 2089
1602 963 2504
1821 1132 2915
2104 1414 3328
1533 1024 10
1533 1023 510
1532 1023 1022
1486 1012 1491
1368 971 1860
1367 956 2267
1548 1038 2659
1766 1188 3063
2054 1470 3452
1440 1482 633
1452 1489 810
1482 1505 1133
1538 1538 1538
1399 1411 1875
1385 1390 2279
1527 1500 2659
1734 1658 3072
1991 1851 3492
1289 2009 987
1269 2033 1116
1214 2092 1377
1249 2126 1684
1249 1948 1962
1280 1865 2342
1567 1923 2681
1818 2054 3083
2085 2219 3484
1498 2391 1050
1481 2403 1167
1437 2436 1413
1364 2494 1727
1189 2560 2019
1146 2366 2369
1451 2392 2728
1790 2490 3108
2167 2637 3479
1753 2755 1134
1742 2764 1234
1717 2786 1451
1668 2827 1759
1595 2893 2109
1218 2885 2375
1340 2891 2740
1933 2994 3025
2396 3128 3345
2045 3121 1246
2039 3128 1335
2026 3146 1534
2002 3179 1821
1962 3227 2163
1946 3280 2479
1777 3325 2765
2223 3462 2966
2712 3592 3229
2388 3494 1412
2394 3501 1474
2409 3520 1622
2433 3551 1855
2463 3594 2163
2485 3645 2540
2448 3675 2909
2516 3751 3214
2845 3883 3456
2007 704 0
2008 696 0
2002 683 637
1933 664 1376
1897 912 1663
1858 989 2036
1906 1041 2471
2131 1246 2874
2406 1532 3261
2022 773 0
2021 769 0
2015 764 793
1966 772 1426
1916 979 1724
1870 1038 2096
1900 1070 2526
2125 1278 2922
2399 1560 3300
2041 1022 74
2043 1023 522
2045 1023 1022
2049 1026 1537
1962 1136 1881
1890 1155 2249
1877 1137 2664
2103 1348 3043
2379 1631 3403
2044 1535 13
2045 1535 510
2045 1535 1023
2049 1538 1536
2007 1513 2011
1903 1434 2411
1846 1349 2859
2043 1465 3258
2321 1733 3582
1974 2013 702
1979 2015 872
1994 2021 1190
2018 2031 1588
2046 2046 2046
1914 1914 2422
1862 1862 2878
2037 2010 3256
2270 2183 3635
1850 2500 1009
1842 2509 1119
1820 2533 1353
1802 2566 1676
1884 2560 2058
1850 2435 2429
1841 2383 2876
2099 2478 3253
2372 2614 3620
2063 2844 1035
2056 2852 1144
2039 2870 1379
2017 2906 1680
1977 2959 2042
1841 2996 2424
1884 2923 2811
2256 3003 3132
2571 3119 3494
2321 3198 1126
2318 3204 1221
2310 3220 1432
2296 3249 1737
2333 3307 2044
2386 3381 2405
2204 3377 2825
2489 3488 3054
2885 3605 3338
2681 3575 1176
2687 3582 1254
2701 3598 1434
2724 3625 1705
2752 3663 2051
2807 3715 2431
2806 3748 2857
2707 3786 3295
3011 3915 3525
2497 926 0
2500 922 0
2502 914 0
2489 904 1153
2406 926 1811
2403 1177 2090
2401 1281 2480
2462 1415 2919
2729 1706 3260
2512 979 0
2514 977 0
2515 972 408
2503 970 1234
2426 1006 1853
2417 1230 2134
2408 1322 2522
2460 1448 2959
2727 1734 3292
2539 1108 0
2541 1109 233
2546 1114 879
2541 1132 1431
2479 1194 1952
2452 1360 2247
2425 1427 2630
2454 1525 3060
2719 1806 3374
2553 1535 142
2555 1536 543
2559 1537 1023
2558 1537 1536
2557 1536 2045
2497 1567 2442
2440 1593 2817
2436 1656 3238
2701 1928 3519
2558 2048 32
2559 2048 510
2558 2048 1023
2557 2047 1535
2556 2046 2044
2525 2017 2528
2451 1941 2976
2398 1868 3458
2654 2095 3740
2492 2515 571
2495 2516 772
2504 2521 1125
2517 2528 1561
2535 2541 2052
2562 2562 2562
2455 2455 2981
2421 2420 3452
2627 2582 3791
2442 2964 688
2439 2970 835
2433 2986 1119
2423 3013 1485
2440 3032 1925
2521 3051 2416
2516 2983 2877
2525 2983 3352
2775 3087 3715
2658 3303 814
2667 3312 910
2690 3337 1118
2730 3378 1415
2798 3438 1747
2866 3503 2162
2867 3533 2651
2810 3507 3195
3078 3615 3502
3034 3687 630
3039 3693 781
3055 3708 1059
3087 3735 1400
3142 3776 1779
3188 3818 2244
3213 3852 2778
2958 3837 3388
3224 3954 3622
2992 1158 0
2994 1156 0
3001 1156 0
3007 1162 798
2986 1174 1624
2914 1264 2250
2935 1518 2517
2964 1692 2894
3086 1913 3271
3004 1201 0
3007 1201 0
3013 1204 0
3018 1214 923
2999 1232 1673
2926 1321 2278
2945 1563 2549
2968 1726 2923
3087 1944 3298
3032 1312 0
3034 1314 0
3039 1322 370
3042 1336 1184
3025 1363 1796
2955 1462 2349
2966 1674 2628
2978 1813 2996
3089 2023 3366
3058 1531 318
3059 1531 624
3064 1534 1047
3068 1535 1533
3062 1577 2005
3010 1695 2465
2996 1851 2762
2994 1961 3126
3088 2151 3482
3059 2043 264
3061 2044 592
3066 2046 1029
3068 2047 1533
3068 2047 2046
3074 2052 2562
3028 2091 2959
3002 2165 3317
3079 2329 3650
3058 2553 273
3063 2555 570
3069 2558 1020
3069 2558 1534
3069 2559 2046
3072 2563 2560
3048 2534 3050
2988 2456 3525
3055 2552 3877
3020 3028 0
3022 3029 271
3028 3033 889
3044 3047 1414
3065 3066 1935
3085 3084 2470
3070 3070 3070
2987 2987 3529
3058 3041 3935
3199 3519 0
3209 3528 0
3234 3550 0
3275 3586 0
3335 3636 867
3413 3697 1558
3408 3671 2488
3176 3530 3365
3295 3606 3737
3481 3860 0
3489 3866 0
3508 3881 0
3540 3905 123
3577 3934 1243
3603 3957 1952
3570 3961 2667
3446 3940 3354
3477 4000 3751
3494 1427 0
3509 1438 0
3514 1444 0
3517 1455 0
3524 1484 1255
3481 1513 2063
3423 1655 2665
3465 1927 2906
3529 2175 3240
3506 1467 0
3517 1475 0
3520 1480 0
3523 1494 0
3531 1526 1326
3493 1564 2089
3430 1702 2688
3470 1964 2926
3532 2207 3260
3529 1559 0
3530 1562 0
3532 1570 0
3540 1592 701
3547 1632 1495
3517 1678 2161
3445 1808 2741
3483 2056 2979
3540 2286 3311
3545 1709 0
3546 1714 0
3546 1723 646
3560 1752 1214
3565 1794 1752
3550 1866 2300
3472 1986 2830
3505 2216 3073
3553 2424 3401
3543 2030 679
3543 2031 873
3553 2036 1184
3572 2044 1567
3581 2048 2046
3577 2106 2502
3513 2235 2954
3528 2429 3207
3562 2610 3527
3543 2543 694
3546 2544 868
3551 2547 1193
3571 2556 1572
3582 2560 2046
3582 2561 2560
3582 2559 3070
3553 2702 3386
3566 2847 3697
3534 3046 798
3539 3049 930
3553 3057 1198
3577 3069 1556
3582 3072 2047
3581 3071 2558
3581 3070 3068
3568 3047 3569
3557 3125 3921
3686 3672 0
3691 3677 0
3709 3689 0
3722 3698 0
3730 3701 1219
3718 3688 2104
3667 3647 2874
3584 3584 3584
3553 3550 4045
3974 4095 0
3979 4095 0
3993 4095 0
4014 4095 0
4013 4095 0
3989 4095 1597
3944 4095 2520
3865 4065 3304
3770 4052 3905
3960 1716 0
3972 1727 0
3999 1755 0
4021 1790 0
4042 1841 384
4054 1907 1558
3939 1909 2516
3923 2117 3009
3976 2382 3290
3965 1747 0
3976 1758 0
4003 1786 0
4024 1823 0
4045 1872 591
4058 1941 1604
3949 1953 2528
3927 2153 3027
3979 2414 3304
3975 1826 0
3986 1837 0
4011 1864 0
4027 1896 0
4051 1951 928
4067 2027 1717
3995 2081 2512
3937 2242 3071
3987 2494 3340
3986 1956 0
3996 1967 0
4021 1997 0
4033 2031 640
4061 2093 1328
4081 2172 1904
4039 2261 2556
3951 2389 3144
4002 2634 3402
3992 2145 708
4001 2155 798
4020 2182 1008
4029 2218 1403
4064 2285 1748
4092 2378 2156
4068 2476 2672
3972 2598 3246
4021 2838 3494
3981 2508 1269
3988 2512 1337
4004 2521 1514
4022 2531 1812
4047 2544 2180
4095 2630 2457
4088 2741 2856
4001 2870 3372
4042 3092 3610
3964 3013 1385
3971 3016 1450
3988 3025 1604
4003 3034 1895
4028 3047 2241
4074 3063 2600
4094 3071 3070
4076 3201 3460
4063 3393 3755
3944 3507 1550
3949 3510 1612
3962 3518 1760
3982 3529 2003
4005 3543 2327
4034 3558 2704
4086 3582 3091
4095 3587 3587
4082 3724 3923
4095 4095 0
4095 4095 0
4095 4095 0
4095 4095 0
4095 4095 1039
4095 4095 2002
4095 4095 2741
4095 4095 3407
4095 4095 4095
