Examples/CL - Gamut shaping.3dl
#25pt 3DLUT created by 3D LUT Creator Pro (c) Oleg Sharonov
#Copyright Oleg Sharonov
0 43 86 128 171 214 256 299 341 384 427 469 512 555 597 640 682 725 768 810 853 896 938 981 1023 
0 0 0
0 10 116
10 23 228
52 58 360
103 103 490
161 161 615
222 217 729
287 278 849
362 345 990
436 412 1127
509 478 1268
582 543 1406
655 606 1545
729 669 1688
804 733 1830
880 796 1972
956 857 2116
1031 918 2256
1109 977 2397
1185 1036 2537
1263 1093 2675
1341 1148 2814
1427 1212 2960
1526 1293 3121
1629 1376 3280
0 180 61
0 195 214
0 165 264
26 198 360
94 233 489
161 264 606
233 302 723
304 349 848
379 408 987
452 468 1124
523 530 1265
593 593 1403
660 658 1540
731 722 1683
803 785 1825
877 848 1967
952 909 2110
1026 969 2250
1101 1029 2391
1177 1087 2531
1253 1144 2669
1331 1199 2808
1417 1265 2954
1516 1345 3115
1619 1427 3275
0 312 116
0 372 252
0 320 349
0 322 428
0 343 520
139 363 603
220 388 719
302 428 849
383 478 988
460 528 1124
535 584 1265
607 639 1402
678 696 1540
749 757 1683
819 819 1824
888 885 1966
959 947 2108
1030 1008 2248
1103 1068 2389
1178 1126 2528
1253 1183 2667
1329 1239 2805
1415 1305 2952
1513 1386 3113
1615 1468 3272
0 455 180
0 496 280
0 506 414
0 467 500
0 462 575
0 470 654
116 486 736
287 528 854
376 570 992
458 614 1127
538 660 1268
614 709 1404
688 758 1541
764 811 1685
837 868 1825
909 926 1967
979 985 2108
1047 1047 2248
1115 1110 2388
1186 1170 2527
1258 1228 2665
1332 1284 2803
1418 1353 2952
1515 1434 3112
1616 1515 3270
0 602 250
0 626 352
0 665 425
0 632 557
0 588 628
0 586 701
0 603 793
74 636 905
304 675 1017
445 716 1134
533 756 1274
614 797 1409
693 841 1547
771 887 1689
848 937 1829
923 988 1970
997 1041 2110
1069 1095 2249
1140 1153 2389
1209 1211 2527
1275 1273 2664
1345 1331 2802
1429 1404 2953
1524 1485 3112
1623 1568 3270
3 750 320
0 767 414
0 797 500
0 827 570
0 727 665
0 713 754
0 738 859
0 763 959
19 791 1068
297 823 1180
484 862 1296
604 900 1417
690 937 1556
773 978 1697
853 1022 1835
932 1067 1975
1009 1114 2115
1084 1163 2253
1158 1213 2392
1230 1265 2529
1301 1319 2666
1371 1375 2802
1454 1454 2956
1544 1538 3115
1639 1622 3271
68 899 389
0 913 474
0 934 562
0 973 644
0 945 696
0 865 810
0 883 928
0 901 1026
0 924 1127
0 949 1238
284 979 1350
504 1012 1456
659 1046 1577
768 1082 1708
852 1120 1845
935 1160 1984
1015 1201 2122
1093 1245 2259
1171 1289 2398
1246 1336 2533
1320 1384 2669
1393 1434 2804
1484 1510 2962
1576 1589 3119
1670 1673 3275
152 1047 464
84 1058 536
0 1074 617
0 1102 711
0 1126 766
0 1064 856
0 1027 975
0 1050 1091
0 1071 1197
0 1093 1295
0 1116 1401
295 1139 1511
521 1163 1629
689 1193 1747
834 1231 1862
933 1264 1997
1017 1301 2132
1098 1339 2268
1179 1379 2406
1257 1420 2540
1334 1463 2674
1414 1513 2814
1508 1583 2971
1603 1657 3126
1701 1735 3280
248 1194 531
192 1202 597
107 1215 673
0 1237 767
0 1272 861
0 1280 902
0 1213 1022
0 1206 1148
0 1232 1265
0 1246 1362
0 1265 1460
0 1282 1568
304 1301 1682
563 1326 1794
740 1353 1908
880 1379 2030
1006 1409 2148
1097 1443 2279
1182 1478 2417
1263 1514 2549
1343 1553 2682
1431 1605 2827
1527 1671 2981
1625 1740 3135
1726 1813 3287
339 1339 605
297 1346 663
235 1357 731
116 1375 820
0 1404 918
0 1436 995
0 1442 1046
0 1386 1185
0 1395 1319
0 1415 1426
0 1425 1530
0 1438 1630
0 1455 1733
360 1473 1842
596 1489 1959
774 1508 2078
929 1530 2188
1064 1556 2304
1179 1587 2431
1265 1619 2561
1348 1653 2692
1444 1709 2842
1543 1770 2995
1643 1835 3147
1746 1903 3296
434 1486 675
404 1494 725
362 1503 788
284 1519 871
155 1543 969
0 1579 1068
0 1604 1123
0 1600 1198
0 1556 1352
0 1580 1486
0 1596 1596
0 1602 1694
0 1614 1792
0 1619 1890
401 1628 1998
659 1641 2109
849 1656 2215
993 1679 2339
1120 1704 2463
1238 1731 2584
1352 1767 2710
1453 1822 2860
1555 1880 3011
1659 1941 3160
1764 2004 3306
537 1637 738
514 1643 783
482 1652 839
428 1665 919
341 1685 1015
209 1713 1118
0 1749 1215
0 1771 1260
0 1746 1371
0 1735 1514
0 1766 1649
0 1778 1752
0 1776 1849
0 1773 1945
0 1773 2039
493 1779 2141
725 1792 2255
895 1810 2378
1054 1829 2491
1200 1850 2598
1325 1891 2733
1446 1944 2881
1564 1999 3029
1671 2057 3176
1778 2115 3319
633 1784 810
615 1790 851
590 1797 903
547 1809 976
488 1828 1065
401 1854 1164
280 1892 1270
3 1921 1355
0 1945 1403
0 1909 1539
0 1906 1679
0 1937 1799
0 1937 1901
0 1929 1994
0 1923 2083
195 1923 2175
600 1930 2278
823 1943 2392
1004 1958 2501
1159 1981 2614
1287 2025 2759
1416 2074 2905
1545 2126 3049
1674 2179 3189
1789 2235 3334
740 1936 872
726 1941 909
706 1949 958
674 1961 1026
628 1977 1111
564 1999 1210
478 2030 1316
358 2071 1426
52 2090 1496
0 2110 1550
0 2059 1692
0 2051 1819
0 2083 1932
0 2082 2026
0 2073 2113
0 2072 2213
384 2074 2310
723 2080 2410
940 2091 2512
1095 2125 2646
1244 2166 2783
1393 2210 2918
1540 2257 3052
1663 2307 3196
1785 2359 3340
850 2087 933
838 2092 967
823 2099 1011
798 2110 1075
763 2126 1156
714 2146 1251
647 2171 1358
563 2205 1469
436 2227 1562
189 2239 1624
0 2243 1684
0 2194 1830
0 2190 1954
0 2225 2056
0 2229 2154
0 2224 2250
0 2221 2340
579 2222 2433
854 2238 2537
1052 2270 2660
1217 2308 2792
1375 2349 2924
1519 2393 3061
1646 2441 3205
1773 2490 3347
959 2234 996
950 2238 1028
937 2245 1070
916 2255 1130
888 2268 1206
851 2283 1294
803 2302 1393
744 2326 1498
673 2354 1604
540 2366 1686
356 2377 1745
0 2354 1837
0 2328 1972
0 2331 2083
0 2363 2176
0 2370 2267
0 2364 2356
401 2369 2453
734 2395 2570
972 2423 2688
1175 2455 2807
1350 2492 2933
1504 2538 3068
1680 2591 3191
1853 2648 3310
1076 2372 1046
1069 2375 1075
1058 2380 1113
1043 2387 1168
1020 2397 1240
991 2410 1325
954 2427 1421
907 2448 1527
852 2473 1635
775 2496 1738
656 2502 1818
509 2514 1867
0 2474 1975
0 2456 2096
0 2467 2201
0 2497 2288
0 2516 2379
0 2533 2491
572 2555 2601
883 2578 2711
1125 2606 2821
1362 2649 2929
1588 2702 3035
1767 2753 3153
1938 2807 3270
1188 2505 1103
1182 2508 1130
1174 2512 1165
1162 2519 1216
1145 2527 1282
1123 2539 1362
1094 2553 1454
1059 2571 1554
1015 2593 1663
969 2617 1769
889 2628 1861
776 2633 1938
647 2641 1987
0 2596 2113
0 2581 2235
0 2605 2327
0 2650 2410
0 2690 2500
449 2709 2607
823 2730 2714
1109 2764 2821
1368 2809 2927
1599 2857 3030
1814 2909 3133
2020 2965 3233
1299 2638 1165
1295 2641 1190
1288 2644 1222
1278 2650 1271
1264 2658 1334
1246 2668 1408
1225 2680 1492
1199 2695 1586
1168 2713 1688
1131 2734 1796
1086 2757 1901
1000 2759 1986
907 2761 2064
763 2763 2114
0 2722 2250
0 2728 2369
0 2767 2451
0 2812 2534
291 2861 2617
761 2890 2719
1104 2929 2821
1406 2973 2914
1671 3020 3005
1914 3071 3093
2096 3122 3203
1420 2768 1212
1416 2770 1234
1412 2773 1263
1404 2778 1307
1394 2785 1365
1380 2793 1435
1363 2804 1517
1342 2817 1610
1318 2833 1710
1288 2852 1817
1253 2874 1928
1198 2886 2028
1128 2887 2116
1035 2890 2191
744 2882 2266
257 2870 2395
0 2889 2501
302 2930 2583
642 2981 2654
985 3044 2711
1274 3102 2780
1550 3142 2872
1798 3186 2962
1997 3230 3065
2168 3278 3177
1540 2899 1269
1537 2901 1289
1533 2903 1317
1527 2908 1358
1519 2913 1412
1508 2921 1478
1495 2930 1556
1479 2942 1644
1459 2956 1741
1436 2972 1845
1410 2992 1954
1380 3014 2065
1325 3016 2155
1252 3017 2241
1161 3028 2322
828 3018 2417
506 3019 2546
692 3057 2623
992 3110 2680
1247 3168 2738
1478 3228 2797
1694 3290 2859
1899 3344 2936
2096 3387 3036
2291 3433 3135
1663 3028 1325
1661 3030 1344
1658 3032 1370
1653 3036 1409
1646 3041 1461
1638 3048 1525
1627 3056 1600
1615 3067 1684
1600 3080 1776
1583 3095 1876
1564 3112 1982
1540 3132 2094
1504 3147 2202
1445 3148 2294
1379 3158 2388
1285 3173 2464
1028 3166 2562
995 3190 2665
1224 3236 2725
1436 3287 2786
1636 3341 2849
1836 3397 2913
2039 3454 2975
2236 3512 3043
2426 3570 3118
1789 3156 1383
1787 3158 1402
1785 3161 1427
1781 3165 1463
1777 3169 1511
1770 3176 1570
1763 3183 1641
1754 3193 1722
1743 3204 1811
1730 3218 1909
1715 3233 2013
1697 3251 2123
1676 3271 2238
1633 3279 2343
1612 3289 2431
1584 3300 2517
1512 3315 2606
1331 3326 2699
1406 3359 2784
1595 3405 2848
1789 3453 2909
1987 3504 2970
2176 3554 3036
2354 3607 3111
2525 3659 3192
1917 3284 1446
1915 3286 1464
1914 3288 1488
1911 3292 1524
1906 3297 1573
1901 3303 1633
1894 3310 1700
1887 3318 1778
1879 3329 1865
1868 3340 1960
1857 3354 2062
1843 3370 2170
1852 3391 2267
1856 3411 2367
1837 3418 2460
1806 3424 2557
1784 3441 2658
1650 3453 2751
1588 3480 2847
1753 3519 2914
1922 3562 2981
2096 3606 3048
2269 3652 3118
2440 3700 3194
2595 3750 3277
2048 3410 1510
2047 3412 1527
2046 3414 1550
2043 3417 1585
2040 3421 1631
2036 3427 1689
2030 3433 1758
2023 3442 1837
2020 3452 1919
2029 3465 1995
2039 3480 2079
2050 3497 2171
2061 3516 2270
2071 3536 2376
2065 3547 2478
2045 3554 2582
2020 3566 2694
1974 3579 2809
1838 3595 2906
1912 3630 2987
2069 3667 3055
2226 3707 3126
2379 3749 3202
2519 3794 3284
2634 3842 3374
171 0 0
161 16 161
119 45 280
97 52 374
152 87 510
209 132 628
260 180 735
322 240 859
396 308 1001
467 376 1139
538 442 1280
611 506 1421
682 570 1558
756 631 1702
831 694 1844
905 757 1986
981 817 2130
1057 877 2270
1132 937 2410
1210 995 2551
1286 1051 2688
1364 1106 2826
1451 1171 2973
1550 1252 3134
1653 1335 3293
136 152 55
168 168 168
132 165 287
107 152 376
165 192 505
220 233 620
267 269 728
328 328 857
398 391 1000
465 452 1137
536 516 1277
606 577 1417
676 637 1554
749 696 1698
822 758 1839
896 819 1981
971 879 2124
1046 937 2264
1122 996 2404
1198 1053 2544
1274 1109 2682
1352 1163 2820
1439 1229 2968
1538 1309 3128
1640 1391 3287
0 337 174
0 372 264
0 339 354
0 308 408
126 330 499
198 349 612
262 372 722
337 417 857
412 468 997
482 521 1133
554 577 1274
623 634 1412
690 694 1549
757 756 1694
826 819 1834
896 880 1975
969 940 2118
1041 999 2258
1115 1058 2398
1189 1115 2537
1265 1171 2675
1341 1225 2813
1428 1293 2961
1526 1372 3122
1628 1454 3280
0 478 233
0 514 316
0 547 431
0 474 501
0 449 559
48 457 640
225 479 725
326 521 861
408 564 1001
484 607 1136
562 655 1277
633 704 1413
705 755 1550
777 808 1694
849 865 1834
918 924 1975
986 986 2117
1053 1047 2256
1123 1107 2396
1194 1166 2535
1267 1222 2672
1341 1277 2810
1428 1347 2960
1525 1426 3120
1626 1508 3278
16 619 293
0 643 383
0 684 454
0 655 577
0 579 616
0 573 686
0 599 790
189 632 899
374 673 1013
474 712 1143
558 751 1283
635 793 1417
712 837 1555
788 883 1698
862 933 1837
935 986 1977
1008 1039 2118
1078 1094 2256
1147 1152 2396
1213 1212 2534
1280 1272 2671
1351 1330 2808
1437 1402 2960
1532 1482 3119
1631 1564 3277
58 765 354
0 781 439
0 809 520
0 852 600
0 755 693
0 709 750
0 734 855
0 758 959
139 788 1067
369 822 1180
532 861 1296
627 897 1425
710 935 1564
791 975 1705
868 1019 1843
946 1064 1983
1021 1111 2122
1094 1161 2260
1167 1212 2399
1238 1264 2536
1308 1318 2672
1375 1376 2808
1458 1456 2963
1550 1538 3121
1645 1622 3277
126 912 419
58 925 497
0 945 579
0 984 662
0 978 720
0 892 835
0 880 926
0 898 1025
0 921 1130
48 946 1239
356 977 1351
551 1010 1458
694 1044 1579
787 1080 1716
869 1118 1852
950 1157 1991
1028 1199 2129
1105 1242 2265
1182 1287 2404
1255 1334 2540
1328 1383 2674
1401 1434 2811
1491 1510 2969
1582 1589 3125
1675 1675 3280
206 1058 486
145 1068 556
61 1084 632
0 1111 724
0 1147 790
0 1109 868
0 1048 994
0 1049 1093
0 1070 1198
0 1091 1296
16 1114 1402
363 1137 1514
565 1162 1632
723 1192 1750
859 1228 1866
948 1262 2003
1030 1298 2139
1110 1336 2274
1190 1376 2413
1267 1417 2546
1343 1461 2680
1423 1512 2820
1516 1583 2977
1610 1657 3132
1707 1736 3285
291 1202 552
243 1211 614
168 1223 688
48 1245 778
0 1279 871
0 1298 920
0 1236 1035
0 1220 1160
0 1231 1267
0 1245 1364
0 1263 1463
0 1280 1571
370 1299 1685
604 1324 1797
770 1351 1911
905 1377 2033
1027 1408 2151
1110 1441 2285
1194 1476 2423
1274 1513 2555
1353 1551 2688
1440 1604 2833
1536 1670 2987
1633 1739 3141
1733 1813 3292
374 1346 622
337 1354 677
282 1364 744
183 1382 831
36 1412 926
0 1450 1011
0 1458 1059
0 1403 1195
0 1401 1327
0 1414 1429
0 1423 1532
0 1436 1633
0 1453 1736
419 1470 1846
633 1486 1962
802 1505 2080
953 1528 2191
1083 1554 2308
1193 1585 2436
1276 1617 2567
1359 1651 2697
1454 1708 2848
1552 1770 3000
1652 1835 3152
1754 1903 3300
465 1494 688
437 1501 737
398 1510 798
330 1526 880
225 1550 975
55 1586 1075
0 1616 1138
0 1618 1206
0 1571 1360
0 1587 1494
0 1594 1599
0 1601 1697
0 1612 1795
16 1616 1893
455 1626 2002
693 1638 2113
875 1655 2219
1013 1677 2343
1139 1702 2467
1254 1730 2588
1363 1766 2716
1463 1821 2866
1565 1880 3016
1668 1941 3165
1772 2004 3311
