Examples/CL - Gamut shaping 2.3dl
#25pt 3DLUT created by 3D LUT Creator Pro (c) Oleg Sharonov
#Copyright Oleg Sharonov
#IMAGEPROFILE sRGB IEC61966-2.1 v.2.10
#INPUTGAMMA sRGB IEC61966-2.1 v.2.10
#OUTPUTGAMMA sRGB IEC61966-2.1 v.2.10
0 43 86 128 171 214 256 299 341 384 427 469 512 555 597 640 682 725 768 810 853 896 938 981 1023 
0 0 0
3 10 42
6 23 94
10 39 174
19 65 267
29 100 356
39 142 451
55 195 551
74 248 646
97 302 744
119 351 835
145 398 921
174 443 1004
198 485 1081
228 530 1162
255 576 1246
284 623 1330
314 668 1413
341 714 1498
369 761 1582
396 804 1661
422 847 1738
451 893 1820
481 939 1904
510 985 1988
0 171 0
0 171 174
0 171 341
0 171 433
6 198 500
13 225 563
23 257 626
32 295 700
48 336 778
65 377 859
81 419 937
103 462 1019
126 503 1094
155 545 1171
183 587 1249
212 630 1327
238 673 1406
267 716 1487
295 760 1567
324 806 1650
352 849 1730
381 894 1811
411 938 1891
440 982 1972
470 1027 2053
0 339 0
0 339 192
0 339 343
0 341 512
0 341 681
3 351 732
10 372 793
23 401 858
36 430 921
48 461 986
68 494 1052
87 527 1117
110 564 1186
136 601 1255
161 639 1328
189 678 1401
217 718 1476
248 761 1555
276 805 1637
306 847 1715
334 889 1791
363 931 1869
393 974 1947
422 1017 2026
449 1060 2105
0 512 0
0 510 217
0 510 360
0 512 516
0 512 683
0 512 852
0 514 977
6 528 1031
19 546 1084
32 568 1139
52 594 1198
68 619 1253
90 649 1313
113 681 1378
142 715 1444
171 751 1514
201 789 1587
228 828 1660
257 865 1731
287 904 1802
318 942 1874
347 982 1948
374 1022 2023
403 1063 2098
430 1104 2175
0 682 3
0 680 243
0 680 381
0 681 530
0 682 688
0 683 855
0 682 1023
0 683 1194
3 684 1263
13 694 1307
26 713 1363
45 735 1419
68 760 1478
90 786 1535
116 814 1594
145 845 1656
177 876 1719
209 907 1780
240 940 1844
269 974 1910
297 1010 1978
326 1046 2047
354 1084 2119
383 1124 2194
412 1165 2271
0 853 3
0 850 269
0 850 404
0 851 548
0 852 699
0 852 859
0 852 1025
0 853 1195
0 852 1364
0 853 1513
6 859 1557
19 871 1604
39 887 1654
61 907 1708
87 928 1760
116 953 1814
149 977 1869
180 1003 1925
214 1032 1985
245 1064 2047
276 1096 2111
306 1130 2178
336 1166 2246
365 1202 2317
394 1240 2388
0 1023 3
0 1021 293
0 1020 428
0 1021 568
0 1022 715
0 1022 869
0 1023 1030
0 1023 1197
0 1024 1366
0 1023 1535
0 1024 1707
3 1022 1799
13 1029 1843
29 1041 1889
52 1056 1937
81 1074 1987
110 1096 2041
145 1119 2096
180 1144 2151
214 1170 2208
248 1198 2266
280 1228 2327
312 1259 2390
343 1290 2451
376 1320 2511
0 1195 3
0 1192 316
0 1191 449
0 1192 590
0 1192 734
0 1192 884
0 1193 1040
0 1194 1201
0 1194 1368
0 1194 1537
0 1194 1707
0 1195 1877
0 1195 2048
6 1195 2090
19 1200 2130
42 1210 2173
68 1224 2219
100 1242 2268
136 1262 2321
174 1286 2376
212 1311 2433
250 1334 2485
287 1359 2537
320 1386 2594
352 1414 2652
0 1365 6
0 1362 336
0 1361 468
0 1361 607
0 1361 751
0 1362 899
0 1363 1053
0 1364 1210
0 1364 1372
0 1365 1539
0 1365 1708
0 1365 1877
0 1365 2048
0 1365 2219
0 1365 2342
10 1369 2383
29 1376 2426
58 1388 2471
90 1400 2515
129 1416 2561
171 1434 2610
212 1455 2660
250 1478 2713
287 1501 2766
320 1525 2820
0 1535 6
0 1533 345
0 1532 485
0 1531 626
0 1532 768
0 1533 915
0 1533 1067
0 1533 1221
0 1534 1380
0 1535 1543
0 1535 1711
0 1535 1878
0 1536 2048
0 1536 2219
0 1536 2389
0 1536 2560
3 1533 2626
19 1535 2663
42 1543 2705
74 1553 2748
113 1567 2793
155 1583 2841
198 1602 2890
240 1622 2941
280 1644 2994
32 1705 39
0 1703 351
0 1703 509
0 1702 649
0 1702 793
0 1702 943
0 1702 1095
0 1703 1246
0 1703 1406
0 1703 1568
0 1704 1724
0 1704 1895
0 1704 2069
0 1705 2228
0 1707 2389
0 1707 2560
0 1706 2730
0 1706 2881
10 1705 2917
29 1709 2955
58 1716 2995
94 1726 3038
139 1739 3082
183 1755 3129
228 1773 3178
240 1868 248
149 1868 445
90 1869 582
61 1869 709
32 1870 845
26 1870 995
29 1870 1148
36 1869 1304
13 1870 1453
6 1871 1606
23 1870 1770
16 1871 1926
3 1872 2087
13 1871 2264
10 1871 2430
3 1873 2587
0 1875 2743
0 1877 2901
0 1877 3071
3 1876 3169
16 1878 3208
42 1884 3249
78 1892 3290
123 1901 3330
171 1913 3372
422 2029 428
363 2030 578
316 2031 704
291 2031 819
262 2032 946
233 2032 1081
203 2033 1220
186 2033 1370
171 2033 1524
136 2034 1672
110 2035 1821
90 2036 1977
78 2036 2137
58 2036 2301
45 2037 2466
39 2036 2635
26 2037 2796
16 2039 2953
10 2041 3108
3 2044 3262
0 2047 3414
6 2044 3453
26 2044 3486
58 2048 3524
100 2056 3564
587 2189 593
542 2190 715
501 2191 832
478 2191 940
454 2192 1059
428 2192 1187
399 2193 1321
370 2193 1460
339 2194 1603
299 2196 1745
264 2197 1893
225 2199 2042
186 2200 2192
149 2202 2342
129 2201 2509
107 2201 2675
81 2202 2836
45 2206 2979
26 2208 3133
13 2210 3289
6 2213 3443
0 2216 3596
0 2217 3708
13 2216 3743
39 2218 3778
745 2348 751
700 2349 856
665 2351 954
634 2351 1053
605 2352 1160
579 2353 1280
551 2354 1412
522 2354 1548
493 2355 1688
462 2356 1832
408 2359 1967
354 2361 2105
318 2363 2255
287 2364 2406
245 2366 2554
195 2367 2711
168 2366 2881
136 2366 3049
90 2369 3196
55 2372 3340
29 2377 3482
10 2381 3624
3 2384 3777
0 2388 3929
3 2387 3997
902 2506 910
865 2507 1003
834 2508 1091
802 2509 1189
776 2510 1289
745 2511 1401
710 2512 1521
672 2514 1646
641 2515 1781
609 2516 1923
568 2517 2066
514 2520 2200
460 2523 2335
404 2526 2471
379 2527 2626
337 2528 2780
287 2529 2939
238 2531 3095
201 2530 3262
152 2532 3416
103 2535 3563
68 2538 3710
39 2542 3854
16 2547 3993
3 2553 4095
1061 2662 1069
1028 2663 1152
999 2664 1234
967 2665 1332
941 2666 1428
912 2667 1535
879 2669 1651
842 2670 1774
805 2672 1900
762 2674 2032
716 2676 2167
670 2678 2306
616 2681 2441
559 2684 2576
505 2687 2712
471 2689 2855
427 2690 3009
379 2690 3170
332 2691 3329
284 2692 3484
220 2696 3623
155 2701 3763
103 2704 3906
61 2709 4046
32 2714 4095
1221 2817 1229
1186 2819 1304
1157 2820 1378
1122 2821 1470
1097 2823 1562
1068 2824 1665
1036 2825 1777
1001 2826 1896
960 2828 2023
918 2830 2151
873 2832 2283
825 2834 2415
762 2839 2538
700 2843 2669
642 2846 2804
604 2848 2940
572 2849 3088
513 2852 3228
458 2854 3385
408 2854 3547
356 2854 3707
295 2857 3854
222 2862 3986
152 2868 4095
709 2867 4095
1384 2971 1394
1350 2973 1468
1325 2974 1535
1292 2975 1622
1261 2977 1710
1230 2978 1805
1194 2980 1908
1152 2982 2021
1110 2984 2142
1068 2986 2270
1025 2988 2400
978 2990 2532
923 2993 2664
858 2998 2787
789 3003 2909
730 3007 3033
705 3008 3174
672 3009 3327
611 3011 3474
543 3014 3624
477 3016 3770
425 3016 3933
369 3017 4089
795 3012 4095
1174 3005 4095
1549 3123 1562
1518 3125 1631
1495 3126 1695
1463 3128 1779
1431 3129 1868
1400 3130 1961
1364 3132 2065
1322 3134 2175
1278 3137 2291
1230 3140 2410
1180 3143 2530
1128 3145 2657
1077 3148 2792
1017 3151 2920
951 3156 3042
884 3161 3164
850 3164 3288
807 3167 3421
767 3167 3576
707 3169 3728
642 3170 3883
576 3172 4036
661 3170 4095
1269 3150 4095
1606 3138 4095
1719 3274 1731
1689 3276 1798
1666 3277 1860
1636 3278 1941
1602 3279 2033
1570 3281 2127
1533 3283 2229
1493 3285 2339
1448 3287 2453
1400 3290 2572
1349 3293 2692
1294 3296 2813
1236 3300 2936
1175 3304 3058
1108 3309 3175
1040 3314 3297
1001 3317 3418
963 3319 3547
919 3322 3684
865 3324 3827
793 3328 3965
729 3329 4095
1251 3307 4095
1648 3286 4095
1921 3272 4095
1890 3424 1905
1858 3426 1971
1833 3427 2031
1802 3429 2107
1766 3431 2193
1731 3433 2281
1692 3435 2377
1651 3437 2484
1607 3439 2597
1558 3442 2715
1506 3445 2836
1452 3448 2957
1395 3452 3079
1336 3456 3202
1271 3460 3321
1195 3467 3432
1141 3472 3541
1106 3474 3665
1068 3476 3798
1026 3478 3941
972 3480 4087
1285 3465 4095
1688 3441 4095
2067 3413 4095
2274 3400 4095
2065 3572 2083
2032 3574 2152
2008 3575 2209
1979 3577 2282
1943 3579 2369
1907 3581 2458
1868 3583 2554
1824 3586 2656
1775 3589 2764
1722 3592 2876
1666 3596 2989
1610 3599 3107
1554 3603 3229
1495 3606 3352
1430 3610 3477
1359 3616 3593
1313 3620 3703
1272 3624 3815
1227 3628 3932
1178 3631 4057
1273 3624 4095
1920 3575 4095
2249 3547 4095
2448 3531 4095
2606 3522 4095
2243 3718 2265
2212 3720 2333
2188 3721 2390
2158 3723 2464
2122 3725 2551
2085 3727 2643
2045 3729 2739
1999 3732 2844
1950 3735 2952
1897 3738 3064
1841 3742 3178
1781 3746 3292
1721 3750 3404
1654 3755 3519
1586 3760 3636
1519 3764 3761
1486 3767 3871
1449 3770 3985
1407 3773 4095
1794 3743 4095
2142 3711 4095
2482 3675 4095
2651 3659 4095
2804 3647 4095
2914 3643 4095
2427 3863 2450
2394 3865 2518
2370 3866 2576
2339 3868 2650
2303 3870 2739
2263 3872 2833
2221 3874 2932
2174 3877 3037
2124 3880 3145
2070 3883 3257
2013 3887 3369
1952 3891 3483
1888 3896 3598
1822 3901 3712
1753 3906 3825
1692 3911 3935
1661 3913 4042
1641 3916 4095
2130 3869 4095
2525 3823 4095
2725 3800 4095
2938 3775 4095
3053 3766 4095
3161 3759 4095
3220 3762 4095
129 16 3
68 32 48
39 39 132
45 55 212
55 78 289
71 113 383
90 158 477
113 203 566
136 252 656
161 299 743
189 345 830
214 391 913
240 434 994
264 478 1073
289 520 1148
314 562 1227
339 605 1306
369 652 1390
396 698 1474
423 745 1559
451 788 1638
477 831 1715
503 874 1793
530 918 1872
558 965 1957
195 183 0
171 171 171
123 171 310
103 177 381
103 201 461
107 228 537
116 262 615
129 299 694
145 339 773
161 376 845
180 414 921
201 452 995
222 489 1067
245 531 1144
269 573 1222
295 615 1301
320 659 1381
345 702 1461
370 745 1541
396 789 1621
422 830 1695
448 872 1773
475 917 1855
504 962 1937
532 1007 2019
235 356 0
171 339 171
155 341 384
145 343 537
119 345 636
107 360 703
103 384 778
103 408 842
110 436 908
123 467 977
136 499 1043
155 531 1110
177 566 1179
201 603 1250
222 641 1322
245 680 1396
271 719 1471
295 760 1548
322 804 1630
349 845 1707
376 888 1784
403 930 1862
431 972 1940
458 1015 2018
485 1058 2099
252 522 0
168 512 171
132 513 386
145 512 540
142 512 700
142 513 869
123 521 950
113 533 1008
110 552 1067
116 575 1128
129 596 1184
142 622 1242
161 652 1305
180 684 1370
203 717 1439
228 753 1509
250 791 1581
276 829 1655
302 867 1726
328 904 1797
354 943 1869
383 982 1943
409 1022 2018
434 1063 2094
461 1104 2170
245 690 0
168 682 171
126 683 394
126 683 547
139 683 704
139 684 868
142 684 1036
142 683 1189
123 686 1237
116 698 1291
123 717 1350
132 739 1409
149 765 1470
168 789 1527
186 817 1588
209 847 1651
235 878 1713
260 909 1776
284 942 1840
312 976 1906
337 1011 1973
362 1047 2043
388 1084 2114
416 1124 2190
443 1165 2267
235 859 0
168 853 171
116 854 403
116 854 558
123 854 713
136 854 872
139 853 1036
142 854 1203
145 854 1373
136 854 1489
126 862 1539
126 873 1589
136 889 1642
149 909 1697
171 931 1751
195 954 1805
217 979 1861
243 1005 1918
267 1034 1978
293 1065 2042
318 1097 2106
345 1131 2173
372 1166 2242
399 1203 2313
427 1240 2384
225 1030 0
168 1024 171
103 1025 414
100 1025 569
107 1025 723
116 1025 880
132 1025 1040
136 1024 1206
139 1025 1374
142 1025 1543
145 1024 1713
136 1023 1780
132 1031 1828
139 1043 1877
152 1058 1927
171 1077 1979
195 1098 2033
220 1122 2089
245 1146 2145
271 1171 2202
297 1199 2261
326 1229 2322
352 1260 2386
381 1291 2446
409 1321 2507
214 1199 0
165 1195 168
90 1196 425
84 1196 580
87 1196 735
97 1195 889
110 1195 1048
126 1195 1210
132 1195 1375
142 1195 1543
145 1195 1712
149 1195 1882
145 1194 2033
136 1195 2074
136 1201 2117
149 1211 2162
168 1226 2210
192 1243 2260
217 1264 2314
245 1288 2371
273 1312 2428
302 1335 2479
332 1359 2532
362 1386 2588
389 1415 2647
198 1368 0
165 1365 168
78 1367 433
71 1367 590
68 1366 745
78 1366 899
87 1366 1057
103 1366 1217
123 1365 1379
129 1366 1545
136 1365 1714
142 1366 1883
145 1365 2052
149 1365 2222
142 1365 2327
139 1369 2370
145 1378 2415
165 1389 2462
192 1402 2506
220 1417 2553
248 1436 2603
278 1456 2655
306 1479 2708
336 1502 2761
365 1526 2815
192 1539 0
161 1536 168
65 1537 442
55 1537 600
48 1537 755
55 1537 909
65 1537 1066
78 1537 1225
97 1536 1386
116 1536 1549
123 1536 1716
129 1536 1884
139 1536 2053
145 1536 2222
152 1536 2392
152 1536 2562
142 1533 2613
145 1536 2651
161 1543 2695
183 1554 2739
212 1568 2786
240 1584 2834
271 1603 2884
302 1623 2936
334 1646 2990
225 1707 45
198 1705 203
97 1706 465
78 1706 628
74 1706 783
74 1705 938
84 1705 1095
84 1705 1249
100 1705 1410
119 1704 1574
126 1705 1729
139 1705 1900
152 1704 2073
145 1706 2229
145 1707 2392
149 1707 2562
152 1707 2732
149 1706 2868
145 1705 2905
155 1709 2945
174 1717 2986
201 1727 3030
233 1740 3076
264 1756 3123
295 1774 3173
