Examples/CL - Cooler shadows.3dl
#25pt 3DLUT created by 3D LUT Creator Pro (c) Oleg Sharonov
#Copyright Oleg Sharonov
#IMAGEPROFILE 
#INPUTGAMMA 
#OUTPUTGAMMA 
0 128 256 384 512 640 768 896 1023
0 10 13
0 0 558
0 0 1100
0 0 1643
0 0 2185
107 110 2726
252 260 3262
468 475 3785
744 750 4095
0 551 74
0 570 580
0 570 1126
0 571 1673
0 583 2207
107 615 2744
267 677 3281
490 795 3797
787 999 4095
0 1076 158
0 1102 588
0 1150 1154
0 1151 1705
6 1149 2240
145 1160 2775
324 1194 3306
562 1264 3815
875 1405 4095
0 1603 203
0 1619 605
0 1668 1119
0 1730 1719
97 1739 2277
233 1734 2811
440 1754 3339
704 1802 3841
1025 1897 4095
0 2130 126
0 2146 578
0 2178 1098
36 2243 1684
189 2311 2290
404 2335 2858
623 2331 3369
919 2363 3863
1266 2430 4095
16 2657 0
23 2670 537
42 2698 1084
97 2739 1649
291 2818 2256
580 2882 2852
918 2920 3406
1221 2922 3874
1599 2966 4095
68 3178 32
81 3187 552
126 3209 1087
233 3244 1640
414 3294 2216
752 3371 2820
1167 3420 3383
1668 3466 3883
1987 3458 4095
203 3692 165
230 3698 602
295 3714 1111
412 3738 1648
596 3767 2202
908 3810 2783
1409 3860 3354
1934 3873 3839
2225 3840 4095
381 4095 354
408 4095 687
474 4095 1155
603 4095 1673
803 4095 2212
1097 4095 2762
1536 4095 3311
1883 4095 3761
2130 4095 4095
590 0 0
514 26 548
458 19 1113
468 3 1644
532 39 2178
586 132 2717
637 280 3254
745 489 3775
926 751 4095
572 554 0
545 577 586
516 542 1136
522 541 1668
564 569 2197
605 607 2735
665 668 3272
781 785 3788
980 984 4095
416 1088 209
448 1113 612
505 1156 1160
535 1150 1703
588 1149 2237
624 1161 2773
695 1195 3303
830 1267 3811
1057 1409 4095
388 1612 222
416 1629 613
484 1672 1126
572 1733 1720
624 1738 2276
666 1735 2810
764 1755 3337
935 1806 3838
1185 1901 4095
471 2140 107
492 2154 573
543 2181 1097
585 2242 1685
659 2314 2292
757 2334 2857
886 2333 3367
1106 2365 3860
1397 2434 4095
547 2665 0
552 2678 540
566 2703 1087
596 2743 1652
688 2820 2259
865 2884 2854
1115 2921 3404
1365 2924 3871
1704 2970 4095
565 3183 39
572 3192 557
594 3214 1091
641 3247 1643
740 3295 2218
979 3371 2822
1324 3421 3384
1774 3467 3881
2052 3455 4095
615 3696 186
627 3702 611
660 3717 1117
726 3740 1653
849 3768 2206
1091 3809 2784
1533 3859 3356
2004 3868 3836
2280 3838 4095
698 4095 374
713 4095 698
756 4095 1162
845 4095 1679
998 4095 2216
1244 4095 2764
1619 4095 3308
1950 4095 3759
2186 4095 4095
1168 0 0
1210 0 409
1084 29 1088
1041 78 1651
1086 81 2176
1109 161 2712
1134 312 3246
1190 517 3765
1293 771 4095
1230 520 0
1228 500 396
1095 579 1113
1062 582 1662
1101 588 2186
1118 619 2723
1145 686 3256
1205 806 3772
1317 992 4095
1164 1137 0
1151 1139 482
1143 1159 1160
1125 1131 1696
1138 1139 2223
1149 1151 2757
1184 1186 3286
1256 1259 3794
1397 1400 4095
1046 1634 174
1046 1651 629
1093 1681 1135
1161 1737 1722
1170 1736 2272
1188 1738 2808
1236 1759 3330
1336 1813 3830
1503 1912 4095
1070 2159 48
1083 2170 557
1107 2196 1102
1135 2241 1682
1200 2320 2298
1251 2334 2852
1323 2337 3363
1463 2372 3852
1676 2446 4095
1084 2685 0
1090 2694 548
1102 2715 1095
1129 2751 1659
1196 2822 2264
1322 2889 2859
1488 2923 3401
1665 2929 3864
1938 2982 4095
1089 3197 68
1095 3206 572
1111 3225 1102
1144 3254 1652
1212 3297 2224
1380 3371 2828
1647 3424 3388
2011 3470 3876
2205 3449 4095
1113 3705 240
1121 3711 635
1143 3724 1132
1186 3744 1664
1270 3770 2215
1441 3806 2788
1802 3856 3362
2167 3858 3827
2404 3832 4095
1155 4095 425
1166 4095 728
1194 4095 1183
1254 4095 1694
1361 4095 2228
1546 4095 2773
1783 4095 3293
2108 4095 3755
2318 4095 4095
1766 0 0
1798 0 222
1794 0 1028
1669 0 1624
1642 123 2178
1645 225 2713
1658 374 3240
1689 578 3755
1749 823 4095
1808 477 0
1835 416 36
1810 343 1018
1680 560 1636
1650 606 2187
1653 644 2721
1667 718 3249
1700 844 3760
1764 1030 4095
1876 1102 0
1873 1106 0
1833 1103 1013
1707 1131 1666
1669 1143 2208
1673 1161 2742
1687 1201 3266
1727 1282 3773
1806 1416 4095
1749 1715 0
1745 1717 129
1742 1726 1052
1745 1746 1744
1721 1722 2259
1725 1726 2791
1746 1748 3306
1804 1807 3805
1906 1909 4095
1678 2190 0
1674 2201 503
1675 2222 1113
1696 2254 1692
1762 2328 2307
1786 2335 2846
1825 2344 3355
1910 2384 3838
2056 2465 4095
1634 2711 29
1639 2718 566
1653 2735 1110
1680 2766 1673
1729 2814 2261
1845 2899 2868
1950 2925 3394
2069 2939 3852
2262 2995 4095
1630 3220 145
1636 3227 605
1650 3242 1124
1678 3265 1670
1733 3302 2237
1864 3372 2840
2078 3431 3395
2354 3478 3869
2438 3439 4095
1639 3719 336
1646 3723 684
1662 3733 1163
1697 3751 1688
1761 3773 2234
1888 3803 2799
2180 3852 3373
2415 3842 3814
2594 3820 4095
1659 4095 517
1668 4095 789
1690 4095 1223
1734 4095 1724
1813 4095 2251
1944 4095 2785
2073 4095 3276
2351 4095 3749
2528 4095 4095
2362 0 0
2383 0 0
2426 0 848
2311 0 1634
2231 42 2166
2188 324 2718
2190 475 3238
2205 677 3744
2237 915 4095
2393 412 0
2411 345 0
2452 29 807
2317 65 1659
2235 586 2174
2194 691 2725
2197 777 3245
2212 913 3748
2248 1102 4095
2462 1083 0
2476 1061 0
2471 1030 792
2367 1047 1632
2250 1143 2199
2211 1188 2741
2213 1237 3257
2233 1328 3758
2276 1465 4095
2472 1693 0
2465 1700 0
2444 1719 877
2394 1722 1651
2276 1723 2243
2243 1734 2770
2249 1765 3283
2277 1828 3775
2336 1934 4095
2309 2281 0
2309 2283 0
2305 2289 998
2313 2306 1676
2340 2342 2339
2318 2320 2829
2335 2337 3333
2376 2379 3807
2466 2468 4095
2237 2742 0
2237 2749 475
2234 2765 1118
2247 2791 1699
2284 2828 2278
2386 2913 2885
2442 2932 3386
2521 2959 3837
2590 2977 4095
2187 3246 267
2190 3250 664
2200 3261 1168
2226 3282 1705
2271 3312 2263
2359 3358 2842
2558 3444 3411
2737 3484 3856
2724 3424 4095
2177 3734 485
2183 3738 773
2198 3747 1222
2227 3760 1733
2279 3777 2270
2377 3799 2823
2590 3837 3383
2722 3822 3798
2836 3805 4095
2182 4095 665
2188 4095 894
2206 4095 1295
2240 4095 1777
2300 4095 2291
2362 4095 2787
2447 4095 3269
2649 4095 3740
2776 4095 4095
2944 0 0
2954 0 0
2976 0 787
2972 0 1526
2832 0 2173
2754 417 2715
2725 627 3238
2720 818 3732
2734 1052 4095
2960 403 0
2969 352 0
2986 195 772
2972 36 1532
2835 455 2185
2756 749 2723
2730 879 3243
2727 1023 3736
2742 1216 4095
3004 1081 0
3010 1067 0
3014 1043 742
2978 1043 1553
2844 1087 2217
2767 1225 2737
2743 1305 3255
2745 1406 3745
2762 1549 4095
3041 1709 0
3049 1711 0
3047 1710 741
2985 1718 1593
2889 1725 2253
2794 1768 2769
2771 1813 3276
2777 1884 3758
2800 1986 4095
2989 2289 0
2985 2295 0
2974 2310 901
2955 2339 1674
2923 2355 2303
2837 2339 2820
2818 2356 3307
2833 2405 3775
2838 2439 4095
2841 2828 0
2843 2831 312
2846 2837 1076
2851 2849 1723
2877 2877 2320
2935 2938 2933
2924 2926 3370
2964 2966 3811
2940 2941 4095
2764 3275 374
2768 3278 725
2776 3287 1217
2790 3305 1759
2818 3331 2315
2882 3371 2874
3048 3471 3444
3080 3460 3824
3032 3398 4095
2729 3751 674
2733 3754 910
2743 3759 1320
2762 3769 1811
2804 3782 2335
2879 3799 2871
2951 3794 3355
3061 3801 3782
3112 3786 4095
2708 4095 874
2713 4095 1059
2726 4095 1413
2748 4095 1857
2766 4095 2317
2798 4095 2793
2851 4095 3264
2977 4095 3729
3057 4095 4095
3486 0 0
3488 0 0
3491 0 902
3495 0 1547
3433 0 2194
3316 553 2725
3267 815 3232
3235 1023 3721
3213 1181 4095
3496 576 0
3496 572 0
3499 546 897
3500 496 1550
3435 624 2202
3319 843 2734
3270 1024 3237
3239 1192 3724
3216 1318 4095
3515 1169 0
3516 1165 0
3517 1154 888
3507 1150 1568
3436 1219 2222
3327 1303 2755
3278 1409 3249
3251 1532 3732
3223 1607 4095
3549 1763 0
3549 1761 0
3542 1759 912
3518 1767 1611
3443 1810 2260
3344 1825 2792
3293 1888 3270
3272 1980 3744
3239 2005 4095
3534 2334 0
3535 2340 16
3535 2356 1038
3505 2389 1744
3456 2401 2326
3391 2402 2857
3325 2416 3306
3304 2468 3756
3252 2426 4095
3453 2869 84
3452 2873 656
3449 2884 1237
3449 2907 1820
3451 2947 2404
3441 2982 2940
3380 2963 3368
3337 2942 3762
3279 2879 4095
3347 3343 698
3349 3345 946
3354 3351 1372
3364 3362 1879
3382 3382 2422
3423 3424 2970
3469 3471 3468
3403 3404 3779
3337 3338 4095
3278 3765 946
3280 3767 1127
3287 3771 1483
3302 3778 1941
3318 3782 2430
3319 3769 2887
3347 3766 3343
3417 3785 3773
3422 3770 4095
3219 4095 1061
3218 4095 1207
3217 4095 1506
3218 4095 1901
3224 4095 2342
3238 4095 2802
3266 4095 3263
3306 4095 3705
3363 4095 4095
3983 596 0
3981 611 514
3979 629 1099
3964 705 1683
3931 832 2252
3866 918 2786
3784 1088 3241
3733 1260 3704
3666 1204 4095
3987 883 0
3986 888 532
3984 902 1110
3965 963 1697
3933 1050 2259
3870 1126 2793
3786 1250 3246
3733 1392 3705
3667 1335 4095
3999 1341 19
3998 1344 587
3991 1359 1153
3965 1406 1735
3939 1451 2277
3877 1517 2810
3789 1580 3259
3734 1674 3709
3669 1614 4095
4011 1877 372
4005 1883 754
3989 1900 1267
3969 1921 1794
3943 1949 2317
3883 2005 2843
3796 2027 3287
3731 2044 3710
3674 1998 4095
4000 2437 782
4001 2445 1017
3993 2453 1415
3975 2464 1891
3944 2488 2397
3888 2531 2903
3805 2522 3331
3728 2469 3714
3673 2397 4095
3960 2930 987
3960 2936 1180
3959 2952 1554
3956 2985 2032
3939 3041 2558
3898 3073 3019
3813 3009 3381
3736 2932 3728
3675 2828 4095
3904 3395 1247
3902 3399 1403
3898 3408 1727
3893 3428 2162
3883 3452 2628
3853 3456 3046
3818 3450 3427
3738 3351 3733
3688 3278 4095
3803 3801 1419
3800 3798 1531
3793 3792 1775
3783 3782 2122
3772 3771 2523
3764 3764 2951
3760 3760 3367
3782 3783 3782
3727 3727 4095
3691 4095 1190
3690 4095 1316
3687 4095 1583
3683 4095 1951
3679 4095 2370
3682 4095 2821
3683 4095 3261
3679 4095 3678
3710 4095 4095
4095 1110 863
4095 1125 1059
4095 1165 1429
4095 1235 1884
4095 1339 2368
4095 1475 2855
4095 1433 3279
4095 1390 3676
4095 1076 4095
4095 1277 896
4095 1290 1087
4095 1325 1449
4095 1386 1899
4095 1478 2379
4095 1604 2864
4095 1552 3286
4095 1495 3676
4095 1209 4095
4095 1616 985
4095 1626 1161
4095 1652 1504
4095 1700 1939
4095 1776 2411
4095 1885 2890
4095 1838 3308
4095 1726 3676
4095 1487 4095
4095 2067 1151
4095 2074 1303
4095 2094 1611
4095 2132 2021
4095 2195 2479
4095 2272 2934
4095 2228 3324
4095 2061 3678
4095 1868 4095
4095 2575 1418
4095 2581 1540
4095 2597 1804
4095 2628 2177
4095 2681 2603
4095 2670 2974
4095 2612 3335
4095 2459 3682
4095 2299 4095
4095 3054 1702
4095 3063 1816
4095 3090 2069
4095 3129 2418
4095 3114 2719
4095 3093 3046
4095 3040 3372
4095 2899 3696
4095 2760 4095
4095 3435 1832
4095 3435 1911
4095 3434 2096
4095 3435 2375
4095 3442 2720
4095 3465 3102
4095 3431 3409
4095 3361 3730
4095 3235 4095
4095 3779 1801
4095 3778 1882
4095 3775 2061
4095 3770 2333
4095 3766 2669
4095 3767 3042
4095 3771 3414
4095 3776 3770
4095 3670 4095
4095 4095 1569
4095 4095 1660
4095 4095 1859
4095 4095 2153
4095 4095 2485
4095 4095 2864
4095 4095 3261
4095 4095 3668
4095 4095 4095
