Examples/CL - Cleaner colors.3dl
#25pt 3DLUT created by 3D LUT Creator Pro (c) Oleg Sharonov
#Copyright Oleg Sharonov
0 256 512 768 1023
0 0 0
36 68 952
255 492 1817
496 1025 2643
520 1595 3443
78 888 132
39 982 1020
0 1110 1935
0 1416 2759
0 1865 3560
508 1595 663
571 1661 1102
299 1913 2056
0 2127 2967
0 2419 3759
997 2214 1244
1041 2261 1482
1197 2482 1999
548 2795 3117
0 3122 4039
1471 2749 1824
1498 2789 1967
1582 2934 2336
1274 3298 3131
0 3638 4095
996 74 0
924 316 905
925 722 1751
1095 1113 2567
1218 1587 3364
973 961 165
1023 1023 1023
1020 1109 1861
1077 1397 2677
1053 1826 3477
1036 1625 727
1079 1684 1153
1056 1940 2054
919 2141 2943
477 2432 3730
1304 2232 1291
1339 2284 1523
1465 2476 2049
1139 2818 3114
768 3137 4021
1665 2763 1856
1688 2800 1998
1759 2938 2368
1675 3294 3041
0 3656 4095
1956 485 0
1917 616 840
1773 1046 1711
1765 1493 2481
1848 1850 3249
2010 1076 0
1981 1125 904
1827 1344 1778
1822 1674 2540
1911 1954 3310
1919 1849 733
1945 1887 1192
2046 2046 2046
1997 2154 2794
1906 2396 3569
1969 2325 1396
1995 2360 1624
2080 2514 2172
2055 2900 3097
1846 3173 3963
2156 2817 1933
2174 2849 2072
2226 2965 2447
2301 3287 2975
1573 3714 4095
2915 994 0
2888 1080 363
2770 1314 1694
2567 1823 2444
2494 2221 3136
2957 1333 0
2932 1391 509
2829 1562 1725
2607 1972 2495
2528 2320 3178
3069 2043 0
3050 2072 945
2976 2172 1871
2735 2382 2661
2647 2597 3327
2861 2663 1331
2879 2695 1593
2935 2805 2211
3070 3070 3070
2845 3129 3736
2834 2972 1972
2849 2998 2111
2890 3082 2499
2946 3291 3070
2692 3817 4095
3875 1533 0
3859 1590 0
3793 1763 1189
3455 1958 2521
3238 2358 2995
3911 1738 0
3894 1789 0
3828 1942 1234
3563 2117 2481
3262 2437 3026
4004 2273 0
3989 2306 0
3937 2400 1462
3769 2531 2494
3338 2666 3128
4086 2912 632
4090 2953 1153
4090 3077 2017
4000 3172 2757
3485 3041 3326
3855 3376 1349
3867 3399 1556
3903 3468 2073
3953 3607 2778
4095 4095 4095
