Examples/CL - Cleaner colors.3dl
#25pt 3DLUT created by 3D LUT Creator Pro (c) Oleg Sharonov
#Copyright Oleg Sharonov
0 43 86 128 171 214 256 299 341 384 427 469 512 555 597 640 682 725 768 810 853 896 938 981 1023 
0 0 0
0 0 161
0 0 326
0 3 489
6 13 649
19 32 800
36 68 952
58 113 1103
87 186 1245
123 255 1391
165 332 1533
212 416 1672
255 492 1817
302 578 1957
345 668 2094
388 752 2237
427 843 2372
464 939 2504
496 1025 2643
525 1118 2777
546 1216 2907
560 1308 3043
565 1400 3179
554 1498 3310
520 1595 3443
0 161 0
0 171 168
0 168 334
0 171 500
0 180 660
0 201 814
6 233 966
16 269 1118
32 316 1263
55 370 1407
84 434 1548
119 501 1692
165 570 1835
212 650 1973
255 730 2113
297 810 2254
336 899 2388
372 986 2522
404 1070 2660
430 1161 2792
449 1257 2922
460 1345 3060
458 1436 3195
436 1533 3326
383 1628 3459
0 320 0
0 324 161
0 336 337
0 339 508
0 343 669
0 354 827
0 374 980
0 399 1129
10 436 1273
23 477 1419
45 526 1565
71 583 1708
107 646 1850
145 716 1988
189 790 2128
230 865 2268
271 951 2400
306 1031 2537
336 1113 2674
360 1202 2805
376 1294 2937
383 1379 3074
372 1470 3208
337 1566 3338
260 1657 3473
0 477 6
3 478 165
6 488 330
3 497 505
0 510 681
0 517 838
0 527 995
0 545 1144
0 570 1291
0 600 1439
10 642 1581
26 691 1723
48 742 1866
78 802 2007
110 868 2147
149 939 2285
186 1015 2419
220 1091 2555
248 1169 2691
269 1257 2820
280 1341 2955
278 1425 3092
255 1515 3224
189 1609 3354
61 1695 3491
13 620 29
19 626 183
26 632 336
19 650 503
10 663 678
3 681 854
0 689 1013
0 699 1163
0 715 1313
0 739 1458
0 772 1600
0 810 1743
0 852 1886
13 907 2024
36 967 2163
61 1028 2306
87 1095 2441
110 1165 2576
132 1239 2710
145 1320 2842
145 1401 2977
129 1482 3112
74 1571 3243
0 1659 3374
0 1743 3511
39 758 71
42 765 212
48 767 351
58 782 499
42 807 675
23 824 851
6 844 1024
0 858 1186
0 868 1335
0 885 1480
0 907 1625
0 938 1766
0 977 1906
0 1026 2043
0 1076 2188
0 1130 2329
0 1192 2463
0 1256 2597
6 1322 2733
6 1394 2868
0 1471 3001
0 1549 3136
0 1636 3265
0 1718 3398
0 1799 3534
78 888 132
84 891 257
90 898 377
103 907 514
126 931 656
68 961 844
39 982 1020
16 1006 1193
0 1026 1358
0 1038 1501
0 1056 1645
0 1077 1791
0 1110 1935
0 1149 2076
0 1194 2218
0 1244 2354
0 1300 2486
0 1356 2622
0 1416 2759
0 1484 2892
0 1555 3026
0 1627 3161
0 1706 3293
0 1786 3425
0 1865 3560
132 1013 217
139 1018 314
145 1025 417
158 1034 542
177 1051 677
177 1087 827
103 1115 1013
65 1138 1188
29 1166 1361
0 1192 1534
0 1205 1678
0 1224 1821
0 1251 1964
0 1284 2108
0 1321 2250
0 1366 2382
0 1412 2517
0 1462 2653
0 1520 2786
0 1585 2918
0 1650 3051
0 1714 3189
0 1788 3321
0 1862 3454
0 1939 3588
203 1136 302
209 1138 379
217 1145 468
228 1157 578
245 1171 704
269 1194 835
222 1239 1004
155 1266 1185
97 1295 1359
52 1324 1531
10 1353 1703
0 1376 1853
0 1399 1995
0 1424 2140
0 1454 2281
0 1490 2417
0 1532 2551
0 1577 2685
0 1633 2815
0 1690 2948
0 1747 3085
0 1810 3219
0 1880 3350
0 1951 3483
0 2021 3618
276 1256 388
282 1258 452
291 1262 527
302 1272 626
316 1286 740
336 1308 865
362 1346 990
276 1391 1179
209 1420 1359
149 1446 1532
81 1482 1705
26 1518 1877
0 1545 2034
0 1567 2177
0 1594 2311
0 1625 2446
0 1661 2583
0 1700 2719
0 1748 2851
0 1799 2985
0 1852 3120
0 1915 3250
0 1981 3380
0 2046 3514
0 2110 3651
352 1370 479
358 1373 531
365 1378 595
372 1390 679
384 1404 783
404 1420 899
428 1447 1022
465 1500 1139
336 1538 1355
269 1570 1533
195 1606 1708
116 1643 1880
52 1679 2051
0 1714 2212
0 1736 2347
0 1762 2483
0 1791 2621
0 1828 2755
0 1868 2889
0 1914 3023
0 1966 3155
0 2026 3282
0 2084 3417
0 2143 3553
0 2207 3686
428 1485 570
434 1488 613
440 1491 668
449 1499 744
461 1513 836
477 1530 942
499 1552 1057
525 1591 1176
496 1652 1334
388 1695 1533
324 1723 1710
255 1757 1883
171 1796 2053
78 1837 2222
0 1878 2390
0 1900 2525
0 1928 2659
0 1961 2791
0 1998 2924
0 2037 3060
0 2083 3195
0 2136 3326
0 2191 3458
0 2247 3593
0 2310 3722
508 1595 663
512 1598 699
518 1602 747
527 1608 814
538 1622 897
552 1639 994
571 1661 1102
596 1691 1216
629 1743 1327
541 1801 1521
452 1838 1710
381 1871 1885
299 1913 2056
212 1954 2225
113 1995 2393
23 2035 2560
0 2067 2700
0 2095 2833
0 2127 2967
0 2163 3102
0 2207 3234
0 2253 3368
0 2304 3501
0 2359 3631
0 2419 3759
587 1703 758
592 1706 789
597 1711 831
605 1718 889
616 1731 964
628 1750 1052
645 1772 1153
668 1796 1261
698 1832 1372
741 1891 1474
592 1949 1702
505 1986 1885
433 2019 2059
354 2058 2229
269 2098 2397
158 2146 2564
45 2193 2731
0 2230 2879
0 2258 3013
0 2295 3143
0 2336 3274
0 2379 3407
0 2423 3544
0 2472 3674
0 2526 3804
667 1814 852
671 1816 880
676 1820 917
685 1826 969
696 1836 1037
709 1852 1118
725 1871 1210
746 1895 1311
771 1928 1417
801 1979 1522
819 2041 1641
648 2090 1881
560 2129 2061
486 2163 2233
398 2210 2402
299 2258 2570
189 2304 2736
68 2350 2902
0 2395 3057
0 2428 3188
0 2464 3321
0 2502 3455
0 2544 3588
0 2590 3718
0 2637 3851
751 1916 950
754 1919 975
758 1923 1006
766 1930 1053
777 1939 1114
788 1956 1187
802 1975 1272
820 1999 1366
844 2027 1466
874 2064 1570
917 2123 1662
832 2186 1853
705 2229 2061
616 2271 2239
535 2310 2410
446 2355 2579
351 2401 2746
243 2449 2912
107 2505 3077
0 2560 3241
0 2593 3372
0 2629 3506
0 2670 3632
0 2714 3761
0 2758 3893
832 2017 1048
835 2021 1069
840 2025 1097
846 2032 1138
856 2041 1193
868 2054 1260
881 2073 1338
898 2097 1425
919 2125 1520
945 2159 1620
982 2202 1717
1018 2265 1814
869 2326 2046
751 2377 2241
661 2419 2417
579 2456 2588
488 2502 2756
384 2556 2923
269 2611 3089
139 2665 3254
32 2721 3417
0 2761 3551
0 2798 3679
0 2836 3809
0 2876 3942
912 2120 1144
916 2123 1162
920 2127 1188
926 2133 1225
935 2141 1275
947 2151 1336
961 2167 1409
978 2188 1490
998 2213 1578
1021 2246 1673
1050 2287 1769
1092 2345 1855
1098 2412 1977
912 2465 2232
803 2511 2421
712 2554 2596
619 2600 2768
522 2651 2936
416 2704 3102
304 2757 3268
174 2813 3430
45 2874 3590
0 2921 3732
0 2958 3861
0 2996 3992
997 2214 1244
999 2217 1260
1003 2221 1283
1010 2227 1317
1018 2235 1361
1028 2246 1417
1041 2261 1482
1054 2284 1557
1071 2310 1639
1093 2340 1728
1119 2375 1821
1156 2420 1911
1197 2482 1999
1164 2544 2154
952 2607 2417
842 2656 2603
745 2702 2778
650 2746 2948
548 2795 3117
433 2849 3282
297 2908 3444
142 2968 3604
23 3028 3764
0 3082 3913
0 3122 4039
1079 2310 1342
1081 2313 1357
1085 2317 1377
1090 2323 1407
1098 2331 1448
1107 2342 1498
1119 2355 1559
1134 2373 1628
1150 2397 1705
1169 2426 1789
1193 2460 1877
1223 2500 1966
1268 2556 2045
1285 2623 2154
1147 2691 2382
990 2744 2603
877 2794 2786
774 2840 2960
667 2887 3131
547 2941 3297
409 2998 3460
250 3055 3622
65 3113 3783
0 3176 3940
0 3243 4093
1158 2407 1437
1160 2410 1451
1163 2414 1470
1169 2419 1497
1176 2427 1534
1185 2437 1581
1196 2449 1637
1211 2464 1702
1227 2483 1774
1246 2509 1852
1268 2542 1936
1294 2583 2023
1330 2633 2106
1371 2693 2190
1364 2759 2319
1159 2830 2583
1018 2878 2789
898 2929 2970
778 2980 3143
653 3030 3312
512 3081 3478
337 3137 3642
90 3197 3803
0 3262 3961
0 3329 4095
1240 2491 1536
1242 2494 1548
1245 2497 1565
1250 2503 1590
1256 2510 1624
1264 2520 1667
1275 2533 1718
1288 2550 1778
1303 2570 1846
1320 2597 1920
1339 2630 1999
1363 2669 2082
1393 2715 2165
1437 2771 2240
1460 2828 2342
1425 2891 2495
1174 2962 2778
1025 3016 2974
889 3070 3153
750 3121 3326
594 3170 3496
394 3220 3663
61 3283 3825
0 3346 3985
0 3410 4095
1318 2579 1632
1320 2582 1643
1323 2586 1659
1327 2591 1682
1333 2600 1713
1341 2610 1752
1351 2623 1800
1362 2639 1856
1376 2658 1919
1393 2680 1989
1413 2709 2063
1435 2744 2142
1462 2786 2222
1500 2838 2295
1531 2898 2379
1530 2958 2499
1445 3033 2683
1168 3098 2969
1009 3147 3162
849 3199 3342
666 3251 3514
419 3306 3683
0 3360 3850
0 3419 4014
0 3481 4095
1395 2668 1728
1397 2670 1738
1399 2674 1752
1403 2680 1773
1409 2688 1802
1415 2698 1838
1424 2711 1883
1435 2726 1935
1447 2745 1993
1462 2766 2058
1480 2791 2129
1502 2821 2203
1523 2862 2279
1551 2912 2353
1586 2971 2424
1599 3028 2524
1575 3086 2660
1360 3167 2923
1129 3226 3160
939 3279 3352
715 3337 3530
398 3392 3703
0 3446 3874
0 3500 4043
0 3556 4095
1471 2749 1824
1473 2751 1834
1475 2755 1846
1478 2760 1866
1484 2768 1892
1490 2777 1926
1498 2789 1967
1508 2803 2015
1519 2821 2069
1531 2843 2129
1545 2869 2194
1562 2899 2264
1582 2934 2336
1606 2979 2407
1638 3036 2472
1655 3093 2559
1647 3151 2673
1589 3212 2829
1274 3298 3131
1021 3358 3352
752 3410 3544
316 3464 3726
0 3518 3904
0 3575 4079
0 3638 4095
168 0 0
161 0 158
155 3 320
152 13 481
155 29 642
158 61 791
171 103 940
192 155 1091
222 217 1233
267 271 1378
310 334 1521
352 411 1659
393 484 1803
433 566 1944
475 655 2080
513 738 2223
551 828 2359
585 923 2491
617 1010 2629
645 1102 2763
667 1200 2893
684 1293 3028
693 1385 3164
688 1482 3296
666 1577 3430
165 165 0
168 168 168
165 168 332
165 168 492
171 177 651
177 192 805
192 220 957
209 257 1103
230 302 1249
255 354 1394
284 417 1535
318 484 1677
351 552 1821
386 631 1960
422 713 2098
457 792 2240
492 880 2374
523 969 2507
552 1052 2645
577 1144 2778
596 1240 2908
610 1328 3045
613 1420 3181
602 1517 3312
569 1611 3445
161 324 0
165 326 165
168 337 339
168 339 505
165 345 666
161 356 821
165 374 975
168 401 1123
180 434 1268
195 475 1413
217 525 1558
243 582 1700
271 643 1843
302 714 1981
334 787 2121
367 862 2261
398 947 2393
427 1027 2529
452 1108 2666
474 1198 2798
489 1289 2929
499 1374 3067
493 1465 3201
470 1561 3331
419 1651 3466
161 475 13
165 479 171
171 485 332
171 500 506
168 512 679
161 518 835
158 528 992
155 547 1139
155 571 1286
165 601 1434
177 643 1576
195 691 1718
217 742 1862
243 802 2002
271 868 2141
299 938 2280
326 1015 2414
352 1090 2549
374 1168 2685
391 1255 2814
403 1340 2949
404 1423 3086
389 1513 3219
347 1607 3348
267 1692 3485
171 623 36
174 626 189
180 631 339
183 651 503
177 666 679
174 683 855
161 690 1010
149 700 1160
145 716 1311
142 741 1454
142 774 1596
152 811 1739
165 855 1881
183 909 2021
203 968 2159
228 1028 2301
250 1095 2437
271 1166 2571
287 1239 2706
297 1320 2837
302 1400 2972
291 1481 3108
257 1570 3238
180 1658 3370
36 1741 3506
186 760 74
192 764 217
198 766 356
206 781 504
203 807 674
186 827 852
177 846 1025
158 859 1183
145 869 1333
132 886 1478
123 909 1622
119 940 1763
119 979 1903
123 1028 2040
136 1077 2185
149 1131 2326
161 1193 2459
171 1256 2593
180 1322 2729
183 1395 2864
168 1472 2997
136 1550 3132
65 1636 3261
0 1718 3395
0 1799 3530
217 888 142
220 893 264
228 899 383
238 908 520
255 928 662
222 963 844
201 985 1020
183 1008 1193
161 1027 1355
132 1039 1498
113 1057 1643
100 1078 1789
90 1111 1932
81 1151 2073
78 1195 2215
74 1246 2351
68 1301 2483
65 1357 2619
58 1417 2755
39 1485 2889
10 1556 3023
0 1628 3158
0 1707 3289
0 1786 3422
0 1865 3556
255 1014 225
260 1020 320
267 1026 422
278 1035 546
289 1052 681
318 1085 813
250 1116 1013
220 1141 1188
192 1168 1361
168 1194 1532
132 1206 1676
103 1226 1819
74 1253 1962
55 1285 2106
36 1323 2247
13 1368 2379
0 1414 2514
0 1463 2650
0 1522 2783
0 1586 2915
0 1651 3049
0 1715 3186
0 1788 3319
0 1863 3451
0 1939 3585
304 1136 308
308 1140 386
314 1148 472
324 1159 583
339 1170 709
358 1193 840
334 1240 1002
284 1268 1186
245 1296 1359
212 1326 1532
177 1356 1703
129 1378 1851
84 1399 1993
52 1426 2138
16 1456 2279
0 1491 2415
0 1533 2548
0 1579 2683
0 1635 2812
0 1692 2946
0 1748 3082
0 1812 3216
0 1881 3347
0 1951 3480
0 2022 3615
358 1256 394
363 1258 458
370 1264 532
379 1273 630
393 1287 744
409 1309 868
433 1346 996
372 1393 1179
322 1421 1359
280 1449 1532
235 1485 1705
192 1521 1877
139 1546 2033
81 1568 2175
19 1595 2309
0 1627 2444
0 1662 2581
0 1702 2716
0 1750 2849
0 1800 2983
0 1853 3118
0 1916 3248
0 1982 3378
0 2047 3512
0 2111 3649
420 1371 485
425 1374 536
431 1380 599
437 1392 684
449 1406 787
467 1421 903
489 1448 1026
526 1498 1142
420 1540 1355
367 1571 1534
314 1608 1708
262 1645 1880
212 1681 2051
145 1715 2210
61 1737 2345
0 1763 2481
0 1792 2620
0 1829 2753
0 1870 2888
0 1915 3021
0 1967 3153
0 2027 3280
0 2085 3415
0 2144 3551
0 2208 3683
