Examples/CL - Gamut shaping 2.3dl
#25pt 3DLUT created by 3D LUT Creator Pro (c) Oleg Sharonov
#Copyright Oleg Sharonov
#IMAGEPROFILE sRGB IEC61966-2.1 v.2.10
#INPUTGAMMA sRGB IEC61966-2.1 v.2.10
#OUTPUTGAMMA sRGB IEC61966-2.1 v.2.10
0 128 256 384 512 640 768 896 1023
0 0 0
10 39 174
39 142 451
97 302 744
174 443 1004
255 576 1246
341 714 1498
422 847 1738
510 985 1988
0 512 0
0 512 516
0 514 977
32 568 1139
90 649 1313
171 751 1514
257 865 1731
347 982 1948
430 1104 2175
0 1023 3
0 1021 568
0 1023 1030
0 1023 1535
13 1029 1843
81 1074 1987
180 1144 2151
280 1228 2327
376 1320 2511
0 1535 6
0 1531 626
0 1533 1067
0 1535 1543
0 1536 2048
0 1536 2560
42 1543 2705
155 1583 2841
280 1644 2994
422 2029 428
291 2031 819
203 2033 1220
136 2034 1672
78 2036 2137
39 2036 2635
10 2041 3108
6 2044 3453
100 2056 3564
902 2506 910
802 2509 1189
710 2512 1521
609 2516 1923
460 2523 2335
337 2528 2780
201 2530 3262
68 2538 3710
3 2553 4095
1384 2971 1394
1292 2975 1622
1194 2980 1908
1068 2986 2270
923 2993 2664
730 3007 3033
611 3011 3474
425 3016 3933
1174 3005 4095
1890 3424 1905
1802 3429 2107
1692 3435 2377
1558 3442 2715
1395 3452 3079
1195 3467 3432
1068 3476 3798
1285 3465 4095
2274 3400 4095
2427 3863 2450
2339 3868 2650
2221 3874 2932
2070 3883 3257
1888 3896 3598
1692 3911 3935
2130 3869 4095
2938 3775 4095
3220 3762 4095
383 65 13
245 129 195
195 214 528
260 334 782
322 449 1008
391 571 1236
464 697 1470
540 827 1706
616 955 1938
532 514 0
512 512 512
394 516 848
367 563 1052
383 641 1253
420 737 1459
471 842 1668
533 957 1890
604 1079 2119
632 1033 0
510 1024 512
477 1023 1074
468 1025 1563
398 1036 1780
384 1084 1949
406 1150 2121
451 1233 2306
512 1324 2492
575 1542 0
509 1536 510
443 1537 1088
467 1536 1566
470 1537 2065
465 1535 2527
422 1546 2662
434 1588 2811
478 1650 2973
730 2030 428
687 2030 691
586 2032 1235
537 2035 1681
537 2036 2143
512 2037 2637
490 2042 3107
460 2043 3409
452 2059 3533
1066 2505 911
1034 2509 1041
899 2514 1498
815 2517 1924
699 2525 2334
672 2528 2775
599 2530 3259
532 2539 3704
499 2556 4095
1484 2971 1395
1458 2975 1467
1312 2982 1868
1198 2987 2259
1061 2995 2652
902 3008 3035
862 3011 3460
735 3016 3927
1349 3004 4095
1959 3423 1903
1935 3428 1949
1784 3436 2329
1650 3443 2690
1490 3453 3069
1300 3469 3418
1206 3476 3793
1288 3473 4095
2302 3404 4095
2483 3861 2443
2461 3867 2484
2298 3875 2870
2141 3885 3223
1959 3897 3579
1763 3913 3925
2180 3871 4095
2943 3781 4095
3238 3767 4095
777 209 48
735 243 217
545 349 460
428 433 834
470 510 1045
526 615 1268
587 726 1489
659 848 1717
730 971 1947
1023 512 0
977 520 419
728 566 660
573 592 1017
586 651 1220
616 732 1421
661 828 1625
713 933 1833
776 1047 2055
1050 1028 0
1106 1027 486
1024 1024 1024
867 1009 1401
798 1011 1603
769 1050 1791
768 1115 1985
789 1198 2186
823 1287 2383
1079 1545 0
1084 1544 475
1023 1536 1023
992 1532 1628
970 1538 2098
884 1533 2387
811 1555 2568
784 1599 2741
783 1658 2914
1174 2035 412
1159 2033 684
1107 2032 1109
1003 2037 1714
1037 2033 2165
1003 2039 2641
979 2047 3107
896 2043 3308
849 2064 3458
1388 2506 899
1378 2507 1029
1325 2513 1330
1172 2521 1899
1095 2527 2348
1127 2527 2766
1071 2532 3243
1020 2543 3687
981 2559 4079
1725 2968 1378
1695 2973 1461
1648 2981 1656
1477 2989 2213
1339 3001 2623
1234 3010 3037
1266 3010 3431
1181 3016 3903
1435 3018 4095
2129 3422 1892
2103 3427 1942
2062 3436 2075
1865 3446 2618
1703 3457 3028
1532 3474 3393
1493 3476 3778
1458 3483 4095
2404 3412 4095
2605 3859 2433
2589 3864 2472
2550 3875 2571
2320 3888 3120
2132 3900 3525
1930 3919 3880
2276 3880 4095
2996 3792 4095
3279 3779 4095
1153 374 110
1088 374 295
969 443 440
797 540 692
634 633 1060
683 702 1312
732 790 1523
793 895 1744
859 1010 1971
1423 568 6
1309 584 398
1117 603 594
933 685 830
744 744 1192
766 794 1423
807 877 1635
856 973 1848
908 1074 2056
1521 1030 74
1572 1026 478
1440 1011 939
1222 1038 1150
1011 1020 1483
975 1036 1698
981 1090 1892
999 1159 2081
1030 1241 2272
1517 1544 142
1560 1545 516
1566 1536 1026
1536 1536 1536
1381 1511 1910
1276 1499 2157
1211 1507 2346
1181 1543 2531
1173 1601 2722
1609 2033 467
1639 2034 691
1635 2031 1095
1573 2037 1574
1553 2030 2172
1491 2045 2640
1401 2043 2964
1295 2047 3157
1228 2072 3340
1782 2511 891
1767 2512 1035
1764 2511 1311
1698 2522 1701
1537 2534 2344
1619 2524 2765
1555 2537 3218
1506 2553 3652
1415 2554 3925
2021 2973 1374
2009 2976 1451
2011 2977 1643
1923 2995 1929
1738 3005 2589
1622 3020 3009
1743 3007 3404
1651 3021 3851
1770 3030 4095
2367 3425 1881
2356 3428 1928
2338 3433 2062
2270 3450 2281
2027 3466 2919
1873 3479 3364
1851 3484 3726
1903 3481 4095
2506 3434 4095
2802 3858 2420
2796 3861 2455
2763 3870 2553
2701 3889 2721
2412 3908 3386
2213 3926 3811
2299 3913 4095
3039 3820 4095
3357 3799 4095
1529 546 214
1444 527 389
1359 558 516
1188 654 655
1045 728 928
857 835 1284
888 894 1558
946 981 1787
999 1071 1995
1736 706 139
1622 702 462
1482 684 628
1291 762 763
1141 827 1024
933 917 1375
961 971 1655
1004 1044 1865
1047 1127 2066
1990 1051 308
2019 1043 571
1819 1041 882
1548 1038 1036
1391 1099 1279
1140 1136 1615
1133 1154 1871
1150 1209 2064
1179 1282 2263
1980 1552 431
2013 1548 659
2068 1546 1027
1927 1519 1461
1737 1537 1666
1483 1486 1971
1415 1473 2208
1391 1495 2387
1386 1540 2564
2044 2037 580
2065 2037 772
2116 2036 1132
2082 2036 1584
2048 2048 2048
1901 2021 2416
1767 1995 2691
1688 1988 2890
1631 2001 3075
2172 2514 948
2183 2515 1062
2198 2518 1312
2197 2517 1669
2119 2537 2120
2112 2530 2698
2020 2552 3174
1927 2556 3517
1804 2550 3727
2378 2979 1377
2391 2979 1455
2379 2983 1642
2362 2991 1910
2272 3013 2276
2074 3029 2984
2206 3012 3346
2117 3033 3784
2103 3053 4095
2678 3429 1866
2673 3431 1922
2659 3435 2059
2625 3447 2252
2545 3469 2554
2281 3491 3262
2246 3497 3659
2364 3483 4025
2665 3467 4095
3062 3861 2406
3054 3864 2443
3032 3870 2538
3000 3882 2696
2898 3913 2915
2587 3935 3687
2482 3945 4089
3132 3856 4095
3457 3831 4095
1849 739 430
1757 706 543
1684 720 648
1586 759 745
1407 852 867
1296 917 1156
1094 1029 1506
1092 1092 1802
1147 1163 2019
2036 878 396
1926 856 595
1781 819 734
1674 856 840
1494 938 951
1372 995 1241
1152 1095 1581
1147 1148 1870
1196 1215 2086
2326 1132 525
2273 1145 671
2083 1121 928
1868 1083 1056
1693 1144 1151
1568 1201 1444
1307 1268 1769
1295 1298 2049
1326 1354 2259
2430 1580 684
2446 1579 834
2497 1568 1128
2264 1532 1415
2013 1507 1507
1883 1558 1770
1581 1566 2075
1542 1556 2332
1536 1586 2523
2480 2052 828
2496 2051 963
2534 2049 1235
2551 2056 1602
2418 2035 1988
2249 2042 2183
1981 1982 2482
1886 1933 2702
1836 1934 2891
2588 2524 1030
2598 2525 1144
2617 2528 1386
2636 2526 1745
2597 2541 2141
2559 2559 2559
2426 2536 2926
2280 2500 3211
2186 2482 3424
2760 2986 1412
2764 2988 1482
2773 2993 1642
2777 2998 1909
2743 3013 2250
2663 3037 2665
2668 3029 3225
2558 3057 3697
2460 3068 4046
3017 3435 1879
3023 3435 1929
3025 3441 2041
2976 3457 2243
2956 3467 2517
2856 3499 2862
2661 3516 3579
2788 3501 3904
2889 3509 4095
3369 3866 2392
3369 3868 2427
3355 3873 2521
3303 3890 2671
3259 3908 2881
3142 3946 3157
2829 3974 3951
3310 3894 4095
3580 3877 4095
2169 940 643
2071 899 724
1993 894 801
1898 912 879
1773 969 969
1629 1047 1088
1538 1102 1394
1336 1216 1729
1297 1292 2016
2329 1062 629
2224 1031 765
2073 977 870
1984 992 955
1837 1039 1039
1691 1108 1146
1597 1161 1453
1386 1271 1788
1345 1341 2076
2576 1276 732
2529 1282 828
2356 1244 1030
2168 1183 1128
2011 1218 1216
1864 1283 1315
1767 1332 1621
1514 1414 1942
1462 1461 2216
2857 1635 933
2870 1632 1039
2791 1636 1216
2559 1590 1430
2296 1532 1523
2130 1571 1590
2023 1614 1901
1730 1665 2206
1681 1681 2465
2909 2084 1084
2914 2085 1177
2931 2089 1380
2967 2091 1684
2736 2035 1940
2500 2002 2004
2390 2043 2283
2059 2031 2564
1988 1994 2800
3001 2545 1267
3008 2546 1353
3029 2544 1543
3044 2553 1821
3032 2565 2167
2914 2556 2519
2772 2559 2716
2493 2493 3001
2385 2420 3205
3163 2999 1524
3165 2999 1596
3172 3004 1763
3189 3010 2024
3166 3022 2345
3115 3045 2703
3071 3071 3071
2950 3051 3433
2806 3009 3718
3377 3447 1889
3372 3451 1938
3368 3458 2049
3387 3463 2235
3348 3480 2499
3302 3500 2833
3201 3539 3204
3204 3533 3740
3158 3558 4095
3694 3874 2393
3694 3876 2429
3680 3885 2507
3646 3902 2645
3623 3914 2865
3530 3949 3120
3442 3983 3454
3365 3979 4095
3714 3940 4095
2464 1142 860
2375 1099 918
2287 1079 972
2207 1088 1041
2114 1114 1104
1978 1177 1180
1858 1240 1315
1781 1287 1636
1589 1402 1956
2621 1258 863
2516 1216 954
2368 1155 1035
2270 1151 1099
2178 1176 1164
2033 1234 1237
1912 1294 1368
1833 1339 1690
1629 1449 2007
2842 1447 953
2803 1448 1018
2630 1395 1173
2436 1319 1251
2327 1329 1312
2165 1378 1381
2043 1428 1498
1964 1471 1820
1731 1566 2134
3154 1742 1147
3117 1744 1206
3024 1746 1331
2803 1687 1512
2567 1604 1576
2406 1625 1625
2274 1674 1735
2200 1716 2056
1929 1783 2357
3304 2147 1332
3309 2148 1402
3322 2151 1564
3286 2152 1779
3014 2081 1954
2755 2000 1997
2608 2042 2081
2523 2076 2413
2188 2091 2668
3409 2581 1523
3413 2582 1588
3414 2589 1729
3415 2600 1948
3439 2610 2238
3225 2549 2471
2997 2516 2527
2911 2545 2818
2559 2515 3069
3549 3024 1754
3550 3026 1811
3555 3029 1944
3567 3034 2158
3550 3057 2408
3531 3074 2729
3405 3074 3048
3290 3073 3247
3005 3005 3513
3753 3462 2067
3751 3464 2114
3755 3467 2238
3751 3478 2423
3734 3493 2670
3706 3510 2962
3641 3547 3269
3583 3583 3583
3472 3564 3939
4024 3890 2466
4017 3895 2494
3998 3907 2563
4005 3913 2705
3974 3933 2879
3928 3960 3095
3851 3994 3418
3733 4043 3737
3877 4014 4095
2762 1352 1085
2663 1302 1123
2581 1277 1163
2499 1273 1215
2402 1284 1267
2295 1317 1317
2167 1376 1401
2081 1430 1552
2027 1474 1867
2894 1454 1091
2800 1413 1160
2645 1340 1214
2553 1329 1267
2460 1339 1319
2345 1369 1368
2214 1421 1444
2124 1474 1595
2070 1517 1910
3096 1627 1178
3063 1626 1226
2890 1559 1336
2699 1477 1399
2588 1470 1445
2469 1500 1500
2345 1544 1563
2248 1594 1710
2187 1633 2035
3379 1890 1350
3350 1891 1393
3274 1890 1488
3056 1816 1632
2827 1716 1675
2688 1720 1717
2553 1757 1771
2449 1803 1914
2383 1836 2253
3661 2250 1579
3666 2251 1634
3635 2253 1744
3510 2243 1868
3258 2160 2017
2992 2058 2047
2851 2071 2077
2726 2112 2218
2670 2141 2542
3773 2652 1767
3774 2654 1815
3776 2659 1928
3780 2668 2110
3766 2677 2340
3483 2587 2487
3230 2497 2497
3093 2527 2598
3027 2550 2937
3920 3069 1999
3921 3071 2044
3924 3074 2154
3915 3087 2308
3894 3113 2524
3889 3132 2805
3691 3069 3014
3487 3026 3056
3429 3049 3355
4095 3488 2299
4095 3490 2337
4095 3496 2430
4095 3506 2582
4095 3526 2789
4052 3557 3020
4016 3585 3297
3895 3594 3580
3808 3588 3779
4095 3930 3513
4095 3931 3517
4095 3936 3576
4095 3950 3610
4095 3971 3675
4095 3991 3757
4095 4022 3822
4095 4058 3928
4095 4095 4095
