Examples/CL - Swap colors.3dl
#25pt 3DLUT created by 3D LUT Creator Pro (c) Oleg Sharonov
#Copyright Oleg Sharonov
#IMAGEPROFILE sRGB
#INPUTGAMMA sRGB
#OUTPUTGAMMA sRGB
0 128 256 384 512 640 768 896 1023
6 0 0
398 396 0
830 829 0
1262 1261 0
1695 1694 0
2127 2126 0
2559 2559 0
2991 2991 0
3423 3423 0
452 0 398
631 177 240
956 751 0
1342 1216 0
1752 1662 0
2170 2103 0
2593 2540 0
3018 2977 0
3445 3412 0
907 0 830
1009 0 765
1214 488 565
1524 1088 0
1885 1580 0
2272 2044 0
2674 2496 0
3084 2942 0
3500 3384 0
1357 0 1262
1423 0 1223
1571 0 1116
1797 798 889
2098 1419 287
2441 1934 0
2811 2414 0
3197 2878 0
3596 3331 0
1802 0 1694
1850 0 1667
1962 0 1596
2134 0 1457
2376 1120 1213
2670 1752 727
3003 2283 0
3359 2778 0
3735 3250 0
2242 0 2127
2278 0 2106
2365 0 2053
2510 0 1955
2701 377 1793
2948 1457 1536
3243 2084 1095
3565 2633 0
3915 3134 0
2675 0 2559
2703 0 2543
2774 0 2501
2892 0 2426
3060 0 2305
3264 904 2126
3520 1793 1861
3809 2429 1444
4095 2977 526
3102 0 2991
3125 0 2978
3183 0 2944
3282 0 2883
3427 0 2788
3610 0 2650
3827 1326 2456
4085 2145 2184
4095 2769 1784
3523 0 3423
3542 0 3412
3590 0 3385
3678 0 3334
3802 0 3255
3963 0 3144
4095 0 2991
4095 1734 2786
4095 2490 2508
0 339 398
291 582 240
778 933 0
1230 1330 0
1672 1742 0
2110 2163 0
2545 2588 0
2979 3016 0
3413 3445 0
280 195 605
527 496 512
894 884 116
1302 1297 0
1722 1719 0
2148 2146 0
2575 2574 0
3004 3004 0
3434 3434 0
851 0 944
960 0 889
1177 663 727
1496 1173 243
1862 1637 0
2254 2085 0
2659 2528 0
3072 2968 0
3490 3406 0
1322 0 1336
1390 0 1300
1545 0 1201
1774 914 996
2078 1482 537
2424 1979 0
2797 2448 0
3186 2905 0
3586 3354 0
1778 0 1747
1826 0 1721
1941 0 1652
2117 42 1520
2360 1202 1290
2656 1802 857
2990 2319 0
3348 2806 0
3725 3273 0
2223 0 2166
2260 0 2147
2347 0 2095
2494 0 1999
2687 588 1842
2935 1519 1596
3232 2125 1182
3554 2664 0
3906 3158 0
2660 0 2590
2688 0 2575
2759 0 2534
2878 0 2459
3047 0 2341
3253 1008 2166
3510 1842 1907
3800 2463 1508
4095 3003 697
3089 0 3017
3112 0 3004
3170 0 2971
3270 0 2910
3416 0 2816
3599 0 2680
3817 1396 2490
4076 2185 2223
4095 2798 1834
3512 0 3445
3531 0 3434
3579 0 3407
3667 0 3356
3792 0 3278
3954 0 3168
4095 312 3017
4095 1786 2814
4095 2523 2541
0 751 830
0 880 765
630 1152 565
1142 1486 0
1610 1861 0
2063 2256 0
2507 2664 0
2947 3079 0
3385 3499 0
0 678 944
345 819 889
782 1106 727
1227 1453 243
1667 1836 0
2104 2237 0
2540 2648 0
2973 3067 0
3407 3488 0
615 510 1183
765 688 1141
1043 1004 1024
1398 1382 765
1790 1782 0
2199 2194 0
2616 2613 0
3037 3036 0
3462 3462 0
1224 0 1505
1299 0 1474
1468 582 1390
1710 1156 1223
2026 1632 904
2381 2087 0
2761 2532 0
3155 2973 0
3560 3410 0
1713 0 1873
1763 0 1849
1882 0 1786
2070 684 1667
2316 1386 1466
2617 1923 1117
2958 2408 129
3319 2877 0
3701 3331 0
2173 0 2264
2210 0 2245
2300 0 2197
2452 0 2106
2651 927 1960
2902 1664 1735
3202 2223 1374
3528 2739 620
3882 3219 0
2619 0 2669
2648 0 2654
2720 0 2614
2842 0 2543
3015 0 2430
3224 1230 2263
3483 1961 2021
3776 2546 1656
4095 3068 1004
3055 0 3082
3079 0 3069
3138 0 3037
3239 0 2978
3386 0 2887
3573 0 2755
3793 1559 2572
4054 2283 2317
4095 2869 1952
3483 0 3500
3502 0 3489
3551 0 3462
3640 0 3413
3766 0 3337
3929 0 3229
4095 789 3081
4095 1910 2885
4095 2604 2621
0 1165 1262
0 1249 1223
257 1439 1116
967 1723 889
1494 2050 287
1974 2411 0
2437 2792 0
2889 3188 0
3336 3592 0
0 1122 1336
0 1208 1300
528 1403 1201
1068 1695 996
1556 2028 537
2018 2393 0
2471 2777 0
2916 3176 0
3359 3582 0
293 1009 1505
537 1105 1474
896 1315 1390
1282 1624 1223
1699 1972 904
2125 2348 0
2554 2741 0
2984 3145 0
3415 3555 0
944 829 1760
1044 946 1734
1258 1187 1666
1555 1515 1536
1905 1887 1309
2287 2278 887
2686 2681 0
3095 3093 0
3511 3510 0
1579 0 2074
1634 0 2053
1765 660 1998
1971 1180 1896
2232 1663 1727
2545 2119 1456
2897 2558 971
3267 2998 0
3656 3432 0
2077 0 2426
2117 0 2408
2212 0 2364
2371 523 2282
2585 1315 2152
2841 1891 1954
3147 2390 1653
3480 2867 1144
3840 3324 0
2544 0 2802
2574 0 2787
2649 0 2751
2775 0 2684
2954 606 2579
3170 1540 2425
3433 2153 2206
3732 2687 1886
4061 3181 1376
2994 0 3193
3018 0 3181
3078 0 3150
3182 0 3094
3333 0 3007
3524 881 2883
3748 1808 2711
4013 2445 2475
4095 2992 2144
3429 0 3594
3449 0 3584
3499 0 3558
3590 0 3510
3720 0 3437
3885 0 3333
4085 1239 3192
4095 2108 3005
4095 2742 2757
0 1584 1694
0 1643 1667
0 1783 1596
611 2014 1457
1296 2298 1213
1832 2621 727
2327 2971 0
2799 3342 0
3260 3726 0
0 1554 1747
0 1614 1721
0 1757 1652
772 1990 1520
1369 2279 1290
1881 2605 857
2363 2958 0
2827 3331 0
3284 3716 0
0 1477 1873
0 1541 1849
505 1691 1786
1066 1928 1667
1537 2229 1466
1997 2565 1117
2452 2923 129
2897 3302 0
3342 3691 0
667 1339 2074
805 1410 2053
1071 1574 1998
1413 1825 1896
1784 2142 1727
2182 2493 1456
2598 2862 971
3016 3250 0
3442 3646 0
1266 1156 2337
1339 1239 2319
1505 1425 2272
1756 1698 2186
2065 2030 2048
2412 2397 1835
2788 2779 1505
3179 3176 894
3582 3581 0
1913 139 2646
1957 471 2630
2063 879 2591
2236 1307 2519
2469 1740 2404
2741 2185 2235
3060 2617 1988
3405 3049 1614
3774 3476 924
2422 0 2987
2454 0 2974
2534 0 2940
2668 591 2879
2857 1332 2784
3089 1894 2645
3357 2407 2451
3663 2883 2178
4000 3341 1776
2895 0 3351
2920 0 3340
2983 0 3311
3093 0 3258
3250 409 3178
3448 1463 3062
3679 2117 2904
3950 2666 2690
4095 3164 2398
3346 0 3731
3366 0 3721
3420 0 3696
3514 0 3651
3647 0 3581
3816 573 3483
4024 1683 3351
4095 2369 3175
4095 2935 2946
0 2009 2127
0 2053 2106
0 2163 2053
0 2342 1955
946 2590 1793
1610 2880 1536
2166 3196 1095
2667 3541 0
3153 3900 0
0 1988 2166
0 2032 2147
0 2143 2095
0 2323 1999
1049 2574 1842
1667 2866 1596
2205 3183 1182
2697 3531 0
3177 3891 0
0 1932 2264
0 1979 2245
0 2093 2197
588 2277 2106
1269 2532 1960
1801 2830 1735
2301 3152 1374
2772 3504 620
3238 3867 0
0 1832 2426
0 1881 2408
602 2001 2364
1119 2195 2282
1576 2454 2152
2012 2764 1954
2459 3097 1653
2898 3456 1144
3343 3825 0
992 1677 2646
1086 1732 2630
1289 1863 2591
1577 2072 2519
1918 2343 2404
2280 2667 2235
2672 3014 1988
3075 3382 1614
3491 3761 924
1583 1489 2914
1639 1551 2900
1772 1697 2866
1982 1925 2802
2255 2214 2703
2571 2548 2559
2919 2908 2356
3290 3286 2067
3677 3675 1629
2234 800 3219
2270 924 3208
2358 1178 3177
2506 1513 3122
2710 1890 3036
2961 2292 2914
3245 2712 2744
3565 3130 2512
3913 3546 2189
2750 0 3553
2776 0 3543
2844 0 3516
2963 842 3468
3129 1450 3393
3338 1972 3288
3582 2465 3144
3862 2935 2953
4095 3383 2698
3227 0 3908
3250 0 3898
3306 0 3875
3404 0 3833
3542 530 3768
3718 1502 3676
3936 2126 3553
4095 2677 3391
4095 3175 3182
0 2441 2559
0 2476 2543
0 2563 2501
0 2710 2426
0 2914 2305
1251 3175 2126
1924 3462 1861
2483 3779 1444
3005 4095 526
0 2424 2590
0 2460 2575
0 2548 2534
0 2696 2459
220 2901 2341
1327 3163 2166
1969 3451 1907
2516 3769 1508
3031 4095 697
0 2382 2669
0 2419 2654
0 2508 2614
0 2659 2543
757 2866 2430
1498 3131 2263
2078 3424 2021
2597 3745 1656
3094 4083 1004
0 2306 2802
0 2344 2787
0 2437 2751
377 2593 2684
1214 2805 2579
1755 3074 2425
2256 3374 2206
2734 3700 1886
3204 4044 1376
0 2189 2987
332 2229 2974
784 2327 2940
1217 2491 2879
1649 2712 2784
2073 2985 2645
2493 3299 2451
2924 3633 2178
3360 3984 1776
1300 2021 3219
1369 2065 3208
1528 2173 3177
1771 2348 3122
2074 2583 3036
2414 2868 2914
2774 3194 2744
3158 3541 2512
3560 3901 2189
1895 1825 3491
1940 1875 3480
2049 1993 3453
2229 2182 3404
2469 2433 3328
2755 2732 3219
3076 3066 3071
3425 3422 2874
3795 3793 2608
2541 1263 3794
2571 1341 3785
2648 1514 3760
2778 1773 3716
2960 2094 3648
3183 2458 3553
3449 2841 3424
3744 3242 3254
4072 3642 3032
3064 0 4095
3088 0 4095
3148 677 4091
3250 1192 4052
3397 1665 3992
3587 2124 3907
3815 2573 3794
4078 3016 3647
4095 3454 3458
0 2879 2991
0 2908 2978
0 2980 2944
0 3103 2883
0 3275 2788
454 3497 2650
1550 3762 2456
2222 4051 2184
2802 4095 1784
0 2866 3017
0 2895 3004
0 2967 2971
0 3091 2910
0 3264 2816
644 3486 2680
1608 3752 2490
2260 4042 2223
2830 4095 1834
0 2832 3082
0 2862 3069
0 2935 3037
0 3060 2978
0 3235 2887
966 3459 2755
1745 3728 2572
2351 4021 2317
2900 4095 1952
0 2772 3193
0 2803 3181
0 2878 3150
0 3006 3094
201 3184 3007
1345 3412 2883
1960 3684 2711
2504 3981 2475
3019 4095 2144
0 2680 3351
0 2712 3340
0 2791 3311
245 2922 3258
1177 3106 3178
1745 3339 3062
2236 3618 2904
2713 3921 2690
3187 4095 2398
553 2551 3553
709 2585 3543
998 2668 3516
1364 2804 3468
1753 2996 3393
2153 3238 3288
2557 3524 3144
2971 3837 2953
3400 4095 2698
1590 2375 3794
1645 2411 3785
1777 2498 3760
1985 2645 3716
2254 2850 3648
2561 3106 3553
2904 3399 3424
3265 3724 3254
3651 4064 3032
2205 2163 4068
2243 2203 4059
2335 2300 4037
2489 2460 3997
2700 2679 3936
2959 2947 3849
3257 3250 3734
3584 3582 3583
3934 3934 3389
2840 1683 4095
2867 1738 4095
2933 1870 4095
3046 2079 4095
3208 2351 4095
3413 2668 4095
3659 3016 4068
3941 3381 3934
4095 3763 3764
0 3323 3423
0 3347 3412
0 3409 3385
0 3510 3334
0 3659 3255
0 3852 3144
815 4090 2991
1832 4095 2786
2526 4095 2508
0 3312 3445
0 3337 3434
0 3399 3407
0 3500 3356
0 3649 3278
0 3843 3168
931 4082 3017
1879 4095 2814
2558 4095 2541
0 3286 3500
0 3311 3489
0 3373 3462
0 3475 3413
0 3625 3337
0 3820 3229
1174 4059 3081
1993 4095 2885
2637 4095 2621
0 3238 3594
0 3263 3584
0 3325 3558
0 3430 3510
0 3582 3437
155 3780 3333
1497 4020 3192
2179 4095 3005
2771 4095 2757
0 3164 3731
0 3190 3721
0 3253 3696
0 3361 3651
0 3515 3581
1162 3719 3483
1862 3960 3351
2426 4095 3175
2956 4095 2946
0 3060 3908
0 3086 3898
0 3151 3875
273 3263 3833
1180 3425 3768
1742 3634 3676
2248 3878 3553
2718 4095 3391
3189 4095 3182
920 2918 4095
1020 2946 4095
1232 3016 4091
1530 3135 4052
1876 3304 3992
2250 3519 3907
2642 3773 3794
3047 4058 3647
3461 4095 3458
1874 2732 4095
1919 2762 4095
2027 2837 4095
2205 2965 4095
2442 3144 4095
2727 3370 4095
3047 3634 4068
3397 3928 3934
3765 4095 3764
2516 2500 4095
2548 2533 4095
2628 2614 4095
2762 2751 4095
2949 2942 4095
3184 3180 4095
3458 3457 4095
3764 3764 4095
4095 4095 4095
