Examples/CL - Cleaner colors.3dl
#25pt 3DLUT created by 3D LUT Creator Pro (c) Oleg Sharonov
#Copyright Oleg Sharonov
0 128 256 384 512 640 768 896 1023
0 0 0
0 3 489
36 68 952
123 255 1391
255 492 1817
388 752 2237
496 1025 2643
560 1308 3043
520 1595 3443
0 477 6
3 497 505
0 527 995
0 600 1439
48 742 1866
149 939 2285
248 1169 2691
278 1425 3092
61 1695 3491
78 888 132
103 907 514
39 982 1020
0 1038 1501
0 1110 1935
0 1244 2354
0 1416 2759
0 1627 3161
0 1865 3560
276 1256 388
302 1272 626
362 1346 990
149 1446 1532
0 1545 2034
0 1625 2446
0 1748 2851
0 1915 3250
0 2110 3651
508 1595 663
527 1608 814
571 1661 1102
541 1801 1521
299 1913 2056
23 2035 2560
0 2127 2967
0 2253 3368
0 2419 3759
751 1916 950
766 1930 1053
802 1975 1272
874 2064 1570
705 2229 2061
446 2355 2579
107 2505 3077
0 2629 3506
0 2758 3893
997 2214 1244
1010 2227 1317
1041 2261 1482
1093 2340 1728
1197 2482 1999
842 2656 2603
548 2795 3117
142 2968 3604
0 3122 4039
1240 2491 1536
1250 2503 1590
1275 2533 1718
1320 2597 1920
1393 2715 2165
1425 2891 2495
889 3070 3153
394 3220 3663
0 3410 4095
1471 2749 1824
1478 2760 1866
1498 2789 1967
1531 2843 2129
1582 2934 2336
1655 3093 2559
1274 3298 3131
316 3464 3726
0 3638 4095
503 3 0
481 39 475
467 174 928
485 369 1361
565 559 1784
696 763 2203
800 1015 2607
872 1288 3006
877 1565 3408
492 490 16
512 512 512
506 522 967
528 588 1406
578 724 1831
646 915 2249
711 1142 2654
752 1396 3054
713 1664 3453
496 894 168
510 913 531
517 992 1020
486 1043 1489
467 1117 1921
465 1250 2339
465 1420 2744
428 1631 3145
177 1864 3545
564 1260 416
580 1279 644
619 1344 1011
551 1458 1533
492 1550 2027
406 1631 2437
306 1754 2841
58 1920 3239
0 2114 3640
699 1599 685
713 1618 831
751 1666 1118
777 1803 1506
616 1921 2056
514 2045 2559
312 2131 2961
0 2258 3361
0 2423 3751
884 1921 968
898 1935 1069
929 1982 1286
992 2066 1585
883 2235 2058
699 2362 2578
545 2513 3077
171 2634 3499
0 2762 3887
1094 2219 1258
1106 2231 1330
1133 2268 1495
1183 2343 1741
1282 2481 2010
992 2662 2601
766 2801 3116
557 2975 3603
0 3126 4034
1312 2495 1547
1322 2506 1601
1346 2537 1729
1389 2601 1930
1458 2716 2178
1506 2892 2492
1029 3074 3152
662 3226 3662
183 3415 4095
1528 2753 1834
1536 2764 1875
1554 2792 1976
1586 2846 2138
1634 2935 2345
1708 3093 2566
1381 3300 3118
597 3467 3725
0 3643 4095
996 74 0
980 123 464
924 316 905
910 514 1331
925 722 1751
982 929 2164
1095 1113 2567
1185 1336 2966
1218 1587 3364
1018 521 0
1003 532 482
947 591 933
932 707 1353
952 853 1773
1019 1011 2187
1120 1180 2590
1190 1399 2989
1208 1644 3389
973 961 165
984 974 546
1023 1023 1023
1006 1035 1444
1020 1109 1861
1048 1229 2276
1077 1397 2677
1094 1603 3076
1053 1826 3477
973 1287 465
987 1308 681
1017 1355 1047
1027 1486 1535
1001 1562 2004
959 1642 2412
923 1767 2813
864 1930 3210
706 2118 3611
1036 1625 727
1048 1641 870
1079 1684 1153
1138 1794 1506
1056 1940 2054
1010 2057 2541
919 2141 2943
795 2270 3341
477 2432 3730
1151 1941 1006
1163 1959 1103
1191 1997 1318
1242 2073 1619
1219 2249 2044
1099 2379 2577
1031 2534 3075
868 2646 3482
458 2771 3873
1304 2232 1291
1315 2245 1362
1339 2284 1523
1383 2352 1769
1465 2476 2049
1290 2676 2595
1139 2818 3114
1035 2993 3600
768 3137 4021
1481 2505 1575
1490 2517 1629
1512 2549 1756
1551 2612 1956
1612 2718 2207
1683 2896 2494
1313 3084 3147
1068 3241 3658
888 3430 4095
1665 2763 1856
1671 2773 1898
1688 2800 1998
1716 2853 2159
1759 2938 2368
1832 3092 2585
1675 3294 3041
1003 3476 3719
0 3656 4095
1480 260 0
1467 304 391
1418 414 921
1355 663 1317
1342 887 1721
1354 1102 2126
1396 1311 2523
1485 1489 2915
1549 1677 3310
1499 579 0
1487 600 416
1444 660 931
1373 819 1339
1361 999 1741
1372 1185 2142
1419 1368 2541
1510 1528 2936
1559 1721 3328
1532 1016 16
1528 1027 496
1498 1049 975
1420 1120 1396
1409 1234 1796
1426 1360 2195
1489 1490 2587
1557 1643 2984
1572 1829 3381
1443 1407 446
1454 1421 681
1480 1456 1067
1538 1538 1538
1513 1558 1930
1512 1631 2327
1518 1748 2724
1515 1901 3120
1459 2084 3507
1447 1679 783
1458 1694 920
1484 1731 1198
1527 1814 1563
1536 1975 2050
1504 2076 2504
1447 2163 2904
1379 2288 3300
1232 2442 3688
1509 1985 1060
1519 1996 1156
1542 2027 1368
1583 2096 1667
1655 2250 1995
1558 2413 2573
1530 2566 3063
1408 2666 3450
1201 2785 3843
1607 2267 1339
1616 2280 1408
1638 2313 1568
1676 2369 1814
1737 2483 2110
1687 2694 2577
1581 2852 3108
1535 3025 3593
1334 3152 3998
1737 2531 1620
1745 2542 1673
1765 2573 1798
1799 2631 1998
1853 2724 2253
1934 2902 2516
1693 3101 3135
1528 3267 3651
1446 3457 4095
1879 2782 1892
1885 2793 1933
1900 2819 2031
1925 2867 2192
1961 2948 2404
2023 3089 2627
1988 3287 2989
1451 3493 3708
896 3679 4095
1956 485 0
1947 521 195
1917 616 840
1802 751 1386
1773 1046 1711
1760 1274 2095
1765 1493 2481
1793 1697 2866
1848 1850 3249
1971 702 0
1962 728 235
1934 795 854
1830 882 1405
1786 1142 1727
1775 1345 2111
1781 1547 2498
1811 1736 2884
1868 1879 3265
2010 1076 0
2002 1090 347
1981 1125 904
1921 1186 1407
1827 1344 1778
1811 1510 2151
1822 1674 2540
1858 1832 2926
1911 1954 3310
2036 1490 209
2041 1504 568
2049 1539 1023
2003 1575 1470
1901 1647 1871
1886 1758 2238
1903 1873 2618
1955 1974 3005
1961 2103 3389
1919 1849 733
1926 1860 888
1945 1887 1192
1978 1938 1585
2046 2046 2046
2010 2073 2412
1997 2154 2794
1975 2266 3179
1906 2396 3569
1913 2063 1114
1921 2075 1206
1942 2105 1413
1977 2158 1716
2032 2264 2073
2045 2474 2566
2014 2593 3019
1921 2688 3398
1769 2802 3784
1969 2325 1396
1976 2335 1464
1995 2360 1624
2030 2420 1867
2080 2514 2172
2159 2699 2497
2055 2900 3097
2045 3073 3580
1846 3173 3963
2057 2578 1674
2064 2589 1726
2081 2616 1850
2112 2665 2050
2156 2748 2306
2222 2900 2585
2128 3128 3106
2010 3306 3639
1995 3504 4095
2156 2817 1933
2162 2826 1973
2174 2849 2072
2196 2891 2233
2226 2965 2447
2269 3091 2692
2301 3287 2975
1921 3522 3684
1573 3714 4095
2441 735 0
2434 765 0
2409 842 696
2354 961 1273
2203 1148 1775
2176 1436 2085
2160 1670 2448
2155 1880 2823
2148 2055 3192
2457 885 0
2448 912 0
2422 977 713
2370 1074 1283
2214 1222 1802
2187 1499 2099
2174 1717 2465
2168 1919 2836
2161 2084 3207
2489 1183 0
2481 1199 0
2460 1238 778
2414 1308 1320
2257 1399 1857
2222 1642 2143
2206 1836 2501
2201 2013 2872
2197 2153 3245
2540 1567 0
2533 1576 343
2514 1600 899
2478 1645 1393
2391 1713 1875
2284 1869 2222
2265 2027 2570
2262 2166 2937
2267 2265 3311
2530 1931 500
2534 1945 720
2543 1980 1092
2556 2041 1538
2507 2087 1970
2378 2171 2342
2362 2277 2684
2368 2364 3045
2365 2429 3419
2387 2264 1039
2394 2274 1145
2409 2298 1377
2436 2343 1708
2481 2426 2101
2562 2562 2562
2507 2591 2899
2463 2664 3265
2366 2750 3641
2365 2443 1434
2372 2453 1501
2390 2478 1661
2421 2522 1910
2466 2591 2225
2533 2727 2578
2549 2963 3082
2505 3104 3519
2338 3188 3905
2418 2656 1726
2424 2666 1776
2440 2689 1898
2466 2732 2096
2504 2806 2356
2557 2920 2658
2623 3144 2990
2507 3361 3619
2554 3577 4095
2479 2871 1970
2484 2878 2011
2495 2898 2108
2514 2939 2269
2540 3008 2486
2572 3111 2745
2622 3288 3000
2405 3549 3636
2144 3757 4095
2915 994 0
2908 1017 0
2888 1080 363
2849 1185 1121
2770 1314 1694
2592 1543 2153
2567 1823 2444
2534 2049 2778
2494 2221 3136
2927 1101 0
2920 1122 0
2900 1180 396
2861 1276 1132
2786 1393 1700
2602 1594 2174
2579 1866 2459
2545 2084 2792
2504 2250 3148
2957 1333 0
2950 1349 0
2932 1391 509
2896 1465 1179
2829 1562 1725
2629 1718 2225
2607 1972 2495
2573 2168 2827
2528 2320 3178
3003 1666 0
2996 1677 0
2980 1707 670
2950 1756 1261
2891 1834 1772
2697 1921 2304
2655 2147 2557
2623 2312 2888
2572 2439 3232
3069 2043 0
3064 2052 468
3050 2072 945
3022 2113 1408
2976 2172 1871
2872 2237 2346
2735 2382 2661
2699 2514 2980
2647 2597 3327
3030 2370 759
3034 2382 912
3043 2413 1214
3056 2467 1609
3071 2548 2057
3012 2611 2462
2854 2679 2813
2813 2762 3119
2771 2782 3466
2861 2663 1331
2866 2672 1411
2879 2695 1593
2902 2739 1866
2935 2805 2211
2980 2902 2609
3070 3070 3070
2980 3087 3377
2845 3129 3736
2795 2811 1732
2802 2819 1784
2817 2838 1909
2843 2872 2112
2881 2926 2382
2932 3013 2702
3000 3162 3051
3027 3446 3591
2971 3609 4038
2834 2972 1972
2839 2980 2012
2849 2998 2111
2867 3031 2275
2890 3082 2499
2916 3158 2770
2946 3291 3070
2942 3547 3443
2692 3817 4095
3392 1259 0
3386 1278 0
3372 1326 0
3340 1420 844
3285 1541 1511
3158 1671 2102
2967 1907 2510
2927 2168 2762
2858 2344 3070
3403 1337 0
3397 1355 0
3382 1403 0
3351 1491 860
3296 1605 1519
3177 1728 2102
2977 1943 2528
2936 2200 2773
2866 2370 3081
3430 1519 0
3423 1538 0
3408 1582 0
3379 1653 914
3329 1749 1550
3223 1859 2112
3000 2034 2569
2958 2280 2803
2886 2434 3110
3473 1799 0
3468 1812 0
3455 1843 0
3430 1896 1038
3384 1976 1619
3290 2075 2140
3047 2190 2637
3000 2413 2859
2921 2545 3159
3534 2143 0
3529 2153 0
3517 2176 595
3496 2215 1217
3455 2276 1729
3380 2353 2211
3135 2414 2730
3066 2599 2946
2974 2700 3237
3578 2491 420
3579 2504 669
3583 2536 1062
3573 2580 1489
3538 2627 1913
3483 2684 2346
3343 2740 2783
3159 2839 3069
3048 2900 3347
3534 2777 1011
3537 2787 1124
3543 2814 1368
3553 2861 1711
3566 2935 2116
3579 3048 2564
3515 3113 2946
3297 3141 3248
3165 3140 3517
3341 3039 1545
3344 3047 1608
3354 3068 1757
3370 3105 1993
3393 3161 2299
3423 3240 2661
3465 3358 3075
3584 3584 3584
3345 3519 3854
3193 3175 1878
3197 3180 1921
3207 3193 2026
3224 3215 2199
3251 3250 2433
3289 3297 2720
3322 3371 3052
3342 3525 3417
3262 3896 4095
3875 1533 0
3871 1549 0
3859 1590 0
3836 1662 0
3793 1763 1189
3719 1877 1842
3455 1958 2521
3314 2174 2812
3238 2358 2995
3886 1593 0
3881 1609 0
3870 1648 0
3846 1719 0
3803 1815 1201
3731 1923 1850
3476 1998 2522
3322 2202 2824
3245 2380 3004
3911 1738 0
3906 1753 0
3894 1789 0
3869 1855 61
3828 1942 1234
3761 2037 1869
3563 2117 2481
3344 2270 2854
3262 2437 3026
3951 1970 0
3947 1982 0
3935 2012 0
3912 2066 451
3874 2138 1318
3812 2220 1914
3663 2299 2461
3388 2387 2909
3291 2533 3065
4004 2273 0
4000 2283 0
3989 2306 0
3969 2345 788
3937 2400 1462
3879 2474 1986
3769 2531 2494
3455 2560 2981
3338 2666 3128
4071 2613 0
4067 2621 0
4058 2639 596
4040 2671 1185
4011 2719 1675
3967 2774 2139
3883 2823 2580
3567 2794 3075
3404 2834 3214
4086 2912 632
4087 2924 816
4090 2953 1153
4093 3005 1572
4090 3077 2017
4057 3124 2389
4000 3172 2757
3835 3153 3131
3485 3041 3326
4055 3156 1051
4057 3164 1157
4062 3185 1386
4070 3224 1713
4082 3296 2107
4092 3402 2557
4095 3551 3067
4036 3584 3365
3594 3308 3480
3855 3376 1349
3859 3383 1411
3867 3399 1556
3882 3427 1784
3903 3468 2073
3928 3526 2408
3953 3607 2778
3969 3718 3212
4095 4095 4095
