Examples/CL - Fourth of colorspace.3dl
#25pt 3DLUT created by 3D LUT Creator Pro (c) Oleg Sharonov
#Copyright Oleg Sharonov
#IMAGEPROFILE sRGB IEC61966-2.1 v.2.10
#INPUTGAMMA sRGB IEC61966-2.1 v.2.10
#OUTPUTGAMMA sRGB IEC61966-2.1 v.2.10
0 256 512 768 1023
0 0 0
116 118 110
232 236 222
350 353 335
467 471 448
273 885 0
662 773 577
837 834 827
953 953 938
1071 1070 1051
546 1769 0
935 1694 393
1324 1546 1155
1558 1551 1545
1676 1668 1655
819 2654 0
1208 2614 209
1597 2467 971
1988 2319 1731
2281 2266 2261
1092 3539 0
1481 3534 25
1871 3387 786
2262 3239 1547
2652 3091 2307
965 30 0
692 322 233
536 543 529
653 661 642
770 778 755
1024 1024 0
1024 1024 1024
1140 1142 1134
1256 1260 1245
1373 1377 1359
1024 2047 0
1297 1944 840
1686 1797 1601
1861 1857 1853
1978 1975 1966
1181 2991 0
1570 2865 656
1959 2717 1417
2348 2570 2179
2582 2574 2570
1454 3876 0
1843 3785 472
2232 3638 1233
2621 3490 1994
3011 3343 2755
1930 60 0
1657 379 94
1385 644 468
1113 909 844
1073 1085 1063
2047 1024 0
1989 1081 884
1716 1346 1257
1560 1567 1553
1677 1684 1667
2047 2047 0
2047 2047 1024
2048 2048 2047
2165 2165 2161
2282 2282 2274
2047 3071 0
2047 3071 1024
2321 2968 1863
2710 2821 2625
2885 2881 2877
2047 4095 0
2205 4036 918
2594 3888 1679
2983 3741 2441
3372 3594 3202
2896 89 0
2623 427 0
2351 701 329
2079 965 705
1807 1230 1080
3071 1024 0
2954 1137 745
2682 1402 1119
2410 1667 1495
2139 1931 1871
3071 2047 0
3071 2047 1024
3013 2104 1908
2741 2369 2284
2585 2589 2581
3071 3071 0
3071 3071 1024
3071 3071 2048
3071 3071 3071
3188 3188 3184
3071 4095 0
3071 4095 1024
3071 4095 2048
3344 3992 2887
3733 3844 3649
3861 119 0
3588 457 0
3316 758 190
3044 1022 565
2772 1286 941
4095 1024 0
3920 1194 607
3648 1458 982
3376 1723 1357
3104 1987 1733
4095 2047 0
4095 2047 1024
3978 2161 1769
3706 2425 2145
3434 2690 2520
4095 3071 0
4095 3071 1024
4095 3071 2048
4037 3128 2932
3765 3392 3308
4095 4095 0
4095 4095 1024
4095 4095 2048
4095 4095 3071
4095 4095 4095
