Examples/CL - Fourth of colorspace 2.3dl
#25pt 3DLUT created by 3D LUT Creator Pro (c) Oleg Sharonov
#Copyright Oleg Sharonov
#IMAGEPROFILE sRGB IEC61966-2.1 v.2.10
#INPUTGAMMA sRGB IEC61966-2.1 v.2.10
#OUTPUTGAMMA sRGB IEC61966-2.1 v.2.10
0 256 512 768 1023
0 0 0
128 129 24
256 257 53
384 385 84
512 512 117
659 688 0
787 688 688
914 816 720
1041 943 755
1169 1069 794
1315 1377 0
1443 1313 1024
1570 1377 1381
1698 1503 1421
1825 1629 1464
1972 2067 0
2099 2002 1024
2226 1940 2035
2354 2065 2081
2482 2189 2128
2629 2756 0
2757 2691 1024
2885 2626 2048
3012 2627 2731
3140 2750 2783
1024 0 0
1024 128 364
1024 321 395
1024 514 426
1024 706 462
1024 1024 0
1024 1024 1024
1152 1151 1058
1280 1277 1095
1407 1403 1137
1554 1777 0
1682 1712 1024
1810 1712 1714
1938 1837 1757
2065 1962 1803
2212 2466 0
2339 2401 1024
2467 2336 2048
2594 2399 2414
2721 2523 2464
2868 3156 0
2995 3091 1024
3123 3026 2048
3250 2963 3059
3378 3086 3115
2047 0 0
2047 63 701
2048 255 733
2048 447 768
2048 639 807
2047 1024 0
2047 1024 1024
2048 1151 1393
2048 1342 1433
2048 1532 1477
2047 2047 0
2047 2047 1024
2048 2048 2047
2175 2172 2093
2303 2297 2141
2450 2866 0
2578 2801 1024
2706 2736 2048
2834 2734 2743
2962 2858 2796
3108 3555 0
3235 3490 1024
3363 3425 2048
3490 3360 3071
3618 3422 3443
3071 0 0
3071 0 1024
3071 190 1070
3071 381 1107
3071 572 1149
3071 1024 0
3071 1024 1024
3071 1086 1727
3071 1277 1770
3071 1466 1816
3071 2047 0
3071 2047 1024
3071 2047 2048
3071 2173 2426
3071 2362 2476
3071 3071 0
3071 3071 1024
3071 3071 2048
3071 3071 3071
3199 3194 3127
3346 3955 0
3474 3890 1024
3602 3825 2048
3730 3759 3071
3858 3758 3769
4095 0 0
4095 0 1024
4095 125 1405
4095 316 1446
4095 506 1489
4095 1024 0
4095 1024 1024
4095 1024 2048
4095 1211 2105
4095 1401 2153
4095 2047 0
4095 2047 1024
4095 2047 2048
4095 2109 2755
4095 2297 2808
4095 3071 0
4095 3071 1024
4095 3071 2048
4095 3071 3071
4095 3196 3455
4095 4095 0
4095 4095 1024
4095 4095 2048
4095 4095 3071
4095 4095 4095
