Examples/CL - More colors.3dl
#25pt 3DLUT created by 3D LUT Creator Pro (c) Oleg Sharonov
#Copyright Oleg Sharonov
0 256 512 768 1023
0 0 0
0 0 1086
0 0 2117
0 0 3140
0 0 4095
0 1084 84
0 1148 973
13 773 2136
0 700 3148
0 723 4095
0 2119 304
0 2180 1104
0 2207 1973
155 1958 3111
58 1879 4095
0 3146 497
0 3171 1185
0 3206 2056
0 3208 2990
45 3054 4095
0 4095 691
0 4095 1258
0 4095 2127
0 4095 3055
0 4095 4062
1058 0 233
1099 0 1040
777 0 2201
800 0 3182
918 0 4095
1108 1129 0
1023 1023 1023
815 798 2207
813 758 3174
907 836 4095
977 2123 0
735 2169 977
675 2183 2031
1004 1939 3132
1020 1897 4095
686 3143 0
396 3162 1077
0 3213 2075
738 3196 3012
1033 3051 4095
411 4095 516
158 4095 1188
0 4095 2139
619 4095 3065
900 4095 4065
2088 0 512
2097 0 1134
2139 0 2066
1838 0 3239
1929 0 4095
2062 898 341
2105 762 1113
2130 699 2081
1833 691 3248
1941 738 4095
2148 2172 0
2164 2183 0
2046 2046 2046
1909 1906 3226
1973 1961 4095
2104 3145 0
2061 3153 509
1899 3183 1997
1904 3162 3064
2052 3036 4095
2016 4095 0
1977 4095 941
1883 4095 2067
1884 4095 3073
2019 4095 4074
3117 0 714
3118 0 1237
3147 0 2079
3150 0 3076
2981 0 4095
3111 408 712
3117 306 1260
3148 406 2087
3146 629 3082
2982 870 4095
3069 2047 0
3072 2018 1064
3137 1923 2056
3122 1919 3097
2989 1978 4095
3144 3160 0
3148 3162 0
3151 3159 1737
3070 3070 3070
3043 3041 4095
3151 4095 0
3133 4095 347
3086 4095 1932
3027 4095 3067
3071 4095 4087
4095 0 793
4095 0 1281
4095 0 2139
4095 0 3072
4095 0 4080
4095 0 811
4095 113 1292
4095 422 2144
4095 696 3073
4095 919 4083
4095 1921 606
4095 1904 1216
4095 1862 2150
4095 1934 3084
4095 2023 4090
4088 3121 0
4090 3108 891
4095 3066 2046
4095 3033 3089
4095 3071 4094
4095 4095 0
4095 4095 849
4095 4095 2001
4095 4095 3065
4095 4095 4095
