Examples/CMYK - Cleaner neutrals and more colors.3dl
#25pt 3DLUT created by 3D LUT Creator Pro (c) Oleg Sharonov
#Copyright Oleg Sharonov
#INPUTGAMMA sRGB IEC61966-2.1 v.2.10
#IMAGEPROFILE sRGB IEC61966-2.1 v.2.10
#OUTPUTGAMMA sRGB IEC61966-2.1 v.2.10
0 256 512 768 1023
0 0 0
0 0 1024
0 0 2047
0 0 3071
0 0 4095
0 1024 0
0 1024 1024
0 907 2047
0 852 3071
0 814 4095
0 2047 0
0 2047 852
0 2047 2047
0 1912 3071
0 1813 4095
0 3071 0
0 3071 789
0 3071 1839
0 3071 3071
0 2935 4095
0 4095 0
0 4095 751
0 4095 1704
0 4095 2856
0 4095 4095
1024 0 0
1024 0 1024
972 0 2047
926 0 3071
886 0 4095
1024 1024 0
1024 1024 1024
898 834 2047
843 776 3071
807 742 4095
972 2047 0
898 2047 781
898 2047 2047
799 1845 3071
750 1735 4095
926 3071 0
843 3071 717
799 3071 1769
843 3071 3071
750 2886 4095
886 4095 0
807 4095 684
750 4095 1627
750 4095 2805
807 4095 4095
2047 0 0
2047 0 852
2047 0 2047
1999 0 3071
1944 0 4095
2047 907 0
2047 834 781
2047 834 2047
1935 735 3071
1865 689 4095
2047 2047 0
2047 2047 781
2047 2047 2047
1923 1833 3071
1796 1668 4095
1999 3071 0
1935 3071 679
1923 3071 1756
1923 3071 3071
1787 2844 4095
1944 4095 0
1865 4095 635
1796 4095 1562
1787 4095 2760
1796 4095 4095
3071 0 0
3071 0 789
3071 0 1839
3071 0 3071
3025 0 4095
3071 852 0
3071 776 717
3071 735 1769
3071 776 3071
2980 689 4095
3071 1912 0
3071 1845 679
3071 1833 1756
3071 1833 3071
2941 1660 4095
3071 3071 0
3071 3071 717
3071 3071 1756
3071 3071 3071
3015 2924 4095
3025 4095 0
2980 4095 635
2941 4095 1553
3015 4095 2845
3015 4095 4095
4095 0 0
4095 0 751
4095 0 1704
4095 0 2856
4095 0 4095
4095 814 0
4095 742 684
4095 689 1627
4095 689 2805
4095 742 4095
4095 1813 0
4095 1735 635
4095 1668 1562
4095 1660 2760
4095 1668 4095
4095 2935 0
4095 2886 635
4095 2844 1553
4095 2924 2845
4095 2924 4095
4095 4095 0
4095 4095 684
4095 4095 1562
4095 4095 2845
4095 4095 4095
