Examples/CMYK - Cleaner neutrals and more colors.3dl
#25pt 3DLUT created by 3D LUT Creator Pro (c) Oleg Sharonov
#Copyright Oleg Sharonov
#INPUTGAMMA sRGB IEC61966-2.1 v.2.10
#IMAGEPROFILE sRGB IEC61966-2.1 v.2.10
#OUTPUTGAMMA sRGB IEC61966-2.1 v.2.10
0 128 256 384 512 640 768 896 1023
0 0 0
0 0 512
0 0 1024
0 0 1536
0 0 2047
0 0 2559
0 0 3071
0 0 3583
0 0 4095
0 512 0
0 512 512
0 453 1024
0 426 1536
0 407 2047
0 391 2559
0 375 3071
0 360 3583
0 344 4095
0 1024 0
0 1024 426
0 1024 1024
0 956 1536
0 907 2047
0 876 2559
0 852 3071
0 832 3583
0 814 4095
0 1536 0
0 1536 395
0 1536 919
0 1536 1536
0 1468 2047
0 1405 2559
0 1360 3071
0 1327 3583
0 1301 4095
0 2047 0
0 2047 376
0 2047 852
0 2047 1428
0 2047 2047
0 1980 2559
0 1912 3071
0 1856 3583
0 1813 4095
0 2559 0
0 2559 360
0 2559 815
0 2559 1338
0 2559 1940
0 2559 2559
0 2493 3071
0 2423 3583
0 2360 4095
0 3071 0
0 3071 345
0 3071 789
0 3071 1278
0 3071 1839
0 3071 2453
0 3071 3071
0 3006 3583
0 2935 4095
0 3583 0
0 3583 331
0 3583 769
0 3583 1238
0 3583 1760
0 3583 2346
0 3583 2966
0 3583 3583
0 3519 4095
0 4095 0
0 4095 317
0 4095 751
0 4095 1208
0 4095 1704
0 4095 2255
0 4095 2856
0 4095 3479
0 4095 4095
512 0 0
512 0 512
486 0 1024
463 0 1536
443 0 2047
425 0 2559
407 0 3071
390 0 3583
373 0 4095
512 512 0
512 512 512
449 417 1024
422 388 1536
403 371 2047
386 355 2559
370 340 3071
353 326 3583
337 311 4095
486 1024 0
449 1024 390
449 1024 1024
400 923 1536
375 868 2047
356 836 2559
338 814 3071
321 795 3583
304 777 4095
463 1536 0
422 1536 359
400 1536 885
422 1536 1536
375 1443 2047
343 1371 2559
319 1322 3071
298 1289 3583
279 1262 4095
443 2047 0
403 2047 342
375 2047 814
375 2047 1402
403 2047 2047
356 1962 2559
319 1883 3071
290 1822 3583
266 1777 4095
425 2559 0
386 2559 327
356 2559 777
343 2559 1302
356 2559 1920
386 2559 2559
338 2478 3071
298 2397 3583
266 2329 4095
407 3071 0
370 3071 314
338 3071 753
319 3071 1241
319 3071 1808
338 3071 2437
370 3071 3071
321 2994 3583
279 2913 4095
390 3583 0
353 3583 300
321 3583 734
298 3583 1201
290 3583 1725
298 3583 2319
321 3583 2953
353 3583 3583
304 3508 4095
373 4095 0
337 4095 287
304 4095 717
279 4095 1172
266 4095 1668
266 4095 2223
279 4095 2833
304 4095 3468
337 4095 4095
1024 0 0
1024 0 426
1024 0 1024
999 0 1536
972 0 2047
948 0 2559
926 0 3071
905 0 3583
886 0 4095
1024 453 0
1024 417 390
1024 417 1024
968 367 1536
932 345 2047
906 327 2559
885 311 3071
865 296 3583
846 281 4095
1024 1024 0
1024 1024 390
1024 1024 1024
962 916 1536
898 834 2047
864 796 2559
843 776 3071
825 758 3583
807 742 4095
999 1536 0
968 1536 339
962 1536 878
962 1536 1536
893 1422 2047
841 1332 2559
811 1279 3071
791 1247 3583
773 1222 4095
972 2047 0
932 2047 318
898 2047 781
893 2047 1380
898 2047 2047
841 1938 2559
799 1845 3071
772 1781 3583
750 1735 4095
948 2559 0
906 2559 302
864 2559 739
841 2559 1263
841 2559 1895
864 2559 2559
811 2458 3071
772 2366 3583
741 2292 4095
926 3071 0
885 3071 287
843 3071 717
811 3071 1199
799 3071 1769
811 3071 2416
843 3071 3071
791 2978 3583
750 2886 4095
905 3583 0
865 3583 273
825 3583 700
791 3583 1161
772 3583 1684
772 3583 2286
791 3583 2936
825 3583 3583
773 3495 4095
886 4095 0
846 4095 259
807 4095 684
773 4095 1133
750 4095 1627
741 4095 2184
750 4095 2805
773 4095 3454
807 4095 4095
1536 0 0
1536 0 395
1536 0 919
1536 0 1536
1513 0 2047
1485 0 2559
1458 0 3071
1434 0 3583
1411 0 4095
1536 426 0
1536 388 359
1536 367 885
1536 388 1536
1490 345 2047
1451 316 2559
1420 294 3071
1393 275 3583
1370 258 4095
1536 956 0
1536 923 339
1536 916 878
1536 916 1536
1470 830 2047
1414 775 2559
1376 745 3071
1350 727 3583
1327 711 4095
1536 1536 0
1536 1536 359
1536 1536 878
1536 1536 1536
1508 1462 2047
1406 1324 2559
1347 1251 3071
1308 1208 3583
1285 1183 4095
1513 2047 0
1490 2047 318
1470 2047 777
1508 2047 1423
1508 2047 2047
1410 1936 2559
1340 1827 3071
1288 1746 3583
1252 1692 4095
1485 2559 0
1451 2559 291
1414 2559 719
1406 2559 1255
1410 2559 1893
1406 2559 2559
1340 2445 3071
1283 2338 3583
1238 2253 4095
1458 3071 0
1420 3071 271
1376 3071 689
1347 3071 1171
1340 3071 1750
1340 3071 2402
1347 3071 3071
1288 2961 3583
1238 2856 4095
1434 3583 0
1393 3583 254
1350 3583 671
1308 3583 1123
1288 3583 1649
1283 3583 2257
1288 3583 2918
1308 3583 3583
1252 3479 4095
1411 4095 0
1370 4095 238
1327 4095 655
1285 4095 1097
1252 4095 1585
1238 4095 2145
1238 4095 2773
1252 4095 3436
1285 4095 4095
2047 0 0
2047 0 376
2047 0 852
2047 0 1428
2047 0 2047
2026 0 2559
1999 0 3071
1971 0 3583
1944 0 4095
2047 407 0
2047 371 342
2047 345 814
2047 345 1402
2047 371 2047
2008 327 2559
1970 294 3071
1937 268 3583
1907 246 4095
2047 907 0
2047 868 318
2047 834 781
2047 830 1380
2047 834 2047
1987 775 2559
1935 735 3071
1896 709 3583
1865 689 4095
2047 1468 0
2047 1443 318
2047 1422 777
2047 1462 1423
2047 1462 2047
1984 1328 2559
1917 1245 3071
1862 1189 3583
1821 1153 4095
2047 2047 0
2047 2047 342
2047 2047 781
2047 2047 1423
2047 2047 2047
2083 2043 2559
1923 1833 3071
1852 1736 3583
1796 1668 4095
2026 2559 0
2008 2559 302
1987 2559 719
1984 2559 1259
2083 2559 2007
2083 2559 2559
1939 2457 3071
1854 2336 3583
1788 2236 4095
1999 3071 0
1970 3071 271
1935 3071 679
1917 3071 1165
1923 3071 1756
1939 3071 2414
1923 3071 3071
1854 2958 3583
1787 2844 4095
1971 3583 0
1937 3583 247
1896 3583 654
1862 3583 1105
1852 3583 1639
1854 3583 2255
1854 3583 2915
1852 3583 3583
1788 3470 4095
1944 4095 0
1907 4095 227
1865 4095 635
1821 4095 1068
1796 4095 1562
1788 4095 2128
1787 4095 2760
1788 4095 3427
1796 4095 4095
2559 0 0
2559 0 360
2559 0 815
2559 0 1338
2559 0 1940
2559 0 2559
2538 0 3071
2512 0 3583
2484 0 4095
2559 391 0
2559 355 327
2559 327 777
2559 316 1302
2559 327 1920
2559 355 2559
2524 311 3071
2488 275 3583
2454 246 4095
2559 876 0
2559 836 302
2559 796 739
2559 775 1263
2559 775 1895
2559 796 2559
2506 745 3071
2459 709 3583
2418 681 4095
2559 1405 0
2559 1371 291
2559 1332 719
2559 1324 1255
2559 1328 1893
2559 1324 2559
2494 1245 3071
2433 1184 3583
2381 1139 4095
2559 1980 0
2559 1962 302
2559 1938 719
2559 1936 1259
2559 2043 2007
2559 2043 2559
2505 1849 3071
2430 1738 3583
2365 1661 4095
2559 2559 0
2559 2559 327
2559 2559 739
2559 2559 1255
2559 2559 2007
2559 2559 2559
2656 2621 3071
2453 2360 3583
2366 2238 4095
2538 3071 0
2524 3071 287
2506 3071 689
2494 3071 1165
2505 3071 1773
2656 3071 2590
2656 3071 3071
2508 3001 3583
2373 2851 4095
2512 3583 0
2488 3583 254
2459 3583 654
2433 3583 1101
2430 3583 1641
2453 3583 2280
2508 3583 2960
2453 3583 3583
2373 3473 4095
2484 4095 0
2454 4095 227
2418 4095 628
2381 4095 1055
2365 4095 1554
2366 4095 2130
2373 4095 2767
2373 4095 3430
2366 4095 4095
3071 0 0
3071 0 345
3071 0 789
3071 0 1278
3071 0 1839
3071 0 2453
3071 0 3071
3051 0 3583
3025 0 4095
3071 375 0
3071 340 314
3071 311 753
3071 294 1241
3071 294 1808
3071 311 2437
3071 340 3071
3039 296 3583
3005 258 4095
3071 852 0
3071 814 287
3071 776 717
3071 745 1199
3071 735 1769
3071 745 2416
3071 776 3071
3025 727 3583
2980 689 4095
3071 1360 0
3071 1322 271
3071 1279 689
3071 1251 1171
3071 1245 1750
3071 1245 2402
3071 1251 3071
3009 1189 3583
2952 1139 4095
3071 1912 0
3071 1883 271
3071 1845 679
3071 1827 1165
3071 1833 1756
3071 1849 2414
3071 1833 3071
3007 1738 3583
2941 1660 4095
3071 2493 0
3071 2478 287
3071 2458 689
3071 2445 1165
3071 2457 1773
3071 2621 2590
3071 2621 3071
3046 2419 3583
2947 2245 4095
3071 3071 0
3071 3071 314
3071 3071 717
3071 3071 1171
3071 3071 1756
3071 3071 2590
3071 3071 3071
3220 3190 3583
3015 2924 4095
3051 3583 0
3039 3583 273
3025 3583 671
3009 3583 1105
3007 3583 1641
3046 3583 2342
3220 3583 3163
3220 3583 3583
3093 3553 4095
3025 4095 0
3005 4095 238
2980 4095 635
2952 4095 1055
2941 4095 1553
2947 4095 2137
3015 4095 2845
3093 4095 3515
3015 4095 4095
3583 0 0
3583 0 331
3583 0 769
3583 0 1238
3583 0 1760
3583 0 2346
3583 0 2966
3583 0 3583
3563 0 4095
3583 360 0
3583 326 300
3583 296 734
3583 275 1201
3583 268 1725
3583 275 2319
3583 296 2953
3583 326 3583
3553 281 4095
3583 832 0
3583 795 273
3583 758 700
3583 727 1161
3583 709 1684
3583 709 2286
3583 727 2936
3583 758 3583
3541 711 4095
3583 1327 0
3583 1289 254
3583 1247 671
3583 1208 1123
3583 1189 1649
3583 1184 2257
3583 1189 2918
3583 1208 3583
3526 1153 4095
3583 1856 0
3583 1822 247
3583 1781 654
3583 1746 1105
3583 1736 1639
3583 1738 2255
3583 1738 2915
3583 1736 3583
3518 1661 4095
3583 2423 0
3583 2397 254
3583 2366 654
3583 2338 1101
3583 2336 1641
3583 2360 2280
3583 2419 2960
3583 2360 3583
3521 2245 4095
3583 3006 0
3583 2994 273
3583 2978 671
3583 2961 1105
3583 2958 1641
3583 3001 2342
3583 3190 3163
3583 3190 3583
3594 3009 4095
3583 3583 0
3583 3583 300
3583 3583 700
3583 3583 1123
3583 3583 1639
3583 3583 2280
3583 3583 3163
3583 3583 3583
3775 3749 4095
3563 4095 0
3553 4095 259
3541 4095 655
3526 4095 1068
3518 4095 1554
3521 4095 2137
3594 4095 2935
3775 4095 3725
3775 4095 4095
4095 0 0
4095 0 317
4095 0 751
4095 0 1208
4095 0 1704
4095 0 2255
4095 0 2856
4095 0 3479
4095 0 4095
4095 344 0
4095 311 287
4095 281 717
4095 258 1172
4095 246 1668
4095 246 2223
4095 258 2833
4095 281 3468
4095 311 4095
4095 814 0
4095 777 259
4095 742 684
4095 711 1133
4095 689 1627
4095 681 2184
4095 689 2805
4095 711 3454
4095 742 4095
4095 1301 0
4095 1262 238
4095 1222 655
4095 1183 1097
4095 1153 1585
4095 1139 2145
4095 1139 2773
4095 1153 3436
4095 1183 4095
4095 1813 0
4095 1777 227
4095 1735 635
4095 1692 1068
4095 1668 1562
4095 1661 2128
4095 1660 2760
4095 1661 3427
4095 1668 4095
4095 2360 0
4095 2329 227
4095 2292 628
4095 2253 1055
4095 2236 1554
4095 2238 2130
4095 2245 2767
4095 2245 3430
4095 2238 4095
4095 2935 0
4095 2913 238
4095 2886 635
4095 2856 1055
4095 2844 1553
4095 2851 2137
4095 2924 2845
4095 3009 3515
4095 2924 4095
4095 3519 0
4095 3508 259
4095 3495 655
4095 3479 1068
4095 3470 1554
4095 3473 2137
4095 3553 2935
4095 3749 3725
4095 3749 4095
4095 4095 0
4095 4095 287
4095 4095 684
4095 4095 1097
4095 4095 1562
4095 4095 2130
4095 4095 2845
4095 4095 3725
4095 4095 4095
