Examples/CMYK - Cleaner neutrals and more colors.3dl
#25pt 3DLUT created by 3D LUT Creator Pro (c) Oleg Sharonov
#Copyright Oleg Sharonov
#INPUTGAMMA sRGB IEC61966-2.1 v.2.10
#IMAGEPROFILE sRGB IEC61966-2.1 v.2.10
#OUTPUTGAMMA sRGB IEC61966-2.1 v.2.10
0 43 86 128 171 214 256 299 341 384 427 469 512 555 597 640 682 725 768 810 853 896 938 981 1023 
0 0 0
0 0 171
0 0 341
0 0 512
0 0 682
0 0 853
0 0 1024
0 0 1194
0 0 1365
0 0 1536
0 0 1706
0 0 1877
0 0 2047
0 0 2218
0 0 2389
0 0 2559
0 0 2730
0 0 2901
0 0 3071
0 0 3242
0 0 3412
0 0 3583
0 0 3754
0 0 3924
0 0 4095
0 171 0
0 171 171
0 151 341
0 142 512
0 136 682
0 130 853
0 125 1024
0 120 1194
0 115 1365
0 110 1536
0 105 1706
0 100 1877
0 95 2047
0 90 2218
0 85 2389
0 80 2559
0 75 2730
0 70 2901
0 65 3071
0 60 3242
0 55 3412
0 50 3583
0 45 3754
0 41 3924
0 36 4095
0 341 0
0 341 142
0 341 341
0 319 512
0 302 682
0 292 853
0 284 1024
0 277 1194
0 271 1365
0 266 1536
0 260 1706
0 255 1877
0 250 2047
0 245 2218
0 240 2389
0 235 2559
0 230 2730
0 225 2901
0 220 3071
0 215 3242
0 210 3412
0 205 3583
0 200 3754
0 195 3924
0 190 4095
0 512 0
0 512 132
0 512 306
0 512 512
0 489 682
0 468 853
0 453 1024
0 442 1194
0 434 1365
0 426 1536
0 419 1706
0 413 1877
0 407 2047
0 401 2218
0 396 2389
0 391 2559
0 385 2730
0 380 2901
0 375 3071
0 370 3242
0 365 3412
0 360 3583
0 354 3754
0 349 3924
0 344 4095
0 682 0
0 682 125
0 682 284
0 682 476
0 682 682
0 660 853
0 637 1024
0 619 1194
0 604 1365
0 593 1536
0 584 1706
0 576 1877
0 568 2047
0 561 2218
0 555 2389
0 549 2559
0 543 2730
0 537 2901
0 532 3071
0 526 3242
0 521 3412
0 515 3583
0 510 3754
0 505 3924
0 500 4095
0 853 0
0 853 120
0 853 272
0 853 446
0 853 647
0 853 853
0 831 1024
0 808 1194
0 787 1365
0 770 1536
0 756 1706
0 744 1877
0 734 2047
0 725 2218
0 717 2389
0 710 2559
0 703 2730
0 697 2901
0 690 3071
0 684 3242
0 679 3412
0 673 3583
0 667 3754
0 662 3924
0 656 4095
0 1024 0
0 1024 115
0 1024 263
0 1024 426
0 1024 613
0 1024 818
0 1024 1024
0 1002 1194
0 978 1365
0 956 1536
0 937 1706
0 920 1877
0 907 2047
0 895 2218
0 885 2389
0 876 2559
0 867 2730
0 859 2901
0 852 3071
0 845 3242
0 839 3412
0 832 3583
0 826 3754
0 820 3924
0 814 4095
0 1194 0
0 1194 110
0 1194 256
0 1194 413
0 1194 587
0 1194 782
0 1194 989
0 1194 1194
0 1173 1365
0 1149 1536
0 1126 1706
0 1105 1877
0 1087 2047
0 1071 2218
0 1058 2389
0 1046 2559
0 1036 2730
0 1026 2901
0 1017 3071
0 1009 3242
0 1001 3412
0 994 3583
0 987 3754
0 981 3924
0 974 4095
0 1365 0
0 1365 106
0 1365 250
0 1365 403
0 1365 568
0 1365 752
0 1365 952
0 1365 1160
0 1365 1365
0 1344 1536
0 1320 1706
0 1297 1877
0 1275 2047
0 1255 2218
0 1238 2389
0 1222 2559
0 1209 2730
0 1197 2901
0 1186 3071
0 1177 3242
0 1167 3412
0 1159 3583
0 1151 3754
0 1143 3924
0 1136 4095
0 1536 0
0 1536 101
0 1536 245
0 1536 395
0 1536 554
0 1536 728
0 1536 919
0 1536 1123
0 1536 1331
0 1536 1536
0 1515 1706
0 1491 1877
0 1468 2047
0 1445 2218
0 1424 2389
0 1405 2559
0 1388 2730
0 1373 2901
0 1360 3071
0 1348 3242
0 1337 3412
0 1327 3583
0 1318 3754
0 1309 3924
0 1301 4095
0 1706 0
0 1706 97
0 1706 240
0 1706 388
0 1706 543
0 1706 710
0 1706 892
0 1706 1088
0 1706 1294
0 1706 1502
0 1706 1706
0 1686 1877
0 1662 2047
0 1638 2218
0 1615 2389
0 1594 2559
0 1574 2730
0 1555 2901
0 1539 3071
0 1524 3242
0 1511 3412
0 1499 3583
0 1488 3754
0 1478 3924
0 1468 4095
0 1877 0
0 1877 92
0 1877 235
0 1877 381
0 1877 534
0 1877 696
0 1877 870
0 1877 1058
0 1877 1258
0 1877 1465
0 1877 1672
0 1877 1877
0 1856 2047
0 1833 2218
0 1809 2389
0 1786 2559
0 1764 2730
0 1743 2901
0 1723 3071
0 1706 3242
0 1690 3412
0 1675 3583
0 1662 3754
0 1650 3924
0 1639 4095
0 2047 0
0 2047 88
0 2047 230
0 2047 376
0 2047 526
0 2047 684
0 2047 852
0 2047 1032
0 2047 1226
0 2047 1428
0 2047 1636
0 2047 1843
0 2047 2047
0 2027 2218
0 2004 2389
0 1980 2559
0 1957 2730
0 1934 2901
0 1912 3071
0 1892 3242
0 1874 3412
0 1856 3583
0 1841 3754
0 1827 3924
0 1813 4095
0 2218 0
0 2218 83
0 2218 226
0 2218 370
0 2218 519
0 2218 674
0 2218 838
0 2218 1011
0 2218 1197
0 2218 1395
0 2218 1599
0 2218 1807
0 2218 2014
0 2218 2218
0 2198 2389
0 2175 2559
0 2151 2730
0 2128 2901
0 2104 3071
0 2082 3242
0 2061 3412
0 2042 3583
0 2024 3754
0 2007 3924
0 1992 4095
0 2389 0
0 2389 78
0 2389 221
0 2389 365
0 2389 513
0 2389 665
0 2389 825
0 2389 994
0 2389 1173
0 2389 1364
0 2389 1564
0 2389 1770
0 2389 1977
0 2389 2185
0 2389 2389
0 2369 2559
0 2346 2730
0 2322 2901
0 2298 3071
0 2275 3242
0 2253 3412
0 2231 3583
0 2211 3754
0 2192 3924
0 2174 4095
0 2559 0
0 2559 74
0 2559 216
0 2559 360
0 2559 507
0 2559 658
0 2559 815
0 2559 979
0 2559 1153
0 2559 1338
0 2559 1532
0 2559 1734
0 2559 1940
0 2559 2148
0 2559 2356
0 2559 2559
0 2539 2730
0 2517 2901
0 2493 3071
0 2469 3242
0 2446 3412
0 2423 3583
0 2401 3754
0 2380 3924
0 2360 4095
0 2730 0
0 2730 69
0 2730 212
0 2730 355
0 2730 501
0 2730 651
0 2730 805
0 2730 967
0 2730 1136
0 2730 1315
0 2730 1503
0 2730 1701
0 2730 1904
0 2730 2111
0 2730 2319
0 2730 2526
0 2730 2730
0 2710 2901
0 2688 3071
0 2664 3242
0 2640 3412
0 2617 3583
0 2594 3754
0 2571 3924
0 2550 4095
0 2901 0
0 2901 65
0 2901 207
0 2901 350
0 2901 495
0 2901 644
0 2901 797
0 2901 956
0 2901 1121
0 2901 1295
0 2901 1478
0 2901 1671
0 2901 1870
0 2901 2075
0 2901 2282
0 2901 2490
0 2901 2697
0 2901 2901
0 2881 3071
0 2859 3242
0 2835 3412
0 2811 3583
0 2788 3754
0 2764 3924
0 2742 4095
0 3071 0
0 3071 60
0 3071 202
0 3071 345
0 3071 490
0 3071 638
0 3071 789
0 3071 946
0 3071 1108
0 3071 1278
0 3071 1456
0 3071 1643
0 3071 1839
0 3071 2040
0 3071 2246
0 3071 2453
0 3071 2661
0 3071 2868
0 3071 3071
0 3051 3242
0 3029 3412
0 3006 3583
0 2982 3754
0 2959 3924
0 2935 4095
0 3242 0
0 3242 56
0 3242 198
0 3242 341
0 3242 485
0 3242 632
0 3242 782
0 3242 937
0 3242 1097
0 3242 1263
0 3242 1437
0 3242 1619
0 3242 1810
0 3242 2007
0 3242 2210
0 3242 2416
0 3242 2624
0 3242 2832
0 3242 3039
0 3242 3242
0 3222 3412
0 3200 3583
0 3177 3754
0 3153 3924
0 3130 4095
0 3412 0
0 3412 51
0 3412 193
0 3412 336
0 3412 480
0 3412 626
0 3412 775
0 3412 928
0 3412 1086
0 3412 1250
0 3412 1420
0 3412 1597
0 3412 1783
0 3412 1977
0 3412 2176
0 3412 2380
0 3412 2587
0 3412 2795
0 3412 3003
0 3412 3209
0 3412 3412
0 3393 3583
0 3371 3754
0 3348 3924
0 3324 4095
0 3583 0
0 3583 47
0 3583 189
0 3583 331
0 3583 475
0 3583 621
0 3583 769
0 3583 921
0 3583 1077
0 3583 1238
0 3583 1405
0 3583 1579
0 3583 1760
0 3583 1949
0 3583 2145
0 3583 2346
0 3583 2551
0 3583 2758
0 3583 2966
0 3583 3174
0 3583 3380
0 3583 3583
0 3563 3754
0 3542 3924
0 3519 4095
0 3754 0
0 3754 42
0 3754 184
0 3754 327
0 3754 470
0 3754 615
0 3754 763
0 3754 914
0 3754 1068
0 3754 1227
0 3754 1392
0 3754 1562
0 3754 1739
0 3754 1924
0 3754 2116
0 3754 2314
0 3754 2516
0 3754 2722
0 3754 2929
0 3754 3137
0 3754 3345
0 3754 3551
0 3754 3754
0 3734 3924
0 3713 4095
0 3924 0
0 3924 37
0 3924 180
0 3924 322
0 3924 465
0 3924 610
0 3924 757
0 3924 907
0 3924 1060
0 3924 1217
0 3924 1379
0 3924 1547
0 3924 1721
0 3924 1901
0 3924 2089
0 3924 2283
0 3924 2483
0 3924 2686
0 3924 2892
0 3924 3100
0 3924 3308
0 3924 3516
0 3924 3721
0 3924 3924
0 3905 4095
0 4095 0
0 4095 33
0 4095 175
0 4095 317
0 4095 461
0 4095 605
0 4095 751
0 4095 900
0 4095 1052
0 4095 1208
0 4095 1368
0 4095 1533
0 4095 1704
0 4095 1881
0 4095 2065
0 4095 2255
0 4095 2451
0 4095 2652
0 4095 2856
0 4095 3063
0 4095 3271
0 4095 3479
0 4095 3686
0 4095 3892
0 4095 4095
171 0 0
171 0 171
162 0 341
154 0 512
148 0 682
142 0 853
136 0 1024
130 0 1194
124 0 1365
119 0 1536
113 0 1706
108 0 1877
103 0 2047
97 0 2218
92 0 2389
86 0 2559
81 0 2730
76 0 2901
70 0 3071
65 0 3242
60 0 3412
54 0 3583
49 0 3754
44 0 3924
38 0 4095
171 171 0
171 171 171
150 139 341
141 129 512
134 124 682
129 118 853
123 113 1024
118 109 1194
112 104 1365
107 99 1536
101 94 1706
96 89 1877
91 84 2047
85 79 2218
80 74 2389
75 69 2559
69 64 2730
64 59 2901
59 55 3071
53 50 3242
48 45 3412
43 40 3583
38 35 3754
32 30 3924
27 25 4095
162 341 0
150 341 130
150 341 341
133 308 512
125 289 682
119 279 853
113 271 1024
107 265 1194
101 259 1365
96 254 1536
91 248 1706
85 243 1877
80 238 2047
74 233 2218
69 228 2389
64 223 2559
58 218 2730
53 213 2901
48 208 3071
42 203 3242
37 198 3412
32 194 3583
27 189 3754
21 184 3924
16 179 4095
154 512 0
141 512 120
133 512 295
141 512 512
125 481 682
114 457 853
106 441 1024
99 430 1194
93 421 1365
87 413 1536
81 407 1706
76 401 1877
70 395 2047
65 389 2218
59 384 2389
54 379 2559
48 373 2730
43 368 2901
37 363 3071
32 358 3242
27 353 3412
21 348 3583
16 343 3754
11 338 3924
5 333 4095
148 682 0
134 682 114
125 682 271
125 682 467
134 682 682
119 654 853
106 628 1024
97 607 1194
89 592 1365
81 581 1536
75 571 1706
68 563 1877
62 555 2047
56 549 2218
51 542 2389
45 536 2559
39 531 2730
34 525 2901
28 519 3071
23 514 3242
17 509 3412
12 503 3583
6 498 3754
1 493 3924
0 488 4095
142 853 0
129 853 109
119 853 259
114 853 434
119 853 640
129 853 853
113 826 1024
99 799 1194
89 776 1365
79 758 1536
71 743 1706
64 732 1877
57 722 2047
50 713 2218
44 705 2389
38 698 2559
31 691 2730
26 684 2901
20 678 3071
14 672 3242
8 666 3412
3 661 3583
0 655 3754
0 650 3924
0 644 4095
136 1024 0
123 1024 105
113 1024 251
106 1024 414
106 1024 603
113 1024 812
123 1024 1024
107 998 1194
93 971 1365
81 947 1536
71 926 1706
62 909 1877
54 895 2047
46 883 2218
39 872 2389
32 863 2559
25 855 2730
19 847 2901
13 840 3071
7 833 3242
1 826 3412
0 820 3583
0 814 3754
0 808 3924
0 802 4095
130 1194 0
118 1194 100
107 1194 245
99 1194 400
97 1194 575
99 1194 773
107 1194 984
118 1194 1194
101 1169 1365
87 1143 1536
75 1118 1706
64 1095 1877
54 1076 2047
45 1060 2218
36 1046 2389
29 1034 2559
21 1023 2730
14 1014 2901
7 1005 3071
1 997 3242
0 989 3412
0 982 3583
0 975 3754
0 968 3924
0 962 4095
124 1365 0
112 1365 96
101 1365 239
93 1365 391
89 1365 556
89 1365 741
93 1365 944
101 1365 1156
112 1365 1365
96 1341 1536
81 1314 1706
68 1289 1877
57 1266 2047
46 1245 2218
36 1226 2389
28 1211 2559
19 1197 2730
11 1185 2901
4 1174 3071
0 1164 3242
0 1155 3412
0 1146 3583
0 1138 3754
0 1131 3924
0 1124 4095
119 1536 0
107 1536 91
96 1536 234
87 1536 383
81 1536 542
79 1536 716
81 1536 909
87 1536 1116
96 1536 1327
107 1536 1536
91 1512 1706
76 1486 1877
62 1460 2047
50 1436 2218
39 1414 2389
29 1395 2559
19 1377 2730
10 1362 2901
2 1348 3071
0 1336 3242
0 1325 3412
0 1315 3583
0 1305 3754
0 1297 3924
0 1288 4095
113 1706 0
101 1706 87
91 1706 229
81 1706 376
75 1706 531
71 1706 698
71 1706 881
75 1706 1079
81 1706 1287
91 1706 1499
101 1706 1706
85 1683 1877
70 1658 2047
56 1632 2218
44 1607 2389
32 1584 2559
21 1563 2730
11 1545 2901
2 1528 3071
0 1513 3242
0 1499 3412
0 1487 3583
0 1476 3754
0 1466 3924
0 1456 4095
