Examples/Contrast - Brighten.3dl
#25pt 3DLUT created by 3D LUT Creator Pro (c) Oleg Sharonov
#Copyright Oleg Sharonov
0 43 86 128 171 214 256 299 341 384 427 469 512 555 597 640 682 725 768 810 853 896 938 981 1023 
0 0 0
9 9 155
13 13 314
16 16 493
18 18 695
22 22 959
26 26 1259
30 30 1580
32 32 1901
36 36 2198
42 42 2458
52 52 2680
67 67 2871
89 89 3036
122 122 3182
159 159 3315
201 201 3436
249 249 3550
301 301 3658
359 359 3760
421 421 3859
490 490 3954
564 564 4042
644 644 4069
729 729 4095
9 155 9
13 165 165
15 171 320
15 175 495
20 182 704
24 193 966
26 201 1262
30 206 1579
32 209 1897
36 213 2192
42 216 2451
52 223 2673
68 232 2864
91 245 3029
123 265 3176
160 289 3309
203 319 3431
250 356 3546
302 400 3654
360 450 3757
423 507 3856
491 569 3951
565 640 4041
644 715 4068
728 797 4095
13 315 13
15 320 171
15 324 324
17 328 498
21 342 716
23 354 973
27 362 1263
29 368 1575
33 371 1889
37 374 2182
43 376 2439
53 380 2661
69 385 2851
92 394 3018
126 407 3165
163 425 3299
204 448 3422
251 478 3537
303 514 3646
360 557 3750
422 607 3850
490 664 3947
563 729 4038
641 800 4066
724 877 4095
15 494 15
15 496 174
17 499 329
19 512 512
23 527 730
25 540 981
27 548 1264
31 553 1571
33 557 1879
36 558 2167
44 559 2423
54 561 2643
72 564 2834
96 569 3001
127 577 3149
165 590 3284
206 607 3409
252 630 3525
303 659 3635
360 696 3741
421 739 3842
488 790 3939
560 848 4034
638 912 4064
719 984 4095
16 694 16
18 703 181
20 715 342
22 729 527
24 742 742
26 752 987
28 759 1265
30 764 1564
34 767 1866
37 767 2150
45 767 2403
57 766 2622
75 766 2813
100 769 2980
131 773 3130
169 781 3266
209 793 3392
255 811 3510
305 834 3622
360 864 3728
420 900 3831
486 944 3930
557 996 4027
633 1053 4061
714 1118 4095
20 948 20
21 955 191
21 964 353
23 974 539
25 983 750
27 992 992
29 997 1263
31 1001 1556
35 1001 1852
40 1000 2131
48 998 2381
61 995 2599
81 993 2789
106 992 2957
138 993 3108
173 997 3245
214 1004 3373
258 1017 3492
308 1035 3606
362 1058 3714
421 1088 3819
485 1126 3920
555 1169 4018
629 1220 4058
708 1276 4095
23 1229 23
23 1233 197
25 1238 360
25 1245 545
26 1251 755
28 1256 993
30 1259 1259
32 1260 1546
37 1259 1836
43 1256 2110
52 1251 2357
67 1246 2573
86 1241 2763
113 1237 2932
145 1234 3083
179 1234 3222
219 1238 3351
264 1245 3473
312 1258 3588
365 1275 3699
422 1299 3805
485 1329 3908
553 1365 4008
626 1407 4055
703 1455 4095
26 1522 26
26 1525 201
26 1527 364
27 1531 549
27 1534 757
29 1535 992
31 1536 1253
34 1534 1534
40 1531 1818
47 1525 2087
58 1518 2331
74 1511 2546
96 1503 2736
123 1496 2905
153 1490 3058
188 1486 3198
227 1485 3329
270 1488 3452
317 1495 3569
369 1507 3682
425 1524 3790
486 1546 3896
552 1575 3998
623 1608 4051
698 1647 4095
27 1808 27
27 1809 203
28 1810 367
28 1811 551
30 1811 757
32 1810 989
35 1808 1245
39 1804 1520
46 1798 1798
54 1791 2063
67 1783 2304
83 1773 2518
107 1764 2708
132 1754 2877
163 1746 3031
198 1739 3173
235 1735 3305
277 1733 3430
323 1735 3549
374 1741 3664
428 1752 3775
488 1767 3882
552 1788 3987
621 1813 4047
694 1842 4095
29 2068 29
29 2069 205
31 2068 368
31 2067 551
32 2065 755
36 2063 983
39 2059 1235
44 2054 1505
53 2047 1777
63 2039 2039
77 2029 2277
95 2019 2489
118 2008 2678
145 1998 2849
175 1988 3003
208 1979 3147
245 1972 3281
287 1967 3407
331 1965 3529
380 1967 3646
434 1972 3759
492 1982 3868
554 1995 3975
621 2012 4043
691 2033 4095
33 2294 33
33 2294 206
35 2293 369
36 2291 551
38 2288 753
41 2285 977
46 2280 1225
53 2274 1489
63 2267 1756
74 2258 2013
91 2249 2249
110 2238 2460
133 2228 2649
160 2217 2820
188 2206 2975
221 2197 3120
257 2188 3256
297 2182 3385
341 2177 3508
388 2175 3627
440 2177 3742
496 2181 3854
557 2189 3963
621 2200 4039
689 2214 4095
40 2487 40
40 2486 211
41 2485 372
43 2483 551
46 2480 750
51 2476 971
57 2471 1214
65 2465 1473
75 2458 1735
89 2450 1988
107 2441 2221
126 2431 2431
149 2421 2620
174 2410 2791
203 2398 2946
233 2386 3089
266 2374 3224
303 2364 3353
343 2356 3477
387 2351 3598
434 2348 3716
486 2348 3832
543 2351 3945
602 2357 4031
664 2364 4095
49 2649 49
50 2648 216
52 2646 374
55 2643 551
58 2639 747
64 2633 964
70 2627 1200
80 2619 1451
91 2610 1705
104 2600 1950
120 2589 2176
138 2578 2381
159 2566 2566
181 2553 2734
206 2541 2889
234 2529 3035
265 2518 3173
297 2508 3306
334 2499 3435
374 2493 3561
418 2489 3684
465 2487 3805
516 2488 3923
570 2490 4022
626 2493 4095
60 2764 60
61 2763 221
62 2761 377
67 2758 551
71 2754 743
76 2749 953
83 2744 1181
93 2737 1422
103 2729 1666
116 2720 1903
130 2710 2124
146 2700 2325
165 2689 2509
186 2678 2678
208 2666 2835
234 2656 2983
261 2645 3125
291 2636 3261
324 2628 3394
360 2621 3525
399 2617 3652
442 2614 3778
488 2613 3903
537 2613 4012
586 2613 4095
74 2870 74
75 2869 228
77 2867 382
80 2865 553
84 2861 740
90 2857 944
97 2851 1164
105 2845 1396
114 2838 1631
126 2830 1861
139 2822 2075
154 2813 2273
171 2803 2456
189 2793 2625
210 2783 2783
232 2773 2934
257 2764 3078
284 2756 3219
313 2748 3356
345 2742 3490
380 2737 3623
418 2734 3754
459 2732 3883
502 2731 4003
547 2730 4095
87 2973 87
88 2972 236
91 2971 388
93 2969 556
97 2966 739
102 2962 938
108 2957 1150
115 2952 1374
125 2946 1601
134 2939 1822
147 2931 2031
160 2923 2226
175 2914 2407
191 2906 2576
209 2897 2736
229 2889 2889
251 2880 3036
275 2873 3180
301 2866 3320
329 2860 3459
360 2855 3596
394 2852 3731
431 2850 3865
469 2848 3994
507 2846 4095
100 3079 100
101 3079 244
102 3077 395
105 3075 560
108 3073 740
113 3069 933
118 3065 1139
125 3060 1355
133 3055 1574
142 3049 1788
153 3042 1993
165 3035 2184
178 3028 2363
192 3020 2532
208 3013 2693
226 3005 2848
245 2998 2998
265 2991 3144
288 2985 3289
313 2980 3431
341 2976 3572
371 2972 3711
403 2970 3849
436 2968 3986
469 2966 4095
111 3191 111
112 3190 254
114 3189 403
116 3187 566
119 3185 743
123 3182 931
128 3179 1131
134 3174 1340
141 3170 1552
149 3164 1760
158 3159 1960
169 3152 2148
180 3146 2326
193 3139 2495
207 3133 2656
222 3126 2813
239 3120 2965
257 3114 3114
277 3109 3261
299 3104 3406
323 3100 3551
349 3097 3694
377 3095 3836
406 3092 3977
435 3090 4095
123 3310 123
123 3309 264
125 3308 412
127 3307 573
130 3305 747
133 3302 932
137 3299 1127
143 3295 1330
149 3291 1535
156 3287 1738
164 3282 1933
173 3276 2119
183 3271 2295
194 3265 2464
207 3259 2626
220 3253 2783
235 3248 2937
250 3243 3089
268 3238 3238
287 3234 3386
308 3230 3533
331 3228 3679
356 3225 3825
381 3223 3969
406 3221 4095
135 3436 135
136 3436 276
137 3435 423
138 3434 583
141 3432 753
144 3430 935
148 3427 1126
152 3424 1324
158 3420 1524
164 3416 1722
171 3412 1913
179 3407 2097
188 3402 2272
198 3397 2440
209 3392 2603
220 3387 2761
233 3383 2916
247 3378 3069
263 3374 3220
280 3370 3370
299 3367 3520
319 3365 3668
341 3363 3816
363 3361 3963
384 3359 4095
148 3570 148
149 3569 289
150 3569 436
152 3567 594
154 3566 762
157 3564 941
160 3562 1128
165 3559 1322
169 3556 1518
175 3552 1712
182 3549 1900
189 3545 2082
197 3540 2256
205 3536 2423
215 3532 2586
225 3527 2745
237 3523 2901
249 3519 3055
263 3516 3207
279 3512 3359
296 3510 3510
314 3507 3660
334 3505 3809
353 3504 3958
372 3502 4095
165 3708 165
166 3708 306
167 3707 452
169 3706 608
171 3705 774
173 3703 950
176 3701 1135
180 3699 1325
185 3696 1517
190 3693 1708
196 3690 1894
202 3687 2073
209 3683 2246
217 3679 2413
226 3675 2575
236 3672 2734
246 3668 2891
257 3665 3045
270 3662 3199
284 3659 3351
300 3656 3503
316 3654 3654
334 3652 3805
352 3651 3955
368 3649 4095
185 3849 185
186 3848 325
187 3848 470
188 3848 625
190 3847 789
192 3845 963
195 3844 1144
199 3842 1331
203 3839 1520
208 3837 1708
213 3834 1891
219 3831 2068
226 3828 2240
233 3825 2406
241 3822 2569
250 3818 2728
259 3815 2884
270 3812 3039
281 3810 3193
294 3807 3346
308 3805 3498
324 3803 3650
340 3802 3802
356 3800 3952
371 3798 4095
205 3970 205
206 3970 345
207 3970 489
208 3970 642
209 3970 805
212 3969 976
214 3969 1155
217 3969 1339
221 3968 1524
225 3968 1709
230 3967 1889
235 3966 2065
241 3966 2235
248 3965 2400
255 3964 2562
263 3963 2721
271 3963 2878
281 3961 3033
291 3958 3187
303 3956 3341
315 3954 3494
329 3953 3646
344 3951 3798
359 3950 3950
371 3948 4095
217 4095 217
218 4095 358
219 4095 503
219 4095 656
221 4095 817
222 4095 986
225 4095 1162
227 4095 1342
230 4095 1523
234 4095 1704
238 4095 1881
242 4095 2054
247 4095 2223
252 4095 2388
258 4095 2550
264 4095 2709
271 4095 2866
279 4095 3022
287 4095 3177
297 4095 3332
308 4095 3486
320 4095 3640
332 4095 3794
344 4095 3947
354 4095 4095
155 9 9
165 13 165
171 16 320
175 15 495
182 20 705
193 24 967
201 26 1263
206 30 1582
209 32 1900
214 36 2196
216 42 2455
224 52 2677
232 69 2868
246 91 3033
265 124 3179
290 161 3312
320 204 3434
357 251 3548
400 303 3656
451 361 3759
508 424 3857
571 492 3953
641 567 4042
717 646 4068
799 731 4095
165 165 13
169 169 169
173 173 323
175 175 497
186 186 714
194 194 973
203 203 1265
206 206 1581
210 210 1896
213 213 2190
218 218 2449
223 223 2670
233 233 2861
247 247 3027
266 266 3174
290 290 3307
321 321 3429
358 358 3543
402 402 3652
452 452 3755
508 508 3854
572 572 3950
642 642 4040
717 717 4068
798 798 4095
171 320 15
173 323 173
175 326 326
178 332 504
189 346 724
197 356 978
202 363 1266
207 369 1576
210 372 1888
213 374 2180
217 376 2437
224 380 2658
234 386 2849
247 395 3015
266 408 3163
291 426 3296
323 449 3420
359 479 3535
402 515 3644
453 558 3748
508 609 3849
572 666 3945
641 731 4037
715 802 4066
796 878 4095
174 496 15
174 498 174
178 505 332
187 519 519
193 532 735
200 542 984
203 550 1266
207 554 1571
210 557 1878
213 559 2165
217 559 2420
224 562 2641
235 564 2831
248 569 2998
268 578 3147
293 591 3282
324 608 3406
361 632 3523
403 661 3633
454 697 3739
509 740 3840
571 791 3938
639 850 4033
713 914 4064
792 986 4095
181 703 18
185 712 185
188 722 345
193 734 531
197 744 744
202 754 990
205 761 1266
208 765 1565
209 767 1865
214 767 2148
218 766 2401
226 766 2620
236 766 2810
250 768 2978
271 773 3128
296 782 3264
327 794 3390
363 812 3508
406 835 3620
455 865 3727
509 902 3830
570 946 3929
638 997 4026
710 1055 4061
788 1119 4095
191 955 21
192 962 192
195 969 355
198 978 540
201 986 752
203 993 993
206 998 1264
208 1000 1556
211 1001 1851
214 1000 2129
219 998 2379
227 995 2597
239 993 2787
253 991 2955
274 993 3106
299 997 3243
330 1005 3371
367 1018 3490
409 1035 3604
457 1059 3713
510 1090 3818
571 1126 3919
637 1171 4017
708 1221 4058
784 1278 4095
197 1233 23
199 1237 199
199 1242 361
200 1247 547
203 1253 756
205 1257 994
206 1260 1260
209 1260 1546
211 1258 1835
215 1255 2108
222 1251 2355
229 1245 2571
242 1241 2761
258 1236 2930
278 1234 3082
304 1235 3221
335 1238 3350
372 1245 3471
413 1258 3587
461 1276 3697
513 1300 3804
572 1330 3907
637 1366 4007
707 1408 4055
781 1456 4095
201 1524 26
201 1526 201
202 1529 365
204 1532 550
205 1534 758
206 1535 992
207 1535 1253
210 1533 1533
213 1530 1817
218 1524 2086
224 1517 2329
234 1510 2544
247 1502 2734
263 1495 2903
284 1490 3056
310 1486 3196
342 1485 3327
377 1488 3450
419 1495 3568
465 1507 3681
517 1524 3789
575 1547 3895
637 1576 3997
706 1609 4051
779 1647 4095
202 1809 26
204 1809 204
204 1810 367
205 1810 551
205 1810 757
208 1809 988
209 1807 1245
211 1803 1519
215 1797 1797
221 1789 2062
228 1781 2303
239 1772 2516
253 1762 2706
270 1753 2876
292 1745 3029
318 1738 3171
349 1734 3304
384 1733 3429
426 1735 3548
471 1741 3663
522 1752 3774
578 1768 3881
640 1788 3986
706 1813 4047
777 1842 4095
205 2068 29
205 2068 205
205 2067 368
206 2066 551
208 2064 755
209 2062 983
211 2057 1235
215 2052 1504
220 2045 1776
225 2037 2037
234 2028 2275
245 2018 2488
261 2007 2677
279 1997 2847
301 1987 3002
327 1978 3145
358 1971 3279
394 1967 3406
434 1965 3528
479 1967 3645
529 1972 3758
584 1982 3867
643 1995 3974
708 2013 4043
776 2033 4095
206 2293 33
208 2292 208
208 2291 369
209 2290 551
210 2287 753
212 2283 977
216 2278 1224
219 2272 1488
225 2265 1755
232 2257 2012
242 2247 2247
254 2237 2459
269 2227 2648
289 2216 2818
311 2205 2974
338 2196 3119
369 2188 3255
404 2181 3383
443 2177 3507
488 2175 3626
536 2176 3741
590 2181 3853
648 2189 3963
710 2200 4039
776 2214 4095
