Examples/Contrast - Brighten.3dl
#25pt 3DLUT created by 3D LUT Creator Pro (c) Oleg Sharonov
#Copyright Oleg Sharonov
0 256 512 768 1023
0 0 0
26 26 1259
67 67 2871
301 301 3658
729 729 4095
23 1229 23
30 1259 1259
86 1241 2763
312 1258 3588
703 1455 4095
49 2649 49
70 2627 1200
159 2566 2566
334 2499 3435
626 2493 4095
123 3310 123
137 3299 1127
183 3271 2295
268 3238 3238
406 3221 4095
217 4095 217
225 4095 1162
247 4095 2223
287 4095 3177
354 4095 4095
1247 25 25
1279 33 1279
1257 92 2815
1273 332 3622
1482 747 4095
1253 1253 29
1252 1252 1252
1231 1231 2726
1264 1264 3562
1470 1470 4095
1192 2602 67
1187 2581 1187
1185 2526 2526
1240 2469 3406
1408 2468 4095
1121 3285 129
1124 3275 1124
1139 3250 2272
1182 3221 3221
1266 3206 4095
1151 4095 207
1155 4095 1155
1167 4095 2204
1189 4095 3164
1227 4095 4095
2784 60 60
2762 86 1241
2700 200 2700
2634 433 3543
2632 821 4095
2708 1224 79
2689 1220 1220
2638 1223 2638
2586 1300 3499
2592 1521 4095
2485 2485 134
2470 2470 1166
2431 2431 2431
2397 2397 3337
2408 2408 4095
2239 3225 141
2232 3218 1118
2215 3199 2215
2201 3178 3178
2209 3169 4095
2170 4095 173
2166 4095 1132
2154 4095 2154
2142 4095 3128
2142 4095 4095
3569 256 256
3554 292 1242
3514 407 2597
3464 630 3464
3433 978 4095
3523 1228 273
3510 1238 1238
3468 1280 2547
3415 1389 3415
3387 1589 4095
3332 2371 239
3322 2362 1185
3295 2342 2342
3266 2330 3266
3253 2348 4095
3164 3164 150
3159 3159 1117
3146 3146 2156
3132 3132 3132
3128 3128 4095
3113 4095 114
3110 4095 1093
3100 4095 2095
3090 4095 3090
3086 4095 4095
4095 607 607
4095 642 1418
4095 754 2584
4095 957 3425
4095 1219 4095
4095 1385 588
4095 1402 1402
4095 1456 2521
4095 1559 3370
4095 1701 4095
4095 2345 417
4095 2340 1291
4095 2331 2331
4095 2326 3240
4095 2341 4095
4095 3142 191
4095 3138 1144
4095 3128 2141
4095 3117 3117
4095 3113 4095
4095 4095 95
4095 4095 1079
4095 4095 2074
4095 4095 3075
4095 4095 4095
