Examples/Contrast - Brighten.3dl
#25pt 3DLUT created by 3D LUT Creator Pro (c) Oleg Sharonov
#Copyright Oleg Sharonov
0 128 256 384 512 640 768 896 1023
0 0 0
16 16 493
26 26 1259
36 36 2198
67 67 2871
159 159 3315
301 301 3658
490 490 3954
729 729 4095
15 494 15
19 512 512
27 548 1264
36 558 2167
72 564 2834
165 590 3284
303 659 3635
488 790 3939
719 984 4095
23 1229 23
25 1245 545
30 1259 1259
43 1256 2110
86 1241 2763
179 1234 3222
312 1258 3588
485 1329 3908
703 1455 4095
29 2068 29
31 2067 551
39 2059 1235
63 2039 2039
118 2008 2678
208 1979 3147
331 1965 3529
492 1982 3868
691 2033 4095
49 2649 49
55 2643 551
70 2627 1200
104 2600 1950
159 2566 2566
234 2529 3035
334 2499 3435
465 2487 3805
626 2493 4095
87 2973 87
93 2969 556
108 2957 1150
134 2939 1822
175 2914 2407
229 2889 2889
301 2866 3320
394 2852 3731
507 2846 4095
123 3310 123
127 3307 573
137 3299 1127
156 3287 1738
183 3271 2295
220 3253 2783
268 3238 3238
331 3228 3679
406 3221 4095
165 3708 165
169 3706 608
176 3701 1135
190 3693 1708
209 3683 2246
236 3672 2734
270 3662 3199
316 3654 3654
368 3649 4095
217 4095 217
219 4095 656
225 4095 1162
234 4095 1704
247 4095 2223
264 4095 2709
287 4095 3177
320 4095 3640
354 4095 4095
493 15 15
512 19 512
549 28 1273
559 37 2186
565 74 2854
592 169 3300
662 310 3647
795 498 3947
993 734 4095
512 512 18
533 533 533
552 552 1271
558 558 2157
565 565 2820
593 593 3272
665 665 3626
796 796 3933
990 990 4095
545 1244 24
549 1252 549
554 1259 1259
556 1252 2101
566 1238 2753
599 1234 3213
674 1259 3581
802 1332 3903
986 1459 4095
551 2064 30
551 2062 551
552 2052 1232
557 2031 2031
573 2002 2670
614 1974 3139
692 1963 3523
817 1981 3864
989 2033 4095
551 2636 54
552 2629 552
555 2614 1196
565 2588 1940
588 2554 2554
631 2519 3025
704 2491 3427
811 2480 3799
952 2486 4095
555 2963 92
557 2959 557
564 2947 1148
577 2929 1815
601 2906 2398
640 2881 2881
697 2859 3314
778 2846 3727
878 2840 4095
572 3303 125
575 3300 575
582 3292 1126
595 3280 1733
616 3265 2289
647 3248 2777
689 3233 3233
745 3223 3676
812 3217 4095
606 3704 165
609 3702 609
615 3697 1134
627 3689 1704
645 3679 2240
669 3668 2729
701 3659 3195
743 3652 3652
789 3647 4095
653 4095 215
655 4095 655
660 4095 1160
670 4095 1700
683 4095 2218
700 4095 2704
722 4095 3174
751 4095 3638
781 4095 4095
1247 25 25
1264 27 548
1279 33 1279
1274 46 2154
1257 92 2815
1249 191 3268
1273 332 3622
1348 516 3929
1482 747 4095
1256 547 26
1265 551 551
1271 556 1271
1264 559 2130
1248 568 2787
1243 603 3243
1269 681 3603
1346 814 3917
1478 1007 4095
1253 1253 29
1255 1255 553
1252 1252 1252
1242 1242 2078
1231 1231 2726
1232 1232 3190
1264 1264 3562
1342 1342 3889
1470 1470 4095
1231 2048 38
1229 2045 552
1224 2033 1224
1216 2012 2012
1212 1986 2649
1223 1963 3121
1262 1956 3508
1342 1978 3853
1464 2033 4095
1192 2602 67
1190 2596 554
1187 2581 1187
1183 2557 1916
1185 2526 2526
1201 2493 2999
1240 2469 3406
1310 2460 3785
1408 2468 4095
1144 2938 102
1144 2933 562
1144 2923 1144
1146 2906 1799
1155 2884 2377
1174 2861 2861
1208 2841 3299
1262 2829 3717
1332 2825 4095
1121 3285 129
1121 3282 579
1124 3275 1124
1129 3264 1721
1139 3250 2272
1156 3234 2761
1182 3221 3221
1220 3212 3669
1266 3206 4095
1127 3693 164
1128 3691 610
1131 3687 1131
1137 3679 1694
1147 3670 2225
1161 3660 2715
1181 3651 3184
1209 3645 3645
1240 3641 4095
1151 4095 207
1152 4095 652
1155 4095 1155
1160 4095 1689
1167 4095 2204
1176 4095 2691
1189 4095 3164
1208 4095 3632
1227 4095 4095
2146 33 33
2144 35 556
2132 45 1265
2107 72 2107
2071 134 2762
2036 235 3221
2019 373 3586
2036 552 3903
2094 775 4095
2127 555 34
2123 556 556
2111 557 1256
2087 562 2087
2053 580 2738
2021 625 3201
2007 710 3570
2026 848 3893
2084 1038 4095
2081 1245 41
2077 1242 554
2064 1237 1237
2042 1228 2042
2013 1223 2686
1988 1234 3154
1981 1276 3534
2004 1360 3869
2062 1490 4095
2018 2018 60
2013 2013 555
2002 2002 1212
1984 1984 1984
1962 1962 2618
1947 1947 3092
1949 1949 3485
1975 1975 3835
2029 2029 4095
1912 2550 94
1907 2544 561
1897 2531 1175
1881 2509 1881
1865 2482 2482
1854 2456 2959
1858 2436 3375
1883 2432 3765
1928 2441 4095
1792 2898 120
1789 2895 571
1783 2885 1139
1775 2870 1775
1768 2851 2345
1765 2830 2830
1772 2813 3275
1794 2804 3702
1826 2802 4095
1711 3258 136
1710 3256 585
1707 3250 1121
1704 3240 1704
1701 3227 2247
1701 3213 2737
1707 3201 3201
1722 3194 3657
1743 3190 4095
1682 3676 161
1681 3675 611
1679 3671 1127
1678 3665 1678
1676 3657 2203
1677 3648 2693
1681 3640 3167
1692 3635 3635
1705 3632 4095
1675 4095 194
1675 4095 645
1673 4095 1146
1672 4095 1672
1670 4095 2182
1669 4095 2670
1670 4095 3148
1677 4095 3624
1685 4095 4095
2784 60 60
2778 67 560
2762 86 1241
2735 129 2051
2700 200 2700
2663 299 3168
2634 433 3543
2622 607 3872
2632 821 4095
2760 559 66
2755 561 561
2740 565 1234
2715 578 2035
2682 607 2682
2647 664 3151
2619 759 3530
2609 901 3864
2620 1086 4095
2708 1224 79
2703 1223 562
2689 1220 1220
2667 1217 1999
2638 1223 2638
2608 1246 3112
2586 1300 3499
2579 1392 3844
2592 1521 4095
2637 1977 111
2632 1973 570
2621 1964 1203
2599 1948 1948
2568 1929 2568
2537 1917 3038
2514 1923 3436
2509 1953 3801
2521 2008 4095
2485 2485 134
2481 2481 577
2470 2470 1166
2452 2452 1842
2431 2431 2431
2410 2410 2911
2397 2397 3337
2397 2397 3739
2408 2408 4095
2342 2850 143
2339 2847 586
2331 2839 1136
2320 2826 1748
2306 2810 2306
2293 2793 2793
2286 2779 3245
2288 2773 3683
2297 2772 4095
2239 3225 141
2237 3223 594
2232 3218 1118
2224 3209 1682
2215 3199 2215
2207 3187 2706
2201 3178 3178
2203 3172 3642
2209 3169 4095
2193 3656 153
2191 3655 611
2187 3652 1120
2181 3646 1657
2174 3640 2174
2167 3633 2666
2163 3627 3146
2163 3623 3623
2167 3621 4095
2170 4095 173
2169 4095 634
2166 4095 1132
2161 4095 1648
2154 4095 2154
2147 4095 2644
2142 4095 3128
2141 4095 3613
2142 4095 4095
3215 138 138
3210 148 582
3197 172 1226
3175 218 2001
3146 289 2642
3115 387 3115
3087 518 3500
3068 685 3841
3061 887 4095
3197 581 145
3191 584 584
3179 595 1223
3158 617 1989
3131 659 2626
3101 727 3101
3074 831 3489
3057 975 3834
3051 1153 4095
3153 1212 160
3148 1213 591
3137 1215 1215
3118 1222 1961
3094 1239 2591
3068 1277 3068
3045 1342 3463
3028 1438 3816
3022 1561 4095
3068 1920 180
3063 1916 601
3050 1909 1197
3029 1898 1898
3003 1889 2501
2975 1888 2975
2952 1902 3386
2939 1936 3767
2936 1988 4095
2928 2421 181
2925 2417 606
2915 2409 1167
2900 2396 1807
2881 2380 2380
2862 2366 2862
2846 2358 3298
2838 2361 3713
2837 2374 4095
2801 2801 168
2798 2798 607
2791 2791 1139
2781 2781 1723
2768 2768 2267
2755 2755 2755
2744 2744 3215
2740 2740 3664
2740 2740 4095
2707 3191 145
2705 3190 602
2701 3185 1116
2693 3178 1660
2684 3170 2182
2674 3160 2674
2667 3153 3153
2664 3148 3627
2664 3146 4095
2664 3636 140
2662 3635 607
2658 3632 1111
2652 3628 1633
2645 3623 2143
2636 3617 2636
2630 3613 3123
2627 3610 3610
2627 3609 4095
2640 4095 143
2639 4095 616
2636 4095 1112
2630 4095 1621
2623 4095 2123
2616 4095 2616
2610 4095 3107
2607 4095 3601
2605 4095 4095
3569 256 256
3565 265 641
3554 292 1242
3537 337 1973
3514 407 2597
3488 503 3072
3464 630 3464
3445 792 3813
3433 978 4095
3555 638 260
3551 645 645
3541 661 1241
3524 692 1964
3502 745 2585
3478 822 3060
3455 931 3455
3437 1073 3807
3425 1239 4095
3523 1228 273
3519 1230 654
3510 1238 1238
3494 1254 1943
3468 1280 2547
3440 1323 3016
3415 1389 3415
3397 1480 3781
3387 1589 4095
3437 1879 265
3433 1877 656
3423 1874 1215
3407 1871 1871
3387 1870 2451
3365 1877 2926
3345 1897 3345
3332 1932 3739
3325 1979 4095
3332 2371 239
3329 2369 651
3322 2362 1185
3310 2353 1789
3295 2342 2342
3280 2333 2823
3266 2330 3266
3258 2335 3692
3253 2348 4095
3235 2761 198
3233 2759 635
3228 2753 1151
3220 2745 1709
3210 2735 2238
3199 2724 2724
3190 2716 3190
3185 2714 3648
3183 2715 4095
3164 3164 150
3163 3163 612
3159 3159 1117
3154 3154 1644
3146 3146 2156
3139 3139 2648
3132 3132 3132
3129 3129 3615
3128 3128 4095
3131 3620 127
3130 3619 602
3127 3617 1102
3122 3614 1613
3117 3610 2117
3110 3605 2612
3105 3602 3105
3102 3600 3600
3101 3599 4095
3113 4095 114
3112 4095 596
3110 4095 1093
3106 4095 1596
3100 4095 2095
3094 4095 2592
3090 4095 3090
3087 4095 3591
3086 4095 4095
3894 411 411
3891 421 752
3883 447 1305
3869 493 1983
3851 562 2579
3830 657 3047
3810 781 3440
3793 932 3793
3780 1098 4095
3885 747 414
3882 755 755
3874 776 1305
3861 814 1976
3844 872 2569
3824 956 3037
3804 1065 3431
3786 1194 3786
3773 1336 4095
3862 1285 416
3858 1289 761
3849 1300 1300
3834 1319 1947
3815 1352 2521
3794 1399 2985
3775 1465 3386
3760 1549 3760
3749 1642 4095
3801 1877 376
3798 1876 745
3791 1877 1269
3780 1878 1878
3765 1884 2432
3749 1896 2901
3734 1918 3323
3723 1952 3723
3715 1993 4095
3735 2349 318
3733 2347 719
3728 2343 1228
3720 2336 1797
3709 2329 2329
3698 2323 2805
3688 2322 3249
3680 2330 3680
3676 2341 4095
3675 2740 243
3673 2738 678
3670 2734 1178
3664 2727 1713
3658 2719 2227
3650 2710 2710
3644 2704 3178
3640 2702 3640
3638 2703 4095
3632 3150 167
3631 3149 631
3628 3146 1128
3625 3141 1641
3620 3135 2145
3616 3128 2636
3612 3122 3122
3609 3120 3609
3608 3119 4095
3612 3612 127
3611 3611 606
3609 3609 1102
3607 3607 1606
3603 3603 2105
3599 3599 2600
3596 3596 3096
3595 3595 3595
3594 3594 4095
3601 4095 101
3601 4095 588
3599 4095 1084
3597 4095 1583
3594 4095 2082
3591 4095 2579
3588 4095 3081
3587 4095 3587
3586 4095 4095
4095 607 607
4095 617 917
4095 642 1418
4095 687 2030
4095 754 2584
4095 844 3037
4095 957 3425
4095 1089 3778
4095 1219 4095
4095 909 606
4095 918 918
4095 940 1417
4095 980 2024
4095 1040 2575
4095 1120 3026
4095 1211 3412
4095 1320 3769
4095 1430 4095
4095 1385 588
4095 1390 910
4095 1402 1402
4095 1423 1987
4095 1456 2521
4095 1501 2970
4095 1559 3370
4095 1629 3745
4095 1701 4095
4095 1906 515
4095 1907 868
4095 1909 1354
4095 1913 1913
4095 1921 2434
4095 1933 2891
4095 1953 3310
4095 1983 3712
4095 2015 4095
4095 2345 417
4095 2343 809
4095 2340 1291
4095 2336 1823
4095 2331 2331
4095 2327 2797
4095 2326 3240
4095 2333 3673
4095 2341 4095
4095 2730 301
4095 2728 732
4095 2725 1216
4095 2719 1727
4095 2712 2226
4095 2704 2704
4095 2698 3171
4095 2697 3635
4095 2697 4095
4095 3142 191
4095 3141 655
4095 3138 1144
4095 3134 1645
4095 3128 2141
4095 3122 2630
4095 3117 3117
4095 3115 3606
4095 3113 4095
4095 3607 133
4095 3606 613
4095 3605 1105
4095 3602 1603
4095 3599 2099
4095 3596 2594
4095 3593 3091
4095 3592 3592
4095 3591 4095
4095 4095 95
4095 4095 584
4095 4095 1079
4095 4095 1576
4095 4095 2074
4095 4095 2572
4095 4095 3075
4095 4095 3584
4095 4095 4095
