Examples/Curves - RGB Skin contrast 2.3dl
#25pt 3DLUT created by 3D LUT Creator Pro (c) Oleg Sharonov
#Copyright Oleg Sharonov
#IMAGEPROFILE sRGB IEC61966-2.1 v.2.10
#INPUTGAMMA sRGB IEC61966-2.1 v.2.10
#OUTPUTGAMMA sRGB IEC61966-2.1 v.2.10
0 256 512 768 1023
0 0 0
0 0 1089
0 0 2614
0 0 3787
0 0 4095
0 953 0
0 954 1093
0 952 2618
0 952 3785
0 959 4095
0 2253 0
0 2255 1094
0 2254 2620
0 2257 3781
0 2264 4095
0 3650 0
0 3650 1094
0 3648 2621
0 3648 3776
0 3653 4095
2 4095 0
0 4095 1100
0 4095 2628
0 4095 3778
0 4095 4095
972 0 0
971 0 1093
969 0 2617
968 0 3785
972 0 4095
973 955 0
973 956 1097
970 954 2623
968 954 3783
973 960 4095
971 2256 0
971 2258 1096
968 2258 2624
967 2260 3779
971 2268 4095
969 3651 0
969 3651 1097
966 3649 2625
965 3649 3774
970 3654 4095
973 4095 0
972 4095 1102
969 4095 2632
968 4095 3776
974 4095 4095
2111 0 0
2111 0 1096
2108 0 2622
2108 0 3782
2113 0 4095
2112 956 0
2112 957 1098
2109 954 2625
2109 955 3780
2115 961 4095
2111 2258 0
2111 2261 1099
2108 2260 2627
2108 2262 3776
2114 2270 4095
2109 3651 0
2109 3652 1098
2107 3649 2628
2107 3648 3771
2112 3654 4095
2114 4095 0
2114 4095 1105
2112 4095 2635
2111 4095 3772
2117 4095 4095
3269 0 0
3269 0 1096
3266 0 2624
3266 0 3779
3272 0 4095
3270 956 0
3270 956 1099
3267 954 2627
3267 955 3777
3273 961 4095
3269 2260 0
3269 2263 1099
3266 2262 2629
3267 2264 3773
3272 2272 4095
3267 3651 0
3267 3651 1100
3265 3649 2630
3265 3648 3768
3271 3654 4095
3272 4095 0
3272 4095 1105
3270 4095 2637
3270 4095 3769
3276 4095 4095
4095 0 0
4095 0 1100
4095 0 2628
4095 0 3778
4095 0 4095
4095 958 0
4095 959 1103
4095 957 2632
4095 958 3776
4095 963 4095
4095 2265 0
4095 2267 1103
4095 2266 2634
4095 2268 3771
4095 2276 4095
4095 3653 0
4095 3653 1102
4095 3650 2634
4095 3650 3767
4095 3656 4095
4095 4095 0
4095 4095 1106
4095 4095 2641
4095 4095 3768
4095 4095 4095
