Examples/Curves - Uniform Low Contrast.3dl
#25pt 3DLUT created by 3D LUT Creator Pro (c) Oleg Sharonov
#Copyright Oleg Sharonov
0 43 86 128 171 214 256 299 341 384 427 469 512 555 597 640 682 725 768 810 853 896 938 981 1023 
314 314 314
314 314 333
314 314 383
314 314 459
312 312 553
306 306 656
287 287 779
241 241 920
138 138 1067
0 0 1206
0 0 1337
0 0 1477
0 0 1621
0 0 1772
0 0 1927
0 0 2085
0 0 2248
0 0 2407
0 0 2570
0 0 2732
0 0 2892
0 0 3051
0 0 3208
0 0 3362
0 0 3512
314 332 314
314 332 332
314 332 383
314 331 460
312 329 555
305 324 660
286 308 783
239 269 923
130 191 1073
0 148 1212
0 156 1347
0 164 1490
0 169 1637
0 171 1789
0 176 1946
0 179 2105
0 183 2265
0 186 2428
0 190 2590
0 193 2752
0 200 2911
0 200 3070
0 205 3226
0 213 3379
0 223 3528
314 383 314
314 383 332
314 383 383
314 383 461
311 382 556
303 379 664
282 366 789
233 335 928
107 284 1084
0 266 1224
0 265 1364
0 270 1507
0 276 1660
0 282 1814
0 287 1972
0 292 2132
0 299 2293
0 305 2454
0 311 2616
0 315 2777
0 321 2937
0 327 3094
0 335 3249
0 341 3401
0 347 3550
314 461 314
314 462 333
314 463 385
312 463 463
308 463 559
300 460 668
275 450 797
216 430 942
43 400 1100
0 395 1238
0 393 1386
0 392 1536
0 396 1689
0 403 1846
0 410 2006
0 416 2168
0 423 2331
0 429 2493
0 437 2655
0 444 2816
0 453 2975
0 459 3131
0 466 3286
0 472 3436
0 486 3582
312 558 312
312 559 334
311 560 386
308 562 465
303 563 563
291 562 678
258 557 810
185 548 959
0 536 1114
0 533 1258
0 534 1411
0 535 1566
0 536 1725
0 539 1888
0 542 2052
0 551 2215
0 559 2380
0 567 2542
0 574 2704
0 583 2865
0 591 3023
0 598 3179
0 607 3332
0 624 3478
0 644 3620
306 669 306
305 671 333
304 673 387
299 676 467
291 681 566
268 686 686
220 688 824
116 686 978
0 682 1128
0 682 1281
0 683 1438
0 687 1600
0 691 1764
0 696 1930
0 701 2098
0 707 2265
0 714 2433
0 721 2597
0 729 2760
0 739 2921
0 749 3077
0 762 3231
0 775 3380
0 791 3525
0 808 3665
287 803 287
285 805 323
281 809 380
274 815 462
256 822 567
219 830 693
139 837 837
0 839 991
0 840 1146
0 841 1304
0 845 1469
0 851 1635
0 857 1804
0 863 1974
0 870 2145
0 878 2315
0 886 2485
0 894 2651
0 903 2815
0 913 2976
0 924 3132
0 936 3285
0 949 3433
0 965 3576
329 1015 3695
241 961 241
236 965 291
229 969 359
213 976 453
181 984 568
115 994 700
0 999 847
0 1002 1002
0 1005 1162
0 1010 1328
0 1017 1498
0 1025 1670
0 1033 1844
0 1041 2019
0 1049 2193
0 1058 2367
0 1067 2538
0 1076 2707
0 1086 2872
0 1096 3033
0 1107 3190
0 1119 3342
0 1132 3489
187 1155 3623
518 1227 3721
140 1140 140
131 1143 233
111 1148 325
60 1155 438
0 1160 567
0 1163 708
0 1168 858
0 1173 1015
0 1180 1180
0 1189 1351
0 1198 1527
0 1207 1704
0 1217 1884
0 1227 2063
0 1237 2241
0 1246 2418
0 1256 2591
0 1266 2761
0 1276 2928
0 1287 3090
0 1298 3247
0 1309 3398
0 1322 3544
445 1372 3651
670 1436 3745
0 1321 0
0 1323 204
0 1326 320
0 1330 445
0 1335 580
0 1342 723
0 1348 874
0 1355 1033
0 1365 1201
0 1375 1375
0 1386 1555
0 1398 1737
0 1410 1921
0 1421 2104
0 1432 2286
0 1443 2466
0 1454 2642
0 1464 2815
0 1474 2983
0 1485 3145
0 1496 3302
0 1507 3453
378 1537 3575
617 1586 3676
808 1643 3766
0 1507 0
0 1510 209
0 1515 329
0 1519 459
0 1525 596
0 1533 742
0 1541 896
0 1550 1057
0 1560 1226
0 1571 1401
0 1583 1583
0 1596 1768
0 1610 1956
0 1623 2143
0 1635 2329
0 1646 2511
0 1657 2690
0 1668 2864
0 1679 3034
0 1689 3197
0 1699 3354
305 1718 3489
566 1753 3600
763 1797 3698
939 1849 3783
0 1709 0
0 1712 220
0 1718 337
0 1722 475
0 1729 616
0 1737 765
0 1745 921
0 1754 1084
0 1764 1255
0 1775 1431
0 1787 1613
0 1799 1799
0 1814 1990
0 1828 2180
0 1841 2368
0 1853 2553
0 1865 2735
0 1876 2911
0 1886 3081
0 1897 3244
204 1908 3393
512 1932 3513
719 1965 3620
899 2004 3714
1066 2051 3793
0 1924 0
0 1927 229
0 1933 353
0 1938 493
0 1944 638
0 1952 790
0 1960 950
0 1969 1116
0 1978 1288
0 1988 1464
0 1999 1647
0 2010 1833
0 2022 2022
0 2037 2215
0 2051 2405
0 2063 2592
0 2076 2775
0 2086 2952
0 2096 3123
0 2107 3287
453 2121 3415
673 2143 3532
858 2172 3635
1029 2207 3724
1192 2250 3798
0 2152 0
0 2155 241
0 2160 369
0 2164 513
0 2170 663
0 2176 820
0 2183 982
0 2191 1150
0 2199 1323
0 2208 1501
0 2217 1684
0 2227 1869
0 2237 2058
0 2248 2248
0 2262 2440
0 2275 2629
0 2287 2813
0 2297 2990
0 2307 3161
377 2315 3306
622 2329 3433
815 2348 3546
991 2373 3644
1157 2404 3728
1317 2441 3796
0 2389 0
0 2391 250
0 2395 386
0 2398 536
0 2402 691
0 2408 851
0 2414 1016
0 2420 1186
0 2426 1361
0 2433 1540
0 2440 1723
0 2447 1908
0 2455 2096
0 2463 2285
0 2473 2473
0 2485 2662
0 2497 2846
0 2507 3024
279 2513 3185
564 2519 3322
771 2529 3446
953 2545 3555
1121 2565 3648
1284 2592 3726
1442 2624 3787
0 2633 0
0 2634 266
0 2637 407
0 2639 563
0 2642 721
0 2645 884
0 2649 1052
0 2653 1224
0 2657 1400
0 2662 1581
0 2666 1764
0 2671 1949
0 2675 2136
0 2680 2323
0 2687 2509
0 2693 2693
0 2703 2877
99 2711 3052
499 2710 3200
724 2714 3335
912 2721 3455
1086 2732 3559
1252 2748 3647
1413 2770 3718
1568 2796 3774
0 2881 0
0 2881 285
0 2881 438
0 2882 594
0 2883 755
0 2885 921
0 2887 1091
0 2888 1265
0 2890 1443
0 2892 1624
0 2893 1807
0 2894 1992
0 2896 2178
0 2897 2363
0 2899 2546
0 2902 2728
0 2906 2906
428 2902 3067
675 2898 3213
872 2898 3344
1052 2901 3459
1221 2908 3559
1384 2919 3641
1542 2935 3705
1692 2954 3760
379 3094 379
377 3094 475
378 3095 577
376 3095 704
375 3096 846
374 3097 1000
370 3098 1160
367 3099 1328
362 3100 1500
356 3100 1676
354 3100 1856
356 3098 2037
364 3097 2218
385 3094 2399
421 3091 2577
475 3087 2752
543 3084 2920
630 3080 3080
837 3073 3223
1021 3068 3350
1193 3066 3461
1358 3068 3555
1519 3075 3630
1673 3084 3691
1815 3093 3747
628 3288 628
628 3288 688
630 3288 762
631 3288 863
633 3288 982
634 3287 1117
636 3287 1264
640 3286 1420
643 3284 1582
650 3282 1750
658 3279 1921
670 3275 2094
686 3270 2268
710 3265 2440
744 3259 2611
788 3252 2777
844 3245 2938
914 3238 3090
998 3233 3233
1172 3223 3355
1338 3216 3460
1499 3213 3548
1657 3213 3617
1804 3214 3679
1940 3214 3736
854 3465 854
854 3465 899
856 3464 956
858 3464 1037
861 3462 1138
865 3461 1256
870 3458 1388
876 3455 1530
884 3451 1681
894 3447 1837
906 3441 1998
923 3435 2162
944 3427 2327
970 3418 2491
1004 3409 2652
1047 3399 2810
1099 3388 2961
1163 3378 3105
1239 3368 3238
1326 3359 3359
1487 3347 3458
1646 3338 3538
1796 3330 3606
1935 3321 3670
2064 3312 3729
1075 3622 1075
1077 3621 1111
1078 3620 1157
1081 3618 1223
1085 3616 1309
1090 3613 1412
1096 3609 1529
1104 3604 1657
1114 3598 1795
1127 3591 1940
1142 3583 2089
1160 3573 2242
1183 3562 2396
1211 3551 2550
1246 3538 2701
1288 3524 2849
1338 3509 2990
1399 3495 3124
1469 3481 3248
1550 3467 3359
1642 3456 3456
1795 3440 3531
1935 3424 3601
2064 3411 3665
2251 3390 3703
1299 3753 1299
1300 3752 1327
1302 3751 1365
1306 3748 1421
1310 3745 1494
1315 3740 1582
1323 3735 1685
1332 3728 1800
1343 3720 1924
1357 3711 2056
1373 3700 2193
1393 3687 2334
1417 3673 2476
1446 3658 2619
1481 3641 2759
1522 3624 2896
1571 3605 3026
1629 3586 3149
1695 3568 3262
1770 3551 3362
1853 3538 3447
1939 3527 3527
2067 3511 3596
2184 3497 3659
2445 3461 3675
1525 3856 1525
1526 3855 1549
1529 3853 1580
1532 3849 1627
1537 3845 1689
1543 3839 1765
1551 3832 1855
1561 3824 1956
1572 3813 2067
1587 3801 2185
1604 3788 2310
1625 3772 2437
1650 3755 2568
1679 3736 2698
1713 3716 2826
1753 3696 2950
1799 3676 3068
1851 3657 3177
1910 3640 3276
1977 3626 3362
2047 3614 3441
2117 3603 3518
2188 3592 3592
2295 3577 3655
2633 3525 3651
1753 3926 1753
1755 3924 1773
1757 3921 1800
1761 3918 1839
1766 3912 1892
1772 3905 1957
1780 3897 2035
1790 3887 2123
1802 3875 2220
1816 3861 2325
1833 3846 2435
1852 3830 2549
1875 3812 2665
1901 3794 2780
1932 3776 2893
1968 3757 3003
2009 3740 3106
2055 3723 3201
2108 3709 3286
2166 3696 3363
2223 3684 3440
2281 3672 3514
2340 3661 3585
2410 3649 3649
2808 3581 3634
2603 3766 2603
2605 3765 2611
2606 3763 2622
2609 3761 2639
2614 3757 2661
2619 3753 2689
2626 3747 2723
2634 3741 2763
2644 3734 2807
2656 3726 2855
2669 3718 2906
2685 3709 2960
2702 3700 3014
2722 3692 3067
2743 3684 3119
2766 3677 3172
2790 3669 3225
2813 3662 3279
2837 3655 3333
2860 3648 3387
2883 3642 3440
2908 3636 3490
2935 3631 3538
2965 3626 3582
2996 3622 3622
331 314 314
332 314 332
331 314 382
331 314 458
329 312 552
323 305 662
307 286 779
268 240 921
187 127 1074
137 0 1209
127 0 1347
112 0 1488
83 0 1636
36 0 1793
0 0 1946
0 0 2107
0 0 2266
0 0 2426
0 0 2588
0 0 2749
0 0 2909
0 0 3067
0 0 3224
69 0 3375
144 0 3522
332 332 314
332 332 332
332 332 384
331 331 461
330 330 555
325 325 661
308 308 784
269 269 925
187 187 1079
0 0 1229
0 0 1365
0 0 1509
0 0 1656
0 0 1810
0 0 1966
0 0 2125
0 0 2287
0 0 2447
0 0 2609
0 0 2770
0 0 2930
0 0 3087
0 0 3243
0 0 3396
0 0 3576
332 384 314
332 384 332
332 384 384
332 384 463
330 383 558
324 379 665
307 366 791
267 335 931
183 282 1086
0 224 1241
0 218 1382
0 217 1529
0 221 1678
0 223 1833
0 225 1991
0 228 2151
0 230 2312
0 234 2474
0 236 2635
0 240 2795
0 245 2955
0 250 3112
0 255 3267
0 261 3417
0 270 3596
333 461 314
333 462 333
332 463 385
332 464 464
330 464 560
324 462 671
304 451 801
258 430 945
169 399 1102
0 372 1258
0 367 1404
0 362 1554
0 362 1710
0 366 1868
0 371 2027
0 377 2188
0 382 2350
0 386 2511
0 392 2674
0 398 2833
0 404 2991
0 410 3147
0 416 3301
0 422 3451
0 437 3624
334 559 312
334 560 334
333 561 386
331 563 466
327 564 564
319 563 680
292 559 814
240 549 962
135 531 1122
0 521 1277
0 518 1429
0 515 1584
0 515 1746
0 515 1908
0 517 2072
0 524 2235
0 530 2397
0 537 2561
0 544 2723
0 550 2882
0 556 3039
0 564 3194
0 573 3346
0 590 3492
0 612 3659
333 671 305
333 673 333
332 675 387
328 678 467
321 683 566
301 688 688
267 689 827
206 687 980
25 680 1145
0 676 1298
0 676 1457
0 676 1617
0 678 1782
0 680 1948
0 684 2115
0 689 2282
0 694 2450
0 699 2613
0 707 2776
0 716 2936
0 724 3093
0 736 3245
0 750 3394
0 764 3539
150 797 3696
323 805 285
321 808 321
318 811 380
312 818 462
298 825 568
269 833 695
217 840 840
128 842 998
0 842 1159
0 841 1320
0 842 1484
0 845 1651
0 849 1822
0 854 1992
0 859 2163
0 865 2333
0 872 2501
0 879 2667
0 887 2831
0 895 2991
0 906 3147
0 917 3299
0 930 3447
0 944 3590
401 1018 3719
291 965 237
289 968 289
283 972 358
272 979 453
251 987 568
215 996 700
139 1005 850
0 1010 1010
0 1012 1174
0 1014 1342
0 1018 1512
0 1023 1685
0 1029 1860
0 1036 2035
0 1042 2209
0 1049 2382
0 1057 2555
0 1065 2722
0 1074 2887
0 1083 3048
0 1093 3204
0 1105 3356
0 1116 3503
333 1157 3623
564 1232 3742
233 1144 130
228 1146 228
220 1151 323
203 1158 436
170 1166 564
101 1177 706
0 1182 860
0 1184 1021
0 1189 1189
0 1195 1363
0 1202 1540
0 1210 1718
0 1217 1898
0 1225 2077
0 1233 2256
0 1242 2432
0 1250 2606
0 1259 2777
0 1268 2943
0 1277 3104
0 1287 3260
0 1299 3412
243 1320 3546
522 1374 3651
706 1441 3764
204 1324 0
107 1343 107
81 1346 273
0 1353 416
0 1356 564
0 1360 716
0 1364 873
0 1370 1038
0 1376 1207
0 1384 1384
0 1393 1566
0 1404 1749
0 1413 1934
0 1423 2117
0 1432 2299
0 1441 2480
0 1450 2656
0 1459 2828
0 1469 2996
0 1478 3158
0 1488 3315
133 1501 3462
469 1540 3575
674 1589 3677
838 1649 3782
205 1512 0
0 1535 0
0 1538 265
0 1541 423
0 1546 576
0 1552 731
0 1558 892
0 1566 1058
0 1573 1230
0 1581 1408
0 1591 1591
0 1603 1779
0 1615 1967
0 1626 2155
0 1636 2341
0 1646 2524
0 1656 2703
0 1666 2877
0 1675 3046
0 1684 3209
0 1694 3366
415 1720 3489
630 1755 3600
810 1800 3698
964 1855 3795
