Examples/Curves - Color Contrast.3dl
#25pt 3DLUT created by 3D LUT Creator Pro (c) Oleg Sharonov
#Copyright Oleg Sharonov
0 256 512 768 1023
0 0 0
0 0 631
0 0 1528
0 0 2306
0 0 3181
0 733 0
0 735 735
0 744 1538
0 761 2378
0 786 3271
0 1663 0
0 1666 815
0 1678 1678
0 1698 2564
0 1726 3485
0 2746 0
0 2748 902
0 2758 1831
0 2774 2774
0 2799 3738
0 3940 0
0 3942 980
0 3950 1971
0 3963 2971
0 3983 3983
735 0 0
739 0 739
729 0 1512
741 0 2326
768 0 3209
740 740 0
1024 1024 1024
906 906 1833
833 833 2568
824 824 3404
818 1673 0
938 1892 938
941 1897 1897
886 1797 2708
877 1780 3585
904 2754 0
937 2843 937
940 2849 1894
944 2861 2861
938 2846 3799
981 3947 0
988 3971 988
990 3977 1986
993 3989 2990
998 4006 4006
1530 0 0
1535 0 742
1551 0 1551
1582 0 2396
1624 0 3291
1580 767 0
1849 914 914
1856 919 1856
1735 852 2618
1717 842 3467
1705 1705 0
1906 1906 946
2048 2048 2048
2003 2003 3007
1916 1916 3844
1847 2780 0
1903 2862 944
2021 3033 2021
2023 3035 3035
1972 2962 3952
1981 3968 0
1992 3989 993
2020 4043 2020
2023 4048 3036
2027 4057 4057
2447 0 0
2453 0 789
2472 0 1635
2507 0 2507
2555 0 3418
2505 809 0
2656 866 866
2669 871 1770
2692 880 2692
2666 871 3564
2647 1755 0
2764 1835 907
3014 2008 2008
3017 2010 3017
2909 1935 3882
2825 2825 0
2895 2895 957
3039 3039 2025
3071 3071 3071
3065 3065 4087
3003 4005 0
3015 4021 1003
3044 4059 2029
3070 4093 3070
3070 4093 4093
3465 0 0
3471 0 843
3489 0 1729
3521 0 2633
3566 0 3566
3519 857 0
3606 883 883
3620 886 1798
3645 894 2728
3681 904 3681
3660 1819 0
3727 1854 917
3905 1948 1948
3915 1953 2934
3931 1961 3931
3853 2886 0
3891 2916 965
3992 2992 1993
4088 3066 3066
4089 3067 4089
4059 4059 0
4067 4067 1015
4083 4083 2041
4094 4094 3071
4095 4095 4095
