Examples/Curves - SMHRings - HalfSepia.3dl
#40pt 3DLUT created by 3D LUT Creator Pro (c) Oleg Sharonov
#Copyright Oleg Sharonov
#INPUTGAMMA sRGB IEC61966-2.1 v.2.10
#IMAGEPROFILE sRGB IEC61966-2.1 v.2.10
#OUTPUTGAMMA sRGB IEC61966-2.1 v.2.10
0 27 53 79 105 132 158 184 210 237 263 289 315 341 368 394 420 446 473 499 525 551 578 604 630 656 682 709 735 761 787 814 840 866 892 919 945 971 997 1023 
0 0 0
0 0 74
0 0 147
0 0 221
0 0 294
0 0 368
0 0 441
0 1 515
0 9 588
0 17 662
0 27 735
0 37 809
0 47 882
0 56 967
0 65 1053
0 75 1139
0 85 1224
0 94 1310
4 104 1395
36 113 1481
66 123 1567
98 133 1653
130 143 1738
161 153 1824
192 163 1911
223 174 1998
253 184 2086
283 195 2174
313 205 2261
341 216 2348
368 228 2436
394 239 2523
419 250 2610
443 262 2698
465 275 2785
486 287 2872
505 299 2959
522 312 3047
534 323 3134
546 334 3221
0 74 0
0 76 74
0 76 147
0 77 221
0 81 294
0 85 368
0 91 441
0 96 515
0 103 588
0 111 662
0 118 735
0 127 813
0 134 897
0 143 982
0 151 1066
0 159 1150
0 168 1235
0 177 1320
28 186 1405
58 195 1491
88 205 1576
119 214 1661
149 223 1746
179 234 1832
210 244 1919
239 254 2006
268 264 2093
297 274 2180
325 285 2268
353 296 2355
379 307 2442
404 318 2529
429 329 2616
451 341 2703
473 353 2790
493 365 2877
511 378 2964
526 390 3051
538 401 3138
549 412 3225
0 175 0
0 176 74
0 177 147
0 178 221
0 179 294
0 182 368
0 186 441
0 190 515
0 195 588
0 201 662
0 207 744
0 214 827
0 221 910
0 228 993
0 236 1077
0 244 1161
0 252 1246
24 260 1330
53 269 1414
81 278 1499
110 287 1584
140 296 1669
168 305 1754
197 314 1840
227 324 1927
255 334 2013
283 344 2100
312 354 2187
339 365 2274
365 376 2361
390 386 2447
414 397 2534
438 409 2621
460 420 2708
480 432 2795
499 444 2882
516 457 2968
530 468 3055
541 479 3142
553 489 3229
0 278 0
0 278 74
0 279 147
0 280 221
0 280 294
0 281 368
0 283 441
0 286 515
0 290 595
0 294 677
0 299 759
0 305 842
0 311 925
0 317 1008
0 324 1091
3 331 1174
29 339 1258
55 346 1342
81 354 1426
109 363 1510
136 370 1594
164 379 1679
192 388 1764
221 397 1850
248 407 1936
275 416 2023
302 426 2109
329 436 2196
354 446 2282
380 457 2369
404 468 2455
428 478 2542
450 490 2628
470 501 2715
489 512 2801
507 525 2888
523 536 2974
535 547 3061
546 558 3148
558 569 3234
0 379 0
0 379 74
0 381 147
0 381 221
0 382 294
0 382 368
0 383 444
0 384 527
0 387 610
0 391 693
0 394 776
0 399 859
0 403 940
0 409 1024
16 415 1106
41 421 1189
66 428 1273
90 435 1356
116 442 1439
143 450 1523
168 458 1607
195 466 1691
221 474 1777
248 483 1863
273 492 1949
299 501 2034
325 511 2121
350 520 2206
375 531 2292
398 541 2378
421 551 2465
443 562 2551
464 573 2637
483 584 2723
501 595 2810
517 607 2896
530 618 2982
541 628 3069
552 638 3155
564 649 3241
0 481 0
0 482 74
0 482 147
0 483 221
0 484 294
0 485 368
0 485 456
0 486 542
0 487 626
0 489 709
0 492 793
0 495 875
14 499 958
36 504 1040
59 509 1123
83 514 1205
107 520 1288
131 526 1371
155 533 1455
179 540 1538
204 547 1622
229 555 1708
254 563 1792
279 571 1878
304 580 1963
328 589 2048
352 598 2134
375 607 2219
398 617 2305
420 627 2390
441 637 2476
461 648 2562
480 658 2648
498 669 2734
514 680 2820
527 691 2906
538 701 2992
549 711 3078
560 721 3164
571 731 3250
0 584 0
0 585 74
0 585 147
0 585 221
0 586 294
0 587 377
0 589 466
0 588 553
0 589 639
0 590 724
5 592 808
30 595 891
55 597 974
79 601 1057
104 606 1140
126 610 1222
149 615 1305
172 621 1388
196 627 1471
220 633 1556
243 640 1640
267 647 1725
290 654 1809
313 662 1894
336 671 1979
359 679 2063
381 688 2149
402 696 2233
423 706 2319
444 716 2404
462 725 2489
480 736 2575
497 746 2660
513 757 2746
526 766 2831
537 776 2917
548 785 3003
558 795 3088
569 805 3174
579 816 3260
0 688 0
0 689 74
0 689 147
0 689 221
0 690 301
0 691 387
0 692 475
0 693 563
0 692 651
12 693 737
42 694 822
69 696 907
95 698 990
121 701 1074
146 704 1157
169 708 1239
193 713 1323
216 718 1407
238 723 1491
261 729 1575
283 735 1659
305 742 1743
327 748 1827
349 756 1912
370 763 1996
391 771 2080
411 780 2165
431 788 2249
450 797 2334
468 807 2419
485 816 2504
501 826 2589
515 835 2674
528 844 2759
538 853 2844
548 863 2930
559 872 3015
569 882 3100
579 891 3186
589 901 3272
0 793 0
0 793 74
0 793 147
0 794 229
0 795 312
0 796 398
1 796 484
4 798 572
5 799 661
41 798 749
74 798 835
106 800 920
134 801 1005
160 803 1089
186 806 1173
212 809 1258
235 813 1342
258 818 1427
279 822 1510
302 827 1594
323 833 1678
344 839 1762
364 845 1846
385 852 1930
404 859 2014
423 867 2098
441 875 2182
459 883 2266
476 892 2351
492 901 2435
506 909 2520
520 917 2604
531 925 2689
541 934 2774
551 942 2859
560 951 2944
570 960 3029
580 970 3114
590 979 3199
599 989 3284
56 900 3
56 900 82
57 900 162
57 901 242
58 901 324
59 902 408
61 903 494
63 904 581
64 905 669
67 906 759
105 906 847
137 906 933
168 907 1019
197 908 1105
225 910 1191
250 913 1276
275 916 1361
298 920 1445
320 924 1530
341 928 1613
361 933 1697
381 939 1781
400 945 1865
419 951 1949
437 958 2032
454 965 2116
470 972 2200
486 980 2284
501 986 2368
514 994 2452
526 1001 2537
535 1009 2621
545 1017 2705
554 1025 2790
564 1034 2874
573 1042 2959
583 1051 3044
592 1060 3129
602 1069 3213
611 1078 3298
117 1008 18
117 1008 97
118 1008 175
119 1009 255
119 1010 337
120 1010 421
122 1011 505
123 1012 592
126 1013 678
127 1014 767
130 1015 857
166 1015 945
200 1015 1033
231 1016 1120
260 1017 1207
287 1019 1293
311 1022 1379
334 1025 1464
357 1028 1548
377 1032 1632
397 1037 1716
416 1042 1800
435 1047 1884
451 1052 1968
468 1058 2051
483 1063 2135
497 1069 2219
511 1076 2303
523 1082 2386
532 1089 2470
541 1096 2554
551 1103 2638
560 1111 2723
569 1118 2807
578 1126 2891
587 1134 2975
596 1143 3060
605 1151 3144
614 1160 3229
623 1169 3314
178 1119 34
178 1119 111
178 1119 190
179 1119 269
180 1120 350
181 1120 433
182 1121 517
184 1122 602
186 1123 689
188 1124 776
190 1125 865
192 1126 955
229 1126 1045
261 1126 1134
292 1127 1222
319 1128 1309
345 1129 1395
369 1131 1481
391 1134 1566
411 1137 1650
430 1140 1735
448 1144 1819
465 1148 1903
480 1152 1987
495 1157 2070
509 1162 2154
521 1168 2238
531 1173 2321
540 1179 2405
548 1186 2489
557 1192 2572
566 1199 2656
575 1206 2740
584 1213 2824
592 1221 2908
601 1229 2992
610 1237 3077
618 1245 3161
627 1253 3245
636 1261 3330
238 1225 49
239 1226 127
239 1226 205
239 1226 283
241 1227 364
241 1227 445
242 1228 529
243 1228 613
245 1229 700
247 1230 786
248 1231 875
251 1232 965
253 1234 1057
288 1233 1147
320 1233 1236
349 1234 1324
375 1235 1410
399 1236 1497
422 1238 1583
441 1241 1668
460 1243 1753
477 1246 1837
492 1250 1921
506 1254 2005
520 1258 2089
529 1263 2173
538 1267 2257
547 1273 2340
556 1278 2424
564 1284 2508
573 1290 2591
582 1296 2675
590 1303 2759
599 1310 2842
607 1317 2926
615 1324 3010
624 1332 3094
632 1339 3178
641 1347 3263
649 1355 3347
296 1333 64
297 1333 142
297 1333 219
298 1333 298
299 1334 378
299 1334 459
300 1335 542
301 1336 626
302 1336 711
304 1337 797
306 1338 885
308 1339 976
310 1341 1067
312 1342 1158
345 1342 1248
375 1341 1337
402 1342 1425
426 1343 1512
448 1344 1598
468 1346 1684
486 1348 1770
502 1351 1855
516 1354 1939
527 1357 2023
536 1361 2108
545 1364 2191
554 1369 2275
563 1374 2359
572 1379 2443
580 1384 2526
589 1389 2610
597 1395 2694
605 1402 2777
614 1408 2861
622 1415 2945
630 1421 3028
638 1429 3112
646 1436 3196
654 1443 3280
662 1451 3364
352 1441 81
352 1441 158
352 1441 234
353 1441 313
354 1442 392
354 1442 473
355 1443 555
356 1443 638
357 1444 723
358 1445 809
360 1446 897
361 1447 986
363 1448 1077
365 1449 1168
367 1451 1259
398 1450 1349
426 1450 1438
450 1450 1526
472 1451 1613
491 1452 1700
508 1454 1786
522 1456 1871
533 1458 1956
542 1461 2041
552 1464 2125
561 1468 2210
570 1472 2294
579 1476 2378
588 1481 2461
596 1485 2545
604 1491 2629
612 1496 2712
621 1502 2796
629 1507 2880
637 1514 2963
645 1520 3047
652 1527 3131
660 1534 3215
668 1541 3299
676 1548 3383
404 1549 96
404 1549 173
404 1550 250
404 1550 327
405 1550 407
405 1551 487
406 1551 568
407 1552 651
408 1553 736
409 1553 822
410 1554 910
412 1555 998
413 1556 1087
414 1557 1178
416 1559 1269
419 1560 1360
446 1560 1450
471 1559 1539
492 1560 1627
510 1561 1714
525 1562 1801
536 1563 1887
547 1565 1973
557 1567 2058
567 1570 2143
576 1573 2227
585 1576 2312
594 1580 2396
603 1584 2480
611 1588 2564
619 1593 2648
627 1598 2731
635 1603 2815
643 1609 2899
651 1614 2982
659 1620 3066
667 1626 3150
674 1633 3233
682 1640 3317
689 1646 3401
450 1658 112
450 1659 188
450 1659 265
451 1659 343
451 1659 421
452 1660 501
452 1660 582
453 1661 665
454 1661 750
455 1662 836
456 1663 922
457 1664 1010
458 1665 1099
459 1666 1188
461 1667 1279
462 1668 1369
464 1670 1461
488 1669 1551
509 1669 1640
526 1670 1728
538 1670 1815
549 1671 1902
560 1673 1988
571 1674 2074
581 1677 2159
591 1679 2244
600 1682 2329
609 1685 2414
617 1689 2498
626 1693 2582
634 1697 2666
642 1701 2750
650 1706 2834
658 1711 2918
665 1716 3001
673 1721 3085
681 1727 3169
688 1733 3253
696 1740 3336
703 1746 3420
491 1768 128
491 1768 204
491 1768 280
492 1768 358
492 1769 436
492 1769 516
493 1770 598
493 1770 681
494 1771 765
495 1771 850
495 1772 936
496 1773 1023
497 1774 1111
499 1775 1200
500 1776 1289
501 1777 1380
502 1779 1470
503 1780 1562
523 1780 1652
537 1780 1740
549 1780 1829
562 1780 1916
573 1781 2003
584 1783 2089
594 1784 2175
604 1786 2261
613 1789 2346
622 1791 2431
631 1794 2515
640 1798 2600
648 1801 2684
656 1805 2768
664 1810 2852
672 1814 2936
680 1819 3020
687 1824 3104
695 1830 3188
702 1835 3272
709 1841 3355
716 1847 3439
524 1878 144
525 1878 221
525 1878 297
525 1878 374
525 1878 453
525 1879 533
525 1879 614
526 1880 696
526 1880 780
527 1881 864
527 1882 950
528 1883 1036
528 1883 1123
529 1885 1211
530 1886 1300
530 1887 1390
531 1888 1480
532 1889 1571
533 1891 1663
547 1890 1752
560 1890 1841
573 1890 1929
585 1891 2017
596 1892 2104
606 1893 2190
617 1894 2277
626 1896 2362
636 1899 2448
644 1901 2533
653 1904 2617
662 1907 2702
670 1911 2786
678 1915 2871
685 1919 2955
693 1923 3039
701 1928 3123
708 1933 3207
715 1938 3291
723 1943 3375
730 1949 3459
548 1988 162
548 1988 238
548 1988 315
548 1988 392
548 1989 471
549 1989 550
549 1990 630
549 1990 712
549 1990 795
550 1991 879
550 1992 964
551 1993 1049
551 1994 1136
552 1994 1224
553 1995 1312
553 1997 1401
554 1998 1490
555 1999 1581
556 2000 1672
557 2002 1763
570 2001 1853
583 2001 1942
595 2001 2030
607 2002 2118
618 2003 2205
628 2004 2292
639 2005 2378
648 2007 2464
657 2009 2549
666 2012 2634
674 2014 2719
683 2017 2804
691 2021 2889
699 2025 2973
706 2028 3057
714 2033 3142
721 2037 3226
729 2042 3310
736 2047 3394
743 2052 3478
571 2098 180
571 2099 256
571 2099 333
571 2099 410
571 2099 488
571 2100 567
572 2100 647
572 2100 728
572 2101 811
572 2102 894
573 2102 978
573 2103 1063
574 2104 1149
574 2105 1236
575 2106 1324
576 2107 1412
576 2108 1501
577 2109 1591
578 2110 1681
579 2112 1772
579 2113 1864
593 2113 1953
606 2112 2042
618 2112 2131
629 2113 2219
640 2114 2306
650 2115 2393
660 2116 2479
669 2118 2565
678 2120 2651
687 2122 2736
695 2125 2821
703 2128 2906
711 2131 2991
719 2134 3076
727 2138 3160
734 2142 3245
741 2147 3329
748 2151 3413
755 2156 3497
593 2209 198
593 2210 274
593 2210 350
593 2210 427
593 2210 505
593 2210 583
594 2211 663
594 2211 744
594 2212 826
595 2212 909
595 2213 993
595 2214 1077
596 2214 1163
596 2215 1249
597 2216 1336
597 2217 1424
598 2218 1513
599 2219 1602
599 2221 1692
600 2222 1782
601 2223 1873
602 2225 1964
615 2224 2054
627 2224 2143
639 2224 2232
650 2224 2320
661 2225 2407
671 2226 2494
680 2227 2580
690 2229 2667
699 2231 2753
707 2233 2838
716 2236 2924
724 2239 3009
731 2242 3094
739 2245 3179
746 2249 3263
754 2252 3348
761 2257 3432
768 2261 3517
614 2320 216
615 2320 292
615 2321 368
615 2321 444
615 2321 522
615 2321 600
615 2322 680
615 2322 760
616 2322 842
616 2323 924
616 2324 1007
617 2324 1091
617 2325 1176
618 2326 1262
618 2327 1349
619 2328 1436
619 2329 1524
620 2330 1613
620 2331 1702
621 2332 1792
