Examples/Curves - RGB Skin contrast 2.3dl
#25pt 3DLUT created by 3D LUT Creator Pro (c) Oleg Sharonov
#Copyright Oleg Sharonov
#IMAGEPROFILE sRGB IEC61966-2.1 v.2.10
#INPUTGAMMA sRGB IEC61966-2.1 v.2.10
#OUTPUTGAMMA sRGB IEC61966-2.1 v.2.10
0 43 86 128 171 214 256 299 341 384 427 469 512 555 597 640 682 725 768 810 853 896 938 981 1023 
0 0 0
1 0 88
1 0 238
0 0 430
0 0 642
0 0 861
0 0 1089
0 0 1324
0 0 1565
0 0 1825
0 0 2088
0 0 2356
0 0 2614
0 0 2863
0 0 3097
0 0 3310
0 0 3499
0 0 3655
0 0 3787
0 0 3894
0 0 3979
0 0 4045
0 0 4094
0 0 4095
0 0 4095
0 134 0
1 134 83
1 134 238
1 133 432
0 133 644
0 132 864
0 132 1091
0 131 1325
0 130 1567
0 129 1827
0 128 2090
0 127 2357
0 127 2615
0 126 2864
0 125 3098
0 124 3311
0 124 3497
0 124 3656
0 124 3787
0 124 3894
0 124 3979
0 125 4045
0 126 4093
0 126 4095
0 127 4095
0 267 0
1 269 83
1 268 237
1 269 430
1 268 641
0 268 867
0 267 1094
0 266 1322
0 266 1572
0 265 1830
0 264 2094
0 263 2356
0 262 2618
0 262 2867
0 261 3101
0 260 3313
0 260 3498
0 260 3655
0 260 3786
0 260 3893
0 261 3978
0 261 4044
0 262 4092
0 263 4095
0 263 4095
1 414 0
1 414 83
1 414 239
1 414 431
1 414 643
0 413 866
0 413 1092
0 412 1324
0 411 1572
0 411 1828
0 410 2095
0 409 2357
0 408 2616
0 408 2865
0 407 3099
0 407 3311
0 407 3499
0 407 3655
0 407 3786
0 407 3893
0 408 3978
0 408 4043
0 409 4091
0 410 4095
0 411 4095
1 576 0
1 577 83
1 576 239
1 576 432
1 576 643
0 577 868
0 575 1093
0 576 1324
0 575 1572
0 574 1829
0 574 2095
0 573 2358
0 572 2617
0 571 2866
0 571 3099
0 571 3312
0 572 3499
0 571 3655
0 571 3786
0 573 3893
0 573 3977
0 574 4043
0 575 4091
0 576 4095
0 577 4095
0 758 0
1 759 82
1 759 239
1 759 432
1 759 645
0 758 866
0 758 1093
0 758 1325
0 757 1571
0 757 1830
0 756 2094
0 756 2359
0 756 2618
0 755 2867
0 755 3100
0 755 3312
0 755 3499
0 755 3655
0 756 3786
0 756 3892
0 757 3977
0 758 4042
0 759 4090
0 760 4095
0 761 4095
0 953 0
1 955 82
1 954 239
1 954 432
0 954 645
0 954 867
0 954 1093
0 954 1326
0 954 1573
0 953 1831
0 953 2096
0 952 2359
0 952 2618
0 951 2867
0 951 3100
0 951 3312
0 952 3498
0 951 3654
0 952 3785
0 953 3891
0 954 3976
0 954 4041
0 955 4089
0 957 4095
0 959 4095
0 1159 0
1 1160 81
1 1160 239
0 1160 432
0 1160 645
0 1160 868
0 1160 1094
0 1160 1326
0 1159 1573
0 1159 1832
0 1158 2095
0 1159 2360
0 1158 2619
0 1158 2868
0 1158 3101
0 1158 3313
0 1157 3498
0 1158 3654
0 1159 3785
0 1159 3890
0 1160 3975
0 1161 4040
0 1163 4087
0 1164 4095
0 1165 4095
0 1370 0
0 1371 80
0 1371 239
0 1371 432
0 1371 644
0 1372 868
0 1372 1095
0 1371 1325
0 1371 1573
0 1371 1832
0 1371 2096
0 1370 2360
0 1370 2620
0 1370 2869
0 1370 3101
0 1370 3313
0 1369 3498
0 1370 3654
0 1370 3784
0 1371 3890
0 1372 3974
0 1373 4039
0 1374 4086
0 1375 4095
0 1377 4095
0 1584 0
0 1584 80
0 1585 238
0 1585 432
0 1585 644
0 1585 868
0 1585 1095
0 1585 1326
0 1585 1573
0 1585 1832
0 1584 2097
0 1584 2360
0 1584 2620
0 1583 2868
0 1583 3101
0 1583 3313
0 1584 3497
0 1584 3654
0 1585 3783
0 1585 3889
0 1586 3973
0 1587 4037
0 1588 4085
0 1590 4095
0 1591 4095
0 1797 0
0 1798 79
0 1798 238
0 1798 432
0 1798 644
0 1798 868
0 1798 1095
0 1798 1326
0 1798 1574
0 1798 1833
0 1797 2097
0 1797 2360
0 1797 2620
0 1796 2869
0 1796 3101
0 1796 3313
0 1796 3497
0 1797 3653
0 1798 3783
0 1798 3888
0 1799 3972
0 1800 4037
0 1801 4084
0 1802 4095
0 1804 4095
0 2018 0
0 2019 78
0 2020 238
0 2019 432
0 2020 645
0 2020 868
0 2020 1095
0 2020 1326
0 2020 1574
0 2020 1833
0 2020 2097
0 2019 2361
0 2019 2620
0 2019 2869
0 2019 3101
0 2019 3313
0 2019 3497
0 2020 3652
0 2021 3782
0 2021 3887
0 2022 3971
0 2023 4035
0 2025 4082
0 2026 4095
0 2027 4095
0 2253 0
0 2254 78
0 2255 238
0 2255 431
0 2255 645
0 2255 868
0 2255 1094
0 2255 1327
0 2255 1574
0 2255 1833
0 2255 2097
0 2255 2361
0 2254 2620
0 2254 2868
0 2255 3101
0 2255 3312
0 2255 3496
0 2256 3652
0 2257 3781
0 2258 3886
0 2259 3970
0 2260 4034
0 2261 4081
0 2263 4095
0 2264 4095
0 2496 0
0 2497 77
0 2498 237
0 2498 431
0 2498 645
0 2499 868
0 2499 1094
0 2499 1327
0 2499 1574
0 2499 1833
0 2499 2098
0 2498 2361
0 2498 2620
0 2498 2868
0 2498 3101
0 2498 3312
0 2499 3496
0 2500 3651
0 2500 3780
0 2502 3885
0 2502 3969
0 2504 4033
0 2505 4080
0 2507 4095
0 2508 4095
0 2742 0
0 2743 76
0 2744 237
0 2744 431
0 2744 645
0 2744 868
0 2745 1094
0 2744 1327
0 2745 1574
0 2745 1833
0 2744 2098
0 2744 2361
0 2744 2620
0 2744 2869
0 2744 3101
0 2745 3311
0 2745 3495
0 2746 3650
0 2746 3779
0 2747 3884
0 2748 3967
0 2750 4032
0 2751 4078
0 2752 4095
0 2754 4095
0 2986 0
0 2987 75
0 2987 236
0 2988 431
0 2988 645
0 2988 868
0 2988 1094
0 2988 1327
0 2988 1574
0 2988 1833
0 2988 2097
0 2988 2362
0 2988 2621
0 2987 2869
0 2988 3101
0 2988 3311
0 2988 3495
0 2989 3650
0 2990 3778
0 2991 3883
0 2992 3966
0 2993 4030
0 2994 4077
0 2996 4095
0 2997 4095
0 3222 0
0 3223 74
0 3224 236
0 3224 430
0 3224 644
0 3224 868
0 3224 1094
0 3224 1326
0 3224 1574
0 3224 1834
0 3223 2098
0 3223 2362
0 3223 2621
0 3223 2869
0 3223 3100
0 3223 3311
0 3223 3494
0 3224 3649
0 3224 3777
0 3225 3882
0 3226 3965
0 3227 4029
0 3229 4076
0 3230 4095
0 3232 4095
0 3445 0
0 3446 74
0 3446 236
0 3446 430
0 3446 644
0 3446 868
0 3446 1093
0 3446 1327
0 3446 1575
0 3445 1834
0 3445 2098
0 3445 2362
0 3444 2621
0 3444 2869
0 3444 3100
0 3444 3311
0 3444 3494
0 3445 3648
0 3445 3777
0 3446 3881
0 3447 3964
0 3448 4028
0 3449 4074
0 3450 4095
0 3452 4095
0 3650 0
0 3651 73
0 3651 235
0 3651 430
0 3651 645
0 3650 868
0 3650 1094
0 3650 1327
0 3650 1575
0 3649 1834
0 3649 2098
0 3648 2363
0 3648 2621
0 3647 2869
0 3647 3101
0 3647 3311
0 3647 3493
0 3647 3648
0 3648 3776
0 3648 3881
0 3649 3963
0 3650 4027
0 3651 4073
0 3652 4095
0 3653 4095
0 3823 0
0 3823 73
0 3823 236
0 3823 431
0 3823 645
0 3822 868
0 3822 1095
0 3821 1328
0 3820 1576
0 3820 1835
0 3819 2099
0 3818 2363
0 3817 2622
0 3816 2870
0 3816 3101
0 3815 3311
0 3815 3493
0 3815 3648
0 3815 3776
0 3815 3880
0 3816 3963
0 3816 4026
0 3817 4072
0 3818 4095
0 3819 4095
0 3952 0
0 3952 73
0 3952 236
0 3951 431
0 3951 645
0 3950 869
0 3949 1095
0 3948 1328
0 3947 1576
0 3946 1836
0 3945 2101
0 3944 2364
0 3943 2623
0 3942 2871
0 3941 3102
0 3940 3311
0 3940 3494
0 3939 3648
0 3939 3776
0 3939 3880
0 3939 3962
0 3940 4025
0 3940 4072
0 3941 4095
0 3941 4095
0 4044 0
0 4044 73
0 4043 237
0 4042 432
0 4041 646
0 4040 870
0 4039 1096
0 4038 1329
0 4037 1578
0 4035 1837
0 4034 2101
0 4033 2365
0 4032 2624
0 4030 2872
0 4029 3103
0 4028 3312
0 4027 3494
0 4027 3648
0 4027 3776
0 4026 3880
0 4026 3962
0 4026 4025
0 4026 4071
0 4027 4095
0 4027 4095
0 4095 0
0 4095 73
0 4095 237
0 4095 433
0 4095 648
0 4095 871
0 4095 1098
0 4095 1331
0 4095 1579
0 4093 1839
0 4092 2103
0 4090 2366
0 4089 2625
0 4087 2873
0 4086 3104
0 4085 3313
0 4084 3495
0 4083 3649
0 4082 3776
0 4082 3880
0 4082 3962
0 4082 4025
0 4082 4071
0 4082 4095
0 4082 4095
0 4095 0
0 4095 74
0 4095 238
0 4095 434
0 4095 649
0 4095 872
0 4095 1099
0 4095 1332
0 4095 1580
0 4095 1840
0 4095 2105
0 4095 2368
0 4095 2627
0 4095 2874
0 4095 3105
0 4095 3314
0 4095 3496
0 4095 3649
0 4095 3777
0 4095 3881
0 4095 3962
0 4095 4025
0 4095 4071
0 4095 4095
0 4095 4095
2 4095 0
2 4095 77
2 4095 240
2 4095 437
2 4095 650
0 4095 874
0 4095 1100
0 4095 1335
0 4095 1582
0 4095 1842
0 4095 2106
0 4095 2370
0 4095 2628
0 4095 2876
0 4095 3106
0 4095 3316
0 4095 3497
0 4095 3650
0 4095 3778
0 4095 3881
0 4095 3963
0 4095 4026
0 4095 4071
3 4095 4095
0 4095 4095
160 0 0
163 0 83
160 0 234
160 0 427
163 0 639
162 0 870
162 0 1088
161 0 1321
161 0 1572
160 0 1824
159 0 2094
159 0 2354
158 0 2613
157 0 2867
157 0 3097
156 0 3313
156 0 3498
156 0 3655
157 0 3786
157 0 3894
157 0 3979
158 0 4044
159 0 4093
160 0 4095
161 0 4095
163 133 0
163 134 83
163 134 239
163 133 431
163 133 642
162 132 863
162 131 1091
162 131 1324
161 130 1573
160 129 1827
160 128 2090
159 127 2356
158 126 2615
158 126 2864
157 125 3098
157 124 3311
156 124 3499
156 124 3655
157 124 3786
157 124 3894
158 124 3978
158 125 4044
159 125 4092
160 126 4095
161 127 4095
163 269 0
164 268 83
164 269 239
163 269 433
163 268 645
163 268 867
162 267 1094
162 266 1322
161 266 1571
160 265 1830
160 264 2094
159 263 2359
158 262 2618
158 261 2867
157 261 3100
157 260 3313
157 260 3498
157 260 3656
157 260 3787
157 260 3893
158 261 3978
158 261 4044
159 262 4092
160 262 4095
161 263 4095
163 414 0
164 414 83
164 414 239
164 414 432
163 414 643
163 413 868
162 414 1095
162 412 1324
161 411 1572
161 411 1831
160 410 2095
159 409 2357
158 408 2619
158 408 2868
157 407 3101
157 407 3313
157 407 3499
157 407 3655
157 407 3787
157 407 3893
158 408 3977
158 408 4043
159 409 4091
160 410 4095
161 411 4095
163 576 0
164 576 82
164 576 239
164 576 432
163 576 644
163 577 868
162 576 1094
162 575 1325
161 575 1573
160 575 1831
160 574 2095
159 573 2358
158 573 2619
158 573 2868
157 572 3101
157 572 3313
157 572 3498
157 572 3656
157 572 3786
157 573 3892
158 572 3977
158 573 4042
159 574 4090
160 576 4095
158 576 4095
163 758 0
164 759 82
164 758 239
163 759 432
163 759 644
163 759 868
162 758 1094
162 758 1325
161 758 1573
160 757 1830
160 757 2096
159 756 2359
158 755 2618
158 755 2867
157 755 3100
157 754 3312
157 755 3499
157 755 3655
157 756 3785
157 756 3892
158 757 3976
158 758 4041
159 759 4089
160 760 4095
161 761 4095
163 953 0
163 954 81
163 954 239
163 954 432
163 954 644
162 955 868
162 955 1095
161 954 1326
161 954 1573
160 954 1832
159 953 2096
159 952 2359
158 953 2620
157 952 2869
157 952 3102
156 952 3314
156 952 3498
156 952 3654
157 953 3785
157 953 3891
157 954 3975
158 955 4040
159 956 4088
160 957 4095
161 958 4095
163 1159 0
163 1160 81
163 1161 239
163 1161 432
162 1161 645
162 1160 868
162 1160 1094
161 1160 1327
160 1159 1573
160 1159 1832
159 1159 2096
158 1159 2361
158 1158 2619
157 1158 2868
157 1157 3101
156 1157 3313
156 1158 3498
156 1159 3654
156 1159 3784
157 1160 3890
157 1161 3974
158 1162 4039
159 1163 4087
159 1164 4095
160 1165 4095
162 1371 0
163 1371 80
163 1372 239
162 1372 432
162 1372 645
162 1372 868
161 1371 1095
161 1371 1326
160 1371 1574
159 1371 1833
159 1370 2097
158 1371 2361
157 1370 2620
157 1370 2869
156 1369 3101
156 1369 3313
156 1370 3498
156 1371 3654
156 1371 3784
156 1371 3889
157 1372 3973
157 1373 4038
158 1374 4085
159 1376 4095
160 1378 4095
162 1584 0
162 1585 79
162 1586 239
162 1586 432
162 1586 646
161 1586 868
161 1586 1095
160 1586 1327
160 1585 1574
159 1585 1833
158 1585 2097
158 1584 2361
157 1584 2620
156 1584 2869
156 1584 3101
155 1584 3313
155 1584 3497
155 1584 3653
155 1585 3783
156 1585 3888
156 1587 3972
157 1588 4037
158 1589 4084
159 1590 4095
160 1591 4095
161 1798 0
162 1798 79
162 1799 238
162 1799 432
161 1799 646
161 1798 869
160 1799 1095
160 1799 1327
159 1798 1574
159 1798 1833
158 1797 2097
157 1797 2362
157 1797 2621
156 1796 2869
155 1797 3101
155 1796 3313
155 1797 3497
155 1797 3653
155 1798 3782
155 1798 3888
156 1800 3971
157 1801 4036
157 1802 4083
158 1803 4095
159 1804 4095
