Examples/Curves - CMYK for Skintone.3dl
#25pt 3DLUT created by 3D LUT Creator Pro (c) Oleg Sharonov
#Copyright Oleg Sharonov
0 256 512 768 1023
0 0 0
0 235 1020
0 471 2043
0 707 3066
0 943 4088
0 1022 136
0 1023 1023
0 1042 2047
0 1235 3069
0 1456 4092
0 2046 272
1 2048 902
0 2047 2047
0 1977 3071
0 2086 4095
0 3068 408
0 3071 1001
2 3073 1733
0 3071 3071
1 2963 4095
0 4091 545
0 4094 1115
2 4095 1805
3 4095 2621
3 4095 4095
1021 235 134
1021 233 1021
1020 469 2043
1019 705 3066
1017 940 4088
1022 1022 133
1024 1024 1024
1024 1042 2048
1022 1233 3069
1020 1454 4092
1022 2045 269
1024 2048 901
1024 2047 2047
1024 1976 3071
1023 2085 4095
1021 3068 405
1024 3071 999
1026 3073 1732
1024 3071 3071
1025 2963 4095
1020 4091 541
1023 4094 1113
1025 4095 1803
1026 4095 2620
1024 4095 4095
2043 470 269
2045 470 899
2045 467 2045
2043 703 3067
2041 938 4088
2046 1041 269
2048 1043 901
2047 1041 2047
2046 1232 3070
2045 1453 4092
2046 2046 266
2048 2048 900
2047 2047 2047
2048 1976 3072
2047 2084 4095
2045 3068 402
2048 3072 998
2050 3074 1730
2047 3071 3071
2048 2962 4095
2044 4091 538
2047 4094 1112
2049 4095 1802
2050 4095 2619
2047 4095 4095
3063 704 403
3066 705 996
3068 705 1728
3066 701 3066
3065 937 4088
3067 1232 403
3070 1233 997
3072 1234 1730
3070 1230 3070
3068 1451 4092
3069 1974 403
3072 1976 998
3074 1978 1731
3072 1976 3072
3071 2083 4095
3068 3068 400
3071 3071 996
3073 3073 1729
3071 3071 3071
3072 2962 4095
3067 4091 537
3071 4094 1109
3073 4095 1800
3074 4095 2618
3071 4095 4095
4085 939 537
4088 940 1108
4090 940 1798
4091 940 2614
4088 935 4088
4088 1452 538
4091 1454 1110
4094 1454 1800
4095 1454 2617
4092 1449 4092
4091 2082 538
4094 2084 1111
4095 2085 1802
4095 2086 2619
4095 2082 4095
4092 2959 536
4095 2962 1110
4095 2964 1801
4095 2965 2619
4095 2962 4095
4091 4091 533
4094 4094 1106
4095 4095 1798
4095 4095 2617
4095 4095 4095
