Examples/Curves - Vibrance.3dl
#25pt 3DLUT created by 3D LUT Creator Pro (c) Oleg Sharonov
#Copyright Oleg Sharonov
0 128 256 384 512 640 768 896 1023
0 0 0
0 0 512
0 0 1022
0 0 1535
0 0 2047
0 0 2559
0 0 3071
0 0 3583
0 0 4095
0 512 0
0 512 512
0 512 1023
0 512 1535
0 512 2047
0 512 2559
0 512 3071
0 512 3583
0 512 4095
0 1023 0
0 1023 512
0 1023 1023
0 1023 1535
0 1023 2047
0 1023 2559
0 1023 3071
0 1023 3583
0 1024 4095
0 1535 0
0 1535 512
0 1536 1024
0 1536 1536
0 1536 2048
0 1536 2560
0 1536 3072
0 1535 3583
0 1536 4095
0 2048 0
0 2048 512
0 2047 1023
0 2047 1536
0 2047 2047
0 2047 2559
0 2048 3071
0 2048 3583
0 2048 4095
0 2559 0
0 2559 512
0 2559 1024
0 2559 1536
0 2559 2048
0 2559 2559
0 2559 3071
0 2559 3583
0 2559 4095
0 3071 0
0 3071 512
0 3071 1024
0 3071 1536
0 3071 2048
0 3071 2559
0 3071 3071
0 3071 3583
0 3071 4095
0 3583 0
0 3583 512
0 3583 1024
0 3583 1536
0 3583 2048
0 3583 2559
0 3583 3071
0 3583 3583
3 3583 4095
3 4095 3
3 4095 513
0 4095 1024
0 4095 1536
0 4095 2048
0 4095 2559
0 4095 3071
3 4095 3583
3 4095 4095
512 0 0
512 0 512
512 0 1023
512 0 1535
512 0 2047
512 0 2559
512 0 3071
512 0 3583
512 0 4095
512 512 0
512 512 512
478 478 1207
393 393 1887
158 158 2596
0 0 3098
0 0 3513
0 0 3953
512 512 4095
512 1023 0
398 1043 398
394 1037 1037
316 1030 1628
116 1011 2246
0 982 2813
0 960 3325
0 942 3826
512 1023 4095
512 1535 0
295 1556 295
295 1554 980
293 1550 1550
103 1549 2117
0 1540 2673
0 1530 3205
0 1519 3727
512 1535 4095
512 2048 0
97 2069 97
97 2068 922
97 2066 1510
97 2062 2062
0 2060 2607
0 2055 3139
0 2049 3665
512 2048 4095
512 2559 0
0 2578 0
0 2578 889
0 2576 1481
0 2575 2034
0 2572 2572
0 2570 3103
0 2566 3629
513 2559 4095
512 3071 0
0 3086 0
0 3086 880
0 3085 1468
0 3084 2017
0 3083 2553
0 3081 3081
0 3080 3606
513 3071 4095
512 3583 0
0 3595 0
0 3595 875
0 3595 1460
0 3594 2007
0 3593 2541
0 3593 3068
0 3591 3591
513 3583 4095
513 4095 3
513 4095 513
512 4095 1024
512 4095 1536
512 4095 2048
512 4095 2559
512 4095 3071
513 4095 3583
513 4095 4095
1023 0 0
1023 0 512
1023 0 1023
1023 0 1535
1023 0 2047
1023 0 2558
1023 0 3071
1023 0 3583
1023 0 4095
1023 512 0
1133 442 442
1111 430 1111
1113 352 1749
1099 136 2421
1045 0 2970
997 0 3435
964 0 3904
1023 512 4095
1023 1023 0
1028 1028 389
1024 1024 1024
992 992 1769
950 950 2404
868 868 3085
725 725 3785
794 794 4078
1023 1023 4095
1024 1536 0
977 1550 293
870 1570 870
864 1560 1560
845 1547 2169
770 1530 2787
640 1499 3425
409 1449 4078
1024 1536 4095
1023 2047 0
921 2065 97
805 2080 805
803 2076 1479
801 2070 2070
725 2067 2652
597 2059 3245
367 2044 3855
1023 2048 4095
1024 2559 0
888 2576 0
705 2593 705
705 2591 1415
703 2587 2016
702 2583 2583
575 2582 3150
349 2578 3729
1024 2559 4095
1024 3071 0
880 3085 0
564 3106 564
564 3105 1348
563 3102 1965
563 3099 2540
562 3095 3095
337 3096 3655
1024 3071 4095
1024 3583 0
875 3595 0
334 3620 334
332 3619 1269
332 3617 1912
332 3615 2497
332 3612 3059
332 3608 3608
1024 3583 4095
1024 4095 0
1023 4095 512
1023 4095 1023
1023 4095 1535
1023 4095 2047
1023 4095 2559
1023 4095 3071
1023 4095 3583
1024 4095 4095
1535 0 0
1535 0 512
1535 0 1023
1535 0 1535
1535 0 2047
1535 0 2559
1535 0 3071
1536 0 3583
1536 0 4095
1535 512 0
1688 334 334
1671 330 1060
1647 322 1647
1668 119 2274
1642 0 2841
1601 0 3346
1569 0 3842
1536 512 4095
1535 1023 0
1590 1004 306
1695 946 946
1668 930 1668
1640 901 2294
1625 823 2951
1595 688 3628
1540 708 4078
1536 1023 4095
1536 1536 0
1540 1540 291
1543 1543 854
1536 1536 1536
1498 1498 2354
1471 1471 2948
1420 1420 3601
1439 1439 3965
1535 1535 4095
1536 2048 0
1505 2059 97
1473 2068 800
1328 2100 1328
1318 2085 2085
1344 2063 2710
1303 2045 3329
1230 2019 3961
1536 2048 4095
1536 2559 0
1479 2573 0
1413 2586 703
1288 2606 1288
1285 2600 1977
1281 2592 2592
1241 2585 3185
1167 2576 3785
1536 2559 4095
1536 3071 0
1467 3083 0
1346 3102 563
1212 3118 1212
1210 3114 1908
1208 3109 2522
1206 3103 3103
1131 3101 3681
1536 3071 4095
1536 3583 0
1460 3594 0
1268 3617 332
1113 3631 1113
1112 3628 1840
1111 3625 2464
1109 3621 3050
1108 3616 3616
1536 3583 4095
1536 4095 0
1536 4095 512
1535 4095 1023
1535 4095 1535
1535 4095 2047
1535 4095 2559
1536 4095 3071
1536 4095 3583
1536 4095 4095
2048 0 0
2048 0 512
2048 0 1024
2048 0 1536
2048 0 2048
2048 0 2560
2048 0 3072
2048 0 3584
2047 0 4095
2048 512 0
2237 113 113
2223 113 1000
2203 110 1614
2179 110 2179
2170 0 2743
2141 0 3268
2117 0 3781
2048 513 4095
2048 1024 0
2149 963 107
2247 880 880
2228 871 1591
2202 859 2202
2211 784 2832
2215 653 3482
2187 541 4078
2048 1024 4095
2048 1536 0
2088 1526 100
2123 1514 824
2268 1441 1441
2234 1418 2234
2170 1417 2846
2147 1371 3488
2095 1385 3964
2048 1536 4095
2048 2048 0
2052 2052 94
2054 2054 793
2059 2059 1301
2048 2048 2048
2003 2003 2942
1983 1983 3510
2008 2008 3814
2048 2048 4095
2048 2559 0
2029 2568 0
2008 2577 700
1969 2589 1279
1784 2631 1784
1770 2610 2610
1833 2580 3255
1876 2560 3804
2048 2559 4095
2048 3071 0
2015 3081 0
1960 3095 562
1904 3107 1208
1760 3133 1760
1755 3124 2474
1749 3114 3114
1738 3103 3720
2047 3071 4095
2048 3583 0
2006 3592 0
1909 3612 332
1838 3623 1110
1700 3643 1700
1697 3638 2400
1694 3632 3029
1691 3624 3624
2048 3583 4095
2048 4095 0
2047 4095 510
2048 4095 1025
2048 4095 1536
2048 4095 2048
2048 4095 2560
2047 4095 3071
2047 4095 3583
2047 4095 4095
2559 0 0
2559 0 512
2559 0 1023
2559 0 1536
2559 0 2048
2559 0 2559
2559 0 3071
2559 0 3583
2559 0 4095
2559 512 0
2729 0 0
2721 0 946
2709 0 1562
2694 0 2130
2676 0 2676
2657 0 3207
2639 0 3729
2559 512 4095
2559 1024 0
2673 927 0
2803 775 775
2787 770 1530
2765 762 2157
2739 753 2739
2759 625 3363
2774 389 4005
2559 1024 4095
2559 1536 0
2622 1509 0
2690 1473 737
2804 1394 1394
2783 1383 2120
2756 1369 2756
2748 1326 3383
2717 1301 3962
2559 1535 4095
2559 2048 0
2586 2043 0
2614 2037 713
2657 2022 1316
2843 1934 1934
2802 1905 2802
2703 1923 3408
2613 1975 3812
2559 2048 4095
2559 2559 0
2563 2563 0
2566 2566 696
2569 2569 1269
2575 2575 1746
2559 2559 2559
2516 2516 3468
2539 2539 3748
2559 2559 4095
2559 3071 0
2548 3078 0
2530 3087 559
2510 3095 1202
2462 3110 1746
2250 3159 2250
2232 3135 3135
2406 3088 3727
2559 3071 4095
2559 3583 0
2539 3590 0
2491 3605 330
2457 3614 1107
2394 3629 1693
2110 3684 2110
2059 3677 2927
2049 3660 3660
2560 3583 4095
2560 4095 3
2560 4095 513
2559 4095 1024
2559 4095 1536
2559 4095 2048
2559 4095 2559
2559 4095 3071
2560 4095 3583
2560 4095 4095
3071 0 0
3071 0 512
3071 0 1023
3071 0 1536
3071 0 2047
3071 0 2559
3071 0 3071
3071 0 3583
3071 0 4095
3071 512 0
3207 0 0
3203 0 919
3196 0 1524
3187 0 2087
3176 0 2631
3164 0 3164
3152 0 3689
3071 512 4095
3071 1023 0
3174 909 0
3354 623 623
3340 619 1459
3321 615 2109
3298 610 2705
3273 604 3273
3298 372 3891
3071 1023 4095
3071 1536 0
3138 1495 0
3251 1417 599
3362 1317 1317
3343 1309 2055
3320 1299 2696
3294 1288 3294
3305 1213 3920
3071 1535 4095
3071 2048 0
3110 2035 0
3171 2011 579
3229 1982 1260
3366 1898 1898
3342 1884 2649
3313 1867 3313
3207 1925 3808
3071 2048 4095
3071 2559 0
3089 2558 0
3116 2554 566
3140 2548 1221
3193 2530 1796
3408 2432 2432
3361 2398 3361
3138 2507 3743
3071 2559 4095
3071 3071 0
3074 3074 0
3078 3078 558
3081 3081 1196
3084 3084 1731
3091 3091 2200
3071 3071 3071
3056 3056 3741
3071 3071 4095
3071 3583 0
3064 3588 0
3048 3598 330
3036 3604 1103
3013 3613 1685
2905 3651 2043
2792 3667 2792
2733 3652 3652
3071 3583 4095
3071 4095 3
3071 4095 513
3071 4095 1023
3071 4095 1535
3071 4095 2047
3071 4095 2559
3071 4095 3071
3071 4095 3583
3071 4095 4095
3583 0 0
3583 0 512
3583 0 1024
3583 0 1536
3583 0 2048
3583 0 2559
3583 0 3071
3583 0 3583
3583 0 4095
3583 512 0
3695 0 0
3693 0 903
3689 0 1502
3683 0 2059
3676 0 2601
3668 0 3133
3660 0 3660
3583 513 4095
3583 1024 0
3675 898 0
3900 374 374
3888 372 1373
3872 369 2053
3852 367 2666
3829 363 3245
3804 360 3804
3583 1024 4095
3583 1536 0
3650 1484 0
3809 1342 360
3918 1213 1213
3902 1207 1987
3881 1200 2643
3858 1192 3252
3832 1183 3832
3583 1536 4095
3583 2048 0
3627 2027 0
3729 1973 349
3796 1930 1170
3807 1912 1912
3806 1897 2571
3804 1877 3194
3802 1849 3802
3583 2048 4095
3583 2559 0
3609 2552 0
3667 2535 339
3705 2520 1138
3769 2489 1763
3741 2491 2491
3738 2477 3123
3736 2460 3736
3583 2559 4095
3583 3071 0
3595 3070 0
3622 3069 334
3639 3065 1116
3667 3059 1712
3713 3042 2311
3731 3020 3020
3725 2999 3725
3583 3071 4095
3583 3583 0
3585 3585 0
3590 3590 328
3593 3593 1099
3596 3596 1676
3607 3607 2017
3611 3611 2574
3583 3583 3583
3583 3583 4095
3583 4095 0
3583 4095 508
3583 4095 1026
3583 4095 1536
3583 4095 2048
3583 4095 2560
3583 4095 3072
3583 4095 3583
3583 4095 4095
4095 0 0
4095 0 512
4095 0 1023
4095 0 1536
4095 0 2047
4095 0 2559
4095 0 3071
4095 0 3583
4095 0 4095
4095 512 0
4095 512 512
4095 513 1024
4095 513 1536
4095 513 2048
4095 513 2559
4095 510 3071
4095 512 3583
4095 512 4095
4095 1023 0
4095 1023 512
4095 1024 1024
4095 1024 1536
4095 1024 2048
4095 1024 2559
4095 1024 3071
4095 1023 3583
4095 1023 4095
4095 1536 0
4095 1536 513
4095 1536 1024
4095 1536 1536
4095 1536 2048
4095 1536 2559
4095 1536 3071
4095 1536 3583
4095 1536 4095
4095 2048 0
4095 2047 512
4095 2048 1024
4095 2048 1536
4095 2048 2048
4095 2048 2559
4095 2047 3071
4095 2047 3583
4095 2047 4095
4095 2559 0
4095 2559 512
4095 2559 1023
4095 2559 1535
4095 2559 2048
4095 2559 2559
4095 2559 3071
4095 2559 3583
4095 2559 4095
4095 3071 0
4095 3071 512
4095 3071 1023
4095 3071 1535
4095 3071 2047
4095 3071 2559
4095 3071 3071
4095 3071 3583
4095 3071 4095
4095 3583 0
4095 3583 513
4095 3583 1023
4095 3583 1535
4095 3583 2048
4095 3583 2559
4095 3583 3071
4095 3583 3583
4095 3583 4095
4095 4095 0
4095 4095 510
4095 4095 1022
4095 4095 1534
4095 4095 2046
4095 4095 2558
4095 4095 3071
4095 4095 3583
4095 4095 4095
