Examples/Curves - Desaturate Highlights.3dl
#25pt 3DLUT created by 3D LUT Creator Pro (c) Oleg Sharonov
#Copyright Oleg Sharonov
0 256 512 768 1023
0 0 0
0 0 1022
0 0 2047
0 0 3071
370 370 3889
0 1023 0
0 1023 1023
6 1023 2046
257 1040 2987
674 1142 3732
442 2027 442
454 2028 1102
489 2032 2032
849 2028 2904
1232 2064 3600
1428 2965 1428
1438 2967 1670
1472 2974 2247
1535 2987 2987
1977 2980 3614
2775 3781 2775
2786 3783 2848
2822 3793 3065
2892 3812 3414
3003 3843 3843
1023 0 0
1023 0 1023
1023 0 2047
1023 0 3071
1073 479 3827
1023 1023 0
1024 1024 1024
1026 1026 2036
1055 1055 2964
1173 1173 3705
1109 2030 475
1113 2031 1113
1126 2035 2035
1280 2037 2904
1515 2080 3596
1686 2971 1458
1695 2973 1695
1721 2980 2261
1772 2995 2995
2131 2992 3619
2869 3789 2808
2879 3792 2879
2914 3802 3091
2981 3822 3433
3087 3853 3853
2048 0 0
2048 0 1024
2037 48 2037
1996 332 2968
1947 731 3709
2026 1036 161
2025 1038 1038
2023 1046 2023
1990 1114 2923
1974 1275 3649
2042 2042 572
2043 2043 1151
2048 2048 2048
2068 2068 2909
2135 2135 3588
2288 2993 1556
2293 2995 1774
2310 3003 2310
2342 3019 3019
2542 3033 3634
3139 3819 2917
3148 3822 2983
3178 3833 3178
3237 3854 3496
3332 3887 3887
2930 505 505
2927 525 1105
2918 584 1991
2909 685 2909
2789 1061 3621
2909 1169 679
2908 1176 1176
2905 1200 2009
2903 1246 2903
2798 1467 3602
2916 2096 1097
2917 2099 1423
2921 2112 2112
2929 2137 2929
2871 2247 3586
3040 3040 1738
3043 3043 1926
3053 3053 2408
3071 3071 3071
3116 3116 3669
3550 3881 3135
3558 3884 3190
3582 3896 3357
3629 3920 3629
3708 3958 3958
3605 1182 1182
3603 1196 1457
3599 1243 2068
3592 1328 2812
3586 1454 3586
3592 1552 1323
3591 1563 1563
3589 1597 2124
3586 1661 2833
3585 1759 3585
3590 2300 1727
3591 2307 1894
3594 2329 2329
3600 2371 2934
3611 2437 3611
3687 3156 2391
3689 3161 2489
3697 3177 2771
3712 3209 3209
3737 3260 3737
3993 3993 3535
3998 3998 3576
4012 4012 3701
4042 4042 3899
4095 4095 4095
