Examples/Curves CMYK - Saturation.3dl
#25pt 3DLUT created by 3D LUT Creator Pro (c) Oleg Sharonov
#Copyright Oleg Sharonov
#INPUTGAMMA sRGB IEC61966-2.1 v.2.10
#IMAGEPROFILE sRGB IEC61966-2.1 v.2.10
#OUTPUTGAMMA sRGB IEC61966-2.1 v.2.10
0 128 256 384 512 640 768 896 1023
0 0 0
0 0 453
0 0 953
0 0 1484
0 0 2036
0 0 2586
0 0 3129
0 0 3638
0 0 4095
0 456 0
0 456 453
0 244 953
0 168 1484
0 132 2036
0 112 2586
0 100 3129
0 93 3638
0 91 4095
0 960 0
0 960 242
0 960 953
0 708 1484
0 559 2036
0 470 2586
0 419 3129
0 393 3638
0 385 4095
0 1495 0
0 1495 167
0 1495 704
0 1495 1484
0 1254 2036
0 1081 2586
0 972 3129
0 914 3638
0 895 4095
0 2051 0
0 2051 131
0 2051 556
0 2051 1246
0 2051 2036
0 1839 2586
0 1687 3129
0 1602 3638
0 1576 4095
0 2603 0
0 2603 111
0 2603 468
0 2603 1075
0 2603 1826
0 2603 2586
0 2451 3129
0 2357 3638
0 2327 4095
0 3147 0
0 3147 99
0 3147 417
0 3147 966
0 3147 1675
0 3147 2433
0 3147 3129
0 3074 3638
0 3049 4095
0 3651 0
0 3651 93
0 3651 391
0 3651 909
0 3651 1592
0 3651 2340
0 3651 3055
0 3651 3638
0 3642 4095
0 4095 0
0 4095 91
0 4095 383
0 4095 891
0 4095 1565
0 4095 2310
0 4095 3029
0 4095 3627
0 4095 4095
452 0 0
452 0 453
246 0 953
170 0 1484
135 0 2036
114 0 2586
103 0 3129
97 0 3638
95 0 4095
452 456 0
452 456 453
246 244 953
170 168 1484
135 132 2036
114 112 2586
103 100 3129
97 93 3638
95 91 4095
246 960 0
246 960 242
246 960 953
170 708 1484
135 559 2036
114 470 2586
103 419 3129
97 393 3638
95 385 4095
170 1495 0
170 1495 167
170 1495 704
170 1495 1484
135 1254 2036
114 1081 2586
103 972 3129
97 914 3638
95 895 4095
135 2051 0
135 2051 131
135 2051 556
135 2051 1246
135 2051 2036
114 1839 2586
103 1687 3129
97 1602 3638
95 1576 4095
114 2603 0
114 2603 111
114 2603 468
114 2603 1075
114 2603 1826
114 2603 2586
103 2451 3129
97 2357 3638
95 2327 4095
103 3147 0
103 3147 99
103 3147 417
103 3147 966
103 3147 1675
103 3147 2433
103 3147 3129
97 3074 3638
95 3049 4095
97 3651 0
97 3651 93
97 3651 391
97 3651 909
97 3651 1592
97 3651 2340
97 3651 3055
97 3651 3638
95 3642 4095
95 4095 0
95 4095 91
95 4095 383
95 4095 891
95 4095 1565
95 4095 2310
95 4095 3029
95 4095 3627
95 4095 4095
950 0 0
950 0 242
950 0 953
708 0 1484
563 0 2036
475 0 2586
423 0 3129
397 0 3638
389 0 4095
950 244 0
950 244 242
950 244 953
708 168 1484
563 132 2036
475 112 2586
423 100 3129
397 93 3638
389 91 4095
950 960 0
950 960 242
950 960 953
708 708 1484
563 559 2036
475 470 2586
423 419 3129
397 393 3638
389 385 4095
708 1495 0
708 1495 167
708 1495 704
708 1495 1484
563 1254 2036
475 1081 2586
423 972 3129
397 914 3638
389 895 4095
563 2051 0
563 2051 131
563 2051 556
563 2051 1246
563 2051 2036
475 1839 2586
423 1687 3129
397 1602 3638
389 1576 4095
475 2603 0
475 2603 111
475 2603 468
475 2603 1075
475 2603 1826
475 2603 2586
423 2451 3129
397 2357 3638
389 2327 4095
423 3147 0
423 3147 99
423 3147 417
423 3147 966
423 3147 1675
423 3147 2433
423 3147 3129
397 3074 3638
389 3049 4095
397 3651 0
397 3651 93
397 3651 391
397 3651 909
397 3651 1592
397 3651 2340
397 3651 3055
397 3651 3638
389 3642 4095
389 4095 0
389 4095 91
389 4095 383
389 4095 891
389 4095 1565
389 4095 2310
389 4095 3029
389 4095 3627
389 4095 4095
1477 0 0
1477 0 167
1477 0 704
1477 0 1484
1246 0 2036
1079 0 2586
973 0 3129
916 0 3638
899 0 4095
1477 168 0
1477 168 167
1477 168 704
1477 168 1484
1246 132 2036
1079 112 2586
973 100 3129
916 93 3638
899 91 4095
1477 708 0
1477 708 167
1477 708 704
1477 708 1484
1246 559 2036
1079 470 2586
973 419 3129
916 393 3638
899 385 4095
1477 1495 0
1477 1495 167
1477 1495 704
1477 1495 1484
1246 1254 2036
1079 1081 2586
973 972 3129
916 914 3638
899 895 4095
1246 2051 0
1246 2051 131
1246 2051 556
1246 2051 1246
1246 2051 2036
1079 1839 2586
973 1687 3129
916 1602 3638
899 1576 4095
1079 2603 0
1079 2603 111
1079 2603 468
1079 2603 1075
1079 2603 1826
1079 2603 2586
973 2451 3129
916 2357 3638
899 2327 4095
973 3147 0
973 3147 99
973 3147 417
973 3147 966
973 3147 1675
973 3147 2433
973 3147 3129
916 3074 3638
899 3049 4095
916 3651 0
916 3651 93
916 3651 391
916 3651 909
916 3651 1592
916 3651 2340
916 3651 3055
916 3651 3638
899 3642 4095
899 4095 0
899 4095 91
899 4095 383
899 4095 891
899 4095 1565
899 4095 2310
899 4095 3029
899 4095 3627
899 4095 4095
2025 0 0
2025 0 131
2025 0 556
2025 0 1246
2025 0 2036
1819 0 2586
1673 0 3129
1591 0 3638
1565 0 4095
2025 132 0
2025 132 131
2025 132 556
2025 132 1246
2025 132 2036
1819 112 2586
1673 100 3129
1591 93 3638
1565 91 4095
2025 559 0
2025 559 131
2025 559 556
2025 559 1246
2025 559 2036
1819 470 2586
1673 419 3129
1591 393 3638
1565 385 4095
2025 1254 0
2025 1254 131
2025 1254 556
2025 1254 1246
2025 1254 2036
1819 1081 2586
1673 972 3129
1591 914 3638
1565 895 4095
2025 2051 0
2025 2051 131
2025 2051 556
2025 2051 1246
2025 2051 2036
1819 1839 2586
1673 1687 3129
1591 1602 3638
1565 1576 4095
1819 2603 0
1819 2603 111
1819 2603 468
1819 2603 1075
1819 2603 1826
1819 2603 2586
1673 2451 3129
1591 2357 3638
1565 2327 4095
1673 3147 0
1673 3147 99
1673 3147 417
1673 3147 966
1673 3147 1675
1673 3147 2433
1673 3147 3129
1591 3074 3638
1565 3049 4095
1591 3651 0
1591 3651 93
1591 3651 391
1591 3651 909
1591 3651 1592
1591 3651 2340
1591 3651 3055
1591 3651 3638
1565 3642 4095
1565 4095 0
1565 4095 91
1565 4095 383
1565 4095 891
1565 4095 1565
1565 4095 2310
1565 4095 3029
1565 4095 3627
1565 4095 4095
2571 0 0
2571 0 111
2571 0 468
2571 0 1075
2571 0 1826
2571 0 2586
2420 0 3129
2329 0 3638
2299 0 4095
2571 112 0
2571 112 111
2571 112 468
2571 112 1075
2571 112 1826
2571 112 2586
2420 100 3129
2329 93 3638
2299 91 4095
2571 470 0
2571 470 111
2571 470 468
2571 470 1075
2571 470 1826
2571 470 2586
2420 419 3129
2329 393 3638
2299 385 4095
2571 1081 0
2571 1081 111
2571 1081 468
2571 1081 1075
2571 1081 1826
2571 1081 2586
2420 972 3129
2329 914 3638
2299 895 4095
2571 1839 0
2571 1839 111
2571 1839 468
2571 1839 1075
2571 1839 1826
2571 1839 2586
2420 1687 3129
2329 1602 3638
2299 1576 4095
2571 2603 0
2571 2603 111
2571 2603 468
2571 2603 1075
2571 2603 1826
2571 2603 2586
2420 2451 3129
2329 2357 3638
2299 2327 4095
2420 3147 0
2420 3147 99
2420 3147 417
2420 3147 966
2420 3147 1675
2420 3147 2433
2420 3147 3129
2329 3074 3638
2299 3049 4095
2329 3651 0
2329 3651 93
2329 3651 391
2329 3651 909
2329 3651 1592
2329 3651 2340
2329 3651 3055
2329 3651 3638
2299 3642 4095
2299 4095 0
2299 4095 91
2299 4095 383
2299 4095 891
2299 4095 1565
2299 4095 2310
2299 4095 3029
2299 4095 3627
2299 4095 4095
3113 0 0
3113 0 99
3113 0 417
3113 0 966
3113 0 1675
3113 0 2433
3113 0 3129
3038 0 3638
3012 0 4095
3113 100 0
3113 100 99
3113 100 417
3113 100 966
3113 100 1675
3113 100 2433
3113 100 3129
3038 93 3638
3012 91 4095
3113 419 0
3113 419 99
3113 419 417
3113 419 966
3113 419 1675
3113 419 2433
3113 419 3129
3038 393 3638
3012 385 4095
3113 972 0
3113 972 99
3113 972 417
3113 972 966
3113 972 1675
3113 972 2433
3113 972 3129
3038 914 3638
3012 895 4095
3113 1687 0
3113 1687 99
3113 1687 417
3113 1687 966
3113 1687 1675
3113 1687 2433
3113 1687 3129
3038 1602 3638
3012 1576 4095
3113 2451 0
3113 2451 99
3113 2451 417
3113 2451 966
3113 2451 1675
3113 2451 2433
3113 2451 3129
3038 2357 3638
3012 2327 4095
3113 3147 0
3113 3147 99
3113 3147 417
3113 3147 966
3113 3147 1675
3113 3147 2433
3113 3147 3129
3038 3074 3638
3012 3049 4095
3038 3651 0
3038 3651 93
3038 3651 391
3038 3651 909
3038 3651 1592
3038 3651 2340
3038 3651 3055
3038 3651 3638
3012 3642 4095
3012 4095 0
3012 4095 91
3012 4095 383
3012 4095 891
3012 4095 1565
3012 4095 2310
3012 4095 3029
3012 4095 3627
3012 4095 4095
3627 0 0
3627 0 93
3627 0 391
3627 0 909
3627 0 1592
3627 0 2340
3627 0 3055
3627 0 3638
3615 0 4095
3627 93 0
3627 93 93
3627 93 391
3627 93 909
3627 93 1592
3627 93 2340
3627 93 3055
3627 93 3638
3615 91 4095
3627 393 0
3627 393 93
3627 393 391
3627 393 909
3627 393 1592
3627 393 2340
3627 393 3055
3627 393 3638
3615 385 4095
3627 914 0
3627 914 93
3627 914 391
3627 914 909
3627 914 1592
3627 914 2340
3627 914 3055
3627 914 3638
3615 895 4095
3627 1602 0
3627 1602 93
3627 1602 391
3627 1602 909
3627 1602 1592
3627 1602 2340
3627 1602 3055
3627 1602 3638
3615 1576 4095
3627 2357 0
3627 2357 93
3627 2357 391
3627 2357 909
3627 2357 1592
3627 2357 2340
3627 2357 3055
3627 2357 3638
3615 2327 4095
3627 3074 0
3627 3074 93
3627 3074 391
3627 3074 909
3627 3074 1592
3627 3074 2340
3627 3074 3055
3627 3074 3638
3615 3049 4095
3627 3651 0
3627 3651 93
3627 3651 391
3627 3651 909
3627 3651 1592
3627 3651 2340
3627 3651 3055
3627 3651 3638
3615 3642 4095
3615 4095 0
3615 4095 91
3615 4095 383
3615 4095 891
3615 4095 1565
3615 4095 2310
3615 4095 3029
3615 4095 3627
3615 4095 4095
4095 0 0
4095 0 91
4095 0 383
4095 0 891
4095 0 1565
4095 0 2310
4095 0 3029
4095 0 3627
4095 0 4095
4095 91 0
4095 91 91
4095 91 383
4095 91 891
4095 91 1565
4095 91 2310
4095 91 3029
4095 91 3627
4095 91 4095
4095 385 0
4095 385 91
4095 385 383
4095 385 891
4095 385 1565
4095 385 2310
4095 385 3029
4095 385 3627
4095 385 4095
4095 895 0
4095 895 91
4095 895 383
4095 895 891
4095 895 1565
4095 895 2310
4095 895 3029
4095 895 3627
4095 895 4095
4095 1576 0
4095 1576 91
4095 1576 383
4095 1576 891
4095 1576 1565
4095 1576 2310
4095 1576 3029
4095 1576 3627
4095 1576 4095
4095 2327 0
4095 2327 91
4095 2327 383
4095 2327 891
4095 2327 1565
4095 2327 2310
4095 2327 3029
4095 2327 3627
4095 2327 4095
4095 3049 0
4095 3049 91
4095 3049 383
4095 3049 891
4095 3049 1565
4095 3049 2310
4095 3049 3029
4095 3049 3627
4095 3049 4095
4095 3642 0
4095 3642 91
4095 3642 383
4095 3642 891
4095 3642 1565
4095 3642 2310
4095 3642 3029
4095 3642 3627
4095 3642 4095
4095 4095 0
4095 4095 91
4095 4095 383
4095 4095 891
4095 4095 1565
4095 4095 2310
4095 4095 3029
4095 4095 3627
4095 4095 4095
