Examples/Curves - RGB Skin contrast.3dl
#25pt 3DLUT created by 3D LUT Creator Pro (c) Oleg Sharonov
#Copyright Oleg Sharonov
0 43 86 128 171 214 256 299 341 384 427 469 512 555 597 640 682 725 768 810 853 896 938 981 1023 
0 0 0
0 0 126
0 0 251
0 0 392
0 0 547
0 0 712
0 0 895
0 0 1090
0 0 1286
0 0 1495
0 0 1707
0 0 1926
0 0 2141
0 0 2358
0 0 2573
0 0 2783
0 0 2989
0 0 3184
0 0 3371
0 0 3547
0 0 3709
0 0 3856
0 0 3981
0 0 4073
0 0 4095
0 131 0
0 131 121
0 131 251
0 131 393
0 131 548
0 131 715
0 130 897
0 130 1091
0 130 1288
0 129 1497
0 129 1709
0 128 1927
0 127 2143
0 127 2359
0 126 2574
0 126 2784
0 125 2988
0 125 3185
0 124 3372
0 124 3548
0 124 3709
0 124 3856
0 124 3981
0 124 4073
0 125 4095
0 263 0
0 265 121
0 264 250
0 265 391
0 265 545
0 265 717
0 264 899
0 264 1089
0 264 1291
0 263 1499
0 263 1712
0 262 1925
0 261 2145
0 261 2362
0 260 2576
0 260 2786
0 259 2989
0 259 3184
0 259 3371
0 258 3547
0 258 3708
0 258 3855
0 258 3980
0 259 4072
0 259 4095
0 403 0
0 403 121
0 403 251
0 403 392
0 403 547
0 402 716
0 402 897
0 402 1090
0 401 1292
0 401 1497
0 400 1713
0 400 1927
0 399 2143
0 399 2360
0 398 2574
0 398 2784
0 397 2990
0 397 3185
0 397 3372
0 396 3548
0 396 3709
0 396 3856
0 396 3980
0 397 4072
0 397 4095
0 544 0
0 545 121
0 544 251
0 544 392
0 544 547
0 545 717
0 544 898
0 544 1090
0 544 1292
0 543 1498
0 543 1713
0 542 1927
0 541 2144
0 541 2360
0 540 2575
0 540 2785
0 540 2990
0 539 3185
0 539 3372
0 539 3548
0 539 3709
0 539 3855
0 539 3980
0 540 4071
0 540 4095
0 691 0
0 691 121
0 691 251
0 691 392
0 691 548
0 690 716
0 691 898
0 690 1091
0 689 1291
0 690 1499
0 688 1712
0 689 1928
0 688 2145
0 688 2361
0 687 2576
0 687 2786
0 687 2991
0 686 3186
0 686 3373
0 686 3548
0 686 3709
0 686 3856
0 686 3980
0 686 4071
0 687 4095
0 847 0
0 848 121
0 847 251
0 848 392
0 848 548
0 848 716
0 847 898
0 848 1091
0 848 1292
0 847 1499
0 847 1713
0 846 1928
0 846 2145
0 845 2362
0 845 2576
0 845 2786
0 845 2991
0 844 3186
0 844 3373
0 845 3548
0 845 3709
0 844 3855
0 844 3979
0 846 4070
0 846 4095
0 1018 0
0 1019 121
0 1019 251
0 1019 392
0 1019 548
0 1019 717
0 1019 899
0 1019 1092
0 1018 1292
0 1019 1500
0 1018 1713
0 1018 1929
0 1018 2146
0 1018 2363
0 1018 2577
0 1017 2787
0 1017 2990
0 1017 3187
0 1017 3373
0 1016 3547
0 1017 3709
0 1017 3855
0 1018 3979
0 1018 4070
0 1019 4095
0 1201 0
0 1201 120
0 1201 251
0 1202 391
0 1202 547
0 1203 717
0 1203 899
0 1202 1091
0 1202 1292
0 1202 1500
0 1202 1713
0 1202 1929
0 1202 2146
0 1202 2363
0 1201 2577
0 1201 2787
0 1201 2991
0 1201 3186
0 1201 3373
0 1201 3548
0 1201 3709
0 1201 3855
0 1202 3978
0 1202 4069
0 1203 4095
0 1393 0
0 1394 120
0 1394 250
0 1395 391
0 1395 546
0 1396 717
0 1396 899
0 1395 1091
0 1396 1292
0 1396 1500
0 1396 1713
0 1395 1929
0 1395 2147
0 1395 2363
0 1395 2577
0 1395 2787
0 1395 2991
0 1395 3187
0 1395 3373
0 1395 3547
0 1395 3708
0 1396 3854
0 1396 3978
0 1397 4068
0 1398 4095
0 1595 0
0 1596 119
0 1596 250
0 1596 391
0 1597 546
0 1597 717
0 1598 899
0 1597 1091
0 1598 1292
0 1598 1500
0 1598 1714
0 1597 1929
0 1598 2146
0 1597 2363
0 1597 2577
0 1597 2787
0 1597 2991
0 1597 3187
0 1598 3373
0 1597 3547
0 1598 3708
0 1599 3854
0 1599 3977
0 1600 4067
0 1601 4095
0 1803 0
0 1803 119
0 1804 249
0 1804 390
0 1804 547
0 1805 716
0 1805 899
0 1805 1091
0 1805 1292
0 1805 1500
0 1805 1714
0 1805 1929
0 1805 2146
0 1805 2363
0 1805 2577
0 1805 2787
0 1805 2991
0 1805 3187
0 1806 3373
0 1806 3547
0 1806 3708
0 1806 3853
0 1807 3976
0 1808 4066
0 1809 4095
0 2015 0
0 2015 118
0 2016 249
0 2016 390
0 2017 546
0 2017 716
0 2017 898
0 2018 1091
0 2018 1292
0 2017 1500
0 2017 1713
0 2018 1929
0 2017 2146
0 2017 2363
0 2018 2577
0 2017 2787
0 2018 2991
0 2018 3186
0 2018 3372
0 2018 3547
0 2019 3707
0 2019 3853
0 2020 3976
0 2021 4065
0 2022 4095
0 2229 0
0 2230 117
0 2230 248
0 2231 389
0 2231 546
0 2232 716
0 2232 898
0 2232 1091
0 2232 1292
0 2232 1500
0 2232 1714
0 2232 1929
0 2232 2146
0 2232 2363
0 2232 2577
0 2232 2787
0 2233 2991
0 2232 3186
0 2233 3372
0 2233 3546
0 2233 3707
0 2234 3852
0 2234 3975
0 2236 4064
0 2236 4095
0 2444 0
0 2444 117
0 2445 248
0 2446 389
0 2446 546
0 2447 716
0 2447 898
0 2447 1091
0 2447 1292
0 2447 1500
0 2447 1714
0 2447 1929
0 2447 2146
0 2447 2363
0 2447 2577
0 2447 2787
0 2447 2990
0 2447 3186
0 2448 3372
0 2448 3546
0 2448 3706
0 2449 3852
0 2449 3974
0 2450 4063
0 2451 4095
0 2658 0
0 2659 116
0 2659 247
0 2659 389
0 2660 545
0 2660 715
0 2660 898
0 2660 1091
0 2660 1292
0 2661 1500
0 2660 1713
0 2660 1929
0 2660 2147
0 2660 2363
0 2660 2577
0 2660 2787
0 2660 2990
0 2661 3186
0 2661 3372
0 2661 3546
0 2661 3706
0 2662 3852
0 2662 3974
0 2663 4063
0 2664 4095
0 2868 0
0 2868 116
0 2869 247
0 2870 388
0 2870 545
0 2870 715
0 2870 898
0 2870 1090
0 2870 1292
0 2871 1500
0 2870 1713
0 2871 1929
0 2870 2147
0 2870 2363
0 2870 2577
0 2870 2787
0 2870 2990
0 2870 3186
0 2871 3371
0 2871 3545
0 2871 3706
0 2872 3851
0 2872 3973
0 2873 4062
0 2874 4095
0 3073 0
0 3073 115
0 3074 246
0 3074 388
0 3074 545
0 3075 715
0 3075 897
0 3075 1091
0 3075 1292
0 3075 1500
0 3075 1714
0 3075 1929
0 3074 2147
0 3075 2363
0 3074 2577
0 3074 2787
0 3074 2990
0 3074 3186
0 3074 3371
0 3074 3545
0 3075 3705
0 3075 3850
0 3076 3972
0 3076 4061
0 3077 4095
0 3270 0
0 3271 115
0 3271 246
0 3272 387
0 3272 545
0 3272 715
0 3272 898
0 3272 1091
0 3272 1292
0 3272 1501
0 3272 1713
0 3272 1930
0 3271 2147
0 3271 2363
0 3271 2577
0 3271 2787
0 3271 2990
0 3271 3185
0 3271 3371
0 3271 3545
0 3271 3705
0 3272 3850
0 3272 3971
0 3273 4060
0 3274 4095
0 3459 0
0 3459 114
0 3460 245
0 3460 387
0 3460 544
0 3460 715
0 3460 898
0 3460 1091
0 3460 1292
0 3460 1501
0 3460 1714
0 3459 1929
0 3459 2147
0 3459 2364
0 3459 2577
0 3459 2787
0 3458 2990
0 3458 3186
0 3458 3371
0 3458 3545
0 3458 3705
0 3459 3850
0 3459 3971
0 3460 4059
0 3460 4095
0 3636 0
0 3636 114
0 3636 245
0 3637 387
0 3637 544
0 3637 715
0 3637 898
0 3637 1091
0 3636 1292
0 3636 1501
0 3636 1714
0 3635 1930
0 3635 2147
0 3635 2364
0 3635 2578
0 3634 2787
0 3634 2991
0 3634 3186
0 3634 3371
0 3634 3545
0 3634 3705
0 3634 3849
0 3634 3970
0 3635 4058
0 3636 4095
0 3800 0
0 3800 114
0 3801 245
0 3801 387
0 3801 544
0 3801 715
0 3800 898
0 3800 1091
0 3800 1293
0 3799 1501
0 3799 1714
0 3799 1930
0 3798 2148
0 3798 2364
0 3797 2578
0 3797 2788
0 3797 2991
0 3797 3186
0 3796 3371
0 3796 3545
0 3796 3705
0 3796 3849
0 3797 3970
0 3797 4058
0 3798 4095
0 3949 0
0 3950 113
0 3950 245
0 3950 387
0 3949 544
0 3949 715
0 3949 898
0 3949 1092
0 3948 1293
0 3948 1502
0 3947 1715
0 3947 1931
0 3946 2148
0 3946 2365
0 3945 2578
0 3945 2788
0 3944 2991
0 3944 3186
0 3944 3371
0 3943 3545
0 3943 3705
0 3943 3849
0 3943 3970
0 3944 4057
0 3944 4095
0 4069 0
0 4069 113
0 4069 245
0 4068 387
0 4068 545
0 4067 715
0 4067 899
0 4066 1092
0 4065 1294
0 4064 1502
0 4064 1716
0 4063 1932
0 4062 2149
0 4061 2365
0 4060 2579
0 4059 2789
0 4058 2992
0 4058 3187
0 4057 3372
0 4056 3545
0 4056 3705
0 4056 3849
0 4055 3970
0 4055 4057
0 4055 4095
0 4095 0
0 4095 116
0 4095 245
0 4095 389
0 4095 545
0 4095 716
0 4095 900
0 4095 1094
0 4095 1295
0 4095 1503
0 4095 1716
0 4095 1933
0 4095 2150
0 4095 2367
0 4095 2580
0 4095 2790
0 4095 2993
0 4095 3188
0 4095 3373
0 4095 3546
0 4095 3706
0 4095 3850
0 4095 3970
0 4095 4057
0 4095 4095
127 0 0
130 0 121
128 0 248
127 0 389
130 0 544
129 0 720
129 0 894
129 0 1088
128 0 1292
128 0 1495
127 0 1712
127 0 1925
126 0 2141
125 0 2362
125 0 2572
124 0 2786
124 0 2989
123 0 3184
123 0 3371
123 0 3547
122 0 3708
122 0 3855
122 0 3980
123 0 4073
123 0 4095
130 131 0
130 131 121
130 131 251
130 131 392
130 131 546
129 131 714
129 130 896
129 130 1090
128 130 1293
128 129 1497
127 129 1709
127 128 1926
126 127 2143
125 127 2359
125 126 2573
124 126 2784
124 125 2990
123 125 3185
123 124 3372
123 124 3548
122 124 3709
122 124 3856
122 124 3981
123 124 4072
123 125 4095
130 265 0
130 264 121
130 265 251
130 265 393
130 265 548
129 265 716
129 264 899
129 264 1089
128 264 1291
128 263 1499
127 263 1711
127 262 1929
126 262 2145
125 261 2361
125 260 2576
124 260 2786
124 259 2989
123 259 3186
123 259 3373
123 258 3547
122 258 3710
122 258 3856
122 258 3981
123 259 4072
123 259 4095
130 403 0
130 403 121
130 403 251
130 403 392
130 403 547
129 403 717
129 403 899
129 402 1090
128 401 1292
128 401 1500
127 400 1712
126 400 1926
126 399 2146
125 399 2362
125 398 2576
124 398 2786
124 397 2990
123 397 3185
123 397 3373
123 397 3547
122 396 3709
122 396 3855
122 396 3980
123 397 4071
123 397 4095
130 544 0
130 544 121
130 544 251
130 544 392
130 544 547
129 545 717
129 545 899
129 544 1091
128 544 1292
128 544 1500
127 543 1712
126 542 1927
126 542 2146
125 542 2363
125 541 2577
124 541 2787
124 540 2990
123 540 3187
123 540 3374
122 539 3548
122 538 3709
122 538 3855
122 539 3980
122 540 4071
121 539 4095
130 691 0
130 691 121
130 690 251
130 691 392
129 691 547
129 691 717
129 690 898
128 690 1091
128 690 1292
127 689 1499
127 689 1713
126 689 1928
126 688 2145
125 687 2362
125 687 2576
124 686 2786
123 687 2991
123 686 3186
123 686 3373
122 686 3548
122 686 3709
122 686 3855
122 686 3980
122 687 4071
123 687 4095
129 847 0
130 847 121
130 848 251
129 848 392
129 848 547
129 848 717
129 848 899
128 847 1091
128 848 1292
127 848 1501
127 847 1713
126 846 1928
125 847 2146
125 846 2363
124 846 2577
124 846 2787
123 845 2991
123 844 3186
122 845 3374
122 844 3548
122 844 3709
122 844 3855
122 845 3979
122 845 4070
123 846 4095
129 1018 0
129 1019 121
129 1019 251
129 1019 392
129 1020 548
129 1019 717
128 1019 899
128 1020 1092
127 1019 1292
127 1019 1500
126 1018 1713
126 1019 1929
125 1018 2146
125 1018 2363
124 1017 2577
123 1017 2787
123 1017 2992
123 1017 3187
122 1017 3373
122 1017 3548
122 1017 3709
122 1018 3855
122 1018 3979
122 1019 4069
122 1020 4095
129 1201 0
129 1201 120
129 1202 251
129 1203 392
129 1203 548
128 1202 717
128 1203 900
128 1202 1091
127 1202 1293
127 1202 1501
126 1202 1714
125 1202 1930
125 1202 2147
124 1202 2363
124 1201 2577
123 1201 2788
123 1201 2991
122 1202 3187
122 1201 3374
121 1201 3548
121 1201 3709
121 1202 3855
121 1202 3978
121 1203 4068
122 1204 4095
128 1394 0
128 1395 120
128 1395 250
128 1396 391
128 1396 548
128 1396 717
128 1396 900
127 1396 1092
127 1396 1293
126 1396 1501
126 1396 1714
125 1396 1930
124 1396 2147
124 1396 2364
123 1396 2578
123 1396 2787
122 1396 2991
122 1396 3187
121 1396 3373
121 1395 3548
121 1396 3709
121 1396 3855
121 1397 3978
121 1398 4068
122 1399 4095
128 1596 0
128 1596 119
128 1597 250
128 1597 391
128 1598 547
127 1598 717
127 1598 899
127 1598 1092
126 1598 1293
126 1598 1501
125 1598 1714
124 1598 1930
124 1598 2147
123 1598 2364
123 1598 2578
122 1597 2787
122 1597 2991
121 1598 3187
121 1598 3373
121 1598 3547
120 1599 3709
120 1599 3854
120 1600 3977
121 1600 4067
121 1601 4095
