Examples/Curves - Color Contrast.3dl
#25pt 3DLUT created by 3D LUT Creator Pro (c) Oleg Sharonov
#Copyright Oleg Sharonov
0 128 256 384 512 640 768 896 1023
0 0 0
0 0 214
0 0 631
0 0 1098
0 0 1528
0 0 1903
0 0 2306
0 0 2733
0 0 3181
0 339 0
0 341 341
0 343 739
0 339 1126
0 337 1512
0 339 1910
0 345 2325
0 352 2757
0 360 3208
0 733 0
0 734 341
0 735 735
0 738 1133
0 744 1538
0 751 1952
0 761 2378
0 772 2817
0 786 3271
0 1174 0
0 1176 362
0 1178 771
0 1183 1183
0 1190 1602
0 1199 2028
0 1211 2463
0 1224 2909
0 1239 3367
0 1663 0
0 1664 388
0 1666 815
0 1671 1244
0 1678 1678
0 1687 2117
0 1698 2564
0 1711 3020
0 1726 3485
0 2189 0
0 2189 414
0 2192 859
0 2196 1306
0 2202 1756
0 2210 2210
0 2221 2670
0 2233 3137
0 2247 3611
0 2746 0
0 2746 439
0 2748 902
0 2752 1365
0 2758 1831
0 2765 2301
0 2774 2774
0 2786 3253
0 2799 3738
0 3331 0
0 3331 462
0 3333 942
0 3336 1421
0 3341 1903
0 3348 2387
0 3356 2875
0 3367 3367
0 3379 3863
0 3940 0
0 3941 485
0 3942 980
0 3945 1474
0 3950 1971
0 3955 2469
0 3963 2971
0 3972 3475
0 3983 3983
271 0 0
287 0 287
316 0 691
343 0 1131
341 0 1519
337 0 1903
341 0 2311
349 0 2740
358 0 3189
345 345 0
512 512 512
448 448 915
389 389 1244
367 367 1600
358 358 1980
358 358 2383
362 362 2806
367 367 3249
341 735 0
451 921 451
451 921 921
396 827 1259
376 793 1629
369 783 2021
369 783 2434
372 788 2863
377 797 3310
362 1177 0
409 1292 409
411 1294 852
412 1298 1298
394 1254 1684
388 1239 2091
388 1238 2514
389 1243 2950
394 1253 3402
388 1666 0
411 1736 411
412 1738 854
412 1742 1299
414 1748 1748
409 1730 2171
408 1727 2607
409 1732 3055
412 1742 3514
414 2191 0
427 2235 427
427 2237 879
428 2241 1334
430 2246 1792
431 2253 2253
430 2250 2704
431 2254 3165
433 2263 3635
440 2748 0
446 2775 446
446 2777 912
446 2780 1380
448 2785 1850
449 2792 2323
451 2800 2800
452 2804 3275
454 2813 3756
464 3333 0
467 3348 467
467 3350 947
467 3353 1429
468 3357 1913
470 3364 2399
471 3371 2888
472 3381 3381
474 3389 3875
486 3942 0
488 3949 488
488 3951 982
488 3953 1478
489 3958 1975
489 3963 2474
490 3971 2976
492 3979 3481
494 3990 3990
735 0 0
738 0 343
739 0 739
732 0 1124
729 0 1512
733 0 1910
741 0 2326
753 0 2759
768 0 3209
731 339 0
915 448 448
917 448 917
819 391 1246
782 369 1608
770 362 1993
769 362 2398
775 365 2823
784 370 3268
740 740 0
923 923 452
1024 1024 1024
991 991 1489
906 906 1833
857 857 2187
833 833 2568
824 824 2975
824 824 3404
776 1186 0
855 1298 412
995 1496 995
996 1496 1496
922 1393 1863
880 1332 2237
858 1302 2633
849 1289 3051
848 1288 3487
818 1673 0
856 1743 412
938 1892 938
940 1894 1417
941 1897 1897
905 1831 2294
886 1797 2708
878 1782 3139
877 1780 3585
862 2198 0
881 2241 428
926 2340 926
926 2343 1399
928 2347 1874
931 2352 2352
916 2318 2786
909 2303 3233
907 2300 3692
904 2754 0
914 2780 446
937 2843 937
938 2845 1415
940 2849 1894
942 2855 2376
944 2861 2861
940 2848 3326
938 2846 3799
944 3338 0
948 3353 467
960 3389 960
961 3392 1447
962 3396 1935
964 3401 2426
966 3407 2919
969 3416 3416
969 3415 3905
981 3947 0
983 3954 488
988 3971 988
988 3974 1486
990 3977 1986
991 3982 2487
993 3989 2990
995 3996 3496
998 4006 4006
1120 0 0
1120 0 337
1121 0 729
1123 0 1123
1129 0 1523
1139 0 1932
1153 0 2354
1169 0 2791
1188 0 3243
1124 339 0
1250 393 393
1251 393 822
1255 394 1255
1207 374 1623
1192 369 2015
1190 367 2425
1198 370 2854
1211 376 3300
1151 751 0
1272 837 401
1491 992 992
1492 993 1492
1376 911 1842
1311 864 2204
1278 841 2589
1266 832 2999
1265 831 3431
1199 1199 0
1308 1308 417
1498 1498 997
1536 1536 1536
1529 1529 2039
1456 1456 2433
1398 1398 2814
1363 1363 3209
1343 1343 3623
1256 1686 0
1308 1754 417
1420 1898 942
1530 2040 1530
1530 2040 2040
1470 1963 2456
1422 1901 2858
1392 1861 3271
1375 1840 3701
1315 2210 0
1341 2251 430
1402 2348 928
1482 2476 1482
1484 2477 1980
1485 2479 2479
1446 2419 2905
1423 2380 3338
1409 2359 3784
1372 2765 0
1386 2790 449
1417 2850 940
1465 2940 1465
1467 2943 1959
1469 2946 2453
1471 2950 2950
1453 2917 3404
1443 2898 3868
1427 3348 0
1434 3362 470
1449 3397 963
1475 3451 1475
1476 3454 1970
1478 3458 2468
1480 3462 2967
1482 3468 3468
1477 3456 3951
1478 3955 0
1481 3962 489
1488 3978 990
1499 4005 1499
1500 4008 2002
1502 4011 2505
1504 4016 3011
1506 4023 3519
1509 4030 4030
1530 0 0
1531 0 345
1535 0 742
1541 0 1143
1551 0 1551
1565 0 1968
1582 0 2396
1602 0 2837
1624 0 3291
1544 349 0
1632 377 377
1635 377 797
1641 379 1220
1649 383 1649
1630 376 2048
1629 376 2464
1638 379 2896
1653 384 3344
1580 767 0
1663 813 388
1849 914 914
1852 916 1384
1856 919 1856
1775 874 2225
1735 852 2618
1719 843 3033
1717 842 3467
1637 1217 0
1712 1275 403
1875 1403 929
2039 1529 1529
2039 1529 2039
1950 1461 2441
1880 1406 2828
1836 1372 3229
1813 1354 3649
1705 1705 0
1769 1769 422
1906 1906 946
2041 2041 1530
2048 2048 2048
2048 2048 2559
2003 2003 3007
1952 1952 3424
1916 1916 3844
1776 2227 0
1809 2267 434
1884 2359 933
1983 2480 1485
2048 2560 2048
2048 2560 2560
2013 2517 3021
1973 2468 3458
1944 2432 3898
1847 2780 0
1863 2804 452
1903 2862 944
1962 2947 1470
2021 3033 2021
2022 3034 2528
2023 3035 3035
1993 2993 3493
1972 2962 3952
1915 3361 0
1923 3375 471
1943 3408 966
1973 3459 1478
2009 3518 2009
2010 3521 2514
2011 3523 3019
2013 3526 3526
2001 3504 4006
1981 3968 0
1984 3974 492
1992 3989 993
2004 4013 1502
2020 4043 2020
2021 4045 2527
2023 4048 3036
2025 4052 3546
2027 4057 4057
1974 0 0
1975 0 358
1980 0 764
1988 0 1174
1999 0 1590
2014 0 2014
2033 0 2448
2055 0 2893
2080 0 3351
1991 362 0
2054 377 377
2058 379 799
2065 381 1223
2075 384 1652
2088 388 2088
2086 386 2510
2095 389 2948
2111 393 3399
2031 787 0
2091 814 388
2232 877 877
2237 879 1332
2244 882 1790
2252 886 2252
2206 865 2653
2187 857 3074
2184 855 3512
2093 1241 0
2147 1274 403
2273 1355 896
2445 1463 1463
2447 1465 1956
2450 1467 2450
2370 1416 2847
2319 1383 3254
2292 1367 3680
2168 1728 0
2214 1766 420
2321 1853 917
2465 1970 1476
2559 2048 2048
2559 2048 2559
2509 2006 3011
2451 1959 3435
2409 1925 3861
2249 2249 0
2286 2286 440
2372 2372 940
2485 2485 1489
2559 2559 2048
2559 2559 2559
2560 2560 3071
2539 2539 3556
2503 2503 4007
2331 2800 0
2350 2823 457
2395 2877 950
2462 2956 1474
2529 3036 2023
2559 3071 2559
2559 3071 3071
2545 3054 3563
2519 3023 4032
2411 3380 0
2420 3392 475
2442 3423 971
2477 3470 1483
2516 3524 2012
2550 3570 2550
2550 3570 3060
2550 3571 3571
2535 3549 4057
2488 3984 0
2492 3990 494
2500 4003 997
2514 4024 1507
2531 4050 2024
2546 4075 2546
2547 4076 3057
2549 4078 3568
2550 4080 4080
2447 0 0
2449 0 372
2453 0 789
2461 0 1210
2472 0 1635
2488 0 2067
2507 0 2507
2529 0 2957
2555 0 3418
2464 376 0
2511 386 386
2515 388 813
2522 389 1242
2532 391 1676
2546 394 2116
2563 398 2563
2572 401 3006
2588 404 3462
2505 809 0
2549 826 394
2656 866 866
2661 868 1317
2669 871 1770
2679 875 2229
2692 880 2692
2671 872 3120
2666 871 3564
2569 1267 0
2608 1288 408
2705 1340 885
2851 1418 1418
2855 1420 1898
2861 1423 2381
2867 1427 2867
2813 1397 3284
2782 1381 3717
2647 1755 0
2682 1779 425
2764 1835 907
2887 1921 1437
3014 2008 2008
3015 2009 2512
3017 2010 3017
2954 1967 3448
2909 1935 3882
2735 2275 0
2763 2299 443
2828 2354 932
2927 2437 1458
3026 2521 2016
3071 2559 2559
3071 2559 3071
3050 2541 3558
3010 2508 4015
2825 2825 0
2846 2846 461
2895 2895 957
2967 2967 1480
3039 3039 2025
3071 3071 2559
3071 3071 3071
3071 3071 3583
3065 3065 4087
2915 3403 0
2925 3414 479
2948 3441 977
2984 3483 1489
3026 3531 2016
3061 3571 2551
3071 3583 3071
3071 3583 3583
3068 3579 4090
3003 4005 0
3006 4010 497
3015 4021 1003
3028 4038 1512
3044 4059 2029
3059 4079 2549
3070 4093 3070
3070 4093 3582
3070 4093 4093
2945 0 0
2947 0 389
2951 0 816
2959 0 1247
2970 0 1682
2985 0 2122
3004 0 2570
3026 0 3026
3050 0 3491
2962 391 0
2997 398 398
3001 399 833
3008 401 1270
3018 403 1710
3032 406 2156
3049 409 2609
3069 412 3069
3085 416 3530
3002 833 0
3035 844 406
3116 871 871
3122 872 1322
3130 875 1777
3141 879 2236
3154 883 2700
3171 888 3171
3166 887 3621
3064 1296 0
3094 1310 417
3167 1343 888
3285 1398 1398
3290 1400 1873
3297 1403 2350
3306 1408 2831
3317 1412 3317
3285 1398 3757
3145 1786 0
3171 1801 433
3233 1838 909
3333 1898 1420
3451 1969 1969
3454 1971 2465
3458 1973 2963
3463 1976 3463
3416 1948 3906
3236 2305 0
3256 2320 449
3307 2357 933
3386 2416 1445
3480 2484 1986
3559 2542 2542
3560 2542 3051
3561 2543 3561
3521 2514 4024
3332 2854 0
3347 2867 467
3384 2899 959
3442 2949 1471
3510 3008 2004
3566 3057 2547
3583 3071 3071
3583 3071 3583
3577 3066 4088
3430 3430 0
3439 3439 484
3462 3462 984
3498 3498 1496
3539 3539 2021
3573 3573 2552
3583 3583 3071
3583 3583 3583
3583 3583 4095
3526 4030 0
3529 4034 501
3537 4042 1008
3548 4055 1519
3561 4070 2035
3574 4084 2552
3582 4094 3070
3583 4095 3583
3583 4095 4095
3465 0 0
3467 0 404
3471 0 843
3478 0 1284
3489 0 1729
3503 0 2178
3521 0 2633
3542 0 3096
3566 0 3566
3481 408 0
3508 412 412
3512 412 855
3518 414 1301
3528 416 1750
3542 417 2203
3558 420 2661
3578 423 3127
3601 428 3601
3519 857 0
3544 865 417
3606 883 883
3612 884 1339
3620 886 1798
3631 890 2260
3645 894 2728
3662 899 3201
3681 904 3681
3580 1326 0
3603 1335 428
3658 1358 897
3750 1395 1395
3756 1398 1869
3764 1401 2346
3774 1405 2827
3786 1410 3311
3801 1416 3801
3660 1819 0
3679 1829 440
3727 1854 917
3805 1895 1417
3905 1948 1948
3910 1950 2440
3915 1953 2934
3922 1957 3431
3931 1961 3931
3753 2339 0
3768 2349 457
3806 2373 940
3868 2413 1443
3947 2464 1970
4026 2515 2515
4028 2516 3020
4031 2518 3527
4035 2520 4035
3853 2886 0
3864 2895 472
3891 2916 965
3936 2950 1471
3992 2992 1993
4047 3035 2528
4088 3066 3066
4089 3066 3577
4089 3067 4089
3956 3460 0
3963 3466 489
3979 3481 990
4005 3504 1499
4037 3532 2017
4069 3560 2542
4091 3580 3069
4095 3583 3583
4095 3583 4095
4059 4059 0
4062 4062 506
4067 4067 1015
4074 4074 1527
4083 4083 2041
4090 4090 2556
4094 4094 3071
4095 4095 3583
4095 4095 4095
