Examples/Curves - Limit Saturation.3dl
#25pt 3DLUT created by 3D LUT Creator Pro (c) Oleg Sharonov
#Copyright Oleg Sharonov
0 43 86 128 171 214 256 299 341 384 427 469 512 555 597 640 682 725 768 810 853 896 938 981 1023 
0 0 0
0 0 171
0 0 343
0 0 512
10 3 670
39 6 810
110 16 924
186 42 1022
260 81 1117
332 123 1212
406 174 1309
478 225 1401
552 280 1488
624 336 1572
695 389 1654
765 443 1735
834 497 1816
902 552 1895
970 606 1974
1038 661 2050
1105 716 2125
1171 771 2198
1238 827 2269
1304 883 2337
1369 940 2403
0 171 0
0 171 171
0 171 341
0 171 513
3 171 678
26 174 829
78 180 959
152 195 1071
235 217 1177
316 245 1278
396 278 1373
474 316 1462
550 356 1547
625 401 1627
698 448 1704
771 496 1781
841 545 1858
909 594 1934
978 645 2010
1046 696 2084
1113 749 2157
1179 801 2229
1246 855 2298
1312 909 2366
1378 964 2430
0 341 0
0 341 171
0 341 341
0 341 513
0 341 683
10 341 845
42 343 995
103 347 1126
198 356 1242
289 370 1346
377 391 1443
461 417 1532
543 446 1615
623 482 1693
699 520 1767
775 562 1839
847 604 1911
918 649 1984
987 696 2057
1055 743 2128
1123 791 2199
1190 841 2269
1256 891 2337
1323 943 2403
1388 995 2467
6 510 6
3 512 174
0 512 341
0 512 512
0 512 684
0 512 853
13 512 1017
55 512 1168
129 514 1302
238 521 1417
339 531 1521
434 546 1615
525 565 1700
612 591 1779
695 619 1852
775 652 1921
852 689 1988
926 727 2056
997 767 2124
1067 810 2192
1136 853 2260
1204 899 2327
1271 945 2393
1337 993 2457
1403 1042 2520
36 678 39
23 680 189
13 681 345
3 682 512
0 683 683
0 683 854
0 683 1023
19 682 1187
68 682 1340
158 683 1476
278 687 1594
388 694 1697
490 705 1790
587 721 1873
679 741 1950
766 765 2019
850 793 2085
931 825 2147
1006 859 2210
1080 896 2274
1150 934 2338
1219 975 2402
1288 1016 2465
1355 1060 2527
1422 1105 2588
100 844 87
78 846 220
48 849 358
26 851 517
10 852 683
0 853 853
0 853 1024
3 853 1194
29 852 1357
87 852 1511
192 852 1649
318 854 1769
436 859 1873
545 868 1966
648 880 2049
745 896 2124
838 917 2191
925 941 2253
1009 969 2312
1088 999 2370
1163 1032 2430
1235 1067 2491
1305 1103 2552
1374 1142 2612
1442 1183 2671
214 1008 152
180 1011 262
129 1015 386
84 1018 531
45 1021 688
23 1023 853
6 1023 1023
3 1023 1194
13 1023 1363
42 1023 1527
113 1022 1681
230 1022 1821
360 1022 1943
484 1026 2049
599 1032 2142
708 1042 2225
811 1055 2299
907 1072 2366
1000 1093 2426
1087 1117 2481
1169 1144 2536
1247 1174 2593
1321 1206 2651
1392 1239 2708
1462 1274 2765
339 1171 228
302 1175 326
255 1178 431
195 1183 558
129 1187 703
81 1190 859
45 1192 1024
23 1194 1193
16 1194 1363
29 1194 1532
65 1193 1696
149 1192 1850
269 1191 1992
403 1191 2115
532 1193 2223
654 1198 2317
768 1206 2401
876 1216 2475
977 1231 2541
1074 1249 2600
1166 1270 2654
1251 1294 2706
1331 1320 2760
1407 1349 2814
1480 1379 2869
460 1333 324
425 1337 401
384 1341 490
330 1346 602
264 1351 731
195 1355 875
129 1359 1031
81 1362 1195
52 1363 1363
42 1364 1532
55 1364 1700
100 1363 1864
192 1362 2019
314 1360 2161
449 1360 2286
583 1361 2395
709 1364 2492
828 1370 2576
941 1379 2651
1047 1391 2717
1148 1406 2775
1243 1425 2828
1333 1446 2878
1416 1470 2929
1494 1496 2981
583 1495 427
552 1498 489
514 1502 563
465 1507 659
406 1513 774
339 1519 904
267 1524 1047
195 1528 1202
136 1531 1364
94 1533 1532
81 1533 1701
94 1533 1868
149 1533 2031
245 1531 2186
363 1530 2329
500 1529 2456
636 1529 2567
766 1531 2664
889 1535 2750
1006 1543 2826
1117 1553 2892
1221 1566 2951
1321 1582 3003
1414 1601 3051
1500 1623 3100
709 1655 536
682 1658 585
648 1662 646
603 1668 728
548 1674 830
486 1680 946
419 1686 1077
345 1692 1219
271 1697 1373
209 1700 1535
158 1702 1701
139 1703 1869
152 1703 2036
209 1702 2198
302 1701 2353
419 1700 2496
554 1698 2624
692 1698 2737
825 1699 2836
952 1702 2924
1072 1707 3000
1187 1716 3067
1296 1727 3126
1398 1741 3178
1496 1758 3225
838 1814 649
815 1817 689
784 1821 739
743 1826 809
692 1833 897
633 1839 1001
570 1846 1119
500 1853 1249
427 1859 1391
352 1865 1543
287 1868 1704
238 1871 1869
217 1872 2036
228 1872 2203
280 1871 2364
367 1870 2519
481 1869 2663
614 1867 2791
751 1866 2905
886 1866 3006
1015 1868 3095
1139 1872 3173
1258 1879 3241
1370 1889 3300
1476 1901 3353
971 1972 765
949 1975 798
922 1979 840
884 1985 899
837 1991 976
783 1998 1068
722 2005 1173
656 2013 1291
586 2020 1421
513 2027 1563
439 2032 1714
372 2036 1873
324 2039 2038
299 2041 2204
308 2041 2369
354 2041 2530
436 2039 2684
546 2038 2828
677 2036 2957
814 2034 3073
949 2034 3175
1081 2035 3265
1208 2038 3345
1329 2044 3414
1444 2052 3474
1106 2130 886
1087 2133 913
1062 2137 948
1027 2142 999
983 2148 1065
932 2155 1145
874 2163 1239
812 2171 1346
745 2179 1464
675 2187 1593
603 2193 1734
530 2199 1884
464 2204 2042
414 2207 2205
388 2209 2370
394 2210 2534
436 2210 2695
512 2209 2848
618 2207 2992
746 2204 3122
880 2203 3239
1016 2202 3343
1149 2202 3435
1278 2205 3515
1402 2209 3586
1244 2287 1010
1227 2289 1032
1204 2293 1061
1171 2298 1105
1131 2304 1162
1082 2312 1232
1028 2320 1315
968 2328 1410
904 2337 1517
838 2345 1636
768 2353 1766
696 2360 1905
625 2366 2054
558 2371 2211
508 2375 2372
481 2377 2536
485 2378 2699
522 2378 2859
594 2377 3012
696 2375 3155
819 2373 3286
951 2371 3404
1086 2369 3509
1219 2369 3602
1350 2371 3684
1383 2443 1136
1368 2445 1155
1347 2449 1180
1318 2454 1217
1279 2460 1266
1234 2467 1327
1183 2475 1401
1126 2484 1486
1065 2493 1582
1000 2502 1689
933 2510 1808
863 2519 1937
793 2526 2076
724 2533 2224
659 2538 2379
607 2542 2539
579 2545 2702
580 2546 2864
614 2546 3022
681 2545 3175
778 2543 3317
896 2541 3449
1025 2539 3568
1159 2537 3674
1292 2536 3769
1522 2598 1263
1508 2601 1279
1491 2604 1302
1465 2609 1334
1429 2615 1377
1387 2622 1431
1338 2630 1495
1284 2639 1570
1225 2648 1657
1163 2658 1754
1098 2667 1862
1031 2676 1980
962 2684 2108
892 2692 2246
824 2699 2393
763 2705 2546
713 2709 2705
682 2712 2866
681 2714 3027
711 2714 3185
774 2713 3336
866 2711 3479
979 2709 3611
1103 2707 3731
1235 2705 3839
1660 2754 1389
1648 2756 1404
1632 2759 1424
1609 2763 1454
1579 2769 1492
1540 2776 1540
1494 2784 1597
1443 2793 1663
1387 2802 1741
1327 2812 1828
1264 2821 1926
1199 2831 2033
1131 2841 2151
1063 2849 2279
994 2858 2416
928 2865 2562
868 2871 2714
820 2875 2871
790 2879 3031
786 2881 3190
813 2881 3347
871 2880 3497
957 2879 3640
1064 2877 3772
1185 2874 3893
1798 2909 1517
1788 2911 1530
1774 2914 1548
1753 2918 1574
1726 2923 1610
1692 2929 1653
1650 2937 1705
1602 2946 1764
1549 2955 1833
1492 2965 1911
1431 2975 2000
1368 2986 2097
1302 2996 2205
1235 3005 2323
1167 3014 2450
1099 3023 2586
1035 3030 2730
977 3037 2881
930 3042 3036
901 3045 3194
896 3047 3352
919 3048 3508
973 3048 3658
1053 3046 3800
1154 3044 3932
1937 3064 1645
1927 3066 1657
1915 3069 1673
1896 3072 1697
1871 3077 1728
1841 3083 1768
1804 3090 1816
1761 3099 1871
1712 3108 1933
1657 3118 2003
1598 3128 2082
1537 3139 2171
1473 3150 2269
1407 3160 2377
1340 3170 2494
1273 3179 2620
1207 3188 2755
1143 3196 2898
1087 3202 3047
1042 3207 3201
1013 3211 3358
1007 3214 3514
1028 3215 3669
1077 3214 3818
1151 3213 3959
2076 3219 1774
2067 3221 1784
2056 3223 1799
2039 3226 1820
2016 3231 1849
1988 3237 1885
1954 3243 1929
1915 3251 1980
1871 3260 2037
1821 3270 2102
1766 3280 2173
1706 3291 2253
1644 3302 2342
1580 3313 2441
1514 3324 2548
1448 3334 2665
1381 3343 2790
1316 3352 2924
1254 3360 3066
1199 3367 3213
1156 3373 3366
1128 3377 3521
1121 3380 3676
1139 3381 3829
1184 3381 3977
2215 3373 1904
2207 3375 1913
2197 3377 1926
2181 3380 1946
2160 3385 1972
2134 3390 2005
2104 3397 2045
2068 3404 2092
2028 3412 2145
1983 3422 2205
1932 3432 2271
1876 3442 2343
1816 3454 2424
1754 3465 2514
1690 3476 2612
1624 3487 2719
1558 3498 2835
1492 3508 2960
1428 3517 3093
1368 3525 3233
1314 3532 3379
1272 3538 3530
1244 3542 3683
1237 3545 3837
1252 3547 3989
2356 3527 2035
2348 3529 2044
2339 3531 2055
2324 3534 2073
2305 3538 2096
2281 3543 2127
2252 3550 2163
2219 3557 2206
2182 3565 2256
2140 3574 2311
2095 3583 2373
2044 3593 2440
1988 3605 2514
1928 3616 2595
1865 3628 2685
1801 3639 2783
1736 3651 2890
1670 3661 3006
1605 3672 3130
1542 3681 3261
1483 3689 3400
1431 3697 3545
1389 3703 3694
1362 3707 3845
1354 3711 3998
2497 3681 2168
2490 3682 2176
2481 3684 2186
2467 3687 2202
2449 3691 2223
2427 3696 2250
2400 3702 2284
2369 3709 2323
2334 3717 2369
2296 3725 2420
2253 3734 2478
2207 3744 2541
2157 3755 2610
2101 3766 2684
2041 3778 2766
1978 3790 2856
1914 3802 2954
1849 3814 3060
1784 3825 3175
1719 3835 3299
1658 3845 3429
1600 3853 3567
1549 3861 3710
1508 3867 3857
1482 3872 4008
2639 3834 2302
2633 3836 2309
2624 3838 2318
2612 3840 2332
2594 3844 2352
2573 3849 2376
2548 3855 2407
2518 3862 2443
2486 3869 2485
2450 3877 2532
2410 3886 2586
2368 3896 2645
2321 3906 2709
2271 3917 2779
2216 3928 2855
2156 3940 2937
2093 3953 3027
2029 3965 3125
1964 3976 3231
1900 3988 3345
1836 3998 3467
1775 4008 3597
1719 4017 3733
1669 4025 3875
1629 4031 4021
171 0 0
171 0 171
171 0 343
171 0 512
174 3 669
198 10 808
240 26 923
284 55 1026
337 90 1124
394 136 1222
457 183 1319
521 235 1411
587 289 1498
654 343 1581
722 398 1662
788 451 1744
855 505 1824
921 558 1903
987 613 1980
1053 667 2056
1118 722 2131
1184 777 2204
1249 832 2274
1314 888 2342
1379 945 2408
171 171 0
171 171 171
171 171 341
171 171 513
174 171 678
189 174 829
222 183 960
269 201 1076
326 225 1184
386 252 1286
452 284 1381
520 322 1470
588 363 1554
657 408 1635
726 455 1711
794 503 1788
862 551 1865
928 601 1941
995 651 2016
1061 702 2090
1127 754 2163
1192 807 2234
1257 859 2303
1323 914 2370
1387 969 2435
171 341 0
171 341 171
171 341 341
168 341 513
171 341 683
177 341 846
201 343 996
245 349 1129
304 360 1245
370 376 1351
440 396 1448
512 422 1538
584 452 1621
657 488 1700
728 526 1774
799 568 1845
869 611 1918
937 655 1990
1004 701 2062
1071 748 2134
1137 796 2205
1202 845 2274
1268 896 2342
1333 947 2408
1398 999 2471
174 512 6
171 512 171
168 512 341
168 512 512
168 512 684
168 512 854
180 512 1018
212 513 1169
267 516 1304
337 522 1420
414 533 1524
492 550 1618
571 570 1704
649 594 1784
725 624 1857
802 657 1926
875 694 1993
946 732 2060
1015 772 2129
1083 815 2197
1150 858 2265
1217 903 2332
1283 949 2397
1348 997 2462
1413 1046 2524
192 679 32
186 681 183
177 682 343
168 683 512
168 683 683
165 683 854
168 683 1024
186 682 1188
225 682 1341
287 684 1478
369 688 1596
455 696 1699
543 708 1793
629 724 1877
713 744 1953
795 769 2023
874 798 2089
951 829 2151
1025 864 2214
1096 900 2278
1165 938 2342
1233 979 2406
1300 1020 2469
1366 1064 2532
1432 1109 2592
240 845 78
225 848 212
203 850 354
186 852 516
174 853 683
168 853 853
165 853 1025
171 853 1194
192 852 1358
238 852 1512
310 852 1651
401 855 1770
499 861 1875
594 870 1968
687 883 2051
777 899 2126
864 919 2194
948 944 2257
1028 972 2315
1105 1003 2374
1178 1035 2434
1249 1070 2495
1318 1107 2555
1385 1145 2615
1452 1186 2674
318 1010 142
293 1013 255
262 1016 381
228 1019 528
201 1022 687
183 1023 853
171 1023 1023
171 1024 1195
177 1023 1364
203 1023 1528
257 1022 1683
336 1022 1823
436 1023 1944
541 1027 2051
645 1033 2144
744 1044 2227
841 1057 2301
933 1074 2368
1021 1095 2429
1106 1120 2484
1185 1147 2540
1261 1177 2596
1334 1209 2654
1404 1242 2711
1473 1278 2768
416 1173 217
384 1176 318
347 1180 425
304 1184 554
262 1188 700
228 1191 859
201 1193 1024
183 1194 1194
180 1194 1364
189 1194 1533
222 1193 1697
280 1192 1852
367 1192 1993
474 1192 2117
586 1194 2224
696 1199 2319
802 1207 2403
904 1218 2477
1001 1233 2543
1094 1251 2603
1183 1272 2656
1266 1296 2709
1345 1323 2762
1419 1351 2817
1491 1383 2871
517 1335 316
486 1338 396
451 1342 485
406 1347 597
354 1352 728
304 1357 873
262 1360 1030
228 1362 1195
206 1364 1363
198 1364 1533
209 1364 1701
245 1363 1865
310 1362 2020
401 1361 2163
513 1360 2288
632 1362 2397
748 1365 2493
860 1371 2578
967 1380 2652
1070 1392 2719
1167 1408 2777
1259 1426 2830
1347 1448 2880
1429 1472 2931
1506 1498 2983
627 1496 420
600 1500 484
565 1504 557
522 1509 654
470 1514 771
414 1520 902
356 1525 1046
306 1529 1201
264 1531 1365
238 1533 1533
228 1534 1702
240 1534 1869
278 1533 2033
347 1532 2188
442 1531 2331
558 1530 2457
681 1530 2568
802 1532 2666
919 1536 2752
1031 1544 2828
1138 1554 2894
1240 1567 2953
1336 1583 3005
1428 1603 3053
1513 1624 3102
744 1656 530
719 1660 580
688 1664 641
646 1669 725
596 1675 826
540 1681 943
479 1687 1074
417 1693 1218
360 1697 1372
314 1700 1535
282 1702 1702
269 1703 1870
280 1703 2037
320 1703 2200
389 1701 2354
488 1700 2498
607 1699 2626
734 1698 2738
858 1699 2838
979 1702 2925
1095 1708 3001
1207 1717 3069
1312 1728 3128
1413 1742 3180
1508 1759 3227
