Examples/Curves - Limit Saturation.3dl
#25pt 3DLUT created by 3D LUT Creator Pro (c) Oleg Sharonov
#Copyright Oleg Sharonov
0 256 512 768 1023
0 0 0
110 16 924
552 280 1488
970 606 1974
1369 940 2403
214 1008 152
6 1023 1023
360 1022 1943
1000 1093 2426
1462 1274 2765
971 1972 765
722 2005 1173
324 2039 2038
677 2036 2957
1444 2052 3474
1798 2909 1517
1650 2937 1705
1302 2996 2205
930 3042 3036
1154 3044 3932
2639 3834 2302
2548 3855 2407
2321 3906 2709
1964 3976 3231
1629 4031 4021
993 42 36
968 116 960
994 399 1604
1210 698 2067
1518 1010 2480
1027 1021 84
1024 1024 1024
1055 1035 1958
1293 1133 2465
1621 1321 2811
1307 1993 707
1162 2023 1137
1037 2046 2046
1175 2042 2980
1666 2068 3495
1956 2926 1489
1820 2955 1672
1529 3012 2189
1263 3053 3049
1448 3051 3957
2728 3848 2287
2641 3869 2391
2422 3920 2693
2084 3991 3224
1788 4042 4034
1832 479 293
1875 436 1020
1795 649 1766
1790 924 2269
1929 1200 2673
1958 1076 299
2019 1041 1037
1970 1093 1962
1933 1251 2555
2048 1457 2937
2070 2031 658
2050 2044 1090
2048 2048 2048
2062 2054 3006
2215 2118 3544
2408 2972 1418
2318 2999 1592
2152 3046 2140
2059 3069 3069
2151 3064 4012
3007 3888 2246
2933 3909 2348
2736 3962 2639
2466 4028 3201
2259 4070 4067
2573 996 664
2656 920 1173
2623 1006 1899
2533 1235 2482
2537 1481 2920
2722 1321 710
2811 1258 1187
2807 1286 1991
2695 1461 2659
2662 1678 3111
2926 2101 874
2985 2080 1212
3051 2057 2055
2998 2096 2992
2935 2219 3596
3112 3033 1406
3091 3047 1560
3072 3068 2100
3071 3071 3071
3081 3076 4042
3496 3951 2207
3445 3970 2294
3313 4018 2558
3158 4071 3150
3080 4093 4093
3273 1512 1109
3343 1458 1455
3371 1467 2068
3302 1612 2679
3240 1823 3168
3394 1719 1164
3473 1667 1482
3526 1649 2116
3447 1774 2780
3362 1970 3300
3655 2291 1297
3739 2251 1530
3847 2202 2169
3814 2244 2996
3683 2394 3649
3889 3123 1608
3926 3116 1730
4019 3095 2192
4080 3077 3077
4028 3110 4024
4095 4031 2240
4095 4042 2304
4095 4069 2532
4095 4092 3116
4095 4095 4095
