Examples/Curves - CMYK for Skintone.3dl
#25pt 3DLUT created by 3D LUT Creator Pro (c) Oleg Sharonov
#Copyright Oleg Sharonov
0 128 256 384 512 640 768 896 1023
0 0 0
0 118 511
0 235 1020
0 353 1532
0 471 2043
0 589 2554
0 707 3066
0 825 3577
0 943 4088
0 511 68
0 512 512
0 521 1023
0 617 1534
0 728 2045
0 842 2556
0 959 3068
0 1076 3579
0 1193 4090
0 1022 136
0 1024 451
0 1023 1023
0 988 1536
0 1042 2047
0 1132 2558
0 1235 3069
0 1344 3581
0 1456 4092
0 1534 204
0 1535 500
1 1537 867
0 1536 1536
0 1481 2048
0 1500 2560
0 1564 3071
0 1650 3582
0 1748 4093
0 2046 272
0 2047 557
1 2048 902
2 2049 1310
0 2047 2047
0 1983 2560
0 1977 3071
0 2017 3583
0 2086 4095
0 2557 340
0 2559 618
1 2560 949
2 2561 1314
2 2561 1775
0 2559 2559
0 2490 3072
1 2466 3584
1 2485 4095
0 3068 408
0 3070 682
0 3071 1001
1 3072 1354
2 3073 1733
2 3073 2252
0 3071 3071
1 2998 3584
1 2963 4095
0 3580 476
0 3582 746
0 3583 1057
1 3584 1399
2 3585 1764
3 3586 2170
2 3585 2736
0 3583 3583
4 3507 4095
0 4091 545
1 4093 812
0 4094 1115
1 4095 1448
2 4095 1805
3 4095 2178
3 4095 2621
6 4095 3224
3 4095 4095
510 117 67
511 117 511
510 234 1021
509 352 1532
508 470 2044
508 588 2555
507 706 3066
506 824 3577
505 942 4088
511 511 67
512 512 512
512 521 1023
511 616 1534
510 727 2045
509 842 2556
509 958 3068
508 1075 3579
507 1192 4090
511 1022 134
512 1024 450
512 1023 1023
512 988 1536
512 1042 2047
511 1131 2558
510 1234 3069
510 1343 3581
509 1455 4092
510 1534 202
512 1535 499
513 1537 866
512 1536 1536
512 1481 2048
512 1500 2560
512 1564 3071
511 1650 3582
510 1747 4093
510 2046 270
511 2047 557
513 2048 901
513 2049 1310
512 2047 2047
512 1983 2560
512 1976 3071
512 2017 3583
511 2085 4095
509 2557 338
511 2559 618
512 2560 948
513 2561 1313
514 2561 1775
512 2559 2559
512 2490 3072
512 2466 3584
514 2485 4095
509 3068 406
511 3070 681
512 3071 1000
513 3072 1353
514 3073 1732
514 3073 2252
512 3071 3071
512 2998 3584
514 2963 4095
508 3580 474
510 3582 745
511 3583 1056
513 3584 1398
514 3585 1764
514 3586 2169
514 3585 2736
512 3583 3583
514 3507 4095
509 4091 544
511 4093 811
511 4094 1114
512 4095 1448
513 4095 1804
514 4095 2177
515 4095 2620
516 4095 3224
513 4095 4095
1021 235 134
1022 235 449
1021 233 1021
1020 351 1532
1020 469 2043
1019 587 2554
1019 705 3066
1018 823 3577
1017 940 4088
1022 520 134
1024 521 450
1024 520 1024
1023 616 1535
1023 726 2047
1022 841 2558
1020 957 3067
1019 1074 3579
1019 1191 4090
1022 1022 133
1024 1024 450
1024 1024 1024
1024 988 1536
1024 1042 2048
1023 1131 2559
1022 1233 3069
1021 1342 3581
1020 1454 4092
1023 1534 201
1024 1536 499
1025 1537 865
1024 1536 1536
1024 1481 2048
1024 1499 2560
1024 1563 3071
1023 1649 3582
1023 1747 4093
1022 2045 269
1023 2047 556
1024 2048 901
1026 2049 1310
1024 2047 2047
1024 1984 2560
1024 1976 3071
1024 2016 3583
1023 2085 4095
1022 2557 337
1023 2559 617
1025 2560 947
1026 2561 1313
1026 2561 1775
1024 2559 2559
1024 2490 3072
1025 2466 3584
1025 2485 4095
1021 3068 405
1023 3070 680
1024 3071 999
1025 3072 1352
1026 3073 1732
1026 3073 2251
1024 3071 3071
1025 2998 3583
1025 2963 4095
1021 3580 473
1022 3581 744
1024 3583 1055
1025 3584 1397
1026 3585 1763
1027 3586 2169
1026 3585 2736
1024 3583 3583
1025 3507 4095
1020 4091 541
1021 4093 809
1023 4094 1113
1024 4095 1447
1025 4095 1803
1025 4095 2176
1026 4095 2620
1026 4095 3224
1024 4095 4095
1531 352 201
1533 352 498
1534 352 864
1533 350 1533
1532 468 2044
1531 586 2555
1530 704 3066
1530 822 3577
1529 940 4088
1533 616 202
1535 617 499
1535 617 865
1534 615 1534
1534 725 2045
1534 840 2558
1532 956 3068
1531 1073 3579
1531 1190 4090
1534 987 201
1536 988 499
1537 989 865
1536 988 1536
1535 1041 2047
1535 1130 2559
1534 1232 3069
1533 1341 3581
1533 1453 4092
1534 1534 200
1536 1536 498
1537 1537 865
1536 1536 1536
1536 1481 2048
1536 1499 2560
1535 1563 3071
1535 1649 3582
1534 1746 4093
1534 2046 268
1535 2047 555
1537 2048 900
1537 2049 1309
1536 2047 2047
1536 1983 2560
1536 1976 3071
1536 2016 3583
1535 2084 4095
1533 2557 336
1535 2559 616
1536 2560 947
1537 2561 1312
1538 2561 1774
1536 2559 2559
1536 2490 3072
1536 2466 3584
1536 2484 4095
1533 3068 404
1535 3070 679
1536 3071 999
1537 3072 1351
1538 3073 1731
1538 3073 2251
1536 3071 3071
1536 2998 3583
1536 2962 4095
1532 3580 472
1534 3582 743
1535 3583 1054
1537 3584 1397
1538 3585 1762
1538 3586 2168
1538 3585 2735
1536 3583 3583
1537 3507 4095
1532 4091 539
1534 4093 808
1535 4094 1112
1536 4095 1446
1537 4095 1802
1538 4095 2176
1539 4095 2619
1538 4095 3224
1536 4095 4095
2043 470 269
2044 470 554
2045 470 899
2046 470 1307
2045 467 2045
2043 585 2555
2043 703 3067
2042 821 3578
2041 938 4088
2044 726 269
2046 727 555
2047 727 900
2048 727 1308
2046 725 2046
2045 839 2557
2044 955 3068
2044 1072 3579
2043 1190 4090
2046 1041 269
2047 1042 556
2048 1043 901
2049 1043 1309
2047 1041 2047
2047 1130 2559
2046 1232 3070
2045 1341 3581
2045 1453 4092
2046 1480 268
2048 1481 555
2049 1482 900
2049 1483 1310
2048 1481 2048
2047 1499 2559
2047 1562 3071
2047 1648 3582
2046 1745 4093
2046 2046 266
2047 2047 554
2048 2048 900
2049 2049 1309
2047 2047 2047
2048 1983 2560
2048 1976 3072
2048 2016 3583
2047 2084 4095
2045 2557 334
2047 2559 615
2048 2560 946
2049 2561 1311
2049 2561 1774
2047 2559 2559
2048 2490 3071
2048 2466 3584
2048 2484 4095
2045 3068 402
2046 3070 678
2048 3072 998
2049 3072 1351
2050 3074 1730
2050 3073 2251
2047 3071 3071
2048 2998 3583
2048 2962 4095
2044 3580 470
2046 3581 742
2047 3583 1053
2048 3584 1396
2049 3585 1762
2050 3586 2168
2050 3585 2735
2047 3583 3583
2048 3507 4095
2044 4091 538
2045 4093 806
2047 4094 1112
2048 4095 1446
2049 4095 1802
2050 4095 2175
2050 4095 2619
2049 4095 3224
2047 4095 4095
2553 587 336
2555 587 614
2556 588 944
2557 588 1310
2557 587 1771
2555 584 2555
2554 702 3066
2554 820 3577
2553 938 4088
2555 840 336
2556 841 615
2557 841 945
2558 841 1311
2559 841 1772
2557 838 2557
2556 954 3068
2555 1071 3579
2555 1188 4090
2556 1130 336
2558 1131 616
2559 1131 946
2560 1131 1312
2560 1131 1774
2558 1129 2558
2558 1231 3070
2557 1340 3581
2556 1452 4092
2557 1497 336
2559 1499 616
2560 1500 947
2561 1500 1312
2562 1500 1775
2560 1498 2560
2559 1562 3071
2558 1647 3582
2558 1744 4093
2557 1981 335
2559 1983 615
2560 1984 946
2561 1985 1312
2562 1985 1775
2560 1983 2560
2560 1976 3072
2560 2015 3583
2559 2083 4095
2557 2557 333
2559 2559 614
2560 2560 945
2561 2561 1311
2561 2561 1774
2559 2559 2559
2560 2490 3072
2560 2465 3584
2560 2484 4095
2557 3068 401
2558 3070 676
2559 3071 997
2561 3072 1350
2561 3073 1730
2561 3073 2251
2559 3071 3071
2560 2998 3583
2560 2962 4095
2556 3580 469
2558 3582 741
2559 3583 1052
2560 3584 1395
2561 3585 1761
2562 3586 2167
2562 3585 2735
2560 3583 3583
2560 3507 4095
2556 4091 538
2557 4093 807
2559 4094 1111
2560 4095 1444
2561 4095 1801
2562 4095 2174
2562 4095 2619
2562 4095 3224
2560 4095 4095
3063 704 403
3065 705 677
3066 705 996
3067 705 1349
3068 705 1728
3068 704 2247
3066 701 3066
3066 819 3577
3065 937 4088
3065 956 403
3067 957 678
3068 957 997
3069 957 1349
3070 957 1729
3070 956 2248
3068 953 3068
3067 1070 3579
3066 1187 4090
3067 1232 403
3068 1233 678
3070 1233 997
3071 1234 1350
3072 1234 1730
3072 1233 2250
3070 1230 3070
3069 1339 3581
3068 1451 4092
3068 1561 403
3070 1563 678
3071 1563 998
3072 1564 1351
3073 1565 1731
3073 1564 2251
3071 1561 3071
3071 1647 3582
3070 1744 4093
3069 1974 403
3071 1975 678
3072 1976 998
3073 1977 1351
3074 1978 1731
3074 1978 2251
3072 1976 3072
3071 2015 3583
3071 2083 4095
3069 2487 401
3071 2489 677
3072 2490 997
3073 2491 1350
3074 2492 1730
3074 2492 2251
3072 2489 3072
3072 2465 3584
3072 2484 4095
3068 3068 400
3070 3070 675
3071 3071 996
3072 3072 1349
3073 3073 1729
3073 3073 2251
3071 3071 3071
3072 2998 3583
3072 2962 4095
3068 3580 468
3070 3582 740
3071 3583 1052
3072 3584 1394
3073 3585 1760
3074 3586 2167
3073 3585 2735
3071 3583 3583
3072 3507 4095
3067 4091 537
3069 4093 805
3071 4094 1109
3072 4095 1443
3073 4095 1800
3074 4095 2174
3074 4095 2618
3074 4095 3224
3071 4095 4095
3574 821 470
3576 822 740
3577 823 1051
3578 823 1393
3579 823 1759
3580 822 2164
3580 821 2730
3578 818 3578
3576 936 4088
3576 1073 470
3578 1073 741
3579 1074 1052
3580 1074 1394
3581 1074 1760
3582 1074 2165
3582 1072 2732
3579 1069 3579
3578 1187 4090
3578 1341 471
3579 1342 742
3581 1342 1053
3582 1342 1395
3583 1343 1761
3584 1343 2166
3583 1341 2733
3581 1338 3581
3580 1450 4092
3579 1647 471
3581 1648 742
3582 1649 1053
3583 1650 1396
3584 1650 1761
3585 1650 2167
3585 1649 2735
3582 1646 3582
3582 1743 4093
3580 2014 470
3582 2015 742
3583 2016 1054
3584 2017 1396
3585 2018 1762
3586 2018 2168
3586 2017 2735
3583 2015 3583
3583 2082 4095
3580 2463 469
3582 2464 741
3584 2466 1053
3585 2467 1396
3586 2468 1761
3586 2468 2168
3586 2467 2736
3584 2465 3584
3584 2483 4095
3580 2994 468
3582 2996 740
3583 2997 1052
3585 2999 1395
3586 3000 1761
3586 3000 2167
3586 3000 2735
3583 2998 3583
3584 2962 4095
3580 3580 466
3581 3581 739
3583 3583 1051
3584 3584 1394
3585 3585 1759
3586 3586 2166
3585 3585 2734
3583 3583 3583
3584 3507 4095
3579 4091 534
3581 4093 801
3583 4094 1110
3584 4095 1443
3585 4095 1800
3586 4095 2173
3586 4095 2618
3585 4095 3223
3583 4095 4095
4085 939 537
4086 939 805
4088 940 1108
4089 940 1442
4090 940 1798
4091 940 2171
4091 940 2614
4091 938 3218
4088 935 4088
4086 1189 537
4088 1190 805
4090 1191 1110
4091 1191 1443
4092 1192 1799
4093 1192 2172
4093 1190 2615
4093 1189 3220
4090 1185 4090
4088 1452 538
4090 1453 806
4091 1454 1110
4093 1454 1444
4094 1454 1800
4095 1455 2174
4095 1454 2617
4094 1452 3221
4092 1449 4092
4090 1744 538
4091 1745 807
4093 1746 1111
4094 1747 1445
4095 1747 1801
4095 1747 2174
4095 1747 2618
4095 1746 3223
4093 1743 4093
4091 2082 538
4093 2083 807
4094 2084 1111
4095 2085 1445
4095 2085 1802
4095 2086 2175
4095 2086 2619
4095 2085 3224
4095 2082 4095
4092 2482 537
4093 2483 806
4095 2484 1111
4095 2485 1445
4095 2486 1802
4095 2487 2175
4095 2487 2619
4095 2486 3224
4095 2483 4095
4092 2959 536
4094 2961 805
4095 2962 1110
4095 2963 1444
4095 2964 1801
4095 2965 2174
4095 2965 2619
4095 2965 3224
4095 2962 4095
4092 3503 535
4093 3505 805
4095 3506 1109
4095 3507 1443
4095 3508 1800
4095 3509 2174
4095 3510 2618
4095 3509 3224
4095 3507 4095
4091 4091 533
4093 4093 802
4094 4094 1106
4095 4095 1441
4095 4095 1798
4095 4095 2172
4095 4095 2617
4095 4095 3223
4095 4095 4095
