Examples/Curves - Desaturate Highlights.3dl
#25pt 3DLUT created by 3D LUT Creator Pro (c) Oleg Sharonov
#Copyright Oleg Sharonov
0 128 256 384 512 640 768 896 1023
0 0 0
0 0 512
0 0 1022
0 0 1535
0 0 2047
0 0 2559
0 0 3071
42 42 3561
370 370 3889
0 512 0
0 512 512
0 512 1023
0 512 1535
0 512 2047
0 512 2559
0 512 3071
203 573 3492
475 701 3830
0 1023 0
0 1023 512
0 1023 1023
0 1023 1535
6 1023 2046
84 1027 2534
257 1040 2987
460 1076 3389
674 1142 3732
90 1531 90
94 1531 542
103 1531 1032
119 1532 1532
243 1530 2023
389 1531 2490
556 1540 2923
738 1561 3310
933 1602 3647
442 2027 442
445 2028 699
454 2028 1102
468 2029 1558
489 2032 2032
665 2027 2486
849 2028 2904
1038 2039 3277
1232 2064 3600
884 2508 884
887 2509 1022
895 2510 1300
908 2511 1669
928 2515 2083
957 2519 2519
1169 2512 2924
1377 2512 3280
1581 2525 3585
1428 2965 1428
1431 2965 1501
1438 2967 1670
1451 2969 1927
1472 2974 2247
1499 2979 2605
1535 2987 2987
1763 2978 3328
1977 2980 3614
2057 3392 2057
2060 3392 2097
2068 3394 2194
2081 3398 2353
2101 3403 2569
2129 3410 2828
2166 3420 3120
2210 3433 3433
2433 3424 3696
2775 3781 2775
2778 3781 2796
2786 3783 2848
2800 3787 2938
2822 3793 3065
2852 3801 3225
2892 3812 3414
2942 3826 3622
3003 3843 3843
512 0 0
512 0 512
512 0 1023
512 0 1535
512 0 2047
512 0 2559
512 0 3071
538 90 3538
660 404 3870
512 512 0
512 512 512
510 510 1033
504 504 1564
493 493 2094
489 489 2603
513 513 3069
587 587 3476
717 717 3815
512 1023 0
509 1024 509
509 1024 1024
509 1023 1536
517 1024 2042
545 1028 2529
606 1044 2980
709 1082 3381
851 1150 3724
545 1531 100
546 1531 546
550 1532 1033
554 1532 1532
600 1531 2022
670 1533 2489
771 1543 2920
902 1565 3308
1056 1607 3644
703 2028 451
705 2029 705
710 2029 1105
719 2030 1559
733 2032 2032
852 2029 2487
993 2031 2904
1150 2042 3276
1319 2068 3599
1027 2509 893
1029 2510 1029
1035 2511 1305
1047 2513 1672
1064 2516 2085
1088 2520 2520
1270 2514 2925
1456 2515 3281
1644 2528 3585
1506 2966 1436
1509 2967 1509
1516 2968 1677
1529 2971 1933
1548 2975 2251
1573 2981 2608
1607 2989 2989
1820 2981 3329
2022 2983 3616
2103 3394 2066
2105 3395 2105
2113 3396 2202
2126 3400 2360
2146 3405 2575
2173 3412 2833
2208 3422 3123
2251 3435 3435
2466 3428 3698
2802 3783 2784
2805 3784 2805
2813 3786 2857
2827 3790 2946
2849 3796 3072
2878 3804 3232
2917 3815 3419
2967 3829 3626
3027 3846 3846
1023 0 0
1023 0 512
1023 0 1023
1023 0 1535
1023 0 2047
1023 0 2558
1023 0 3071
1032 212 3489
1073 479 3827
1023 512 0
1029 508 508
1029 508 1029
1031 503 1552
1029 497 2073
1025 503 2574
1026 540 3034
1047 625 3440
1099 758 3782
1023 1023 0
1023 1023 510
1024 1024 1024
1024 1024 1534
1026 1026 2036
1034 1034 2518
1055 1055 2964
1099 1099 3363
1173 1173 3705
1035 1532 126
1035 1532 554
1036 1533 1036
1038 1533 1533
1056 1533 2022
1087 1537 2486
1137 1550 2916
1211 1576 3301
1310 1622 3636
1109 2030 475
1110 2030 720
1113 2031 1113
1118 2033 1564
1126 2035 2035
1193 2033 2489
1280 2037 2904
1388 2051 3275
1515 2080 3596
1312 2512 915
1314 2513 1048
1319 2514 1319
1327 2516 1682
1340 2519 2091
1357 2524 2524
1491 2519 2928
1636 2523 3282
1790 2538 3586
1686 2971 1458
1689 2971 1530
1695 2973 1695
1705 2976 1947
1721 2980 2261
1744 2986 2616
1772 2995 2995
1954 2988 3334
2131 2992 3619
2212 3399 2088
2215 3400 2127
2221 3402 2221
2234 3406 2378
2252 3411 2589
2277 3418 2845
2310 3429 3132
2351 3441 3441
2548 3436 3704
2869 3789 2808
2872 3790 2828
2879 3792 2879
2893 3796 2967
2914 3802 3091
2943 3811 3248
2981 3822 3433
3028 3836 3637
3087 3853 3853
1535 0 0
1535 0 512
1535 0 1023
1535 0 1535
1535 0 2047
1535 0 2559
1522 136 3021
1510 363 3426
1512 593 3769
1535 512 0
1544 504 504
1542 504 1025
1539 506 1539
1536 512 2048
1528 533 2538
1517 590 2990
1512 689 3393
1524 829 3736
1533 1025 26
1532 1025 521
1532 1025 1025
1532 1027 1532
1527 1032 2027
1524 1047 2503
1523 1077 2943
1534 1131 3338
1562 1213 3678
1534 1534 171
1535 1535 570
1535 1535 1043
1536 1536 1536
1538 1538 2023
1546 1546 2484
1565 1565 2910
1597 1597 3292
1649 1649 3624
1567 2034 516
1568 2035 746
1569 2035 1128
1572 2037 1572
1577 2039 2039
1608 2041 2492
1654 2049 2906
1717 2067 3274
1798 2101 3592
1688 2519 955
1689 2519 1081
1693 2520 1344
1698 2523 1698
1708 2526 2103
1720 2531 2531
1805 2529 2933
1905 2537 3286
2017 2556 3587
1957 2979 1498
1959 2980 1567
1963 2981 1726
1972 2984 1972
1985 2989 2280
2003 2995 2630
2026 3004 3004
2166 3000 3341
2309 3008 3625
2390 3410 2128
2393 3411 2166
2399 3413 2257
2410 3416 2410
2426 3422 2616
2448 3430 2866
2477 3440 3149
2514 3453 3453
2683 3450 3713
2982 3801 2851
2985 3802 2871
2992 3804 2920
3005 3808 3005
3025 3814 3125
3052 3823 3278
3088 3834 3457
3133 3849 3656
3189 3867 3867
2048 0 0
2048 0 512
2048 0 1024
2044 16 1534
2037 48 2037
2020 158 2520
1996 332 2968
1969 525 3367
1947 731 3709
2042 520 23
2041 521 521
2039 525 1025
2035 532 1529
2030 543 2030
2013 588 2507
1991 666 2951
1968 780 3347
1952 927 3688
2026 1036 161
2026 1036 565
2025 1038 1038
2024 1041 1529
2023 1046 2023
2007 1071 2490
1990 1114 2923
1977 1182 3312
1974 1275 3649
2023 1541 360
2023 1541 652
2023 1542 1077
2024 1545 1545
2026 1548 2026
2016 1563 2483
2011 1589 2905
2013 1631 3283
2029 1692 3611
2042 2042 572
2042 2042 785
2043 2043 1151
2045 2045 1586
2048 2048 2048
2054 2054 2499
2068 2068 2909
2094 2094 3274
2135 2135 3588
2107 2529 1014
2108 2529 1132
2110 2531 1382
2114 2533 1725
2120 2537 2120
2129 2542 2542
2174 2546 2943
2231 2559 3293
2302 2584 3591
2288 2993 1556
2289 2993 1622
2293 2995 1774
2300 2998 2010
2310 3003 2310
2324 3010 2651
2342 3019 3019
2438 3020 3354
2542 3033 3634
2627 3426 2188
2628 3427 2224
2634 3429 2311
2643 3433 2457
2657 3439 2657
2676 3447 2899
2701 3458 3174
2733 3471 3471
2868 3473 3728
3139 3819 2917
3141 3820 2935
3148 3822 2983
3160 3827 3064
3178 3833 3178
3204 3842 3324
3237 3854 3496
3279 3869 3686
3332 3887 3887
2515 186 186
2514 195 572
2511 214 1038
2506 245 1523
2500 291 2010
2493 345 2493
2456 509 2929
2414 693 3320
2373 888 3659
2504 597 260
2503 601 601
2501 607 1049
2497 620 1525
2493 640 2007
2489 665 2489
2452 765 2921
2413 895 3309
2375 1049 3646
2489 1076 401
2488 1077 671
2487 1080 1080
2486 1087 1537
2484 1097 2008
2483 1110 2483
2450 1170 2909
2416 1253 3290
2388 1359 3622
2483 1565 592
2483 1566 793
2484 1569 1148
2484 1573 1573
2485 1579 2025
2487 1588 2487
2461 1626 2904
2438 1680 3276
2424 1753 3598
2500 2056 818
2500 2057 967
2501 2058 1261
2503 2062 1643
2505 2066 2066
2509 2074 2509
2497 2096 2917
2492 2132 3276
2498 2182 3585
2544 2544 1093
2545 2545 1201
2547 2547 1434
2549 2549 1763
2553 2553 2146
2559 2559 2559
2570 2570 2957
2591 2591 3304
2624 2624 3597
2655 3012 1636
2656 3013 1697
2659 3015 1840
2664 3019 2064
2672 3024 2352
2682 3031 2682
2696 3041 3041
2752 3049 3372
2816 3068 3649
2905 3450 2270
2907 3451 2304
2911 3453 2387
2919 3457 2525
2930 3463 2714
2946 3472 2946
2968 3483 3211
2995 3498 3498
3093 3505 3749
3332 3845 3009
3335 3846 3027
3340 3848 3071
3351 3853 3146
3368 3860 3254
3391 3869 3391
3421 3881 3552
3460 3897 3730
3508 3917 3917
2930 505 505
2929 512 732
2927 525 1105
2923 550 1538
2918 584 1991
2913 629 2450
2909 685 2909
2849 868 3290
2789 1061 3621
2922 763 559
2921 767 767
2919 776 1124
2917 792 1548
2913 815 1995
2909 846 2450
2906 887 2906
2848 1031 3285
2791 1194 3615
2909 1169 679
2909 1171 853
2908 1176 1176
2907 1186 1576
2905 1200 2009
2904 1220 2454
2903 1246 2903
2850 1346 3277
2798 1467 3602
2904 1625 860
2904 1626 997
2904 1630 1272
2904 1636 1636
2905 1646 2044
2907 1660 2472
2909 1678 2909
2862 1748 3274
2820 1834 3588
2916 2096 1097
2917 2097 1200
2917 2099 1423
2919 2105 1741
2921 2112 2112
2925 2123 2513
2929 2137 2929
2896 2185 3283
2871 2247 3586
2957 2570 1389
2958 2571 1465
2959 2573 1640
2962 2577 1903
2966 2584 2229
2971 2592 2592
2979 2604 2979
2967 2636 3321
2965 2679 3609
3040 3040 1738
3041 3041 1794
3043 3043 1926
3047 3047 2136
3053 3053 2408
3061 3061 2725
3071 3071 3071
3088 3088 3399
3116 3116 3669
3210 3482 2379
3211 3483 2410
3215 3486 2486
3221 3490 2614
3230 3497 2791
3243 3506 3010
3261 3518 3261
3283 3534 3534
3344 3549 3778
3550 3881 3135
3552 3882 3150
3558 3884 3190
3567 3889 3259
3582 3896 3357
3602 3906 3482
3629 3920 3629
3664 3937 3791
3708 3958 3958
3294 836 836
3294 841 972
3292 852 1245
3290 873 1604
3286 903 2005
3282 943 2423
3279 993 2849
3276 1053 3276
3195 1248 3598
3289 1006 881
3288 1009 1009
3287 1018 1271
3285 1035 1621
3282 1060 2014
3279 1093 2428
3277 1135 2850
3275 1187 3275
3196 1359 3595
3279 1328 988
3279 1330 1100
3278 1337 1337
3277 1349 1665
3276 1367 2042
3275 1392 2443
3274 1424 2857
3274 1464 3274
3198 1600 3589
3274 1734 1162
3274 1735 1253
3274 1740 1456
3274 1749 1749
3274 1763 2098
3275 1781 2478
3276 1806 2875
3278 1837 3278
3211 1939 3585
3282 2174 1402
3282 2176 1473
3283 2180 1637
3284 2187 1887
3286 2197 2197
3288 2212 2545
3293 2231 2916
3298 2255 3298
3245 2331 3594
3317 2626 1701
3318 2628 1755
3319 2631 1883
3321 2637 2087
3325 2646 2351
3330 2658 2658
3337 2674 2993
3346 2695 3346
3312 2749 3628
3393 3080 2064
3394 3081 2103
3396 3084 2200
3399 3089 2359
3405 3097 2573
3412 3108 2832
3422 3122 3122
3434 3141 3434
3427 3179 3698
3526 3526 2516
3527 3527 2544
3530 3530 2613
3535 3535 2729
3542 3542 2892
3552 3552 3094
3566 3566 3328
3583 3583 3583
3608 3608 3816
3778 3928 3302
3780 3930 3316
3784 3933 3351
3792 3938 3412
3805 3946 3498
3822 3957 3608
3845 3971 3737
3876 3990 3876
3915 4014 4014
3605 1182 1182
3605 1186 1267
3603 1196 1457
3602 1215 1735
3599 1243 2068
3595 1280 2432
3592 1328 2812
3588 1386 3198
3586 1454 3586
3601 1300 1222
3600 1304 1304
3600 1313 1487
3598 1330 1757
3596 1355 2083
3593 1389 2442
3589 1432 2817
3587 1485 3200
3585 1548 3585
3592 1552 1323
3592 1555 1396
3591 1563 1563
3590 1577 1814
3589 1597 2124
3587 1625 2469
3586 1661 2833
3585 1705 3208
3585 1759 3585
3585 1901 1492
3585 1903 1553
3585 1909 1697
3585 1920 1920
3585 1936 2202
3585 1958 2524
3586 1988 2869
3588 2024 3227
3591 2068 3591
3590 2300 1727
3590 2302 1776
3591 2307 1894
3592 2316 2082
3594 2329 2329
3596 2347 2618
3600 2371 2934
3605 2400 3268
3611 2437 3611
3621 2723 2025
3621 2725 2063
3622 2729 2155
3624 2736 2308
3628 2748 2514
3632 2763 2763
3638 2783 3043
3646 2809 3343
3656 2840 3656
3687 3156 2391
3688 3157 2420
3689 3161 2489
3692 3167 2607
3697 3177 2771
3704 3191 2974
3712 3209 3209
3723 3232 3466
3737 3260 3737
3802 3586 2855
3803 3587 2874
3805 3591 2924
3809 3597 3008
3815 3606 3128
3824 3619 3281
3835 3636 3460
3850 3658 3658
3868 3685 3868
3993 3993 3535
3994 3994 3547
3998 3998 3576
4003 4003 3628
4012 4012 3701
4025 4025 3793
4042 4042 3899
4065 4065 4008
4095 4095 4095
