Examples/Curves - Vibrance.3dl
#25pt 3DLUT created by 3D LUT Creator Pro (c) Oleg Sharonov
#Copyright Oleg Sharonov
0 256 512 768 1023
0 0 0
0 0 1022
0 0 2047
0 0 3071
0 0 4095
0 1023 0
0 1023 1023
0 1023 2047
0 1023 3071
0 1024 4095
0 2048 0
0 2047 1023
0 2047 2047
0 2048 3071
0 2048 4095
0 3071 0
0 3071 1024
0 3071 2048
0 3071 3071
0 3071 4095
3 4095 3
0 4095 1024
0 4095 2048
0 4095 3071
3 4095 4095
1023 0 0
1023 0 1023
1023 0 2047
1023 0 3071
1023 0 4095
1023 1023 0
1024 1024 1024
950 950 2404
725 725 3785
1023 1023 4095
1023 2047 0
805 2080 805
801 2070 2070
597 2059 3245
1023 2048 4095
1024 3071 0
564 3106 564
563 3102 1965
562 3095 3095
1024 3071 4095
1024 4095 0
1023 4095 1023
1023 4095 2047
1023 4095 3071
1024 4095 4095
2048 0 0
2048 0 1024
2048 0 2048
2048 0 3072
2047 0 4095
2048 1024 0
2247 880 880
2202 859 2202
2215 653 3482
2048 1024 4095
2048 2048 0
2054 2054 793
2048 2048 2048
1983 1983 3510
2048 2048 4095
2048 3071 0
1960 3095 562
1760 3133 1760
1749 3114 3114
2047 3071 4095
2048 4095 0
2048 4095 1025
2048 4095 2048
2047 4095 3071
2047 4095 4095
3071 0 0
3071 0 1023
3071 0 2047
3071 0 3071
3071 0 4095
3071 1023 0
3354 623 623
3321 615 2109
3273 604 3273
3071 1023 4095
3071 2048 0
3171 2011 579
3366 1898 1898
3313 1867 3313
3071 2048 4095
3071 3071 0
3078 3078 558
3084 3084 1731
3071 3071 3071
3071 3071 4095
3071 4095 3
3071 4095 1023
3071 4095 2047
3071 4095 3071
3071 4095 4095
4095 0 0
4095 0 1023
4095 0 2047
4095 0 3071
4095 0 4095
4095 1023 0
4095 1024 1024
4095 1024 2048
4095 1024 3071
4095 1023 4095
4095 2048 0
4095 2048 1024
4095 2048 2048
4095 2047 3071
4095 2047 4095
4095 3071 0
4095 3071 1023
4095 3071 2047
4095 3071 3071
4095 3071 4095
4095 4095 0
4095 4095 1022
4095 4095 2046
4095 4095 3071
4095 4095 4095
