Examples/Curves - RGB Skin contrast 2.3dl
#25pt 3DLUT created by 3D LUT Creator Pro (c) Oleg Sharonov
#Copyright Oleg Sharonov
#IMAGEPROFILE sRGB IEC61966-2.1 v.2.10
#INPUTGAMMA sRGB IEC61966-2.1 v.2.10
#OUTPUTGAMMA sRGB IEC61966-2.1 v.2.10
0 128 256 384 512 640 768 896 1023
0 0 0
0 0 430
0 0 1089
0 0 1825
0 0 2614
0 0 3310
0 0 3787
0 0 4045
0 0 4095
1 414 0
1 414 431
0 413 1092
0 411 1828
0 408 2616
0 407 3311
0 407 3786
0 408 4043
0 411 4095
0 953 0
1 954 432
0 954 1093
0 953 1831
0 952 2618
0 951 3312
0 952 3785
0 954 4041
0 959 4095
0 1584 0
0 1585 432
0 1585 1095
0 1585 1832
0 1584 2620
0 1583 3313
0 1585 3783
0 1587 4037
0 1591 4095
0 2253 0
0 2255 431
0 2255 1094
0 2255 1833
0 2254 2620
0 2255 3312
0 2257 3781
0 2260 4034
0 2264 4095
0 2986 0
0 2988 431
0 2988 1094
0 2988 1833
0 2988 2621
0 2988 3311
0 2990 3778
0 2993 4030
0 2997 4095
0 3650 0
0 3651 430
0 3650 1094
0 3649 1834
0 3648 2621
0 3647 3311
0 3648 3776
0 3650 4027
0 3653 4095
0 4044 0
0 4042 432
0 4039 1096
0 4035 1837
0 4032 2624
0 4028 3312
0 4027 3776
0 4026 4025
0 4027 4095
2 4095 0
2 4095 437
0 4095 1100
0 4095 1842
0 4095 2628
0 4095 3316
0 4095 3778
0 4095 4026
0 4095 4095
480 0 0
480 0 431
479 0 1091
477 0 1828
475 0 2616
474 0 3311
474 0 3786
475 0 4043
478 0 4095
480 414 0
481 414 432
479 412 1094
478 411 1830
475 408 2618
474 407 3312
474 407 3785
476 408 4041
478 411 4095
480 954 0
480 955 433
479 955 1095
477 954 1833
475 952 2620
473 952 3313
474 953 3784
475 955 4039
478 959 4095
479 1585 0
479 1586 433
478 1586 1096
476 1586 1834
474 1585 2622
472 1584 3314
472 1586 3782
474 1588 4035
477 1592 4095
478 2255 0
478 2257 432
477 2257 1095
475 2257 1835
473 2256 2622
471 2256 3313
471 2258 3780
473 2262 4032
475 2266 4095
476 2987 0
476 2989 432
475 2990 1096
473 2990 1836
471 2989 2622
469 2989 3312
469 2991 3777
471 2994 4028
475 2999 4095
475 3651 0
475 3651 431
473 3651 1096
472 3650 1836
469 3648 2623
468 3647 3311
468 3648 3775
470 3650 4025
474 3654 4095
475 4042 0
475 4040 433
474 4037 1098
472 4034 1839
470 4030 2626
469 4026 3313
469 4025 3775
470 4024 4023
474 4025 4095
479 4095 0
479 4095 438
477 4095 1102
475 4095 1844
473 4095 2630
471 4095 3316
471 4095 3777
474 4095 4023
477 4095 4095
972 0 0
973 0 432
971 0 1093
970 0 1829
969 0 2617
967 0 3312
968 0 3785
970 0 4041
972 0 4095
973 414 0
974 414 433
973 412 1096
972 410 1834
970 408 2622
969 407 3315
968 406 3784
970 408 4039
973 410 4095
973 955 0
973 956 434
973 956 1097
972 955 1836
970 954 2623
969 953 3315
968 954 3783
970 956 4036
973 960 4095
973 1586 0
973 1588 434
972 1587 1097
971 1587 1836
969 1586 2623
968 1585 3314
968 1587 3781
970 1589 4033
973 1593 4095
971 2256 0
972 2258 433
971 2258 1096
970 2258 1837
968 2258 2624
967 2258 3314
967 2260 3779
968 2263 4030
971 2268 4095
970 2989 0
971 2991 432
970 2991 1097
968 2991 1838
966 2991 2624
965 2991 3313
966 2993 3776
968 2996 4026
971 3000 4095
969 3651 0
970 3652 432
969 3651 1097
967 3650 1839
966 3649 2625
964 3648 3312
965 3649 3774
967 3651 4022
970 3654 4095
970 4040 0
971 4038 434
970 4035 1099
968 4032 1841
967 4028 2628
965 4024 3314
966 4023 3774
968 4022 4021
971 4023 4095
973 4095 0
973 4095 437
972 4095 1102
971 4095 1846
969 4095 2632
967 4095 3317
968 4095 3776
970 4095 4021
974 4095 4095
1529 0 0
1530 0 432
1530 0 1094
1529 0 1832
1527 0 2619
1526 0 3312
1527 0 3783
1530 0 4038
1533 0 4095
1531 413 0
1531 413 434
1530 412 1096
1529 410 1834
1528 407 2622
1528 406 3315
1528 406 3783
1531 407 4036
1534 410 4095
1531 955 0
1532 956 434
1531 956 1097
1531 955 1838
1529 954 2624
1528 954 3315
1529 954 3782
1531 956 4034
1535 960 4095
1531 1587 0
1532 1588 434
1531 1588 1098
1530 1587 1838
1529 1586 2625
1528 1586 3314
1529 1587 3780
1531 1590 4030
1534 1593 4095
1530 2257 0
1531 2259 434
1531 2259 1097
1529 2259 1839
1528 2259 2625
1527 2259 3314
1528 2261 3777
1530 2264 4027
1534 2269 4095
1529 2990 0
1530 2992 433
1529 2992 1098
1528 2992 1839
1527 2992 2626
1526 2992 3313
1527 2994 3775
1529 2997 4023
1533 3001 4095
1529 3651 0
1529 3652 433
1529 3652 1098
1528 3650 1840
1526 3649 2626
1526 3648 3312
1526 3649 3773
1529 3651 4019
1532 3654 4095
1530 4038 0
1531 4036 434
1530 4033 1100
1529 4029 1843
1528 4025 2629
1527 4022 3314
1528 4020 3772
1530 4020 4018
1534 4021 4095
1533 4095 0
1534 4095 438
1533 4095 1103
1532 4095 1847
1531 4095 2633
1530 4095 3317
1531 4095 3774
1534 4095 4018
1537 4095 4095
2111 0 0
2112 0 433
2111 0 1096
2110 0 1834
2108 0 2622
2107 0 3313
2108 0 3782
2111 0 4035
2113 0 4095
2112 412 0
2113 412 434
2112 411 1097
2111 409 1837
2109 407 2624
2108 405 3314
2109 405 3782
2112 407 4033
2115 410 4095
2112 956 0
2113 957 434
2112 957 1098
2111 956 1838
2109 954 2625
2109 954 3315
2109 955 3780
2112 957 4031
2115 961 4095
2111 1587 0
2112 1589 434
2112 1588 1098
2110 1588 1839
2109 1587 2626
2108 1586 3314
2109 1588 3778
2111 1590 4027
2115 1594 4095
2111 2258 0
2112 2260 434
2111 2261 1099
2110 2261 1840
2108 2260 2627
2108 2260 3314
2108 2262 3776
2111 2266 4024
2114 2270 4095
2110 2991 0
2110 2993 433
2110 2994 1098
2109 2993 1841
2107 2993 2627
2107 2993 3313
2107 2995 3773
2110 2998 4020
2113 3002 4095
2109 3651 0
2110 3652 433
2109 3652 1098
2108 3650 1842
2107 3649 2628
2106 3648 3312
2107 3648 3771
2109 3651 4016
2112 3654 4095
2110 4035 0
2111 4033 435
2111 4030 1100
2110 4027 1844
2108 4023 2630
2108 4019 3314
2108 4018 3771
2111 4017 4015
2114 4018 4095
2114 4095 0
2114 4095 437
2114 4095 1105
2113 4095 1850
2112 4095 2635
2111 4095 3317
2111 4095 3772
2114 4095 4015
2117 4095 4095
2690 0 0
2691 0 433
2690 0 1096
2689 0 1836
2688 0 2623
2687 0 3313
2688 0 3780
2690 0 4032
2694 0 4095
2691 411 0
2692 411 434
2691 410 1097
2690 408 1838
2689 406 2625
2688 404 3314
2689 404 3780
2691 406 4030
2695 408 4095
2691 956 0
2692 957 435
2692 956 1098
2690 955 1839
2689 954 2626
2688 953 3315
2689 954 3778
2692 958 4028
2695 961 4095
2691 1588 0
2692 1589 435
2692 1589 1099
2691 1588 1841
2689 1587 2627
2688 1587 3315
2689 1588 3777
2691 1591 4024
2695 1594 4095
2691 2259 0
2691 2261 434
2691 2262 1099
2690 2262 1842
2688 2261 2628
2687 2261 3314
2688 2263 3774
2691 2267 4021
2694 2271 4095
2689 2992 0
2690 2994 433
2690 2994 1099
2689 2994 1842
2687 2994 2628
2686 2994 3313
2687 2996 3771
2689 2999 4017
2693 3003 4095
2689 3651 0
2690 3652 433
2689 3651 1099
2688 3650 1843
2687 3649 2629
2686 3648 3312
2687 3649 3769
2689 3651 4014
2692 3654 4095
2690 4033 0
2691 4031 435
2691 4028 1101
2689 4024 1846
2688 4020 2632
2687 4017 3314
2688 4015 3769
2691 4015 4012
2694 4015 4095
2694 4095 0
2695 4095 440
2694 4095 1105
2693 4095 1851
2691 4095 2636
2691 4095 3317
2692 4095 3771
2694 4095 4013
2698 4095 4095
3269 0 0
3269 0 433
3269 0 1096
3268 0 1837
3266 0 2624
3265 0 3313
3266 0 3779
3269 0 4029
3272 0 4095
3269 410 0
3270 411 434
3270 409 1098
3268 407 1839
3267 405 2626
3266 404 3314
3267 404 3778
3269 405 4028
3273 408 4095
3270 956 0
3271 957 435
3270 956 1099
3269 955 1841
3267 954 2627
3267 954 3315
3267 955 3777
3270 957 4025
3273 961 4095
3270 1588 0
3270 1589 435
3270 1589 1100
3269 1589 1842
3267 1588 2629
3267 1587 3315
3267 1589 3775
3270 1591 4022
3273 1595 4095
3269 2260 0
3270 2262 434
3269 2263 1099
3268 2263 1843
3266 2262 2629
3266 2262 3314
3267 2264 3773
3269 2268 4018
3272 2272 4095
3268 2993 0
3269 2995 434
3268 2995 1100
3267 2995 1844
3265 2995 2629
3265 2995 3313
3265 2997 3770
3268 3000 4014
3271 3004 4095
3267 3651 0
3268 3652 433
3267 3651 1100
3266 3650 1844
3265 3649 2630
3264 3648 3312
3265 3648 3768
3267 3651 4011
3271 3654 4095
3269 4030 0
3269 4028 435
3269 4025 1102
3268 4021 1847
3266 4017 2633
3266 4014 3314
3266 4012 3767
3269 4012 4009
3272 4013 4095
3272 4095 0
3273 4095 440
3272 4095 1105
3271 4095 1852
3270 4095 2637
3269 4095 3317
3270 4095 3769
3272 4095 4010
3276 4095 4095
3844 0 0
3845 0 433
3844 0 1098
3843 0 1839
3841 0 2625
3841 0 3314
3841 0 3777
3844 0 4027
3847 0 4095
3845 410 0
3846 410 435
3845 408 1100
3844 407 1841
3842 404 2628
3841 403 3315
3842 403 3777
3845 404 4025
3848 408 4095
3845 957 0
3846 958 435
3845 957 1100
3844 956 1843
3843 955 2629
3842 955 3315
3843 956 3775
3845 958 4022
3848 962 4095
3844 1589 0
3845 1590 435
3845 1590 1101
3843 1589 1844
3842 1588 2630
3841 1588 3315
3842 1589 3773
3844 1592 4019
3847 1596 4095
3844 2261 0
3845 2263 435
3844 2264 1101
3843 2264 1845
3841 2263 2631
3840 2263 3314
3841 2265 3771
3844 2269 4015
3847 2273 4095
3843 2994 0
3843 2996 434
3843 2996 1100
3842 2996 1845
3840 2996 2631
3839 2996 3313
3840 2997 3768
3842 3001 4011
3846 3005 4095
3842 3651 0
3843 3652 434
3842 3651 1100
3841 3650 1846
3840 3648 2631
3839 3648 3312
3840 3648 3766
3842 3650 4008
3845 3654 4095
3844 4028 0
3844 4026 436
3844 4023 1103
3842 4019 1849
3841 4015 2634
3840 4012 3314
3841 4010 3766
3843 4009 4006
3847 4010 4095
3847 4095 0
3847 4095 434
3847 4095 1109
3846 4095 1855
3844 4095 2640
3844 4095 3318
3845 4095 3768
3847 4095 4007
3850 4095 4095
4095 0 0
4095 0 436
4095 0 1100
4095 0 1842
4095 0 2628
4095 0 3315
4095 0 3778
4095 0 4026
4095 0 4095
4095 411 0
4095 411 437
4095 411 1102
4095 409 1845
4095 407 2631
4095 405 3317
4095 403 3777
4095 406 4024
4095 408 4095
4095 958 0
4095 959 437
4095 959 1103
4095 958 1846
4095 957 2632
4095 957 3317
4095 958 3776
4095 960 4021
4095 963 4095
4095 1591 0
4095 1592 439
4095 1592 1103
4095 1592 1847
4095 1591 2633
4095 1590 3317
4095 1592 3774
4095 1594 4018
4095 1598 4095
4095 2265 0
4095 2266 437
4095 2267 1103
4095 2267 1848
4095 2266 2634
4095 2267 3316
4095 2268 3771
4095 2272 4014
4095 2276 4095
4095 2997 0
4095 2999 436
4095 2999 1102
4095 2999 1848
4095 2999 2634
4095 2999 3315
4095 3001 3769
4095 3004 4010
4095 3008 4095
4095 3653 0
4095 3654 436
4095 3653 1102
4095 3652 1849
4095 3650 2634
4095 3650 3314
4095 3650 3767
4095 3652 4007
4095 3656 4095
4095 4027 0
4095 4025 440
4095 4022 1105
4095 4018 1852
4095 4014 2638
4095 4011 3316
4095 4009 3766
4095 4009 4006
4095 4010 4095
4095 4095 0
4095 4095 440
4095 4095 1106
4095 4095 1854
4095 4095 2641
4095 4095 3318
4095 4095 3768
4095 4095 4006
4095 4095 4095
