Examples/Curves - Clean neutrals.3dl
#25pt 3DLUT created by 3D LUT Creator Pro (c) Oleg Sharonov
#Copyright Oleg Sharonov
0 256 512 768 1023
0 0 0
23 23 964
97 97 1940
225 225 2917
367 367 3893
26 1022 26
26 1022 1022
103 1024 2019
238 1038 2995
376 1070 3962
107 2044 107
107 2044 1038
107 2045 2045
245 2045 3049
386 2049 4038
248 3066 248
248 3066 1067
248 3067 2057
248 3068 3068
393 3067 4074
394 4088 394
394 4088 1109
394 4089 2077
394 4089 3079
394 4090 4090
1005 26 26
1011 26 1011
1005 100 1985
1022 230 2951
1057 370 3919
1023 1023 26
1024 1024 1024
1038 1038 1966
1060 1060 2947
1095 1095 3922
1038 2045 107
1079 2038 1079
1081 2041 2041
1093 2045 3031
1125 2053 4016
1067 3067 248
1106 3062 1106
1106 3063 2067
1107 3065 3065
1141 3066 4066
1110 4089 394
1147 4086 1147
1147 4086 2090
1148 4087 3083
1148 4089 4089
2016 103 103
2018 103 1023
2026 103 2026
2015 238 3005
2015 377 3973
2033 1031 107
1996 1055 1055
2006 1061 2006
2015 1076 2989
2025 1109 3964
2047 2047 107
2045 2045 1084
2048 2048 2048
2064 2064 2944
2076 2076 3940
2058 3068 248
2069 3065 1107
2139 3049 2139
2144 3055 3055
2128 3066 4033
2077 4090 394
2091 4087 1148
2152 4077 2152
2153 4080 3102
2155 4083 4083
3024 240 240
3026 243 1050
3031 243 2033
3039 243 3039
3027 384 4021
3039 1055 243
3010 1085 1085
3016 1087 2034
3026 1091 3026
3023 1123 4009
3059 2052 245
3047 2056 1099
2978 2088 2088
2992 2099 2992
3024 2098 3980
3070 3070 248
3069 3069 1109
3066 3066 2152
3071 3071 3071
3090 3090 3923
3080 4091 394
3085 4090 1148
3105 4084 2155
3199 4059 3199
3207 4069 4069
4033 386 386
4034 386 1093
4038 388 2050
4045 388 3045
4053 389 4053
4044 1096 388
4023 1127 1127
4027 1128 2059
4034 1131 3042
4043 1133 4043
4066 2064 391
4053 2073 1137
3999 2109 2109
4007 2113 3046
4019 2120 4019
4083 3074 393
4078 3075 1144
4055 3083 2140
3962 3122 3122
3980 3136 3980
4094 4094 394
4093 4093 1149
4091 4091 2160
4087 4087 3221
4095 4095 4095
