Examples/Curves - Color Contrast.3dl
#25pt 3DLUT created by 3D LUT Creator Pro (c) Oleg Sharonov
#Copyright Oleg Sharonov
0 43 86 128 171 214 256 299 341 384 427 469 512 555 597 640 682 725 768 810 853 896 938 981 1023 
0 0 0
0 0 36
0 0 100
0 0 214
0 0 347
0 0 484
0 0 631
0 0 784
0 0 936
0 0 1098
0 0 1255
0 0 1399
0 0 1528
0 0 1650
0 0 1775
0 0 1903
0 0 2036
0 0 2169
0 0 2306
0 0 2447
0 0 2589
0 0 2733
0 0 2881
0 0 3030
0 0 3181
0 61 0
0 65 65
0 65 155
0 68 276
0 71 404
0 74 538
0 78 679
0 84 827
0 87 977
0 90 1127
0 90 1266
0 90 1398
0 90 1521
0 90 1645
0 90 1773
0 90 1903
0 90 2036
0 90 2172
0 90 2310
0 90 2451
0 94 2594
0 94 2739
0 94 2886
0 97 3036
0 97 3188
0 180 0
0 183 78
0 183 183
0 189 312
0 192 445
0 201 583
0 206 725
0 209 863
0 212 1003
0 212 1137
0 212 1265
0 209 1388
0 209 1516
0 209 1644
0 209 1774
0 209 1906
0 209 2040
0 209 2176
0 212 2315
0 212 2457
0 214 2600
0 217 2746
0 220 2894
0 220 3043
0 222 3195
0 339 0
0 341 90
0 341 209
0 341 341
0 343 475
0 343 607
0 343 739
0 343 871
0 343 999
0 339 1126
0 339 1255
0 337 1382
0 337 1512
0 337 1643
0 339 1775
0 339 1910
0 341 2047
0 343 2184
0 345 2325
0 347 2467
0 349 2611
0 352 2757
0 354 2906
0 358 3056
0 360 3208
0 474 0
0 472 90
0 472 209
0 472 341
0 471 471
0 471 602
0 470 731
0 470 861
0 470 991
0 468 1120
0 470 1252
0 470 1383
0 470 1514
0 471 1648
0 472 1783
0 474 1919
0 477 2058
0 478 2196
0 481 2338
0 484 2482
0 486 2626
0 489 2773
0 493 2922
0 496 3072
0 500 3224
0 599 0
0 600 90
0 599 209
0 599 337
0 600 468
0 599 599
0 600 730
0 600 861
0 600 992
0 601 1124
0 602 1256
0 603 1390
0 604 1524
0 606 1659
0 609 1796
0 611 1933
0 614 2074
0 616 2214
0 619 2356
0 623 2500
0 626 2646
0 629 2793
0 633 2942
0 637 3093
0 641 3246
0 733 0
0 734 90
0 734 209
0 734 341
0 734 472
0 735 603
0 735 735
0 736 868
0 737 1001
0 738 1133
0 741 1268
0 742 1403
0 744 1538
0 746 1675
0 749 1813
0 751 1952
0 754 2093
0 758 2234
0 761 2378
0 765 2523
0 769 2669
0 772 2817
0 777 2967
0 781 3118
0 786 3271
0 874 0
0 875 94
0 875 214
0 875 347
0 876 479
0 877 612
0 877 745
0 879 879
0 880 1013
0 882 1148
0 883 1283
0 885 1420
0 888 1557
0 891 1695
0 894 1834
0 896 1975
0 899 2116
0 903 2259
0 907 2404
0 911 2549
0 915 2697
0 919 2845
0 924 2995
0 928 3147
0 933 3300
0 1022 0
0 1022 97
0 1022 220
0 1022 352
0 1023 488
0 1024 622
0 1025 757
0 1027 892
0 1028 1028
0 1030 1164
0 1032 1302
0 1034 1439
0 1036 1578
0 1039 1718
0 1043 1858
0 1046 2000
0 1049 2143
0 1052 2287
0 1057 2432
0 1061 2579
0 1065 2726
0 1070 2876
0 1074 3026
0 1079 3179
0 1084 3332
0 1174 0
0 1175 100
0 1175 225
0 1176 362
0 1176 497
0 1177 633
0 1178 771
0 1179 907
0 1182 1045
0 1183 1183
0 1185 1322
0 1187 1461
0 1190 1602
0 1193 1743
0 1196 1885
0 1199 2028
0 1203 2172
0 1207 2317
0 1211 2463
0 1215 2611
0 1219 2759
0 1224 2909
0 1229 3060
0 1234 3213
0 1239 3367
0 1333 0
0 1333 103
0 1334 233
0 1334 370
0 1334 508
0 1336 646
0 1337 785
0 1338 924
0 1340 1063
0 1341 1203
0 1343 1343
0 1346 1484
0 1349 1627
0 1351 1769
0 1355 1912
0 1358 2057
0 1361 2202
0 1365 2349
0 1369 2496
0 1373 2644
0 1378 2794
0 1383 2945
0 1387 3097
0 1393 3250
0 1398 3405
0 1496 0
0 1496 107
0 1496 238
0 1496 379
0 1497 518
0 1498 659
0 1499 799
0 1500 940
0 1502 1081
0 1504 1223
0 1506 1366
0 1508 1508
0 1511 1652
0 1514 1796
0 1517 1941
0 1520 2087
0 1524 2233
0 1528 2381
0 1531 2530
0 1536 2679
0 1540 2830
0 1545 2981
0 1550 3135
0 1555 3289
0 1560 3444
0 1663 0
0 1663 110
0 1663 245
0 1664 388
0 1665 530
0 1665 672
0 1666 815
0 1668 957
0 1669 1101
0 1671 1244
0 1673 1388
0 1675 1533
0 1678 1678
0 1681 1824
0 1684 1970
0 1687 2117
0 1690 2266
0 1694 2414
0 1698 2564
0 1702 2715
0 1707 2867
0 1711 3020
0 1716 3174
0 1721 3329
0 1726 3485
0 1834 0
0 1834 113
0 1835 252
0 1835 396
0 1836 541
0 1837 685
0 1838 829
0 1839 974
0 1841 1119
0 1842 1265
0 1844 1411
0 1846 1557
0 1849 1704
0 1851 1851
0 1854 1999
0 1858 2148
0 1861 2298
0 1865 2448
0 1868 2599
0 1873 2752
0 1877 2904
0 1881 3058
0 1886 3213
0 1891 3369
0 1897 3526
0 2010 0
0 2010 116
0 2010 260
0 2010 406
0 2011 551
0 2012 697
0 2013 844
0 2014 991
0 2015 1138
0 2017 1286
0 2019 1433
0 2021 1581
0 2024 1730
0 2026 1879
0 2029 2029
0 2032 2179
0 2035 2331
0 2039 2482
0 2043 2635
0 2046 2788
0 2051 2942
0 2055 3098
0 2060 3253
0 2065 3410
0 2070 3568
0 2189 0
0 2189 123
0 2189 267
0 2189 414
0 2190 562
0 2191 711
0 2192 859
0 2193 1008
0 2194 1156
0 2196 1306
0 2197 1455
0 2200 1605
0 2202 1756
0 2204 1907
0 2207 2058
0 2210 2210
0 2213 2363
0 2217 2516
0 2221 2670
0 2225 2825
0 2229 2980
0 2233 3137
0 2237 3294
0 2243 3452
0 2247 3611
0 2371 0
0 2371 126
0 2372 273
0 2372 422
0 2372 572
0 2373 723
0 2374 874
0 2375 1024
0 2376 1175
0 2378 1326
0 2380 1477
0 2382 1629
0 2384 1781
0 2386 1934
0 2389 2087
0 2392 2241
0 2395 2395
0 2398 2550
0 2402 2705
0 2406 2861
0 2410 3018
0 2414 3176
0 2418 3334
0 2423 3493
0 2428 3654
0 2557 0
0 2557 129
0 2557 278
0 2557 431
0 2558 583
0 2559 735
0 2559 888
0 2561 1040
0 2562 1193
0 2563 1346
0 2565 1499
0 2567 1653
0 2569 1806
0 2572 1961
0 2574 2116
0 2577 2271
0 2580 2427
0 2583 2583
0 2586 2740
0 2590 2898
0 2594 3056
0 2598 3215
0 2602 3374
0 2607 3535
0 2612 3696
0 2746 0
0 2746 132
0 2746 284
0 2746 439
0 2747 593
0 2748 747
0 2748 902
0 2750 1056
0 2751 1210
0 2752 1365
0 2754 1520
0 2756 1676
0 2758 1831
0 2760 1987
0 2762 2144
0 2765 2301
0 2768 2458
0 2771 2616
0 2774 2774
0 2778 2934
0 2782 3093
0 2786 3253
0 2790 3414
0 2794 3576
0 2799 3738
0 2938 0
0 2938 136
0 2938 291
0 2939 448
0 2939 603
0 2940 759
0 2941 915
0 2941 1071
0 2943 1228
0 2944 1384
0 2946 1541
0 2947 1698
0 2949 1856
0 2952 2013
0 2954 2172
0 2956 2330
0 2959 2489
0 2962 2648
0 2966 2808
0 2969 2969
0 2972 3130
0 2977 3292
0 2981 3454
0 2985 3616
0 2989 3780
0 3132 0
0 3133 142
0 3133 297
0 3133 455
0 3134 613
0 3134 771
0 3135 928
0 3136 1087
0 3137 1245
0 3139 1403
0 3140 1562
0 3142 1720
0 3144 1880
0 3146 2039
0 3148 2199
0 3151 2359
0 3153 2520
0 3156 2680
0 3159 2842
0 3163 3004
0 3166 3166
0 3170 3329
0 3174 3493
0 3178 3657
0 3182 3822
0 3331 0
0 3331 145
0 3331 304
0 3331 462
0 3332 623
0 3332 782
0 3333 942
0 3334 1102
0 3335 1261
0 3336 1421
0 3338 1582
0 3339 1742
0 3341 1903
0 3343 2064
0 3345 2226
0 3348 2387
0 3350 2549
0 3353 2712
0 3356 2875
0 3359 3038
0 3363 3202
0 3367 3367
0 3370 3532
0 3374 3697
0 3379 3863
0 3531 0
0 3531 149
0 3531 310
0 3532 471
0 3532 632
0 3533 793
0 3534 955
0 3534 1116
0 3535 1278
0 3537 1439
0 3538 1602
0 3540 1764
0 3541 1926
0 3543 2089
0 3545 2252
0 3548 2415
0 3550 2579
0 3553 2743
0 3556 2907
0 3559 3072
0 3562 3237
0 3566 3403
0 3570 3570
0 3574 3736
0 3578 3904
0 3734 0
0 3734 152
0 3734 316
0 3735 478
0 3735 642
0 3736 804
0 3736 967
0 3737 1131
0 3738 1294
0 3739 1457
0 3741 1621
0 3742 1785
0 3744 1949
0 3746 2113
0 3748 2278
0 3750 2442
0 3753 2608
0 3755 2773
0 3758 2939
0 3761 3105
0 3764 3272
0 3768 3439
0 3771 3607
0 3775 3775
0 3779 3944
0 3940 0
0 3940 155
0 3940 320
0 3941 485
0 3941 650
0 3941 815
0 3942 980
0 3943 1144
0 3944 1309
0 3945 1474
0 3946 1640
0 3948 1805
0 3950 1971
0 3951 2137
0 3953 2303
0 3955 2469
0 3958 2636
0 3960 2803
0 3963 2971
0 3966 3138
0 3969 3306
0 3972 3475
0 3976 3644
0 3980 3813
0 3983 3983
42 0 0
48 0 48
52 0 119
55 0 238
61 0 367
68 0 509
71 0 646
78 0 797
84 0 953
87 0 1108
90 0 1263
90 0 1399
90 0 1525
90 0 1650
90 0 1773
90 0 1904
90 0 2036
90 0 2169
90 0 2307
90 0 2448
94 0 2590
94 0 2734
94 0 2882
97 0 3031
97 0 3183
65 65 0
171 171 171
152 152 316
119 119 408
103 103 506
94 94 619
94 94 745
94 94 882
97 97 1025
97 97 1160
97 97 1291
94 94 1416
94 94 1538
90 90 1662
90 90 1788
90 90 1918
90 90 2052
90 90 2186
94 94 2323
94 94 2463
94 94 2605
94 94 2750
97 97 2897
97 97 3046
97 97 3197
81 186 0
155 320 155
158 322 322
126 276 427
113 248 535
103 235 653
100 230 779
100 228 907
97 225 1036
97 222 1163
94 217 1286
94 214 1409
94 214 1534
90 212 1661
90 212 1790
90 212 1921
90 212 2054
94 212 2191
94 214 2329
94 214 2469
94 217 2613
94 220 2758
97 220 2905
97 222 3053
97 225 3206
90 341 0
129 433 129
129 433 280
129 431 431
116 399 545
107 383 663
103 370 783
100 362 904
97 356 1028
94 352 1153
94 349 1278
94 345 1403
94 345 1533
90 343 1662
90 343 1793
90 345 1927
94 345 2062
94 347 2198
94 349 2339
94 351 2479
94 352 2623
97 354 2768
97 356 2916
97 360 3065
100 362 3217
90 472 0
113 540 113
113 538 252
113 538 394
113 538 538
107 516 655
100 503 776
97 493 898
97 488 1023
94 484 1149
94 481 1277
94 478 1405
94 478 1536
94 478 1668
94 478 1801
94 479 1936
94 481 2072
94 482 2211
94 485 2352
97 486 2493
97 489 2637
97 492 2784
97 494 2932
100 499 3082
100 501 3233
90 599 0
103 655 103
103 654 238
103 655 376
103 655 516
107 656 656
100 639 776
97 629 899
97 623 1026
94 618 1153
94 616 1283
94 615 1412
94 614 1544
94 614 1678
94 615 1813
94 617 1949
94 618 2088
97 620 2227
97 624 2369
97 626 2512
97 629 2657
100 632 2804
100 635 2952
100 640 3102
100 644 3255
90 734 0
100 779 100
100 779 230
100 780 369
100 780 505
103 781 644
103 782 782
100 771 907
97 764 1034
97 759 1163
97 757 1294
97 755 1425
97 756 1559
97 756 1694
97 757 1830
97 758 1968
97 760 2107
97 763 2248
97 766 2391
100 769 2535
100 772 2680
100 776 2827
100 780 2976
103 784 3127
103 788 3279
94 875 0
100 913 100
100 914 230
100 914 367
100 914 504
100 915 641
100 916 778
100 917 917
100 909 1046
100 904 1176
97 902 1308
97 901 1442
97 901 1577
97 901 1713
97 902 1851
100 904 1990
100 907 2131
100 909 2272
100 912 2416
100 916 2561
103 919 2707
103 923 2855
103 927 3005
103 931 3156
107 936 3309
97 1022 0
100 1054 100
100 1055 230
100 1055 369
100 1056 506
103 1057 644
103 1058 783
103 1058 921
103 1060 1060
100 1055 1193
100 1052 1326
100 1050 1461
100 1050 1598
100 1051 1736
100 1052 1875
100 1054 2015
103 1057 2156
103 1060 2300
103 1063 2444
103 1066 2590
103 1070 2737
107 1074 2886
107 1078 3036
107 1083 3187
107 1087 3341
100 1176 0
103 1202 103
103 1202 235
103 1203 372
103 1203 512
103 1205 650
103 1206 789
103 1207 929
103 1208 1069
103 1210 1210
103 1207 1346
103 1206 1482
103 1205 1620
103 1206 1760
103 1207 1900
103 1209 2042
103 1211 2185
107 1214 2329
107 1217 2475
107 1220 2621
107 1224 2769
107 1229 2919
110 1233 3070
110 1238 3222
110 1243 3376
103 1334 0
107 1356 107
107 1356 238
107 1357 379
107 1358 518
107 1359 659
107 1359 799
107 1361 941
107 1362 1081
107 1364 1223
107 1366 1366
107 1364 1505
107 1364 1644
107 1364 1785
107 1365 1927
107 1367 2070
107 1369 2215
110 1372 2360
110 1375 2507
110 1379 2654
110 1383 2804
110 1387 2954
113 1392 3106
113 1396 3259
113 1401 3413
