Examples/Curves - Limit Saturation.3dl
#25pt 3DLUT created by 3D LUT Creator Pro (c) Oleg Sharonov
#Copyright Oleg Sharonov
0 128 256 384 512 640 768 896 1023
0 0 0
0 0 512
110 16 924
332 123 1212
552 280 1488
765 443 1735
970 606 1974
1171 771 2198
1369 940 2403
6 510 6
0 512 512
13 512 1017
238 521 1417
525 565 1700
775 652 1921
997 767 2124
1204 899 2327
1403 1042 2520
214 1008 152
84 1018 531
6 1023 1023
42 1023 1527
360 1022 1943
708 1042 2225
1000 1093 2426
1247 1174 2593
1462 1274 2765
583 1495 427
465 1507 659
267 1524 1047
94 1533 1532
149 1533 2031
500 1529 2456
889 1535 2750
1221 1566 2951
1500 1623 3100
971 1972 765
884 1985 899
722 2005 1173
513 2027 1563
324 2039 2038
354 2041 2530
677 2036 2957
1081 2035 3265
1444 2052 3474
1383 2443 1136
1318 2454 1217
1183 2475 1401
1000 2502 1689
793 2526 2076
607 2542 2539
614 2546 3022
896 2541 3449
1292 2536 3769
1798 2909 1517
1753 2918 1574
1650 2937 1705
1492 2965 1911
1302 2996 2205
1099 3023 2586
930 3042 3036
919 3048 3508
1154 3044 3932
2215 3373 1904
2181 3380 1946
2104 3397 2045
1983 3422 2205
1816 3454 2424
1624 3487 2719
1428 3517 3093
1272 3538 3530
1252 3547 3989
2639 3834 2302
2612 3840 2332
2548 3855 2407
2450 3877 2532
2321 3906 2709
2156 3940 2937
1964 3976 3231
1775 4008 3597
1629 4031 4021
513 0 0
509 3 508
504 55 928
569 168 1255
699 318 1529
865 477 1769
1043 634 2002
1227 795 2223
1412 961 2425
512 512 0
512 512 512
513 513 1018
568 530 1427
707 583 1718
886 673 1943
1074 788 2145
1260 918 2347
1447 1060 2539
560 1014 113
523 1022 521
509 1024 1024
521 1023 1531
639 1026 1949
858 1050 2234
1091 1105 2438
1309 1187 2607
1509 1288 2778
764 1501 401
684 1514 641
579 1528 1041
526 1535 1534
548 1534 2036
725 1531 2463
1014 1540 2757
1299 1573 2959
1554 1631 3108
1074 1979 746
999 1991 883
865 2011 1162
711 2031 1559
607 2042 2041
631 2042 2536
848 2038 2964
1183 2038 3272
1510 2056 3480
1447 2448 1123
1386 2460 1203
1261 2481 1390
1097 2507 1683
919 2531 2074
777 2546 2543
790 2548 3029
1021 2543 3456
1374 2539 3776
1844 2914 1508
1800 2923 1566
1699 2942 1696
1547 2970 1903
1368 3000 2201
1182 3027 2586
1033 3045 3040
1028 3051 3515
1244 3046 3940
2249 3378 1898
2215 3385 1940
2139 3401 2039
2019 3426 2198
1856 3458 2419
1671 3492 2716
1484 3521 3093
1338 3541 3534
1324 3549 3995
2664 3838 2298
2637 3845 2328
2574 3859 2402
2477 3881 2528
2350 3910 2705
2186 3945 2933
1998 3981 3229
1814 4012 3598
1675 4035 4025
993 42 36
995 45 509
968 116 960
955 252 1320
994 399 1604
1084 550 1842
1210 698 2067
1358 852 2282
1518 1010 2480
1016 516 23
1023 512 512
1017 517 1017
1004 553 1441
1035 624 1753
1122 722 1991
1248 838 2195
1395 966 2395
1554 1104 2585
1027 1021 84
1024 1023 514
1024 1024 1024
1025 1024 1533
1055 1035 1958
1150 1070 2253
1293 1133 2465
1455 1219 2638
1621 1321 2811
1110 1514 354
1070 1524 606
1031 1534 1031
1021 1536 1536
1029 1535 2043
1105 1536 2475
1274 1551 2771
1476 1590 2977
1680 1653 3130
1307 1993 707
1253 2004 848
1162 2023 1137
1076 2039 1551
1037 2046 2046
1053 2045 2547
1175 2042 2980
1408 2045 3286
1666 2068 3495
1603 2462 1091
1550 2473 1173
1447 2494 1363
1317 2519 1665
1187 2540 2070
1109 2552 2550
1126 2552 3043
1285 2547 3473
1562 2545 3791
1956 2926 1489
1914 2935 1545
1820 2955 1672
1684 2983 1884
1529 3012 2189
1375 3037 2584
1263 3053 3049
1271 3056 3531
1448 3051 3957
2332 3388 1884
2301 3396 1926
2227 3412 2024
2112 3438 2182
1957 3470 2405
1788 3502 2709
1621 3530 3094
1498 3549 3543
1494 3556 4011
2728 3848 2287
2702 3854 2317
2641 3869 2391
2547 3891 2517
2422 3920 2693
2261 3955 2923
2084 3991 3224
1914 4021 3600
1788 4042 4034
1428 233 155
1451 195 535
1436 245 986
1396 370 1378
1376 512 1690
1399 657 1938
1468 798 2161
1569 942 2371
1693 1091 2565
1474 564 136
1502 542 532
1499 548 1015
1462 603 1454
1436 691 1796
1451 798 2057
1512 919 2269
1609 1043 2470
1730 1177 2659
1512 1032 139
1528 1027 527
1536 1023 1023
1530 1027 1530
1514 1053 1962
1526 1106 2277
1585 1181 2506
1683 1274 2689
1804 1378 2865
1548 1527 336
1539 1532 590
1536 1536 1025
1536 1536 1536
1536 1536 2046
1556 1544 2484
1627 1571 2789
1743 1620 3004
1883 1690 3164
1654 2011 663
1623 2021 807
1574 2036 1104
1541 2046 1541
1533 2048 2048
1539 2047 2556
1596 2047 2996
1733 2058 3305
1908 2088 3517
1858 2483 1047
1819 2493 1130
1743 2512 1325
1654 2534 1637
1579 2551 2061
1548 2558 2558
1562 2557 3058
1657 2553 3496
1851 2554 3812
2145 2946 1456
2108 2955 1510
2026 2975 1635
1915 3001 1853
1793 3028 2169
1679 3051 2580
1615 3062 3061
1629 3063 3551
1758 3057 3983
2478 3406 1862
2448 3414 1902
2380 3430 1998
2271 3456 2153
2135 3488 2381
1990 3519 2695
1853 3545 3094
1759 3561 3558
1766 3565 4035
2841 3865 2269
2816 3871 2299
2759 3885 2373
2670 3908 2497
2549 3938 2672
2397 3973 2905
2237 4007 3216
2087 4036 3603
1981 4055 4049
1832 479 293
1869 433 600
1875 436 1020
1839 521 1425
1795 649 1766
1771 788 2037
1790 924 2269
1846 1060 2480
1929 1200 2673
1885 691 287
1923 654 600
1939 644 1034
1908 694 1470
1859 788 1838
1829 902 2127
1837 1025 2356
1887 1148 2564
1968 1276 2754
1958 1076 299
1992 1057 594
2019 1041 1037
2011 1050 1526
1970 1093 1962
1935 1162 2302
1933 1251 2555
1973 1352 2753
2048 1457 2937
2009 1545 408
2023 1542 629
2042 1537 1035
2049 1535 1535
2043 1538 2043
2026 1559 2483
2028 1603 2806
2070 1666 3037
2147 1745 3210
2070 2031 658
2060 2036 796
2050 2044 1090
2048 2048 1536
2048 2048 2048
2048 2048 2559
2062 2054 3006
2119 2077 3322
2215 2118 3544
2197 2507 1012
2173 2515 1093
2129 2531 1287
2081 2548 1606
2052 2558 2052
2045 2560 2560
2050 2559 3069
2097 2559 3516
2212 2567 3835
2408 2972 1418
2379 2981 1467
2318 2999 1592
2237 3022 1814
2152 3046 2140
2085 3064 2571
2059 3069 3069
2071 3069 3570
2151 3064 4012
2686 3431 1834
2660 3438 1872
2600 3455 1962
2506 3481 2113
2395 3510 2347
2280 3539 2673
2177 3562 3090
2121 3573 3572
2135 3574 4062
3007 3888 2246
2985 3894 2276
2933 3909 2348
2850 3931 2469
2736 3962 2639
2603 3996 2879
2466 4028 3201
2341 4054 3604
2259 4070 4067
2212 736 458
2255 689 709
2281 665 1079
2263 712 1474
2216 813 1833
2170 941 2129
2151 1071 2377
2169 1199 2597
2215 1332 2794
2265 874 467
2308 835 713
2339 808 1088
2326 837 1501
2280 919 1881
2229 1031 2194
2201 1153 2446
2211 1274 2666
2254 1398 2863
2358 1172 496
2397 1146 716
2438 1119 1091
2443 1122 1537
2403 1167 1968
2349 1246 2328
2310 1344 2606
2304 1450 2825
2339 1558 3021
2443 1588 563
2470 1576 740
2512 1558 1084
2536 1548 1546
2525 1556 2037
2483 1592 2476
2443 1652 2819
2430 1729 3072
2454 1817 3264
2507 2056 728
2515 2056 850
2535 2053 1120
2555 2049 1543
2561 2047 2047
2556 2049 2556
2538 2067 3003
2534 2106 3334
2564 2161 3570
2591 2533 1017
2583 2538 1093
2569 2547 1278
2560 2556 1594
2559 2559 2047
2559 2559 2559
2559 2559 3071
2571 2565 3525
2618 2585 3852
2737 3001 1392
2719 3008 1439
2681 3023 1559
2634 3042 1780
2589 3060 2111
2563 3070 2563
2557 3072 3072
2561 3071 3581
2601 3070 4033
2955 3461 1808
2934 3468 1842
2886 3484 1923
2815 3507 2071
2734 3534 2308
2654 3559 2645
2593 3576 3082
2569 3581 3581
2581 3580 4083
3226 3918 2223
3207 3923 2251
3162 3937 2319
3089 3960 2433
2991 3989 2599
2882 4021 2844
2773 4051 3178
2678 4074 3600
2629 4085 4084
2573 996 664
2616 955 857
2656 920 1173
2658 935 1540
2623 1006 1899
2571 1115 2214
2533 1235 2482
2522 1356 2715
2537 1481 2920
2623 1094 680
2665 1057 864
2708 1022 1179
2715 1028 1556
2682 1088 1930
2628 1186 2260
2581 1302 2534
2564 1419 2770
2575 1538 2977
2722 1321 710
2762 1293 877
2811 1258 1187
2831 1251 1582
2807 1286 1991
2752 1361 2359
2695 1461 2659
2661 1570 2901
2662 1678 3111
2835 1671 763
2867 1654 902
2919 1626 1188
2959 1607 1590
2956 1614 2045
2911 1656 2475
2852 1726 2833
2806 1813 3108
2791 1908 3322
2926 2101 874
2945 2094 975
2985 2080 1212
3031 2064 1583
3051 2057 2055
3040 2064 2550
2998 2096 2992
2954 2150 3339
2935 2219 3596
3005 2565 1086
3010 2565 1154
3023 2566 1324
3048 2564 1619
3068 2560 2053
3073 2559 2559
3068 2561 3068
3051 2576 3521
3043 2612 3860
3112 3033 1406
3105 3038 1448
3091 3047 1560
3078 3058 1771
3072 3068 2100
3071 3071 2559
3071 3071 3071
3071 3071 3584
3081 3076 4042
3275 3495 1797
3261 3501 1825
3230 3514 1898
3186 3533 2041
3140 3554 2276
3098 3573 2617
3074 3582 3074
3069 3584 3584
3073 3583 4094
3496 3951 2207
3481 3957 2232
3445 3970 2294
3386 3991 2395
3313 4018 2558
3234 4046 2806
3158 4071 3150
3101 4088 3593
3080 4093 4093
2926 1254 885
2961 1224 1035
3005 1189 1301
3025 1184 1630
3007 1227 1975
2964 1311 2297
2920 1415 2581
2890 1527 2829
2882 1645 3045
2968 1330 902
3004 1301 1046
3052 1264 1307
3076 1254 1641
3061 1291 1997
3016 1370 2330
2966 1471 2621
2931 1580 2873
2919 1694 3093
3062 1510 937
3099 1484 1066
3153 1446 1319
3187 1428 1661
3180 1449 2039
3136 1512 2402
3076 1605 2716
3028 1709 2979
3006 1816 3205
3188 1798 988
3222 1779 1095
3279 1747 1330
3327 1721 1675
3338 1722 2081
3305 1759 2491
3245 1829 2853
3183 1920 3148
3142 2019 3384
3309 2177 1070
3335 2166 1154
3385 2144 1353
3443 2119 1675
3479 2104 2094
3472 2114 2554
3424 2153 2986
3363 2216 3344
3312 2295 3621
3407 2613 1224
3422 2609 1282
3455 2600 1432
3502 2587 1698
3548 2573 2087
3566 2567 2566
3554 2574 3062
3513 2602 3508
3468 2652 3860
3504 3071 1476
3507 3073 1514
3516 3075 1615
3534 3076 1811
3560 3075 2121
3580 3072 2564
3585 3071 3071
3581 3073 3580
3564 3086 4038
3631 3532 1820
3625 3536 1843
3613 3545 1909
3599 3557 2043
3587 3570 2268
3583 3580 2608
3583 3583 3070
3583 3583 3583
3583 3583 4095
3807 3989 2209
3797 3994 2230
3773 4005 2283
3735 4023 2373
3691 4044 2530
3646 4067 2776
3607 4085 3125
3585 4094 3585
3581 4095 4095
3273 1512 1109
3301 1489 1229
3343 1458 1455
3371 1445 1747
3371 1467 2068
3343 1526 2386
3302 1612 2679
3265 1713 2939
3240 1823 3168
3309 1572 1126
3338 1550 1242
3382 1519 1463
3414 1502 1756
3417 1520 2084
3388 1576 2410
3344 1659 2709
3303 1757 2975
3276 1865 3207
3394 1719 1164
3423 1699 1269
3473 1667 1482
3516 1642 1775
3526 1649 2116
3498 1696 2462
3447 1774 2780
3397 1868 3059
3362 1970 3300
3518 1962 1221
3547 1945 1310
3605 1912 1502
3659 1882 1793
3684 1875 2151
3667 1903 2531
3616 1965 2887
3551 2052 3193
3499 2148 3450
3655 2291 1297
3683 2278 1365
3739 2251 1530
3802 2221 1804
3847 2202 2169
3852 2207 2585
3814 2244 2996
3749 2310 3357
3683 2394 3649
3780 2687 1415
3801 2679 1464
3846 2663 1593
3906 2641 1826
3965 2619 2169
3999 2607 2599
3989 2617 3065
3939 2653 3499
3876 2712 3859
3889 3123 1608
3900 3121 1641
3926 3116 1730
3967 3107 1908
4019 3095 2192
4064 3082 2593
4080 3077 3077
4068 3084 3575
4028 3110 4024
4003 3576 1891
4005 3578 1912
4011 3581 1970
4024 3585 2093
4045 3587 2304
4074 3586 2626
4093 3584 3075
4095 3582 3582
4093 3584 4093
4095 4031 2240
4095 4034 2259
4095 4042 2304
4095 4054 2384
4095 4069 2532
4095 4082 2768
4095 4092 3116
4095 4095 3582
4095 4095 4095
