Examples/Curves - RGB Skin contrast.3dl
#25pt 3DLUT created by 3D LUT Creator Pro (c) Oleg Sharonov
#Copyright Oleg Sharonov
0 256 512 768 1023
0 0 0
0 0 895
0 0 2141
0 0 3371
0 0 4095
0 847 0
0 847 898
0 846 2145
0 844 3373
0 846 4095
0 2015 0
0 2017 898
0 2017 2146
0 2018 3372
0 2022 4095
0 3270 0
0 3272 898
0 3271 2147
0 3271 3371
0 3274 4095
0 4095 0
0 4095 900
0 4095 2150
0 4095 3373
0 4095 4095
811 0 0
810 0 898
808 0 2145
805 0 3373
806 0 4095
811 848 0
811 849 901
808 848 2149
805 845 3374
806 847 4095
809 2018 0
808 2020 900
806 2021 2150
803 2021 3374
804 2025 4095
806 3273 0
806 3274 900
803 3274 2150
801 3273 3373
801 3276 4095
806 4095 0
805 4095 901
803 4095 2153
800 4095 3375
802 4095 4095
1721 0 0
1722 0 901
1721 0 2149
1720 0 3375
1722 0 4095
1722 849 0
1723 850 903
1723 848 2152
1722 846 3376
1725 848 4095
1722 2021 0
1723 2023 902
1722 2023 2153
1722 2024 3375
1725 2028 4095
1721 3274 0
1722 3276 902
1722 3276 2153
1721 3275 3374
1724 3278 4095
1723 4095 0
1725 4095 904
1724 4095 2156
1723 4095 3375
1726 4095 4095
3029 0 0
3032 0 899
3032 0 2148
3033 0 3373
3038 0 4095
3032 846 0
3035 847 901
3036 845 2151
3037 844 3374
3041 846 4095
3034 2020 0
3036 2023 900
3037 2023 2152
3038 2024 3374
3042 2027 4095
3034 3273 0
3037 3275 900
3038 3274 2153
3039 3274 3372
3043 3277 4095
3038 4095 0
3041 4095 902
3042 4095 2156
3042 4095 3374
3047 4095 4095
4095 0 0
4095 0 899
4095 0 2150
4095 0 3373
4095 0 4095
4095 846 0
4095 847 902
4095 845 2153
4095 844 3374
4095 845 4095
4095 2022 0
4095 2024 901
4095 2025 2154
4095 2025 3374
4095 2029 4095
4095 3274 0
4095 3275 900
4095 3275 2154
4095 3274 3372
4095 3277 4095
4095 4095 0
4095 4095 900
4095 4095 2156
4095 4095 3374
4095 4095 4095
