Examples/Curves - Desaturate Highlights.3dl
#25pt 3DLUT created by 3D LUT Creator Pro (c) Oleg Sharonov
#Copyright Oleg Sharonov
0 43 86 128 171 214 256 299 341 384 427 469 512 555 597 640 682 725 768 810 853 896 938 981 1023 
0 0 0
0 0 177
0 0 341
0 0 512
0 0 683
0 0 850
0 0 1022
0 0 1196
0 0 1362
0 0 1535
0 0 1704
0 0 1877
0 0 2047
0 0 2217
0 0 2388
0 0 2559
0 0 2731
0 0 2900
0 0 3071
0 0 3243
0 0 3413
42 42 3561
152 152 3679
267 267 3788
370 370 3889
0 171 0
0 171 171
0 171 341
0 171 513
0 171 684
0 171 852
0 171 1023
0 171 1196
0 171 1364
0 171 1535
0 171 1705
0 171 1878
0 171 2047
0 171 2218
0 171 2389
0 171 2559
0 171 2729
0 171 2901
0 171 3071
0 171 3243
0 171 3413
78 235 3544
192 312 3662
297 388 3772
396 467 3874
0 339 0
0 341 171
0 339 339
0 341 510
0 341 681
0 341 854
0 341 1025
0 341 1194
0 341 1366
0 341 1537
0 341 1707
0 341 1876
0 341 2049
0 341 2219
0 341 2390
0 341 2560
0 341 2730
0 341 2900
0 341 3070
0 341 3242
36 358 3394
129 403 3521
238 454 3640
336 510 3752
428 572 3855
0 512 0
0 512 171
0 512 341
0 512 512
0 512 682
0 512 852
0 512 1023
0 512 1195
0 512 1366
0 512 1535
0 512 1708
0 512 1877
0 512 2047
0 512 2217
0 512 2388
0 512 2559
0 512 2731
0 512 2900
0 512 3071
26 520 3229
107 543 3364
203 573 3492
297 610 3612
388 653 3725
475 701 3830
0 682 0
0 683 171
0 682 341
0 682 512
0 682 682
0 683 854
0 682 1023
0 683 1194
0 683 1365
0 682 1535
0 683 1707
0 682 1877
0 682 2047
0 682 2217
0 682 2388
0 682 2559
0 683 2731
0 682 2900
45 690 3052
113 703 3195
201 720 3330
287 743 3458
369 771 3579
451 804 3693
532 842 3799
0 853 0
0 853 171
0 853 341
0 853 512
0 853 683
0 852 852
0 853 1023
0 853 1195
0 852 1364
0 853 1535
0 852 1706
0 853 1877
0 853 2047
0 853 2218
0 853 2389
0 853 2559
36 856 2718
81 861 2871
145 868 3018
222 879 3160
297 892 3295
372 910 3423
448 933 3545
523 959 3659
600 990 3766
0 1023 0
0 1024 171
0 1023 341
0 1023 512
0 1023 683
0 1023 852
0 1023 1023
0 1024 1195
0 1024 1365
0 1023 1535
0 1024 1707
0 1023 1877
6 1023 2046
23 1024 2211
48 1025 2374
84 1027 2534
132 1030 2690
195 1034 2841
257 1040 2987
324 1049 3127
391 1061 3261
460 1076 3389
530 1094 3510
602 1116 3625
674 1142 3732
0 1195 0
0 1195 171
0 1195 341
0 1195 512
0 1195 683
3 1194 853
3 1194 1024
6 1195 1195
10 1194 1364
19 1194 1533
29 1194 1702
45 1194 1869
71 1194 2034
100 1194 2197
142 1195 2357
192 1197 2514
245 1199 2667
302 1203 2816
360 1209 2960
422 1216 3099
485 1227 3232
551 1239 3359
617 1254 3479
686 1273 3593
755 1295 3701
29 1363 29
29 1363 198
32 1363 356
32 1363 522
32 1363 689
36 1364 857
39 1364 1026
42 1363 1195
45 1364 1364
61 1363 1531
84 1363 1698
113 1362 1863
152 1363 2027
198 1363 2187
243 1364 2345
293 1365 2500
347 1367 2650
401 1370 2796
458 1375 2938
518 1381 3075
579 1390 3206
643 1400 3332
708 1413 3451
774 1429 3565
842 1448 3672
90 1531 90
94 1531 245
94 1531 388
94 1531 542
97 1531 703
100 1531 867
103 1531 1032
107 1531 1198
113 1532 1365
119 1532 1532
155 1531 1697
198 1530 1861
243 1530 2023
289 1530 2181
337 1531 2337
389 1531 2490
443 1533 2638
499 1536 2783
556 1540 2923
615 1545 3057
675 1552 3187
738 1561 3310
802 1572 3429
866 1586 3541
933 1602 3647
195 1698 195
195 1698 316
195 1698 437
198 1698 577
201 1698 728
203 1698 885
206 1699 1045
212 1699 1207
217 1699 1370
225 1699 1535
230 1700 1700
278 1698 1862
326 1698 2022
376 1697 2180
428 1697 2334
482 1697 2484
537 1698 2631
594 1700 2773
652 1703 2912
712 1708 3044
773 1713 3172
835 1721 3294
899 1730 3411
963 1742 3522
1028 1755 3627
314 1864 314
314 1863 404
316 1864 505
318 1863 629
320 1864 767
322 1864 914
326 1864 1067
330 1864 1223
336 1865 1382
341 1865 1543
347 1865 1704
354 1866 1866
408 1865 2025
462 1864 2182
517 1863 2334
573 1862 2483
631 1863 2628
690 1864 2769
750 1866 2905
811 1869 3036
872 1874 3162
935 1880 3283
998 1888 3398
1063 1898 3508
1127 1909 3612
442 2027 442
443 2027 512
443 2027 593
445 2028 699
448 2028 823
449 2028 958
454 2028 1102
457 2029 1251
462 2029 1403
468 2029 1558
474 2030 1714
481 2031 1872
489 2032 2032
546 2030 2187
605 2028 2338
665 2027 2486
725 2027 2630
787 2027 2769
849 2028 2904
911 2031 3033
974 2034 3158
1038 2039 3277
1102 2045 3390
1167 2054 3498
1232 2064 3600
579 2190 579
579 2190 632
580 2190 698
582 2190 788
584 2190 896
586 2191 1018
590 2191 1150
594 2191 1289
599 2192 1434
603 2192 1582
610 2193 1733
616 2194 1885
624 2195 2040
632 2196 2196
695 2193 2346
758 2192 2493
821 2191 2636
885 2190 2773
950 2190 2907
1015 2192 3034
1080 2194 3157
1145 2197 3274
1211 2202 3385
1277 2209 3491
1343 2218 3591
725 2350 725
725 2350 767
726 2350 820
728 2350 895
730 2350 988
733 2351 1096
735 2352 1215
739 2352 1343
744 2352 1478
750 2353 1618
755 2354 1761
762 2355 1908
770 2356 2056
778 2357 2207
788 2358 2358
855 2356 2504
922 2353 2645
989 2352 2782
1057 2351 2913
1124 2351 3039
1191 2352 3159
1259 2355 3275
1325 2359 3384
1393 2364 3488
1459 2371 3586
884 2508 884
885 2508 917
885 2508 960
887 2509 1022
889 2509 1101
891 2509 1194
895 2510 1300
899 2510 1416
903 2511 1539
908 2511 1669
914 2512 1803
921 2513 1941
928 2515 2083
937 2516 2227
946 2517 2372
957 2519 2519
1028 2516 2659
1098 2513 2794
1169 2512 2924
1239 2511 3048
1308 2511 3167
1377 2512 3280
1446 2515 3387
1514 2519 3489
1581 2525 3585
1055 2663 1055
1055 2663 1081
1057 2664 1115
1058 2664 1166
1060 2664 1232
1063 2664 1312
1066 2665 1404
1069 2665 1507
1074 2666 1618
1079 2667 1736
1085 2668 1861
1092 2669 1989
1099 2671 2122
1108 2672 2258
1117 2674 2396
1127 2675 2536
1138 2677 2677
1212 2674 2811
1286 2671 2940
1358 2669 3062
1430 2668 3179
1501 2669 3290
1571 2670 3396
1639 2673 3495
1708 2677 3589
1236 2815 1236
1237 2815 1257
1238 2816 1285
1239 2816 1326
1241 2816 1381
1244 2817 1449
1247 2817 1528
1251 2818 1618
1255 2819 1716
1260 2820 1822
1266 2821 1935
1273 2822 2053
1281 2823 2176
1289 2825 2302
1298 2827 2432
1308 2829 2564
1319 2831 2698
1331 2833 2833
1407 2830 2961
1482 2827 3082
1556 2825 3197
1629 2824 3306
1700 2824 3410
1770 2826 3507
1839 2829 3599
1428 2965 1428
1429 2965 1445
1429 2965 1467
1431 2965 1501
1433 2966 1546
1435 2966 1603
1438 2967 1670
1442 2967 1747
1446 2968 1833
1451 2969 1927
1458 2971 2028
1464 2972 2135
1472 2974 2247
1480 2975 2363
1489 2977 2482
1499 2979 2605
1510 2982 2731
1522 2985 2858
1535 2987 2987
1613 2983 3107
1689 2980 3220
1763 2978 3328
1836 2977 3429
1907 2978 3525
1977 2980 3614
1629 3111 1629
1629 3111 1642
1630 3111 1661
1632 3111 1688
1633 3112 1726
1636 3112 1773
1639 3113 1829
1643 3114 1895
1647 3115 1969
1653 3116 2051
1658 3117 2140
1665 3119 2235
1673 3120 2335
1681 3122 2440
1690 3125 2549
1700 3127 2662
1711 3129 2778
1723 3132 2896
1736 3136 3017
1749 3139 3139
1827 3134 3250
1904 3131 3356
1978 3130 3455
2050 3129 3548
2121 3130 3635
1838 3253 1838
1839 3253 1849
1840 3253 1864
1841 3253 1887
1843 3254 1918
1846 3255 1957
1849 3255 2004
1852 3256 2060
1857 3257 2123
1862 3259 2193
1868 3260 2270
1875 3261 2354
1882 3263 2443
1891 3265 2536
1900 3268 2634
1910 3270 2736
1921 3273 2841
1933 3276 2949
1946 3280 3060
1959 3283 3173
1974 3287 3287
2052 3283 3390
2128 3280 3487
2201 3278 3578
2272 3278 3663
2057 3392 2057
2058 3392 2066
2059 3392 2078
2060 3392 2097
2062 3393 2122
2064 3393 2154
2068 3394 2194
2072 3395 2240
2076 3396 2294
2081 3398 2353
2087 3399 2420
2094 3401 2492
2101 3403 2569
2110 3405 2651
2119 3408 2738
2129 3410 2828
2140 3413 2923
2152 3416 3020
2166 3420 3120
2179 3424 3222
2194 3428 3326
2210 3433 3433
2287 3428 3527
2361 3426 3614
2433 3424 3696
2285 3526 2285
2286 3526 2293
2287 3527 2303
2288 3527 2318
2290 3527 2338
2293 3528 2365
2296 3529 2398
2300 3530 2436
2305 3531 2481
2310 3533 2531
2316 3534 2587
2323 3536 2648
2331 3538 2715
2339 3540 2786
2349 3543 2861
2359 3546 2940
2370 3549 3023
2382 3552 3109
2396 3556 3198
2410 3560 3289
2425 3564 3382
2442 3569 3477
2459 3574 3574
2534 3570 3659
2606 3568 3737
2524 3656 2524
2525 3656 2530
2526 3656 2538
2527 3657 2550
2529 3657 2567
2532 3658 2588
2535 3659 2615
2539 3660 2647
2543 3661 2683
2549 3663 2725
2555 3664 2772
2562 3666 2823
2570 3668 2879
2579 3671 2940
2588 3673 3004
2599 3676 3072
2611 3680 3143
2623 3683 3217
2637 3687 3295
2652 3691 3374
2667 3696 3456
2684 3700 3540
2702 3706 3625
2722 3711 3711
2794 3708 3786
2775 3781 2775
2775 3781 2779
2776 3781 2786
2778 3781 2796
2780 3782 2809
2782 3783 2826
2786 3783 2848
2790 3785 2874
2795 3786 2903
2800 3787 2938
2807 3789 2976
2814 3791 3018
2822 3793 3065
2831 3796 3115
2841 3798 3168
2852 3801 3225
2864 3805 3285
2878 3808 3348
2892 3812 3414
2907 3817 3481
2924 3821 3551
2942 3826 3622
2961 3831 3695
2981 3837 3769
3003 3843 3843
168 0 0
171 0 171
168 0 337
168 0 509
171 0 680
171 0 857
171 0 1021
171 0 1194
171 0 1367
171 0 1533
171 0 1708
171 0 1876
171 0 2046
171 0 2220
171 0 2387
171 0 2561
171 0 2731
171 0 2900
171 0 3070
171 0 3242
171 0 3412
214 52 3556
293 165 3673
372 278 3783
452 377 3884
171 171 0
171 171 171
171 171 341
171 171 514
168 168 690
165 165 865
161 161 1044
155 155 1228
145 145 1413
129 129 1594
113 113 1779
97 97 1964
78 78 2145
58 58 2323
42 42 2497
32 32 2666
32 32 2831
42 42 2986
68 68 3136
110 110 3278
171 171 3412
243 243 3538
318 318 3657
394 394 3767
472 472 3870
171 341 0
168 341 168
171 341 341
168 341 514
165 341 689
161 339 864
155 339 1042
149 336 1219
139 330 1402
126 324 1585
110 316 1766
94 308 1948
78 297 2127
65 289 2304
55 280 2476
48 276 2645
52 276 2807
68 284 2964
100 302 3113
145 328 3255
209 363 3391
278 408 3518
351 458 3637
423 516 3747
501 577 3852
171 512 0
165 512 165
165 512 339
165 512 512
161 512 685
158 513 860
152 512 1036
142 510 1212
132 509 1391
123 506 1571
110 503 1750
97 499 1926
87 494 2105
78 490 2279
74 486 2450
74 486 2616
87 488 2778
110 493 2932
149 505 3083
201 522 3225
262 546 3360
326 576 3488
394 613 3608
465 656 3721
540 704 3826
171 682 0
161 683 161
161 683 337
161 683 510
161 683 683
155 684 856
152 684 1031
142 683 1205
136 682 1381
126 681 1557
116 680 1733
110 678 1907
103 676 2082
100 675 2253
107 674 2422
116 675 2586
139 677 2746
171 683 2901
214 692 3050
267 705 3191
324 723 3326
384 745 3455
451 773 3576
520 807 3690
590 845 3796
171 853 0
158 854 158
158 854 336
158 854 509
158 854 682
158 854 854
152 854 1026
149 854 1199
142 854 1373
139 853 1545
132 853 1719
132 852 1890
132 852 2061
139 851 2229
152 852 2395
174 853 2557
206 856 2716
243 862 2868
287 869 3016
337 880 3157
393 894 3292
452 912 3421
516 935 3542
582 961 3656
650 992 3763
171 1023 0
158 1025 158
158 1024 336
158 1024 508
158 1024 681
161 1025 853
161 1025 1025
158 1024 1196
158 1024 1367
158 1024 1538
161 1024 1709
168 1023 1877
177 1024 2046
195 1025 2211
217 1025 2374
243 1027 2533
278 1030 2689
318 1035 2839
363 1041 2986
414 1050 3125
468 1062 3259
526 1077 3387
588 1095 3508
652 1118 3623
718 1143 3730
171 1195 0
171 1195 171
171 1195 341
171 1195 512
171 1194 683
174 1194 853
174 1194 1023
177 1194 1194
180 1194 1364
189 1194 1533
198 1194 1701
212 1194 1868
230 1194 2033
255 1194 2196
282 1195 2357
316 1197 2513
354 1200 2667
396 1204 2815
443 1210 2959
494 1217 3098
548 1228 3230
606 1240 3357
666 1255 3478
729 1274 3592
793 1296 3699
198 1364 32
198 1363 198
201 1364 358
201 1364 522
201 1364 690
203 1364 857
206 1364 1026
209 1363 1194
212 1363 1363
225 1363 1531
243 1363 1698
264 1363 1863
289 1363 2026
318 1363 2187
352 1364 2344
389 1365 2499
431 1367 2650
477 1371 2796
526 1376 2938
578 1382 3074
632 1390 3205
691 1402 3331
750 1415 3451
811 1430 3564
875 1449 3671
248 1531 94
248 1531 248
248 1531 389
250 1531 543
250 1531 704
252 1531 867
255 1531 1032
260 1532 1198
262 1531 1365
267 1532 1532
291 1531 1697
320 1531 1861
351 1530 2022
386 1530 2181
425 1531 2337
467 1532 2489
512 1533 2638
560 1536 2782
612 1540 2922
664 1546 3056
721 1553 3186
778 1562 3310
838 1573 3428
899 1587 3541
962 1603 3647
318 1698 198
318 1698 318
318 1698 439
320 1698 578
322 1698 729
324 1698 885
326 1699 1046
330 1699 1208
334 1699 1371
337 1699 1535
343 1700 1700
377 1699 1862
416 1698 2022
457 1697 2180
500 1697 2334
546 1698 2484
595 1699 2631
646 1701 2773
699 1704 2911
754 1708 3044
811 1714 3172
870 1722 3294
931 1731 3411
992 1743 3522
1054 1757 3627
