Examples/Curves CMYK - Saturation.3dl
#25pt 3DLUT created by 3D LUT Creator Pro (c) Oleg Sharonov
#Copyright Oleg Sharonov
#INPUTGAMMA sRGB IEC61966-2.1 v.2.10
#IMAGEPROFILE sRGB IEC61966-2.1 v.2.10
#OUTPUTGAMMA sRGB IEC61966-2.1 v.2.10
0 256 512 768 1023
0 0 0
0 0 953
0 0 2036
0 0 3129
0 0 4095
0 960 0
0 960 953
0 559 2036
0 419 3129
0 385 4095
0 2051 0
0 2051 556
0 2051 2036
0 1687 3129
0 1576 4095
0 3147 0
0 3147 417
0 3147 1675
0 3147 3129
0 3049 4095
0 4095 0
0 4095 383
0 4095 1565
0 4095 3029
0 4095 4095
950 0 0
950 0 953
563 0 2036
423 0 3129
389 0 4095
950 960 0
950 960 953
563 559 2036
423 419 3129
389 385 4095
563 2051 0
563 2051 556
563 2051 2036
423 1687 3129
389 1576 4095
423 3147 0
423 3147 417
423 3147 1675
423 3147 3129
389 3049 4095
389 4095 0
389 4095 383
389 4095 1565
389 4095 3029
389 4095 4095
2025 0 0
2025 0 556
2025 0 2036
1673 0 3129
1565 0 4095
2025 559 0
2025 559 556
2025 559 2036
1673 419 3129
1565 385 4095
2025 2051 0
2025 2051 556
2025 2051 2036
1673 1687 3129
1565 1576 4095
1673 3147 0
1673 3147 417
1673 3147 1675
1673 3147 3129
1565 3049 4095
1565 4095 0
1565 4095 383
1565 4095 1565
1565 4095 3029
1565 4095 4095
3113 0 0
3113 0 417
3113 0 1675
3113 0 3129
3012 0 4095
3113 419 0
3113 419 417
3113 419 1675
3113 419 3129
3012 385 4095
3113 1687 0
3113 1687 417
3113 1687 1675
3113 1687 3129
3012 1576 4095
3113 3147 0
3113 3147 417
3113 3147 1675
3113 3147 3129
3012 3049 4095
3012 4095 0
3012 4095 383
3012 4095 1565
3012 4095 3029
3012 4095 4095
4095 0 0
4095 0 383
4095 0 1565
4095 0 3029
4095 0 4095
4095 385 0
4095 385 383
4095 385 1565
4095 385 3029
4095 385 4095
4095 1576 0
4095 1576 383
4095 1576 1565
4095 1576 3029
4095 1576 4095
4095 3049 0
4095 3049 383
4095 3049 1565
4095 3049 3029
4095 3049 4095
4095 4095 0
4095 4095 383
4095 4095 1565
4095 4095 3029
4095 4095 4095
