Examples/Curves - RGB Skin contrast.3dl
#25pt 3DLUT created by 3D LUT Creator Pro (c) Oleg Sharonov
#Copyright Oleg Sharonov
0 128 256 384 512 640 768 896 1023
0 0 0
0 0 392
0 0 895
0 0 1495
0 0 2141
0 0 2783
0 0 3371
0 0 3856
0 0 4095
0 403 0
0 403 392
0 402 897
0 401 1497
0 399 2143
0 398 2784
0 397 3372
0 396 3856
0 397 4095
0 847 0
0 848 392
0 847 898
0 847 1499
0 846 2145
0 845 2786
0 844 3373
0 844 3855
0 846 4095
0 1393 0
0 1395 391
0 1396 899
0 1396 1500
0 1395 2147
0 1395 2787
0 1395 3373
0 1396 3854
0 1398 4095
0 2015 0
0 2016 390
0 2017 898
0 2017 1500
0 2017 2146
0 2017 2787
0 2018 3372
0 2019 3853
0 2022 4095
0 2658 0
0 2659 389
0 2660 898
0 2661 1500
0 2660 2147
0 2660 2787
0 2661 3372
0 2662 3852
0 2664 4095
0 3270 0
0 3272 387
0 3272 898
0 3272 1501
0 3271 2147
0 3271 2787
0 3271 3371
0 3272 3850
0 3274 4095
0 3800 0
0 3801 387
0 3800 898
0 3799 1501
0 3798 2148
0 3797 2788
0 3796 3371
0 3796 3849
0 3798 4095
0 4095 0
0 4095 389
0 4095 900
0 4095 1503
0 4095 2150
0 4095 2790
0 4095 3373
0 4095 3850
0 4095 4095
396 0 0
396 0 392
395 0 897
394 0 1498
392 0 2143
391 0 2784
389 0 3372
389 0 3856
390 0 4095
396 403 0
396 403 392
395 402 899
394 401 1499
392 400 2145
391 398 2786
389 397 3373
389 396 3856
390 397 4095
396 848 0
396 848 392
395 848 899
394 847 1501
392 846 2147
390 845 2787
389 845 3374
389 845 3855
390 846 4095
395 1395 0
395 1396 391
394 1397 900
393 1397 1502
391 1397 2148
389 1396 2789
388 1397 3374
388 1397 3854
389 1399 4095
393 2016 0
393 2018 390
393 2019 899
391 2019 1502
389 2019 2148
388 2019 2788
387 2020 3373
386 2021 3853
387 2023 4095
392 2659 0
392 2661 389
391 2662 899
390 2662 1502
388 2662 2148
386 2662 2788
385 2662 3373
385 2664 3852
386 2666 4095
390 3272 0
390 3273 388
389 3273 899
388 3273 1502
386 3273 2149
385 3272 2788
384 3272 3372
383 3273 3850
385 3275 4095
389 3801 0
389 3801 387
389 3801 899
387 3800 1503
386 3799 2149
384 3798 2789
383 3797 3372
382 3797 3849
384 3798 4095
391 4095 0
391 4095 389
389 4095 901
388 4095 1505
386 4095 2152
385 4095 2791
383 4095 3374
384 4095 3850
385 4095 4095
811 0 0
811 0 392
810 0 898
809 0 1499
808 0 2145
806 0 2785
805 0 3373
805 0 3855
806 0 4095
811 403 0
811 403 392
811 402 900
810 401 1502
809 400 2148
807 398 2789
805 397 3373
805 396 3855
806 397 4095
811 848 0
811 849 392
811 849 901
810 849 1503
808 848 2149
807 847 2790
805 845 3374
805 845 3855
806 847 4095
811 1396 0
811 1398 392
810 1398 901
809 1398 1504
807 1398 2150
806 1398 2790
805 1398 3375
804 1399 3855
806 1401 4095
809 2018 0
809 2019 390
808 2020 900
808 2021 1504
806 2021 2150
805 2021 2790
803 2021 3374
803 2022 3853
804 2025 4095
808 2661 0
808 2663 389
807 2663 900
806 2664 1504
805 2664 2150
803 2664 2790
802 2664 3373
802 2665 3851
803 2668 4095
806 3273 0
807 3274 388
806 3274 900
805 3274 1504
803 3274 2150
802 3273 2790
801 3273 3373
800 3274 3850
801 3276 4095
806 3801 0
806 3802 387
805 3801 900
804 3800 1504
803 3799 2151
801 3798 2790
800 3797 3373
800 3797 3849
801 3798 4095
806 4095 0
806 4095 388
805 4095 901
804 4095 1506
803 4095 2153
801 4095 2792
800 4095 3375
800 4095 3850
802 4095 4095
1242 0 0
1242 0 392
1242 0 899
1241 0 1501
1239 0 2147
1238 0 2787
1237 0 3374
1237 0 3855
1238 0 4095
1242 403 0
1242 403 393
1242 402 901
1240 401 1502
1239 399 2148
1239 398 2790
1237 397 3374
1237 396 3855
1238 397 4095
1242 848 0
1242 849 393
1242 849 901
1241 849 1505
1239 847 2150
1238 847 2791
1237 846 3375
1237 846 3855
1238 848 4095
1242 1398 0
1242 1399 392
1241 1400 902
1240 1399 1505
1239 1399 2151
1237 1399 2791
1236 1399 3376
1236 1400 3855
1237 1402 4095
1240 2019 0
1241 2021 391
1240 2022 901
1239 2022 1505
1238 2022 2151
1236 2022 2791
1235 2023 3375
1235 2024 3853
1236 2026 4095
1239 2662 0
1239 2664 389
1239 2665 901
1238 2665 1505
1236 2665 2151
1235 2665 2791
1234 2665 3374
1233 2666 3851
1235 2669 4095
1238 3274 0
1238 3275 388
1237 3275 901
1236 3275 1505
1235 3275 2152
1233 3274 2791
1232 3274 3374
1232 3275 3850
1233 3277 4095
1237 3801 0
1237 3802 388
1237 3801 901
1236 3801 1506
1234 3799 2153
1233 3798 2792
1232 3797 3374
1232 3797 3849
1233 3799 4095
1238 4095 0
1238 4095 388
1237 4095 902
1236 4095 1508
1235 4095 2155
1233 4095 2794
1233 4095 3375
1232 4095 3850
1234 4095 4095
1721 0 0
1722 0 392
1722 0 901
1722 0 1503
1721 0 2149
1720 0 2789
1720 0 3375
1721 0 3855
1722 0 4095
1721 402 0
1723 402 392
1723 402 902
1722 401 1504
1722 399 2150
1721 398 2790
1721 396 3375
1722 396 3855
1724 398 4095
1722 849 0
1723 850 392
1723 850 903
1723 849 1505
1723 848 2152
1722 847 2792
1722 846 3376
1723 847 3855
1725 848 4095
1722 1398 0
1723 1400 392
1724 1400 902
1723 1400 1506
1723 1400 2152
1722 1400 2792
1722 1400 3376
1723 1401 3854
1725 1403 4095
1722 2021 0
1723 2022 390
1723 2023 902
1723 2023 1506
1722 2023 2153
1722 2023 2792
1722 2024 3375
1722 2025 3852
1725 2028 4095
1721 2663 0
1722 2665 389
1723 2666 902
1722 2666 1506
1722 2666 2153
1721 2666 2792
1721 2666 3374
1722 2667 3851
1724 2670 4095
1721 3274 0
1722 3276 388
1722 3276 902
1722 3276 1506
1722 3276 2153
1721 3275 2792
1721 3275 3374
1722 3276 3849
1724 3278 4095
1721 3801 0
1722 3802 387
1723 3801 902
1722 3800 1507
1722 3799 2154
1721 3798 2793
1721 3797 3374
1722 3797 3848
1724 3798 4095
1723 4095 0
1724 4095 387
1725 4095 904
1724 4095 1510
1724 4095 2156
1724 4095 2795
1723 4095 3375
1723 4095 3849
1726 4095 4095
2345 0 0
2346 0 391
2347 0 900
2348 0 1503
2348 0 2149
2348 0 2789
2349 0 3374
2351 0 3854
2353 0 4095
2346 401 0
2348 401 391
2349 400 901
2350 399 1504
2350 398 2150
2350 396 2790
2351 395 3375
2352 395 3854
2355 396 4095
2348 848 0
2350 849 391
2351 848 902
2351 848 1505
2351 847 2151
2352 846 2791
2353 845 3375
2354 846 3853
2357 847 4095
2349 1398 0
2350 1399 390
2352 1400 902
2353 1400 1506
2353 1400 2152
2353 1399 2792
2354 1399 3375
2355 1400 3852
2358 1402 4095
2349 2021 0
2351 2022 389
2352 2023 902
2353 2024 1506
2353 2023 2153
2353 2024 2792
2354 2024 3375
2355 2025 3851
2358 2028 4095
2349 2663 0
2351 2665 388
2352 2666 901
2353 2666 1506
2353 2666 2153
2353 2666 2792
2354 2666 3374
2355 2667 3849
2358 2670 4095
2350 3274 0
2352 3275 387
2353 3276 901
2353 3276 1506
2354 3275 2153
2354 3275 2792
2355 3275 3373
2356 3275 3848
2359 3277 4095
2351 3800 0
2353 3801 386
2354 3800 901
2354 3799 1507
2355 3798 2154
2355 3797 2793
2356 3796 3373
2357 3796 3847
2360 3797 4095
2354 4095 0
2356 4095 388
2356 4095 903
2357 4095 1509
2357 4095 2156
2357 4095 2795
2358 4095 3375
2360 4095 3848
2363 4095 4095
3029 0 0
3031 0 389
3032 0 899
3032 0 1502
3032 0 2148
3033 0 2788
3033 0 3373
3035 0 3852
3038 0 4095
3030 399 0
3032 399 389
3033 399 900
3034 397 1503
3034 396 2150
3034 394 2790
3035 393 3374
3037 393 3852
3040 394 4095
3032 846 0
3034 847 389
3035 847 901
3035 846 1505
3036 845 2151
3036 844 2791
3037 844 3374
3038 844 3851
3041 846 4095
3033 1398 0
3035 1399 389
3036 1399 902
3037 1399 1506
3037 1399 2152
3037 1399 2792
3038 1399 3374
3039 1400 3851
3042 1402 4095
3034 2020 0
3035 2022 387
3036 2023 900
3037 2023 1506
3037 2023 2152
3037 2023 2791
3038 2024 3374
3040 2025 3849
3042 2027 4095
3034 2663 0
3036 2665 386
3037 2666 901
3037 2666 1506
3038 2666 2152
3038 2666 2791
3038 2666 3373
3040 2667 3847
3043 2670 4095
3034 3273 0
3036 3275 385
3037 3275 900
3038 3275 1506
3038 3274 2153
3038 3274 2791
3039 3274 3372
3040 3274 3846
3043 3277 4095
3035 3799 0
3037 3799 385
3038 3799 901
3039 3798 1507
3039 3796 2154
3039 3795 2792
3040 3794 3372
3041 3794 3845
3044 3796 4095
3038 4095 0
3040 4095 387
3041 4095 902
3041 4095 1508
3042 4095 2156
3042 4095 2794
3042 4095 3374
3044 4095 3846
3047 4095 4095
3667 0 0
3668 0 388
3669 0 899
3668 0 1502
3668 0 2149
3667 0 2788
3667 0 3372
3668 0 3850
3670 0 4095
3668 398 0
3669 398 388
3670 397 900
3669 396 1504
3669 394 2150
3668 393 2790
3669 392 3373
3669 391 3850
3671 393 4095
3669 846 0
3670 847 388
3671 847 901
3670 846 1505
3670 845 2152
3669 844 2791
3669 843 3374
3670 844 3850
3672 845 4095
3669 1397 0
3670 1399 387
3671 1399 901
3670 1399 1506
3670 1399 2152
3669 1399 2792
3669 1399 3374
3670 1400 3849
3672 1402 4095
3669 2020 0
3670 2022 386
3670 2023 901
3670 2023 1506
3670 2023 2153
3669 2023 2791
3669 2024 3373
3670 2025 3847
3672 2028 4095
3668 2663 0
3669 2665 385
3670 2666 900
3670 2666 1506
3669 2666 2153
3669 2666 2791
3668 2666 3372
3669 2667 3846
3671 2670 4095
3668 3273 0
3669 3274 384
3670 3275 900
3669 3274 1506
3669 3274 2153
3668 3273 2791
3668 3273 3372
3669 3274 3844
3671 3276 4095
3668 3797 0
3669 3798 383
3670 3798 900
3670 3796 1507
3669 3795 2154
3669 3794 2792
3668 3793 3372
3669 3793 3843
3671 3794 4095
3670 4095 0
3671 4095 381
3672 4095 904
3671 4095 1510
3671 4095 2157
3670 4095 2795
3671 4095 3374
3671 4095 3844
3673 4095 4095
4095 0 0
4095 0 388
4095 0 899
4095 0 1503
4095 0 2150
4095 0 2789
4095 0 3373
4095 0 3850
4095 0 4095
4095 397 0
4095 397 388
4095 398 901
4095 397 1505
4095 395 2152
4095 394 2791
4095 390 3374
4095 391 3850
4095 392 4095
4095 846 0
4095 846 388
4095 847 902
4095 846 1506
4095 845 2153
4095 844 2792
4095 844 3374
4095 843 3849
4095 845 4095
4095 1398 0
4095 1400 388
4095 1400 902
4095 1400 1507
4095 1400 2154
4095 1400 2793
4095 1400 3374
4095 1401 3848
4095 1403 4095
4095 2022 0
4095 2023 386
4095 2024 901
4095 2025 1507
4095 2025 2154
4095 2025 2793
4095 2025 3374
4095 2026 3847
4095 2029 4095
4095 2664 0
4095 2666 385
4095 2667 900
4095 2667 1506
4095 2667 2154
4095 2667 2792
4095 2667 3373
4095 2669 3845
4095 2671 4095
4095 3274 0
4095 3275 384
4095 3275 900
4095 3275 1507
4095 3275 2154
4095 3274 2792
4095 3274 3372
4095 3275 3844
4095 3277 4095
4095 3798 0
4095 3798 384
4095 3798 900
4095 3797 1507
4095 3795 2155
4095 3794 2793
4095 3793 3372
4095 3793 3843
4095 3795 4095
4095 4095 0
4095 4095 383
4095 4095 900
4095 4095 1508
4095 4095 2156
4095 4095 2794
4095 4095 3374
4095 4095 3844
4095 4095 4095
