Examples/Curves Masks - Twist skintone.3dl
#25pt 3DLUT created by 3D LUT Creator Pro (c) Oleg Sharonov
#Copyright Oleg Sharonov
#INPUTGAMMA sRGB IEC61966-2.1 v.2.10
#IMAGEPROFILE sRGB IEC61966-2.1 v.2.10
#OUTPUTGAMMA sRGB IEC61966-2.1 v.2.10
0 128 256 384 512 640 768 896 1023
0 0 0
0 0 512
0 0 1024
0 0 1536
0 0 2048
0 0 2559
0 0 3071
0 0 3583
0 0 4095
0 512 0
0 512 512
0 512 1024
0 512 1536
0 512 2048
0 512 2559
0 512 3071
0 512 3583
0 512 4095
0 1024 0
0 1024 512
0 1024 1024
0 1024 1536
0 1024 2048
0 1024 2559
0 1024 3071
0 1024 3583
0 1024 4095
0 1536 0
0 1536 512
0 1536 1024
0 1536 1536
0 1536 2048
0 1536 2559
0 1536 3071
0 1536 3583
0 1536 4095
0 2048 0
0 2048 512
0 2048 1024
0 2048 1536
0 2048 2048
0 2048 2559
0 2048 3071
0 2048 3583
0 2048 4095
0 2559 0
0 2559 512
0 2559 1024
0 2559 1536
0 2559 2048
0 2559 2559
0 2559 3071
0 2559 3583
0 2559 4095
0 3071 0
0 3071 512
0 3071 1024
0 3071 1536
0 3071 2048
0 3071 2559
0 3071 3071
0 3071 3583
0 3071 4095
0 3583 0
0 3583 512
0 3583 1024
0 3583 1536
0 3583 2048
0 3583 2559
0 3583 3071
0 3583 3583
0 3583 4095
0 4095 0
0 4095 512
0 4095 1024
0 4095 1536
0 4095 2048
0 4095 2559
0 4095 3071
0 4095 3583
0 4095 4095
512 4 0
512 0 512
512 0 1024
512 0 1536
512 0 2048
512 0 2559
512 0 3071
512 0 3583
512 0 4095
512 407 0
512 447 512
512 512 1024
512 512 1536
512 512 2048
512 512 2559
512 512 3071
512 512 3583
512 512 4095
512 978 0
512 978 512
512 1024 1024
512 1024 1536
512 1024 2048
512 1024 2559
512 1024 3071
512 1024 3583
512 1024 4095
512 1536 0
512 1536 512
512 1536 1024
512 1536 1536
512 1536 2048
512 1536 2559
512 1536 3071
512 1536 3583
512 1536 4095
512 2048 0
512 2048 512
512 2048 1024
512 2048 1536
512 2048 2048
512 2048 2559
512 2048 3071
512 2048 3583
512 2048 4095
512 2559 0
512 2559 512
512 2559 1024
512 2559 1536
512 2559 2048
512 2559 2559
512 2559 3071
512 2559 3583
512 2559 4095
512 3071 0
512 3071 512
512 3071 1024
512 3071 1536
512 3071 2048
512 3071 2559
512 3071 3071
512 3071 3583
512 3071 4095
512 3583 0
512 3583 512
512 3583 1024
512 3583 1536
512 3583 2048
512 3583 2559
512 3583 3071
512 3583 3583
512 3583 4095
512 4095 0
512 4095 512
512 4095 1024
512 4095 1536
512 4095 2048
512 4095 2559
512 4095 3071
512 4095 3583
512 4095 4095
1024 8 0
1024 0 512
1024 0 1024
1024 0 1536
1024 0 2048
1024 0 2559
1024 0 3071
1024 0 3583
1024 0 4095
1024 385 0
1024 386 465
1024 447 1024
1024 490 1536
1024 512 2048
1024 512 2559
1024 512 3071
1024 512 3583
1024 512 4095
1024 855 0
1024 855 512
1024 918 1024
1024 989 1536
1024 1024 2048
1024 1024 2559
1024 1024 3071
1024 1024 3583
1024 1024 4095
1023 1459 0
1024 1459 512
1024 1459 1024
1024 1507 1536
1024 1536 2048
1024 1536 2559
1024 1536 3071
1024 1536 3583
1024 1536 4095
1024 2045 0
1024 2045 512
1024 2045 1024
1024 2046 1536
1024 2048 2048
1024 2048 2559
1024 2048 3071
1024 2048 3583
1024 2048 4095
1024 2572 0
1024 2572 512
1024 2572 1024
1024 2572 1536
1024 2559 2048
1024 2559 2559
1024 2559 3071
1024 2559 3583
1024 2559 4095
1024 3071 0
1024 3071 512
1024 3071 1024
1024 3071 1536
1024 3071 2048
1024 3071 2559
1024 3071 3071
1024 3071 3583
1024 3071 4095
1024 3583 0
1024 3583 512
1024 3583 1024
1024 3583 1536
1024 3583 2048
1024 3583 2559
1024 3583 3071
1024 3583 3583
1024 3583 4095
1024 4095 0
1024 4095 512
1024 4095 1024
1024 4095 1536
1024 4095 2048
1024 4095 2559
1024 4095 3071
1024 4095 3583
1024 4095 4095
1536 12 0
1536 0 512
1536 0 1024
1535 0 1536
1536 0 2047
1536 0 2559
1536 0 3071
1536 0 3583
1536 0 4095
1536 409 0
1536 390 418
1536 403 1024
1536 447 1535
1536 479 2047
1536 499 2559
1536 512 3071
1536 512 3583
1536 512 4095
1536 803 0
1536 817 382
1536 852 984
1536 918 1536
1536 971 2047
1536 1003 2559
1536 1024 3071
1536 1024 3583
1536 1024 4095
1536 1400 0
1536 1400 512
1536 1400 1024
1536 1451 1536
1536 1493 2047
1536 1519 2559
1536 1536 3071
1536 1536 3583
1536 1536 4095
1535 2042 0
1536 2042 512
1535 2042 1024
1535 2043 1536
1535 2045 2047
1536 2046 2559
1536 2048 3071
1536 2048 3583
1536 2048 4095
1535 2621 0
1536 2621 512
1536 2621 1024
1536 2621 1535
1536 2602 2048
1536 2577 2559
1536 2559 3071
1536 2559 3583
1536 2559 4095
1536 3132 0
1536 3132 512
1536 3132 1024
1536 3132 1536
1536 3132 2047
1536 3100 2559
1536 3071 3071
1536 3071 3583
1536 3071 4095
1536 3609 0
1536 3609 512
1536 3609 1024
1536 3609 1536
1536 3609 2047
1536 3606 2559
1536 3583 3071
1536 3583 3583
1536 3583 4095
1536 4095 0
1536 4095 512
1536 4095 1024
1536 4095 1536
1536 4095 2047
1536 4095 2559
1536 4095 3071
1536 4095 3583
1536 4095 4095
2047 16 0
2047 0 511
2047 0 1024
2047 0 1536
2047 0 2047
2047 0 2559
2048 0 3071
2048 0 3583
2048 0 4095
2047 427 0
2047 395 371
2047 381 1024
2047 414 1535
2047 447 2047
2048 473 2559
2048 490 3071
2048 503 3583
2048 512 4095
2047 821 0
2047 844 191
2047 823 929
2047 866 1536
2047 918 2047
2048 960 2559
2048 989 3071
2047 1009 3583
2048 1024 4095
2047 1358 0
2047 1358 421
2047 1376 897
2047 1414 1500
2047 1451 2047
2047 1485 2559
2048 1507 3071
2048 1524 3583
2048 1536 4095
2047 2040 0
2047 2040 511
2047 2040 1024
2047 2040 1535
2047 2043 2047
2047 2044 2559
2048 2046 3071
2048 2047 3583
2048 2048 4095
2047 2667 0
2047 2667 511
2047 2667 1024
2047 2667 1535
2047 2646 2048
2047 2611 2559
2047 2588 3071
2047 2572 3583
2048 2559 4095
2047 3199 0
2047 3199 512
2047 3199 1024
2047 3199 1535
2047 3199 2047
2047 3156 2559
2047 3118 3071
2047 3091 3583
2048 3071 4095
2047 3656 0
2048 3656 512
2048 3656 1024
2048 3656 1536
2048 3656 2047
2048 3652 2559
2048 3621 3071
2047 3599 3583
2048 3583 4095
2047 4095 0
2048 4095 512
2048 4095 1024
2048 4095 1536
2048 4095 2047
2048 4095 2559
2048 4095 3071
2048 4095 3583
2048 4095 4095
2559 20 0
2559 1 511
2559 0 1023
2559 0 1536
2559 0 2049
2559 0 2559
2559 0 3071
2559 0 3583
2560 0 4095
2559 432 0
2559 400 324
2559 381 1023
2559 394 1535
2559 420 2047
2559 447 2559
2560 469 3071
2559 484 3583
2559 496 4095
2559 849 0
2559 867 39
2559 828 882
2559 834 1535
2559 876 2048
2559 918 2559
2559 954 3071
2559 979 3583
2559 997 4095
2559 1347 0
2559 1378 252
2559 1408 702
2559 1396 1450
2559 1418 2048
2559 1451 2559
2559 1479 3071
2560 1499 3583
2560 1514 4095
2559 2025 0
2559 2024 423
2559 2024 935
2559 2043 1418
2559 2046 2015
2559 2042 2559
2559 2044 3071
2559 2045 3583
2560 2046 4095
2559 2697 0
2559 2697 511
2559 2697 1024
2559 2697 1536
2559 2680 2047
2559 2646 2559
2559 2617 3071
2559 2596 3583
2560 2581 4095
2559 3258 0
2559 3258 511
2559 3258 1024
2559 3258 1536
2559 3258 2047
2559 3213 2560
2559 3165 3071
2559 3132 3583
2559 3106 4095
2559 3702 0
2559 3702 512
2560 3702 1023
2559 3702 1536
2559 3702 2047
2559 3698 2559
2559 3659 3071
2559 3632 3583
2559 3612 4095
2559 4095 0
2559 4095 512
2560 4095 1024
2559 4095 1536
2559 4095 2047
2559 4095 2559
2559 4095 3071
2559 4095 3583
2559 4095 4095
3071 24 0
3071 1 511
3071 0 1023
3071 0 1536
3071 0 2048
3071 1 2561
3071 0 3071
3071 0 3583
3071 0 4095
3071 436 0
3071 405 276
3071 381 1023
3071 380 1535
3071 402 2047
3071 425 2559
3071 447 3071
3071 466 3583
3071 480 4095
3071 877 0
3071 873 0
3071 833 835
3071 812 1535
3071 848 2047
3071 883 2559
3071 918 3071
3071 949 3583
3071 971 4095
3071 1384 0
3071 1415 61
3071 1438 549
3071 1388 1394
3071 1395 2047
3071 1423 2560
3071 1451 3071
3071 1475 3583
3071 1493 4095
3071 2010 0
3071 2015 313
3071 2050 764
3071 2084 1213
3071 2051 1969
3071 2041 2559
3071 2042 3071
3071 2043 3583
3071 2045 4095
3071 2705 0
3071 2705 425
3071 2705 938
3071 2705 1451
3071 2707 1939
3071 2679 2528
3071 2646 3071
3071 2621 3583
3071 2602 4095
3071 3297 0
3071 3297 511
3071 3297 1024
3071 3297 1536
3071 3297 2048
3071 3260 2559
3071 3213 3071
3071 3172 3583
3071 3142 4095
3071 3740 0
3071 3740 511
3071 3740 1023
3070 3740 1536
3071 3740 2047
3072 3736 2559
3071 3698 3071
3071 3665 3583
3071 3640 4095
3070 4095 0
3071 4095 511
3072 4095 1023
3070 4095 1536
3071 4095 2047
3070 4095 2558
3071 4095 3071
3071 4095 3583
3071 4095 4095
3583 28 0
3583 1 510
3583 1 1023
3583 0 1535
3583 0 2048
3583 0 2561
3583 1 3073
3583 0 3583
3583 0 4095
3583 441 0
3583 409 229
3583 381 1023
3583 381 1535
3583 389 2047
3583 409 2559
3583 428 3072
3583 447 3583
3583 464 4095
3583 906 0
3583 878 0
3583 839 789
3583 811 1535
3583 828 2048
3583 858 2559
3583 887 3071
3583 918 3583
3583 945 4095
3583 1421 0
3583 1453 0
3583 1446 502
3583 1395 1347
3583 1379 2047
3583 1403 2559
3583 1427 3072
3583 1451 3583
3583 1472 4095
3583 2023 0
3583 2056 122
3583 2092 572
3583 2116 1061
3583 2060 1915
3583 2040 2559
3583 2042 3071
3583 2042 3583
3583 2043 4095
3583 2704 0
3583 2703 323
3583 2711 826
3583 2743 1275
3583 2760 1748
3583 2706 2485
3583 2670 3071
3583 2645 3583
3583 2623 4095
3583 3315 0
3583 3316 427
3583 3316 940
3583 3315 1451
3583 3315 1964
3583 3297 2457
3583 3257 3041
3583 3213 3583
3582 3177 4095
3583 3766 0
3583 3766 512
3583 3766 1023
3583 3766 1535
3583 3766 2049
3583 3763 2559
3583 3730 3072
3583 3698 3583
3583 3669 4095
3582 4095 1
3583 4095 511
3583 4095 1023
3583 4095 1535
3582 4095 2048
3583 4095 2559
3584 4095 3071
3583 4095 3583
3583 4095 4095
4095 32 0
4095 5 467
4095 1 1023
4095 0 1535
4095 0 2047
4095 0 2560
4095 1 3073
4095 1 3585
4095 0 4095
4095 445 0
4095 414 181
4095 381 1023
4095 381 1535
4095 380 2047
4095 397 2559
4095 414 3071
4095 430 3584
4094 447 4095
4095 923 0
4095 884 0
4095 844 742
4095 811 1535
4095 812 2047
4095 839 2560
4095 865 3071
4095 891 3583
4095 918 4095
4095 1459 0
4095 1492 0
4095 1453 456
4095 1401 1300
4095 1366 2047
4095 1387 2559
4095 1409 3071
4095 1430 3583
4095 1451 4094
4095 2064 0
4095 2098 0
4095 2133 381
4095 2125 1014
4095 2070 1858
4095 2040 2559
4095 2042 3072
4095 2042 3584
4094 2042 4095
4095 2691 0
4095 2716 183
4095 2750 634
4095 2782 1084
4095 2806 1571
4095 2729 2435
4095 2689 3071
4095 2667 3583
4095 2645 4095
4095 3325 0
4095 3325 329
4095 3325 842
4095 3328 1341
4095 3356 1795
4095 3349 2277
4095 3292 3001
4095 3247 3583
4095 3212 4094
4095 3780 0
4095 3780 429
4095 3780 940
4095 3780 1453
4095 3780 1965
4095 3776 2478
4095 3757 2974
4095 3729 3553
4095 3698 4095
4095 4095 0
4095 4095 512
4095 4095 1022
4095 4095 1536
4095 4095 2047
4095 4095 2560
4095 4095 3071
4095 4095 3584
4095 4095 4095
