Examples/Curves - Clean neutrals.3dl
#25pt 3DLUT created by 3D LUT Creator Pro (c) Oleg Sharonov
#Copyright Oleg Sharonov
0 43 86 128 171 214 256 299 341 384 427 469 512 555 597 640 682 725 768 810 853 896 938 981 1023 
0 0 0
0 0 158
3 3 314
6 6 478
10 10 641
16 16 800
23 23 964
32 32 1129
42 42 1288
52 52 1452
65 65 1614
81 81 1779
97 97 1940
113 113 2103
132 132 2266
155 155 2428
180 180 2593
203 203 2754
225 225 2917
250 250 3080
273 273 3242
295 295 3405
320 320 3568
343 343 3730
367 367 3893
3 171 3
3 171 171
3 171 337
6 171 504
13 174 666
16 177 827
23 180 988
32 189 1151
42 195 1309
52 203 1471
65 214 1632
81 228 1794
97 240 1955
116 252 2116
136 267 2278
158 282 2440
180 297 2601
203 314 2764
228 332 2926
250 349 3089
273 367 3250
297 386 3413
320 404 3575
343 423 3737
367 443 3899
3 339 3
3 339 171
3 339 339
6 339 508
13 339 673
16 343 840
26 345 1003
32 347 1163
42 351 1326
55 356 1488
68 362 1648
81 369 1808
100 377 1971
116 386 2131
139 396 2292
158 406 2453
183 417 2614
206 430 2774
228 442 2936
252 457 3098
276 470 3259
297 485 3421
322 500 3583
345 516 3745
369 532 3907
6 510 6
6 510 174
6 510 341
6 510 510
13 510 679
16 510 845
26 512 1010
32 513 1175
45 514 1339
55 517 1500
68 521 1663
84 525 1824
100 530 1984
119 535 2145
139 542 2306
161 550 2467
183 558 2629
206 566 2789
230 576 2950
255 586 3112
278 597 3272
299 609 3434
324 620 3595
347 633 3757
370 646 3918
13 681 13
13 681 180
13 681 345
13 681 513
13 681 681
19 682 850
26 681 1016
36 682 1183
45 683 1348
55 683 1510
71 686 1675
84 688 1837
103 691 1998
119 695 2160
142 698 2321
165 704 2482
186 710 2644
209 715 2804
233 723 2965
257 731 3127
280 739 3287
302 747 3448
326 757 3609
349 766 3770
372 777 3931
19 852 19
19 852 186
19 852 349
19 852 516
19 852 683
19 852 852
26 852 1020
36 852 1188
45 852 1353
58 852 1519
71 853 1683
87 855 1847
103 856 2010
123 859 2173
142 861 2335
165 865 2497
189 868 2659
212 873 2820
235 878 2981
257 884 3143
282 890 3303
304 896 3464
328 904 3625
351 912 3786
374 919 3947
26 1022 26
26 1022 192
26 1022 352
26 1022 518
26 1022 686
26 1022 853
26 1022 1022
36 1022 1190
45 1022 1358
58 1022 1524
71 1023 1691
87 1023 1855
103 1024 2019
123 1025 2183
145 1027 2347
168 1029 2509
192 1032 2672
214 1035 2833
238 1038 2995
260 1043 3157
284 1047 3318
306 1052 3479
330 1058 3640
352 1064 3801
376 1070 3962
36 1193 36
36 1193 201
36 1193 358
36 1193 522
36 1193 688
36 1193 855
36 1193 1024
36 1193 1193
45 1193 1361
58 1193 1529
71 1193 1696
87 1193 1862
107 1194 2027
126 1194 2192
145 1195 2356
168 1196 2520
192 1198 2683
217 1200 2846
240 1203 3008
262 1206 3170
287 1209 3332
308 1213 3494
332 1217 3655
354 1222 3817
377 1227 3978
45 1362 45
45 1362 209
45 1362 363
45 1362 526
45 1363 692
45 1363 859
45 1363 1027
45 1363 1195
45 1364 1364
58 1363 1532
71 1363 1699
87 1363 1866
107 1363 2033
126 1364 2199
145 1364 2364
171 1365 2529
195 1366 2693
217 1367 2856
240 1369 3019
264 1371 3182
287 1373 3344
310 1376 3507
334 1379 3669
358 1383 3830
381 1387 3992
58 1533 58
58 1533 220
58 1533 370
58 1533 531
58 1533 695
58 1533 861
58 1533 1028
58 1533 1196
58 1534 1365
58 1534 1534
71 1534 1702
87 1533 1870
107 1533 2037
126 1533 2204
149 1534 2370
171 1534 2535
195 1535 2700
220 1536 2865
243 1537 3029
267 1538 3192
289 1540 3355
312 1542 3518
336 1544 3681
360 1547 3843
383 1550 4005
71 1703 71
71 1703 233
71 1703 379
71 1703 536
71 1703 699
71 1704 865
71 1704 1031
71 1704 1199
71 1704 1367
71 1704 1535
71 1704 1704
87 1704 1872
107 1704 2041
126 1704 2208
149 1704 2374
171 1704 2541
195 1704 2707
220 1705 2872
243 1706 3037
267 1707 3201
291 1708 3365
314 1709 3529
337 1711 3692
360 1713 3855
384 1715 4017
87 1874 87
87 1873 245
87 1874 388
87 1873 542
87 1873 704
87 1874 868
87 1874 1034
87 1874 1201
87 1874 1369
90 1874 1537
90 1875 1706
90 1875 1875
107 1875 2043
126 1874 2211
149 1874 2378
174 1874 2545
198 1874 2712
220 1875 2878
245 1875 3043
269 1875 3208
291 1876 3373
316 1877 3537
339 1878 3701
362 1880 3865
386 1881 4028
107 2044 107
107 2044 257
107 2044 396
107 2044 550
107 2044 710
107 2044 872
107 2044 1038
107 2044 1204
107 2045 1372
107 2045 1539
107 2045 1708
107 2045 1876
107 2045 2045
126 2045 2213
149 2045 2381
174 2045 2549
198 2045 2716
220 2045 2882
245 2045 3049
269 2045 3215
293 2046 3380
316 2046 3545
339 2047 3710
363 2048 3874
386 2049 4038
126 2214 126
126 2214 273
126 2214 408
126 2214 557
126 2214 715
126 2215 877
126 2214 1041
126 2215 1207
126 2215 1374
126 2215 1541
126 2215 1710
126 2215 1878
126 2215 2046
126 2215 2215
149 2215 2384
174 2215 2552
198 2215 2720
222 2215 2886
245 2215 3053
269 2215 3220
293 2216 3386
318 2216 3551
341 2216 3717
365 2217 3881
388 2218 4046
149 2385 149
149 2385 289
149 2385 419
149 2385 565
149 2385 722
149 2385 883
149 2385 1046
149 2385 1211
149 2385 1377
149 2385 1544
149 2385 1712
149 2385 1880
149 2386 2048
149 2386 2217
149 2386 2386
174 2386 2554
198 2385 2723
222 2385 2890
245 2385 3057
271 2385 3224
293 2385 3391
318 2386 3557
341 2386 3723
365 2387 3888
389 2387 4053
174 2555 174
174 2555 304
174 2555 430
174 2555 575
174 2555 729
174 2555 888
174 2555 1050
174 2555 1215
174 2555 1380
174 2556 1547
174 2556 1714
174 2556 1882
174 2556 2050
174 2556 2219
174 2556 2387
174 2556 2556
198 2556 2725
222 2556 2893
248 2556 3061
271 2556 3228
295 2556 3395
318 2556 3562
343 2556 3728
367 2557 3894
389 2557 4060
198 2726 198
198 2725 320
198 2726 443
198 2726 584
198 2726 736
198 2726 894
198 2726 1055
198 2726 1219
198 2726 1384
198 2726 1550
198 2726 1717
198 2726 1884
198 2726 2052
198 2726 2221
198 2727 2389
198 2727 2558
198 2727 2727
222 2727 2895
248 2727 3063
271 2726 3231
295 2726 3399
320 2726 3566
343 2726 3733
367 2726 3899
391 2727 4065
222 2896 222
222 2896 337
222 2896 455
222 2896 594
222 2896 744
222 2896 900
222 2896 1061
222 2896 1223
222 2896 1388
222 2896 1553
222 2896 1720
222 2896 1887
222 2896 2055
222 2897 2223
222 2897 2391
222 2897 2560
222 2897 2729
222 2897 2897
248 2897 3066
271 2897 3234
295 2897 3402
320 2897 3569
343 2897 3736
367 2897 3903
391 2897 4070
248 3066 248
248 3066 356
248 3066 470
248 3066 605
248 3066 752
248 3066 907
248 3066 1067
248 3066 1229
248 3066 1392
248 3066 1557
248 3067 1723
248 3067 1890
248 3067 2057
248 3067 2225
248 3067 2393
248 3067 2561
248 3067 2730
248 3068 2899
248 3068 3068
271 3068 3236
295 3067 3404
320 3067 3572
343 3067 3740
369 3067 3907
393 3067 4074
271 3237 271
271 3236 376
271 3237 485
271 3237 616
271 3237 762
271 3237 914
271 3237 1073
271 3237 1234
271 3237 1396
271 3237 1561
271 3237 1727
271 3237 1893
271 3237 2060
271 3237 2228
271 3237 2395
271 3238 2563
271 3238 2732
271 3238 2900
271 3238 3069
271 3238 3238
295 3238 3406
320 3238 3575
345 3238 3743
369 3237 3910
393 3237 4077
295 3407 295
295 3407 394
295 3407 500
295 3407 628
295 3407 771
295 3407 923
295 3407 1079
295 3407 1239
295 3407 1401
295 3407 1565
295 3407 1730
295 3407 1896
297 3407 2063
297 3408 2230
297 3408 2398
297 3408 2566
297 3408 2734
297 3408 2902
297 3408 3071
297 3408 3240
297 3409 3409
320 3408 3577
345 3408 3745
369 3408 3913
393 3408 4081
320 3577 320
320 3577 414
320 3577 516
320 3577 641
320 3577 782
320 3577 931
320 3577 1086
320 3577 1245
320 3577 1406
320 3577 1570
320 3578 1734
320 3578 1900
320 3578 2066
320 3578 2233
320 3578 2400
320 3578 2568
320 3578 2736
320 3578 2904
320 3579 3073
320 3579 3241
322 3579 3410
322 3579 3579
345 3579 3748
369 3579 3916
393 3579 4084
345 3747 345
345 3748 433
345 3748 531
345 3748 654
345 3748 793
345 3748 940
345 3748 1094
345 3748 1251
345 3748 1412
345 3748 1574
345 3748 1739
345 3748 1903
345 3748 2070
345 3748 2236
345 3748 2403
345 3749 2571
345 3749 2738
345 3749 2906
345 3749 3075
345 3749 3243
345 3749 3412
345 3749 3580
345 3750 3750
370 3749 3918
394 3749 4086
370 3918 370
370 3918 454
370 3918 548
370 3918 668
370 3918 803
370 3918 949
370 3918 1101
370 3918 1258
370 3918 1417
370 3918 1579
370 3918 1743
370 3918 1907
370 3918 2073
370 3918 2239
370 3918 2406
370 3919 2573
370 3919 2741
370 3919 2908
370 3919 3077
370 3919 3245
370 3919 3413
370 3920 3582
370 3920 3751
370 3920 3920
394 3920 4088
394 4088 394
394 4088 474
394 4088 565
394 4088 682
394 4088 815
394 4088 959
394 4088 1109
394 4088 1265
394 4088 1423
394 4089 1585
394 4089 1748
394 4089 1912
394 4089 2077
394 4089 2243
394 4089 2409
394 4089 2576
394 4089 2743
394 4089 2911
394 4089 3079
394 4090 3247
394 4090 3415
394 4090 3584
394 4090 3753
394 4090 3921
394 4090 4090
161 0 0
165 0 165
161 3 328
165 6 489
165 10 650
171 16 817
174 23 971
183 32 1136
192 42 1299
201 52 1457
212 65 1623
225 81 1783
238 97 1944
250 113 2110
264 136 2269
280 155 2434
297 180 2595
314 203 2757
330 225 2919
349 250 3082
367 273 3244
384 295 3407
404 320 3569
423 343 3732
442 367 3894
171 171 3
171 171 171
174 174 318
174 174 485
177 177 649
183 183 811
189 189 974
195 195 1138
203 203 1301
212 212 1460
222 222 1622
235 235 1785
248 248 1947
260 260 2109
273 273 2271
289 289 2433
306 306 2597
322 322 2759
337 337 2921
356 356 3084
374 374 3246
391 391 3408
411 411 3571
430 430 3733
448 448 3896
174 341 3
186 336 186
189 339 339
186 341 503
186 343 667
189 343 829
195 347 993
201 349 1153
209 354 1316
217 360 1479
228 365 1640
238 374 1802
250 381 1963
264 391 2125
278 401 2286
291 411 2447
308 422 2609
324 434 2771
339 448 2933
358 461 3093
376 475 3257
393 489 3418
412 505 3580
430 520 3741
449 536 3905
174 510 6
189 508 189
189 509 345
189 509 509
189 510 674
195 512 841
198 513 1006
206 513 1168
212 516 1332
222 520 1495
230 523 1656
243 527 1817
255 532 1980
267 538 2141
280 546 2302
295 553 2463
310 560 2624
326 570 2784
343 579 2947
360 590 3107
377 601 3268
394 612 3430
414 624 3591
433 636 3753
451 649 3915
180 681 13
192 679 192
192 679 351
192 680 514
192 680 680
198 681 847
201 682 1013
209 682 1178
217 683 1343
225 685 1507
235 687 1670
245 689 1831
257 693 1995
271 696 2156
284 701 2318
297 706 2479
314 712 2640
330 718 2802
345 725 2963
362 733 3123
379 741 3283
398 750 3444
416 759 3606
434 769 3767
454 780 3928
186 852 19
198 850 198
198 850 354
198 850 518
198 851 684
198 852 852
203 851 1018
209 852 1185
217 852 1351
228 852 1515
238 854 1681
248 855 1843
260 857 2006
273 859 2169
287 862 2331
302 865 2493
316 870 2655
332 874 2816
349 880 2977
365 885 3139
383 891 3300
401 898 3461
419 905 3622
437 913 3783
457 921 3944
192 1022 26
203 1021 203
203 1021 360
203 1021 522
203 1021 687
203 1022 854
206 1022 1022
212 1022 1189
220 1022 1356
228 1022 1523
238 1023 1688
250 1023 1852
262 1025 2017
276 1026 2181
289 1028 2344
304 1030 2507
318 1033 2669
334 1036 2830
351 1040 2993
367 1044 3154
384 1049 3315
403 1053 3476
422 1059 3637
440 1066 3798
458 1071 3959
201 1193 36
212 1192 212
212 1192 365
212 1192 526
212 1192 691
212 1192 857
212 1192 1024
212 1193 1193
220 1192 1359
230 1192 1527
240 1192 1694
252 1193 1860
264 1193 2025
278 1194 2190
291 1195 2354
306 1197 2517
322 1199 2681
337 1201 2843
352 1203 3006
370 1207 3168
388 1210 3330
406 1214 3491
423 1218 3653
442 1223 3814
461 1228 3975
209 1363 45
222 1362 222
222 1362 370
222 1362 531
222 1362 695
222 1362 860
222 1363 1027
222 1362 1195
222 1363 1363
230 1363 1531
240 1363 1698
252 1363 1865
264 1363 2031
278 1364 2197
293 1364 2362
308 1365 2526
322 1366 2690
339 1368 2854
356 1369 3017
372 1372 3180
389 1374 3342
408 1377 3505
427 1380 3667
445 1383 3828
464 1388 3990
220 1533 58
230 1533 230
230 1533 377
230 1533 536
230 1533 698
230 1533 863
233 1533 1030
233 1533 1197
233 1533 1365
233 1533 1533
243 1533 1701
255 1533 1869
267 1533 2036
280 1533 2202
293 1534 2368
308 1534 2534
324 1535 2698
341 1536 2863
358 1537 3027
374 1538 3190
391 1540 3354
409 1543 3517
428 1545 3679
446 1548 3842
467 1551 4004
233 1703 71
243 1703 243
243 1703 386
243 1703 541
243 1703 703
243 1703 867
243 1703 1033
243 1703 1200
243 1703 1367
243 1704 1535
243 1704 1704
255 1704 1872
267 1704 2040
280 1704 2207
295 1704 2373
310 1704 2540
326 1704 2705
341 1705 2870
358 1706 3035
376 1707 3199
393 1708 3364
412 1710 3527
430 1711 3690
449 1713 3853
468 1716 4016
