Examples/Curves - Uniform Low Contrast.3dl
#25pt 3DLUT created by 3D LUT Creator Pro (c) Oleg Sharonov
#Copyright Oleg Sharonov
0 128 256 384 512 640 768 896 1023
314 314 314
314 314 459
287 287 779
0 0 1206
0 0 1621
0 0 2085
0 0 2570
0 0 3051
0 0 3512
314 461 314
312 463 463
275 450 797
0 395 1238
0 396 1689
0 416 2168
0 437 2655
0 459 3131
0 486 3582
287 803 287
274 815 462
139 837 837
0 841 1304
0 857 1804
0 878 2315
0 903 2815
0 936 3285
329 1015 3695
0 1321 0
0 1330 445
0 1348 874
0 1375 1375
0 1410 1921
0 1443 2466
0 1474 2983
0 1507 3453
808 1643 3766
0 1924 0
0 1938 493
0 1960 950
0 1988 1464
0 2022 2022
0 2063 2592
0 2096 3123
673 2143 3532
1192 2250 3798
0 2633 0
0 2639 563
0 2649 1052
0 2662 1581
0 2675 2136
0 2693 2693
499 2710 3200
1086 2732 3559
1568 2796 3774
628 3288 628
631 3288 863
636 3287 1264
650 3282 1750
686 3270 2268
788 3252 2777
998 3233 3233
1499 3213 3548
1940 3214 3736
1299 3753 1299
1306 3748 1421
1323 3735 1685
1357 3711 2056
1417 3673 2476
1522 3624 2896
1695 3568 3262
1939 3527 3527
2445 3461 3675
2603 3766 2603
2609 3761 2639
2626 3747 2723
2656 3726 2855
2702 3700 3014
2766 3677 3172
2837 3655 3333
2908 3636 3490
2996 3622 3622
460 314 314
462 312 462
444 276 791
381 0 1220
377 0 1658
376 0 2131
383 0 2615
411 0 3089
467 0 3537
464 464 312
465 465 465
449 449 811
345 345 1281
0 0 1787
0 0 2257
0 0 2738
0 0 3206
180 180 3770
463 816 274
460 828 460
426 846 846
314 839 1351
0 810 1885
0 808 2393
0 818 2886
0 840 3350
599 1034 3801
447 1331 0
406 1362 406
353 1390 871
0 1417 1417
0 1421 1981
0 1431 2529
0 1445 3043
534 1506 3462
938 1669 3832
493 1940 0
320 2006 320
249 2026 907
0 2048 1474
0 2058 2058
0 2078 2637
441 2096 3143
891 2149 3530
1274 2270 3832
563 2641 0
449 2677 449
426 2687 1012
366 2700 1569
265 2710 2146
230 2715 2715
792 2711 3198
1233 2734 3555
1619 2809 3790
865 3289 634
868 3288 868
874 3286 1268
886 3281 1753
916 3268 2270
996 3249 2777
1168 3230 3230
1606 3211 3542
1969 3218 3746
1423 3749 1308
1429 3744 1429
1445 3730 1692
1476 3705 2061
1531 3667 2480
1628 3617 2896
1788 3561 3259
2014 3522 3522
2486 3459 3672
2647 3759 2618
2645 3756 2645
2660 3743 2728
2688 3723 2859
2732 3698 3016
2793 3675 3172
2858 3654 3335
2927 3636 3491
3013 3621 3621
784 287 287
795 275 448
818 154 818
805 0 1257
807 0 1720
821 0 2201
842 0 2683
874 0 3149
919 0 3584
804 454 274
815 452 452
836 418 836
817 290 1324
783 0 1832
777 0 2319
782 0 2799
803 0 3258
933 391 3773
840 840 138
849 849 428
859 859 859
845 845 1380
797 797 1933
739 739 2473
734 734 2963
850 850 3380
1161 1161 4046
878 1354 0
875 1393 357
875 1413 875
849 1432 1432
825 1432 2016
815 1428 2573
877 1450 3066
1049 1532 3468
1291 1756 3980
954 1967 0
911 2030 259
905 2046 905
882 2068 1482
832 2084 2084
894 2088 2655
1039 2106 3145
1276 2164 3526
1496 2329 3908
1056 2656 0
1016 2691 436
1014 2698 1014
1007 2707 1576
996 2713 2151
1009 2716 2716
1237 2714 3194
1534 2740 3544
1751 2838 3834
1271 3290 650
1274 3289 881
1280 3286 1280
1292 3278 1763
1318 3264 2276
1377 3243 2778
1503 3223 3223
1840 3206 3527
2116 3215 3743
1692 3737 1332
1697 3731 1451
1710 3717 1710
1735 3691 2074
1781 3651 2487
1861 3600 2897
1995 3545 3252
2186 3509 3509
2580 3455 3665
2748 3741 2655
2746 3739 2680
2741 3734 2741
2765 3715 2868
2803 3692 3021
2855 3671 3175
2909 3651 3338
2974 3634 3492
3056 3620 3620
1242 0 0
1255 0 405
1277 0 821
1312 0 1312
1318 0 1806
1329 0 2300
1348 0 2781
1374 0 3235
1411 31 3651
1271 414 0
1309 362 362
1338 303 829
1366 0 1366
1348 0 1886
1342 0 2394
1345 0 2877
1360 0 3328
1500 600 3776
1324 856 0
1367 852 328
1388 852 852
1409 827 1409
1394 784 1976
1374 747 2518
1377 775 3001
1437 922 3407
1722 1230 3995
1386 1386 0
1425 1425 85
1437 1437 854
1446 1446 1446
1445 1445 2042
1446 1446 2598
1480 1480 3084
1576 1576 3475
1829 1829 3985
1476 2001 0
1483 2060 0
1487 2073 888
1490 2087 1490
1486 2097 2097
1521 2101 2666
1599 2125 3147
1742 2191 3517
1930 2370 3904
1591 2676 0
1580 2709 400
1583 2713 1015
1587 2717 1587
1592 2719 2161
1611 2718 2718
1742 2718 3186
1936 2750 3524
2104 2848 3809
1762 3289 681
1765 3287 906
1770 3282 1302
1780 3272 1780
1800 3254 2287
1843 3231 2779
1934 3210 3210
2172 3198 3501
2377 3204 3722
2069 3714 1377
2073 3708 1493
2082 3692 1745
2099 3665 2099
2133 3624 2502
2193 3571 2900
2295 3520 3239
2437 3491 3491
2722 3450 3655
2901 3713 2721
2899 3712 2743
2894 3708 2797
2885 3703 2885
2913 3684 3030
2950 3666 3183
2994 3648 3344
3052 3631 3494
3127 3617 3617
1743 0 0
1764 0 423
1798 0 852
1843 0 1348
1896 0 1896
1901 0 2404
1907 0 2885
1920 0 3328
1964 568 3678
1789 431 0
1882 0 0
1897 0 817
1919 0 1373
1947 0 1947
1936 0 2471
1930 0 2958
1935 283 3389
2054 829 3770
1866 893 0
1945 841 0
1969 829 829
1995 803 1411
2016 744 2016
1993 750 2563
1981 836 3041
2007 1028 3431
2263 1342 3926
1956 1439 0
2014 1447 0
2038 1452 848
2054 1456 1456
2065 1452 2065
2055 1468 2623
2063 1524 3100
2111 1643 3475
2349 1892 3918
2044 2044 0
2078 2078 0
2097 2097 851
2105 2105 1495
2109 2109 2109
2119 2119 2676
2154 2154 3146
2234 2234 3499
2407 2407 3850
2156 2698 0
2162 2725 351
2165 2725 1019
2169 2726 1602
2174 2723 2174
2189 2720 2720
2257 2726 3174
2374 2767 3493
2505 2858 3767
2286 3283 744
2287 3280 957
2290 3272 1341
2295 3259 1811
2306 3238 2306
2332 3213 2783
2392 3193 3193
2544 3187 3469
2675 3192 3697
2496 3678 1455
2497 3672 1564
2501 3655 1803
2511 3625 2143
2530 3582 2530
2567 3531 2909
2634 3491 3223
2725 3470 3470
2888 3450 3647
3070 3684 2817
3068 3683 2835
3064 3681 2879
3056 3679 2950
3045 3677 3045
3071 3661 3197
3108 3643 3353
3158 3627 3498
3222 3615 3615
2318 0 0
2336 0 463
2367 0 905
2406 0 1402
2451 0 1942
2501 0 2501
2493 0 2979
2488 0 3407
2504 901 3686
2367 459 0
2446 0 0
2465 0 840
2488 0 1404
2514 0 1973
2545 0 2545
2525 0 3032
2508 637 3418
2582 1090 3746
2448 946 0
2521 867 0
2555 827 827
2573 814 1427
2590 789 2020
2603 782 2603
2567 940 3072
2557 1179 3442
2757 1505 3846
2548 1501 0
2607 1483 0
2624 1481 883
2634 1486 1486
2641 1491 2075
2646 1507 2646
2623 1594 3111
2628 1743 3465
2817 1990 3840
2643 2108 0
2686 2120 0
2686 2121 947
2688 2126 1550
2687 2132 2132
2686 2147 2686
2681 2199 3141
2708 2298 3471
2838 2463 3781
2724 2724 0
2738 2738 393
2736 2736 1052
2732 2732 1635
2728 2728 2198
2726 2726 2726
2743 2743 3160
2801 2801 3491
2880 2880 3726
2801 3269 874
2800 3266 1062
2797 3257 1420
2794 3241 1869
2791 3218 2343
2796 3194 2796
2823 3177 3177
2893 3177 3448
2952 3193 3678
2918 3630 1582
2917 3623 1681
2916 3605 1901
2915 3574 2218
2916 3533 2578
2967 3475 2967
2996 3457 3222
3027 3450 3450
3076 3452 3639
3239 3660 2932
3238 3659 2945
3236 3659 2976
3232 3657 3031
3226 3656 3111
3214 3655 3214
3242 3638 3366
3281 3622 3505
3333 3612 3612
2925 0 0
2937 0 505
2956 0 970
2979 0 1472
3005 0 2002
3031 0 2541
3061 0 3061
3013 755 3422
2992 1253 3666
2966 508 0
3038 0 0
3046 0 886
3057 0 1454
3068 0 2016
3078 104 2568
3077 513 3077
3025 987 3428
3050 1402 3698
3038 1010 0
3094 925 211
3097 929 929
3102 938 1495
3104 955 2055
3100 1004 2600
3096 1130 3096
3051 1400 3438
3165 1729 3770
3131 1570 0
3151 1555 454
3151 1561 1025
3149 1572 1572
3143 1591 2119
3131 1631 2647
3120 1718 3120
3085 1896 3445
3187 2140 3767
3204 2172 292
3201 2172 674
3197 2176 1152
3188 2183 1669
3173 2195 2195
3154 2221 2699
3139 2281 3139
3119 2401 3436
3172 2557 3723
3236 2757 707
3233 2756 931
3225 2754 1325
3211 2752 1797
3191 2750 2289
3168 2756 2756
3154 2784 3154
3162 2848 3448
3175 2917 3687
3256 3256 1110
3252 3252 1261
3242 3242 1571
3226 3226 1978
3204 3204 2417
3183 3183 2833
3174 3174 3174
3183 3183 3443
3208 3208 3665
3281 3575 1778
3277 3568 1864
3268 3552 2056
3252 3527 2337
3233 3492 2689
3234 3460 3018
3228 3457 3228
3244 3451 3451
3275 3457 3631
3405 3638 3064
3404 3638 3074
3403 3637 3099
3402 3636 3142
3399 3635 3204
3394 3633 3285
3383 3633 3383
3409 3619 3514
3447 3611 3611
3513 215 215
3512 239 614
3510 294 1074
3506 371 1571
3496 484 2084
3477 656 2589
3451 908 3052
3426 1249 3426
3366 1648 3630
3525 658 341
3524 666 666
3522 687 1106
3516 724 1595
3504 792 2104
3482 908 2604
3454 1105 3061
3427 1399 3427
3393 1762 3657
3553 1164 533
3551 1169 782
3547 1183 1183
3537 1209 1655
3519 1255 2151
3492 1337 2640
3459 1480 3081
3428 1710 3428
3450 2012 3718
3585 1717 758
3582 1720 950
3574 1730 1306
3558 1750 1750
3533 1784 2225
3498 1843 2692
3458 1949 3108
3423 2123 3423
3450 2334 3711
3603 2281 1011
3598 2283 1163
3586 2289 1471
3564 2301 1878
3532 2322 2322
3489 2361 2757
3444 2434 3136
3416 2551 3416
3432 2670 3679
3595 2813 1303
3589 2812 1423
3574 2813 1682
3547 2813 2041
3509 2818 2443
3487 2825 2825
3448 2862 3167
3431 2912 3431
3431 2963 3655
3564 3251 1651
3557 3248 1744
3540 3240 1952
3513 3226 2253
3481 3208 2595
3450 3191 2929
3445 3190 3190
3438 3204 3438
3442 3235 3637
3540 3540 2036
3535 3535 2104
3522 3522 2260
3503 3503 2491
3474 3474 2821
3460 3460 3079
3457 3457 3260
3457 3457 3457
3467 3467 3625
3537 3620 3231
3537 3620 3238
3536 3619 3256
3536 3618 3287
3536 3618 3330
3535 3617 3386
3533 3617 3451
3526 3618 3526
3547 3612 3612
3868 1034 1034
3864 1045 1168
3853 1071 1447
3832 1121 1828
3800 1201 2255
3752 1326 2687
3694 1511 3081
3646 1760 3387
3615 2037 3615
3871 1200 1080
3915 1150 1150
3901 1177 1449
3875 1226 1847
3835 1306 2287
3779 1430 2725
3716 1609 3115
3668 1853 3407
3634 2113 3634
3876 1537 1187
3912 1508 1249
4003 1424 1424
3963 1472 1877
3905 1547 2354
3836 1662 2806
3769 1831 3184
3719 2057 3454
3679 2284 3679
3870 1983 1357
3896 1969 1407
3959 1931 1546
3946 1943 1943
3886 1994 2406
3817 2074 2839
3753 2200 3189
3705 2363 3448
3667 2523 3667
3840 2467 1580
3856 2461 1615
3896 2445 1719
3864 2457 2076
3821 2478 2478
3762 2523 2868
3712 2600 3178
3674 2691 3432
3648 2777 3648
3793 2916 1838
3804 2914 1861
3795 2911 2022
3771 2910 2288
3740 2910 2602
3712 2917 2917
3680 2943 3188
3652 2978 3433
3631 3035 3631
3713 3253 2290
3710 3250 2334
3702 3244 2437
3690 3234 2599
3677 3224 2798
3668 3223 3005
3660 3227 3227
3635 3246 3446
3617 3283 3617
3641 3481 2832
3640 3481 2847
3639 3480 2886
3637 3479 2953
3634 3477 3048
3630 3475 3170
3626 3473 3314
3624 3474 3474
3612 3490 3612
3610 3610 3426
3610 3610 3430
3610 3610 3441
3610 3610 3460
3611 3611 3486
3611 3611 3518
3612 3612 3553
3614 3614 3588
3618 3618 3618
