Examples/Curves - Uniform Low Contrast.3dl
#25pt 3DLUT created by 3D LUT Creator Pro (c) Oleg Sharonov
#Copyright Oleg Sharonov
0 256 512 768 1023
314 314 314
287 287 779
0 0 1621
0 0 2570
0 0 3512
287 803 287
139 837 837
0 857 1804
0 903 2815
329 1015 3695
0 1924 0
0 1960 950
0 2022 2022
0 2096 3123
1192 2250 3798
628 3288 628
636 3287 1264
686 3270 2268
998 3233 3233
1940 3214 3736
2603 3766 2603
2626 3747 2723
2702 3700 3014
2837 3655 3333
2996 3622 3622
784 287 287
818 154 818
807 0 1720
842 0 2683
919 0 3584
840 840 138
859 859 859
797 797 1933
734 734 2963
1161 1161 4046
954 1967 0
905 2046 905
832 2084 2084
1039 2106 3145
1496 2329 3908
1271 3290 650
1280 3286 1280
1318 3264 2276
1503 3223 3223
2116 3215 3743
2748 3741 2655
2741 3734 2741
2803 3692 3021
2909 3651 3338
3056 3620 3620
1743 0 0
1798 0 852
1896 0 1896
1907 0 2885
1964 568 3678
1866 893 0
1969 829 829
2016 744 2016
1981 836 3041
2263 1342 3926
2044 2044 0
2097 2097 851
2109 2109 2109
2154 2154 3146
2407 2407 3850
2286 3283 744
2290 3272 1341
2306 3238 2306
2392 3193 3193
2675 3192 3697
3070 3684 2817
3064 3681 2879
3045 3677 3045
3108 3643 3353
3222 3615 3615
2925 0 0
2956 0 970
3005 0 2002
3061 0 3061
2992 1253 3666
3038 1010 0
3097 929 929
3104 955 2055
3096 1130 3096
3165 1729 3770
3204 2172 292
3197 2176 1152
3173 2195 2195
3139 2281 3139
3172 2557 3723
3256 3256 1110
3242 3242 1571
3204 3204 2417
3174 3174 3174
3208 3208 3665
3405 3638 3064
3403 3637 3099
3399 3635 3204
3383 3633 3383
3447 3611 3611
3868 1034 1034
3853 1071 1447
3800 1201 2255
3694 1511 3081
3615 2037 3615
3876 1537 1187
4003 1424 1424
3905 1547 2354
3769 1831 3184
3679 2284 3679
3840 2467 1580
3896 2445 1719
3821 2478 2478
3712 2600 3178
3648 2777 3648
3713 3253 2290
3702 3244 2437
3677 3224 2798
3660 3227 3227
3617 3283 3617
3610 3610 3426
3610 3610 3441
3611 3611 3486
3612 3612 3553
3618 3618 3618
