Examples/Curves - CMYK for Skintone.3dl
#25pt 3DLUT created by 3D LUT Creator Pro (c) Oleg Sharonov
#Copyright Oleg Sharonov
0 43 86 128 171 214 256 299 341 384 427 469 512 555 597 640 682 725 768 810 853 896 938 981 1023 
0 0 0
0 41 177
0 79 341
0 118 511
0 157 682
0 196 849
0 235 1020
0 275 1194
0 314 1360
0 353 1532
0 392 1702
0 432 1874
0 471 2043
0 510 2214
0 550 2384
0 589 2554
0 629 2727
0 668 2896
0 707 3066
0 746 3237
0 785 3407
0 825 3577
0 864 3748
0 903 3918
0 943 4088
0 171 23
0 171 171
0 174 341
0 206 513
0 243 683
0 281 852
0 320 1022
0 359 1195
0 398 1362
0 437 1533
0 476 1703
0 516 1875
0 555 2045
0 594 2215
0 633 2385
0 672 2556
0 712 2725
0 751 2897
0 790 3067
0 830 3238
0 869 3408
0 908 3578
0 947 3749
0 987 3919
0 1026 4089
0 339 45
0 341 151
0 339 339
0 329 510
0 347 681
0 378 854
0 412 1025
0 448 1193
0 486 1365
0 524 1536
0 562 1706
0 600 1874
0 640 2046
0 679 2217
0 718 2387
0 757 2557
0 796 2727
0 834 2896
0 874 3067
0 913 3238
0 952 3408
0 991 3578
0 1031 3748
0 1070 3919
0 1109 4089
0 511 68
0 512 167
0 512 289
0 512 512
0 494 682
0 500 852
0 521 1023
0 550 1194
0 583 1365
0 617 1534
0 654 1706
0 690 1875
0 728 2045
0 766 2216
0 804 2386
0 842 2556
0 881 2728
0 920 2897
0 959 3068
0 998 3239
0 1037 3409
0 1076 3579
0 1115 3749
0 1154 3920
0 1193 4090
0 681 91
0 683 186
0 682 301
1 682 437
0 682 682
0 662 854
0 658 1024
0 673 1194
0 696 1365
0 723 1535
0 755 1707
0 788 1876
0 823 2046
0 859 2216
0 895 2387
0 933 2557
0 971 2728
0 1008 2898
0 1046 3068
0 1085 3239
0 1124 3409
0 1162 3579
0 1201 3750
0 1240 3920
0 1279 4091
0 852 113
0 853 206
0 853 316
1 854 438
1 854 592
0 852 852
0 830 1024
0 822 1195
0 828 1365
0 845 1535
0 868 1706
0 897 1877
0 927 2047
0 960 2217
0 994 2387
0 1029 2558
0 1065 2729
0 1101 2899
0 1138 3069
0 1176 3240
0 1213 3410
0 1251 3580
0 1289 3751
0 1328 3921
0 1366 4091
0 1022 136
0 1024 227
0 1023 334
0 1024 451
1 1024 578
1 1024 750
0 1023 1023
0 1000 1195
0 988 1365
0 988 1536
0 1000 1707
0 1019 1877
0 1042 2047
0 1070 2217
0 1100 2388
0 1132 2558
0 1166 2729
0 1199 2899
0 1235 3069
0 1271 3240
0 1307 3410
0 1344 3581
0 1381 3751
0 1419 3921
0 1456 4092
0 1194 159
0 1194 249
0 1195 352
0 1195 466
1 1195 588
1 1196 723
1 1195 912
0 1195 1195
0 1169 1365
0 1155 1536
0 1151 1706
0 1158 1877
0 1172 2048
0 1193 2218
0 1217 2389
0 1244 2559
0 1273 2729
0 1305 2900
0 1337 3070
0 1371 3240
0 1406 3411
0 1441 3582
0 1477 3752
0 1513 3922
0 1549 4092
0 1364 181
0 1364 271
0 1365 372
0 1365 483
1 1365 601
1 1366 726
1 1366 874
1 1366 1075
0 1365 1365
0 1339 1536
0 1323 1707
0 1315 1877
0 1318 2048
0 1328 2219
0 1345 2389
0 1366 2560
0 1390 2730
0 1417 2900
0 1446 3070
0 1477 3241
0 1509 3411
0 1542 3581
0 1576 3752
0 1611 3922
0 1646 4093
0 1534 204
0 1534 293
0 1535 392
0 1535 500
0 1536 616
1 1536 738
1 1537 867
1 1536 1027
1 1537 1239
0 1536 1536
0 1509 1707
0 1491 1877
0 1481 2048
0 1480 2219
0 1487 2389
0 1500 2560
0 1518 2730
0 1540 2901
0 1564 3071
0 1591 3241
0 1620 3412
0 1650 3582
0 1682 3752
0 1715 3923
0 1748 4093
0 1705 227
0 1705 315
0 1706 412
0 1706 519
0 1706 632
1 1707 752
1 1707 876
1 1707 1011
1 1708 1183
1 1707 1404
0 1706 1706
0 1679 1877
0 1660 2048
0 1648 2219
0 1644 2389
0 1647 2560
0 1657 2730
0 1672 2901
0 1691 3071
0 1713 3242
0 1738 3412
0 1765 3583
0 1793 3753
0 1823 3923
0 1855 4094
0 1875 249
0 1875 337
0 1876 433
0 1876 538
0 1877 650
1 1877 767
1 1878 889
1 1878 1014
1 1878 1159
1 1878 1342
1 1878 1569
0 1877 1877
0 1849 2048
0 1829 2219
0 1816 2389
0 1809 2560
0 1809 2730
0 1816 2901
0 1828 3072
0 1844 3242
0 1864 3412
0 1887 3583
0 1912 3753
0 1938 3924
0 1967 4094
0 2046 272
0 2046 359
0 2047 455
0 2047 557
0 2048 668
0 2048 782
1 2048 902
1 2049 1026
1 2049 1155
2 2049 1310
1 2049 1501
1 2048 1735
0 2047 2047
0 2019 2218
0 1999 2389
0 1983 2560
0 1975 2731
1 1973 2901
0 1977 3071
0 1986 3242
0 2000 3413
0 2017 3583
0 2038 3754
0 2061 3924
0 2086 4095
0 2216 294
0 2217 381
0 2217 476
0 2218 577
0 2218 686
0 2219 799
1 2219 917
1 2219 1039
1 2220 1164
2 2220 1299
2 2220 1464
1 2219 1662
1 2219 1900
0 2218 2218
0 2190 2389
0 2168 2559
0 2152 2731
1 2142 2901
1 2137 3072
1 2139 3242
1 2145 3413
0 2156 3583
0 2172 3754
0 2190 3924
0 2211 4095
0 2386 317
0 2387 404
0 2388 497
0 2388 598
0 2388 705
0 2389 816
1 2389 933
1 2389 1053
1 2390 1176
2 2390 1303
2 2390 1447
2 2390 1618
2 2390 1824
1 2390 2067
0 2389 2389
0 2360 2559
0 2338 2730
0 2321 2901
1 2309 3072
1 2303 3242
1 2302 3413
1 2306 3584
1 2315 3754
0 2328 3924
0 2344 4095
0 2557 340
0 2558 426
0 2558 519
0 2559 618
0 2559 724
0 2559 834
1 2560 949
1 2560 1068
1 2561 1189
2 2561 1314
2 2561 1444
2 2561 1596
2 2561 1775
2 2561 1987
1 2560 2234
0 2559 2559
0 2531 2730
0 2508 2901
0 2490 3072
1 2477 3243
1 2469 3413
1 2466 3584
1 2468 3754
1 2475 3925
1 2485 4095
0 2728 362
0 2728 449
0 2729 541
0 2729 639
0 2730 744
0 2730 852
0 2731 966
1 2731 1083
1 2731 1203
1 2732 1326
2 2732 1452
2 2732 1588
2 2732 1747
2 2732 1933
2 2732 2150
1 2731 2400
0 2730 2730
0 2701 2901
0 2678 3072
0 2659 3242
1 2645 3413
1 2636 3584
1 2631 3755
1 2631 3925
4 2636 4095
0 2898 385
0 2898 471
0 2899 563
0 2899 660
0 2900 764
0 2900 871
0 2901 983
1 2901 1099
1 2902 1218
1 2902 1340
2 2902 1464
2 2902 1591
2 2903 1734
2 2903 1900
2 2902 2092
2 2902 2313
1 2902 2568
0 2900 2900
0 2872 3071
0 2848 3242
0 2828 3413
1 2813 3584
1 2802 3754
1 2796 3925
1 2795 4095
0 3068 408
0 3069 493
0 3069 585
0 3070 682
0 3070 784
0 3071 890
0 3071 1001
1 3072 1115
1 3072 1233
1 3072 1354
2 3073 1477
2 3073 1602
2 3073 1733
2 3073 1882
2 3073 2054
2 3073 2252
2 3073 2478
1 3072 2734
0 3071 3071
0 3042 3242
0 3018 3413
1 2998 3584
1 2982 3754
1 2970 3925
1 2963 4095
0 3239 430
0 3239 516
0 3240 607
0 3241 703
0 3241 804
0 3241 910
0 3242 1019
0 3242 1132
1 3243 1249
1 3243 1368
1 3243 1490
2 3244 1614
2 3244 1740
2 3244 1877
2 3244 2032
2 3244 2210
2 3244 2413
2 3244 2642
1 3243 2901
0 3242 3242
0 3213 3412
0 3188 3583
1 3167 3754
1 3151 3925
1 3138 4095
0 3409 453
0 3410 538
0 3410 629
0 3411 724
0 3411 825
0 3412 929
0 3412 1038
0 3413 1150
1 3413 1265
1 3413 1383
1 3414 1504
2 3414 1627
2 3414 1752
2 3415 1880
3 3415 2022
3 3415 2184
3 3415 2367
2 3414 2574
2 3414 2807
1 3414 3069
0 3412 3412
0 3383 3583
0 3358 3754
1 3337 3925
1 3319 4095
0 3580 476
0 3580 561
0 3581 651
0 3582 746
0 3582 846
0 3582 949
0 3583 1057
0 3583 1168
1 3584 1282
1 3584 1399
1 3584 1518
2 3585 1640
2 3585 1764
2 3585 1890
3 3586 2021
3 3586 2170
3 3586 2337
3 3586 2525
2 3585 2736
2 3585 2972
1 3584 3236
0 3583 3583
0 3554 3754
0 3528 3924
4 3507 4095
0 3750 498
0 3751 584
0 3751 673
0 3752 768
0 3752 867
0 3753 969
0 3753 1076
0 3754 1186
0 3754 1299
1 3755 1415
1 3755 1534
2 3755 1654
2 3756 1777
2 3756 1902
2 3756 2028
3 3756 2165
3 3757 2319
3 3756 2490
3 3756 2683
2 3756 2898
2 3756 3137
1 3755 3403
0 3754 3754
0 3724 3924
0 3699 4095
0 3921 521
0 3921 606
0 3922 696
0 3922 789
0 3923 888
0 3923 990
0 3924 1096
0 3924 1205
0 3925 1316
1 3925 1431
1 3925 1549
1 3926 1669
2 3926 1791
2 3926 1914
2 3927 2040
3 3927 2168
3 3927 2311
3 3927 2469
3 3927 2646
3 3927 2843
2 3927 3061
2 3926 3303
1 3925 3571
0 3924 3924
0 3895 4095
0 4091 545
0 4092 630
1 4092 718
1 4093 812
2 4093 909
0 4094 1010
0 4094 1115
3 4095 1224
0 4095 1334
1 4095 1448
1 4095 1565
5 4095 1684
2 4095 1805
2 4095 1928
2 4095 2052
3 4095 2178
3 4095 2310
3 4095 2457
3 4095 2621
9 4095 2802
6 4095 3003
6 4095 3224
5 4095 3469
8 4095 3738
3 4095 4095
167 38 22
171 39 171
167 77 337
167 117 508
170 156 679
170 197 856
169 235 1019
169 274 1192
169 314 1364
169 353 1531
168 393 1705
168 431 1873
168 471 2043
167 511 2216
167 549 2384
167 589 2557
167 628 2726
166 667 2895
166 706 3065
166 746 3237
166 785 3407
165 824 3577
165 864 3747
165 903 3918
164 942 4088
171 171 22
171 171 171
171 174 341
171 206 511
171 242 681
170 280 850
170 319 1022
170 359 1193
169 398 1365
169 436 1533
169 476 1703
169 515 1874
168 554 2044
168 593 2214
168 633 2385
168 672 2555
167 712 2727
167 751 2896
167 790 3067
166 829 3238
166 868 3408
166 908 3578
166 947 3748
165 986 3919
165 1026 4089
171 341 45
171 340 150
171 341 341
171 329 513
171 348 684
171 377 853
171 412 1024
170 447 1192
170 485 1364
170 523 1535
169 562 1705
169 600 1876
169 639 2046
169 678 2216
168 717 2387
168 756 2557
168 795 2727
168 834 2898
167 874 3068
167 913 3237
167 952 3409
167 991 3579
166 1030 3750
166 1069 3919
166 1109 4090
171 511 67
171 512 167
171 512 289
171 512 512
171 494 682
171 500 854
171 522 1025
171 550 1194
171 582 1365
170 617 1536
170 653 1706
170 690 1875
170 728 2047
169 766 2217
169 804 2387
169 842 2558
168 881 2728
168 920 2897
168 959 3069
168 997 3238
167 1036 3408
167 1075 3579
167 1114 3749
167 1154 3919
166 1193 4090
170 681 90
171 682 186
171 682 301
172 682 437
171 682 682
171 662 853
171 659 1024
171 672 1194
171 695 1365
171 724 1536
171 755 1706
170 788 1875
170 823 2047
170 859 2218
170 896 2388
169 933 2558
169 971 2728
169 1009 2899
168 1047 3069
168 1085 3239
168 1123 3409
168 1162 3579
167 1200 3750
167 1240 3920
164 1278 4091
170 852 113
171 853 206
171 853 316
172 854 438
172 854 591
171 853 853
171 829 1024
171 822 1194
171 828 1365
171 845 1535
171 869 1707
171 897 1876
170 927 2046
170 959 2217
170 994 2387
170 1028 2557
170 1065 2729
169 1101 2898
169 1138 3069
169 1176 3240
169 1213 3410
168 1251 3580
168 1289 3751
168 1327 3921
167 1366 4091
170 1022 135
171 1023 227
171 1023 333
171 1024 451
172 1024 577
172 1025 751
171 1024 1024
171 999 1194
171 988 1365
171 989 1536
171 1000 1707
171 1018 1876
171 1043 2048
171 1070 2218
170 1100 2389
170 1132 2559
170 1165 2729
170 1199 2899
170 1235 3070
169 1270 3240
169 1306 3410
169 1343 3580
169 1380 3751
168 1418 3921
168 1456 4092
170 1194 158
170 1194 249
171 1195 352
171 1195 466
172 1195 588
172 1195 723
172 1195 912
171 1195 1195
171 1169 1365
171 1154 1536
171 1151 1706
171 1158 1877
171 1172 2047
171 1192 2218
171 1216 2388
171 1243 2559
170 1273 2730
170 1305 2900
170 1337 3070
170 1371 3241
170 1405 3411
169 1441 3581
169 1476 3752
169 1513 3922
169 1549 4092
170 1364 181
170 1364 270
171 1365 371
171 1365 482
172 1366 602
172 1366 726
172 1366 874
172 1366 1075
171 1365 1365
171 1339 1536
171 1322 1707
171 1316 1878
171 1318 2048
171 1328 2218
171 1345 2389
171 1366 2559
171 1390 2730
171 1418 2900
170 1446 3071
170 1477 3241
170 1509 3411
170 1542 3582
170 1576 3753
169 1611 3922
169 1646 4093
170 1534 203
170 1535 292
171 1535 392
171 1536 500
171 1536 617
172 1536 738
172 1537 866
172 1537 1027
172 1537 1239
171 1536 1536
171 1509 1706
171 1491 1877
171 1481 2048
171 1480 2219
171 1487 2389
171 1500 2560
171 1518 2730
171 1539 2901
171 1564 3071
171 1591 3241
170 1620 3412
170 1650 3582
170 1682 3753
170 1714 3923
170 1748 4093
169 1705 226
170 1705 314
171 1706 412
171 1706 519
171 1707 633
172 1707 752
172 1707 876
172 1708 1011
172 1707 1183
172 1707 1404
171 1706 1706
171 1679 1877
171 1660 2048
171 1648 2219
171 1644 2389
171 1647 2560
171 1657 2730
171 1672 2901
171 1691 3071
171 1713 3242
171 1738 3412
171 1765 3583
170 1793 3753
170 1823 3924
170 1855 4094
