Examples/Curves - SMHRings - HalfSepia.3dl
#40pt 3DLUT created by 3D LUT Creator Pro (c) Oleg Sharonov
#Copyright Oleg Sharonov
#INPUTGAMMA sRGB IEC61966-2.1 v.2.10
#IMAGEPROFILE sRGB IEC61966-2.1 v.2.10
#OUTPUTGAMMA sRGB IEC61966-2.1 v.2.10
0 341 682 1023
0 0 0
0 56 967
253 184 2086
546 334 3221
296 1333 64
312 1342 1158
554 1369 2275
662 1451 3364
696 2765 287
698 2770 1318
705 2784 2468
824 2796 3610
1125 4095 930
1132 4095 1915
1167 4095 2982
1212 4095 4054
1351 120 4
1422 140 1073
1471 247 2165
1575 377 3271
1568 1357 76
1574 1363 1175
1607 1400 2307
1669 1474 3435
1734 2778 293
1737 2782 1324
1744 2795 2476
1804 2813 3653
2117 4095 1006
2128 4095 2008
2155 4095 3053
2169 4095 4053
2671 329 156
2684 340 1177
2720 371 2309
2721 486 3398
2763 1448 221
2770 1455 1245
2789 1478 2383
2796 1550 3522
2881 2814 310
2883 2817 1343
2889 2827 2499
2900 2846 3731
3132 4095 1162
3131 4095 2118
3129 4095 3082
3126 4095 4046
3859 552 328
3865 559 1322
3885 581 2396
3919 618 3549
3913 1618 371
3945 1603 1352
3960 1619 2450
3984 1646 3634
4032 2886 464
4039 2887 1457
4067 2887 2544
4071 2911 3745
4091 4095 1148
4091 4095 2106
4090 4095 3065
4088 4095 4026
