Examples/Curves - Vibrance.3dl
#25pt 3DLUT created by 3D LUT Creator Pro (c) Oleg Sharonov
#Copyright Oleg Sharonov
0 43 86 128 171 214 256 299 341 384 427 469 512 555 597 640 682 725 768 810 853 896 938 981 1023 
0 0 0
0 0 177
0 0 341
0 0 512
0 0 683
0 0 850
0 0 1022
0 0 1196
0 0 1362
0 0 1535
0 0 1704
0 0 1877
0 0 2047
0 0 2217
0 0 2388
0 0 2559
0 0 2731
0 0 2900
0 0 3071
0 0 3243
0 0 3413
0 0 3583
0 0 3754
0 0 3925
0 0 4095
0 171 0
0 171 171
0 171 341
0 171 513
0 171 684
0 171 852
0 171 1023
0 171 1196
0 171 1364
0 171 1535
0 171 1705
0 171 1878
0 171 2047
0 171 2218
0 171 2389
0 171 2559
0 171 2729
0 171 2901
0 171 3071
0 171 3243
0 171 3413
0 171 3583
0 171 3754
0 171 3925
0 171 4095
0 339 0
0 341 171
0 339 339
0 341 510
0 341 681
0 341 854
0 341 1025
0 341 1194
0 341 1366
0 341 1537
0 341 1707
0 341 1876
0 341 2049
0 341 2219
0 341 2390
0 341 2560
0 341 2730
0 341 2900
0 341 3070
0 341 3242
0 341 3412
0 341 3583
0 341 3753
0 341 3924
0 341 4095
0 512 0
0 512 171
0 512 341
0 512 512
0 512 682
0 512 852
0 512 1023
0 512 1195
0 512 1366
0 512 1535
0 512 1708
0 512 1877
0 512 2047
0 512 2217
0 512 2388
0 512 2559
0 512 2731
0 512 2900
0 512 3071
0 512 3242
0 512 3412
0 512 3583
0 512 3754
0 512 3924
0 512 4095
0 682 0
0 683 171
0 682 341
0 682 512
0 682 682
0 683 854
0 682 1023
0 683 1194
0 683 1365
0 682 1535
0 683 1707
0 682 1877
0 682 2047
0 682 2217
0 682 2388
0 682 2559
0 683 2731
0 682 2900
0 682 3071
0 683 3242
0 683 3412
0 683 3583
0 683 3754
0 683 3924
0 683 4095
0 853 0
0 853 171
0 853 341
0 853 512
0 853 683
0 852 852
0 853 1023
0 853 1195
0 852 1364
0 853 1535
0 852 1706
0 853 1877
0 853 2047
0 853 2218
0 853 2389
0 853 2559
0 853 2731
0 853 2900
0 853 3071
0 853 3242
0 853 3413
0 853 3583
0 853 3754
0 853 3925
0 853 4095
0 1023 0
0 1024 171
0 1023 341
0 1023 512
0 1023 683
0 1023 852
0 1023 1023
0 1024 1195
0 1024 1365
0 1023 1535
0 1024 1707
0 1023 1877
0 1023 2047
0 1023 2218
0 1023 2388
0 1023 2559
0 1024 2730
0 1023 2900
0 1023 3071
0 1024 3242
0 1024 3412
0 1023 3583
0 1023 3754
0 1024 3924
0 1024 4095
0 1195 0
0 1195 171
0 1195 341
0 1195 512
0 1195 683
0 1195 853
0 1195 1024
0 1195 1195
0 1194 1365
0 1195 1536
0 1194 1706
0 1195 1877
0 1195 2048
0 1195 2218
0 1195 2389
0 1195 2559
0 1194 2730
0 1195 2901
0 1195 3071
0 1194 3242
0 1195 3413
0 1195 3583
0 1195 3754
0 1195 3925
0 1195 4095
0 1365 0
0 1365 171
0 1365 341
0 1365 512
0 1365 682
0 1365 853
0 1365 1024
0 1365 1194
0 1365 1365
0 1365 1536
0 1365 1707
0 1365 1877
0 1365 2048
0 1365 2219
0 1365 2389
0 1365 2560
0 1365 2730
0 1365 2900
0 1365 3071
0 1365 3242
0 1365 3412
0 1365 3583
0 1365 3754
0 1365 3924
0 1365 4095
0 1535 0
0 1535 171
0 1535 341
0 1535 512
0 1535 682
0 1536 853
0 1536 1024
0 1535 1194
0 1536 1365
0 1536 1536
0 1536 1707
0 1535 1877
0 1536 2048
0 1536 2218
0 1536 2389
0 1536 2560
0 1536 2730
0 1536 2901
0 1536 3072
0 1536 3242
0 1535 3412
0 1535 3583
0 1535 3754
0 1536 3924
0 1536 4095
0 1707 0
0 1706 171
0 1707 341
0 1706 512
0 1706 682
0 1707 853
0 1707 1024
0 1706 1194
0 1707 1365
0 1707 1536
0 1707 1707
0 1706 1877
0 1707 2048
0 1707 2218
0 1707 2389
0 1707 2560
0 1706 2730
0 1707 2901
0 1707 3071
0 1706 3242
0 1706 3412
0 1707 3583
0 1706 3754
0 1706 3924
0 1706 4095
0 1877 0
0 1877 171
0 1877 341
0 1877 512
0 1877 683
0 1877 853
0 1877 1024
0 1877 1194
0 1877 1365
0 1877 1536
0 1877 1707
0 1877 1877
0 1877 2048
0 1877 2218
0 1877 2389
0 1877 2560
0 1877 2730
0 1877 2901
0 1877 3071
0 1877 3242
0 1877 3412
0 1877 3583
0 1877 3754
0 1877 3924
0 1877 4095
0 2048 0
0 2048 171
0 2048 341
0 2048 512
0 2048 683
0 2047 853
0 2047 1023
0 2048 1195
0 2048 1365
0 2047 1536
0 2047 1706
0 2048 1877
0 2047 2047
0 2047 2218
0 2048 2389
0 2047 2559
0 2048 2730
0 2048 2900
0 2048 3071
0 2048 3242
0 2048 3412
0 2048 3583
0 2048 3754
0 2048 3924
0 2048 4095
0 2218 0
0 2218 171
0 2218 341
0 2218 512
0 2218 683
0 2218 853
0 2218 1023
0 2218 1195
0 2218 1365
0 2218 1536
0 2218 1707
0 2218 1877
0 2218 2047
0 2218 2218
0 2218 2389
0 2218 2559
0 2218 2730
0 2218 2900
0 2218 3071
0 2218 3242
0 2218 3412
0 2218 3583
0 2218 3754
0 2218 3924
0 2218 4095
0 2389 0
0 2389 171
0 2389 341
0 2389 512
0 2389 683
0 2389 853
0 2389 1024
0 2389 1195
0 2389 1365
0 2389 1536
0 2389 1707
0 2389 1877
0 2389 2048
0 2389 2218
0 2389 2389
0 2389 2559
0 2389 2730
0 2389 2901
0 2389 3071
0 2389 3242
0 2389 3412
0 2389 3583
0 2389 3754
0 2389 3924
0 2389 4095
0 2559 0
0 2560 171
0 2559 341
0 2559 512
0 2559 683
0 2559 853
0 2559 1024
0 2559 1195
0 2559 1365
0 2559 1536
0 2559 1706
0 2559 1877
0 2559 2048
0 2559 2218
0 2559 2389
0 2559 2559
0 2559 2730
0 2559 2901
0 2559 3071
0 2560 3242
0 2559 3412
0 2559 3583
0 2559 3754
0 2559 3924
0 2559 4095
0 2730 0
0 2730 171
0 2730 341
0 2730 512
0 2730 683
0 2730 853
0 2730 1024
0 2730 1194
0 2730 1365
0 2730 1536
0 2730 1706
0 2730 1877
0 2730 2048
0 2730 2218
0 2730 2389
0 2730 2559
0 2730 2730
0 2730 2901
0 2730 3071
0 2730 3242
0 2730 3412
0 2730 3583
0 2730 3754
0 2730 3924
3 2730 4095
0 2900 0
0 2900 171
0 2900 341
0 2900 512
0 2900 683
0 2901 853
0 2900 1023
0 2900 1195
0 2901 1365
0 2900 1536
0 2901 1707
0 2900 1877
0 2900 2048
0 2901 2218
0 2900 2389
0 2901 2559
0 2901 2730
0 2900 2900
0 2900 3071
0 2900 3242
0 2900 3412
0 2900 3583
0 2900 3754
0 2900 3924
0 2900 4095
0 3071 0
0 3071 171
0 3071 341
0 3071 512
0 3071 683
0 3071 853
0 3071 1024
0 3071 1195
0 3071 1365
0 3071 1536
0 3071 1706
0 3071 1877
0 3071 2048
0 3071 2218
0 3071 2389
0 3071 2559
0 3071 2730
0 3071 2900
0 3071 3071
0 3071 3242
0 3071 3412
0 3071 3583
0 3071 3754
0 3071 3924
0 3071 4095
0 3242 0
0 3242 171
0 3242 341
0 3242 512
0 3242 683
0 3242 853
0 3242 1024
0 3242 1195
0 3242 1365
0 3242 1536
0 3242 1706
0 3242 1877
0 3242 2048
0 3242 2218
0 3242 2389
0 3242 2559
0 3242 2730
0 3242 2901
0 3242 3071
0 3242 3242
0 3242 3412
0 3242 3583
0 3242 3754
0 3242 3924
0 3242 4095
0 3412 0
0 3412 171
0 3412 341
0 3412 512
0 3412 683
0 3412 853
0 3412 1024
0 3412 1195
0 3412 1365
0 3412 1536
0 3412 1707
0 3412 1877
0 3412 2048
0 3412 2218
0 3412 2389
0 3412 2559
0 3412 2730
0 3412 2900
0 3412 3071
0 3412 3242
0 3412 3412
0 3412 3583
0 3412 3754
0 3412 3924
0 3412 4095
0 3583 0
0 3583 171
0 3583 341
0 3583 512
0 3583 683
0 3583 853
0 3583 1024
0 3583 1195
0 3583 1365
0 3583 1536
0 3583 1706
0 3583 1877
0 3583 2048
0 3583 2218
0 3583 2389
0 3583 2559
0 3583 2730
0 3583 2901
0 3583 3071
0 3583 3242
0 3583 3412
0 3583 3583
0 3583 3754
0 3583 3924
3 3583 4095
0 3754 0
0 3754 171
0 3754 341
0 3754 512
0 3754 683
0 3754 853
0 3754 1024
0 3754 1195
0 3754 1365
0 3754 1536
0 3754 1707
0 3754 1877
0 3754 2048
0 3754 2218
0 3754 2389
0 3754 2559
0 3754 2730
0 3754 2900
0 3754 3071
0 3754 3242
0 3754 3412
0 3754 3583
0 3754 3754
0 3754 3924
0 3754 4095
0 3924 0
0 3924 171
0 3924 341
0 3924 512
0 3924 683
0 3924 853
0 3924 1024
0 3924 1195
0 3924 1365
0 3924 1536
0 3924 1707
0 3924 1877
0 3924 2048
0 3924 2218
0 3924 2389
0 3924 2559
0 3924 2730
0 3924 2900
0 3924 3071
0 3924 3242
0 3924 3412
0 3924 3583
0 3924 3754
0 3924 3924
0 3924 4095
3 4095 3
3 4095 174
3 4095 341
3 4095 513
3 4095 683
0 4095 853
0 4095 1024
3 4095 1195
0 4095 1365
0 4095 1536
0 4095 1706
3 4095 1877
0 4095 2048
0 4095 2218
0 4095 2389
0 4095 2559
0 4095 2730
0 4095 2901
0 4095 3071
6 4095 3242
3 4095 3412
3 4095 3583
3 4095 3754
6 4095 3924
3 4095 4095
168 0 0
171 0 171
168 0 337
168 0 509
171 0 680
171 0 857
171 0 1021
171 0 1194
171 0 1367
171 0 1533
171 0 1708
171 0 1876
171 0 2046
171 0 2220
171 0 2387
171 0 2561
171 0 2731
171 0 2900
171 0 3070
171 0 3242
171 0 3412
171 0 3583
171 0 3753
171 0 3924
171 0 4095
171 171 0
171 171 171
158 158 416
145 145 629
119 119 858
81 81 1090
26 26 1328
0 0 1502
0 0 1637
0 0 1773
0 0 1918
0 0 2069
0 0 2221
0 0 2376
0 0 2533
0 0 2692
0 0 2854
0 0 3015
0 0 3177
0 0 3342
0 0 3506
0 0 3671
0 0 3836
0 0 4002
171 171 4095
171 341 0
123 351 123
123 349 349
116 345 552
94 339 758
65 328 970
19 312 1190
0 293 1378
0 284 1545
0 276 1708
0 267 1869
0 262 2031
0 257 2192
0 252 2353
0 250 2515
0 245 2678
0 243 2840
0 243 3005
0 240 3170
0 238 3334
0 238 3500
0 235 3666
0 235 3833
0 233 3998
171 341 4095
171 512 0
107 522 107
103 521 322
103 518 518
84 517 712
55 516 911
19 510 1114
0 503 1304
0 497 1480
0 490 1654
0 485 1824
0 479 1991
0 475 2160
0 471 2327
0 467 2493
0 464 2660
0 461 2825
0 458 2991
0 457 3159
0 455 3325
0 454 3491
0 452 3658
0 451 3825
0 449 3993
171 512 4095
171 682 0
81 693 81
81 692 302
81 691 501
81 690 690
52 690 879
16 689 1072
0 685 1258
0 681 1438
0 677 1615
0 673 1788
0 669 1960
0 666 2133
0 663 2303
0 660 2472
0 657 2641
0 655 2810
0 653 2979
0 651 3147
0 649 3314
0 647 3482
0 646 3650
0 644 3818
0 643 3987
168 682 4095
171 853 0
52 865 52
52 864 280
52 863 485
52 862 676
52 862 862
16 861 1046
0 859 1231
0 857 1411
0 854 1587
0 852 1764
0 849 1937
0 846 2110
0 844 2282
0 842 2453
0 839 2624
0 838 2795
0 835 2964
0 834 3134
0 832 3304
0 831 3473
0 829 3642
0 828 3811
0 827 3980
171 853 4095
171 1023 0
16 1035 16
16 1035 252
16 1035 467
16 1033 662
16 1033 849
16 1032 1032
0 1031 1213
0 1030 1392
0 1028 1570
0 1027 1745
0 1024 1919
0 1023 2094
0 1021 2267
0 1019 2439
0 1018 2611
0 1016 2782
0 1014 2953
0 1013 3124
0 1011 3294
0 1010 3464
0 1008 3634
0 1008 3804
0 1006 3973
171 1023 4095
171 1195 0
0 1206 0
0 1205 238
0 1205 455
0 1204 652
0 1203 838
0 1202 1022
0 1202 1202
0 1200 1379
0 1199 1556
0 1198 1732
0 1197 1907
0 1196 2081
0 1195 2254
0 1193 2427
0 1192 2599
0 1191 2772
0 1189 2943
0 1188 3114
0 1187 3286
0 1186 3456
0 1185 3627
0 1184 3797
0 1183 3967
171 1195 4095
171 1365 0
0 1374 0
0 1374 235
0 1374 452
0 1374 647
0 1373 832
0 1373 1015
0 1372 1194
0 1371 1371
0 1371 1548
0 1370 1723
0 1369 1898
0 1368 2072
0 1367 2245
0 1366 2418
0 1365 2591
0 1364 2763
0 1363 2935
0 1362 3107
0 1361 3278
0 1360 3449
0 1359 3620
0 1359 3791
0 1357 3961
171 1365 4095
171 1536 0
0 1544 0
0 1544 233
0 1544 448
0 1543 643
0 1543 828
0 1543 1010
0 1542 1188
0 1541 1365
0 1541 1541
0 1540 1716
0 1540 1891
0 1539 2064
0 1538 2238
0 1538 2411
0 1537 2584
0 1536 2756
0 1536 2928
0 1535 3100
0 1534 3271
0 1533 3443
0 1533 3614
0 1532 3786
0 1531 3956
171 1536 4095
171 1707 0
0 1714 0
0 1714 230
0 1713 446
0 1713 640
0 1713 824
0 1713 1006
0 1713 1184
0 1712 1360
0 1712 1536
0 1711 1711
0 1711 1885
0 1710 2059
0 1710 2232
0 1709 2405
0 1709 2578
0 1708 2750
0 1708 2923
0 1707 3095
0 1706 3266
0 1705 3438
0 1705 3609
0 1704 3781
0 1704 3952
171 1707 4095
