Examples/Curves Masks - Twist skintone.3dl
#25pt 3DLUT created by 3D LUT Creator Pro (c) Oleg Sharonov
#Copyright Oleg Sharonov
#INPUTGAMMA sRGB IEC61966-2.1 v.2.10
#IMAGEPROFILE sRGB IEC61966-2.1 v.2.10
#OUTPUTGAMMA sRGB IEC61966-2.1 v.2.10
0 256 512 768 1023
0 0 0
0 0 1024
0 0 2048
0 0 3071
0 0 4095
0 1024 0
0 1024 1024
0 1024 2048
0 1024 3071
0 1024 4095
0 2048 0
0 2048 1024
0 2048 2048
0 2048 3071
0 2048 4095
0 3071 0
0 3071 1024
0 3071 2048
0 3071 3071
0 3071 4095
0 4095 0
0 4095 1024
0 4095 2048
0 4095 3071
0 4095 4095
1024 8 0
1024 0 1024
1024 0 2048
1024 0 3071
1024 0 4095
1024 855 0
1024 918 1024
1024 1024 2048
1024 1024 3071
1024 1024 4095
1024 2045 0
1024 2045 1024
1024 2048 2048
1024 2048 3071
1024 2048 4095
1024 3071 0
1024 3071 1024
1024 3071 2048
1024 3071 3071
1024 3071 4095
1024 4095 0
1024 4095 1024
1024 4095 2048
1024 4095 3071
1024 4095 4095
2047 16 0
2047 0 1024
2047 0 2047
2048 0 3071
2048 0 4095
2047 821 0
2047 823 929
2047 918 2047
2048 989 3071
2048 1024 4095
2047 2040 0
2047 2040 1024
2047 2043 2047
2048 2046 3071
2048 2048 4095
2047 3199 0
2047 3199 1024
2047 3199 2047
2047 3118 3071
2048 3071 4095
2047 4095 0
2048 4095 1024
2048 4095 2047
2048 4095 3071
2048 4095 4095
3071 24 0
3071 0 1023
3071 0 2048
3071 0 3071
3071 0 4095
3071 877 0
3071 833 835
3071 848 2047
3071 918 3071
3071 971 4095
3071 2010 0
3071 2050 764
3071 2051 1969
3071 2042 3071
3071 2045 4095
3071 3297 0
3071 3297 1024
3071 3297 2048
3071 3213 3071
3071 3142 4095
3070 4095 0
3072 4095 1023
3071 4095 2047
3071 4095 3071
3071 4095 4095
4095 32 0
4095 1 1023
4095 0 2047
4095 1 3073
4095 0 4095
4095 923 0
4095 844 742
4095 812 2047
4095 865 3071
4095 918 4095
4095 2064 0
4095 2133 381
4095 2070 1858
4095 2042 3072
4094 2042 4095
4095 3325 0
4095 3325 842
4095 3356 1795
4095 3292 3001
4095 3212 4094
4095 4095 0
4095 4095 1022
4095 4095 2047
4095 4095 3071
4095 4095 4095
