Examples/Curves CMYK - Saturation.3dl
#25pt 3DLUT created by 3D LUT Creator Pro (c) Oleg Sharonov
#Copyright Oleg Sharonov
#INPUTGAMMA sRGB IEC61966-2.1 v.2.10
#IMAGEPROFILE sRGB IEC61966-2.1 v.2.10
#OUTPUTGAMMA sRGB IEC61966-2.1 v.2.10
0 43 86 128 171 214 256 299 341 384 427 469 512 555 597 640 682 725 768 810 853 896 938 981 1023 
0 0 0
0 0 145
0 0 296
0 0 453
0 0 615
0 0 782
0 0 953
0 0 1127
0 0 1304
0 0 1484
0 0 1666
0 0 1850
0 0 2036
0 0 2221
0 0 2404
0 0 2586
0 0 2768
0 0 2949
0 0 3129
0 0 3305
0 0 3476
0 0 3638
0 0 3795
0 0 3947
0 0 4095
0 146 0
0 146 145
0 74 296
0 49 453
0 37 615
0 30 782
0 25 953
0 22 1127
0 19 1304
0 17 1484
0 16 1666
0 14 1850
0 13 2036
0 12 2221
0 12 2404
0 11 2586
0 11 2768
0 10 2949
0 10 3129
0 10 3305
0 9 3476
0 9 3638
0 9 3795
0 9 3947
0 9 4095
0 298 0
0 298 73
0 298 296
0 207 453
0 155 615
0 125 782
0 105 953
0 91 1127
0 81 1304
0 73 1484
0 66 1666
0 61 1850
0 57 2036
0 54 2221
0 51 2404
0 48 2586
0 46 2768
0 44 2949
0 43 3129
0 42 3305
0 41 3476
0 40 3638
0 40 3795
0 39 3947
0 39 4095
0 456 0
0 456 49
0 456 206
0 456 453
0 359 615
0 290 782
0 244 953
0 211 1127
0 187 1304
0 168 1484
0 154 1666
0 142 1850
0 132 2036
0 124 2221
0 117 2404
0 112 2586
0 107 2768
0 103 2949
0 100 3129
0 97 3305
0 95 3476
0 93 3638
0 92 3795
0 92 3947
0 91 4095
0 620 0
0 620 37
0 620 154
0 620 357
0 620 615
0 521 782
0 443 953
0 384 1127
0 340 1304
0 306 1484
0 279 1666
0 258 1850
0 240 2036
0 225 2221
0 213 2404
0 203 2586
0 194 2768
0 187 2949
0 181 3129
0 176 3305
0 172 3476
0 170 3638
0 168 3795
0 167 3947
0 166 4095
0 788 0
0 788 30
0 788 124
0 788 289
0 788 517
0 788 782
0 689 953
0 607 1127
0 541 1304
0 487 1484
0 445 1666
0 410 1850
0 382 2036
0 358 2221
0 338 2404
0 322 2586
0 308 2768
0 296 2949
0 287 3129
0 280 3305
0 274 3476
0 269 3638
0 266 3795
0 264 3947
0 264 4095
0 960 0
0 960 25
0 960 104
0 960 242
0 960 441
0 960 684
0 960 953
0 863 1127
0 779 1304
0 708 1484
0 649 1666
0 600 1850
0 559 2036
0 524 2221
0 495 2404
0 470 2586
0 449 2768
0 433 2949
0 419 3129
0 408 3305
0 399 3476
0 393 3638
0 389 3795
0 386 3947
0 385 4095
0 1135 0
0 1135 22
0 1135 90
0 1135 210
0 1135 383
0 1135 603
0 1135 857
0 1135 1127
0 1041 1304
0 956 1484
0 884 1666
0 821 1850
0 768 2036
0 722 2221
0 682 2404
0 649 2586
0 621 2768
0 597 2949
0 578 3129
0 563 3305
0 551 3476
0 542 3638
0 536 3795
0 532 3947
0 531 4095
0 1314 0
0 1314 19
0 1314 80
0 1314 186
0 1314 338
0 1314 538
0 1314 774
0 1314 1033
0 1314 1304
0 1222 1484
0 1139 1666
0 1066 1850
0 1002 2036
0 946 2221
0 897 2404
0 854 2586
0 818 2768
0 788 2949
0 764 3129
0 744 3305
0 728 3476
0 716 3638
0 708 3795
0 703 3947
0 702 4095
0 1495 0
0 1495 17
0 1495 72
0 1495 167
0 1495 304
0 1495 485
0 1495 704
0 1495 950
0 1495 1214
0 1495 1484
0 1407 1666
0 1327 1850
0 1254 2036
0 1189 2221
0 1132 2404
0 1081 2586
0 1038 2768
0 1002 2949
0 972 3129
0 947 3305
0 928 3476
0 914 3638
0 903 3795
0 897 3947
0 895 4095
0 1678 0
0 1678 16
0 1678 66
0 1678 153
0 1678 277
0 1678 442
0 1678 645
0 1678 878
0 1678 1132
0 1678 1397
0 1678 1666
0 1595 1850
0 1518 2036
0 1447 2221
0 1382 2404
0 1324 2586
0 1275 2768
0 1233 2949
0 1198 3129
0 1169 3305
0 1147 3476
0 1129 3638
0 1118 3795
0 1110 3947
0 1108 4095
0 1864 0
0 1864 15
0 1864 61
0 1864 141
0 1864 256
0 1864 408
0 1864 597
0 1864 816
0 1864 1059
0 1864 1317
0 1864 1584
0 1864 1850
0 1786 2036
0 1711 2221
0 1641 2404
0 1579 2586
0 1524 2768
0 1477 2949
0 1438 3129
0 1405 3305
0 1380 3476
0 1360 3638
0 1347 3795
0 1339 3947
0 1336 4095
0 2051 0
0 2051 14
0 2051 57
0 2051 131
0 2051 239
0 2051 380
0 2051 556
0 2051 764
0 2051 996
0 2051 1246
0 2051 1507
0 2051 1773
0 2051 2036
0 1976 2221
0 1905 2404
0 1839 2586
0 1780 2768
0 1730 2949
0 1687 3129
0 1652 3305
0 1624 3476
0 1602 3638
0 1587 3795
0 1579 3947
0 1576 4095
0 2236 0
0 2236 13
0 2236 53
0 2236 123
0 2236 224
0 2236 356
0 2236 522
0 2236 718
0 2236 940
0 2236 1182
0 2236 1437
0 2236 1699
0 2236 1962
0 2236 2221
0 2166 2404
0 2100 2586
0 2040 2768
0 1987 2949
0 1942 3129
0 1905 3305
0 1875 3476
0 1852 3638
0 1836 3795
0 1826 3947
0 1823 4095
0 2420 0
0 2420 12
0 2420 51
0 2420 117
0 2420 212
0 2420 336
0 2420 492
0 2420 679
0 2420 892
0 2420 1124
0 2420 1372
0 2420 1630
0 2420 1891
0 2420 2151
0 2420 2404
0 2356 2586
0 2297 2768
0 2244 2949
0 2198 3129
0 2159 3305
0 2128 3476
0 2105 3638
0 2088 3795
0 2078 3947
0 2075 4095
0 2603 0
0 2603 11
0 2603 48
0 2603 111
0 2603 201
0 2603 320
0 2603 468
0 2603 646
0 2603 850
0 2603 1075
0 2603 1316
0 2603 1568
0 2603 1826
0 2603 2085
0 2603 2340
0 2603 2586
0 2547 2768
0 2496 2949
0 2451 3129
0 2412 3305
0 2381 3476
0 2357 3638
0 2340 3795
0 2330 3947
0 2327 4095
0 2786 0
0 2786 11
0 2786 46
0 2786 106
0 2786 192
0 2786 306
0 2786 447
0 2786 618
0 2786 814
0 2786 1032
0 2786 1267
0 2786 1513
0 2786 1768
0 2786 2025
0 2786 2281
0 2786 2530
0 2786 2768
0 2738 2949
0 2696 3129
0 2659 3305
0 2629 3476
0 2605 3638
0 2589 3795
0 2579 3947
0 2575 4095
0 2967 0
0 2967 11
0 2967 44
0 2967 102
0 2967 185
0 2967 294
0 2967 430
0 2967 594
0 2967 784
0 2967 996
0 2967 1225
0 2967 1467
0 2967 1718
0 2967 1973
0 2967 2228
0 2967 2478
0 2967 2720
0 2967 2949
0 2929 3129
0 2896 3305
0 2868 3476
0 2846 3638
0 2830 3795
0 2820 3947
0 2817 4095
0 3147 0
0 3147 10
0 3147 43
0 3147 99
0 3147 180
0 3147 285
0 3147 417
0 3147 575
0 3147 760
0 3147 966
0 3147 1190
0 3147 1428
0 3147 1675
0 3147 1928
0 3147 2182
0 3147 2433
0 3147 2678
0 3147 2911
0 3147 3129
0 3118 3305
0 3094 3476
0 3074 3638
0 3060 3795
0 3051 3947
0 3049 4095
0 3322 0
0 3322 10
0 3322 42
0 3322 97
0 3322 175
0 3322 278
0 3322 406
0 3322 560
0 3322 740
0 3322 942
0 3322 1162
0 3322 1396
0 3322 1640
0 3322 1891
0 3322 2144
0 3322 2395
0 3322 2641
0 3322 2877
0 3322 3100
0 3322 3305
0 3303 3476
0 3287 3638
0 3275 3795
0 3268 3947
0 3266 4095
0 3492 0
0 3492 10
0 3492 41
0 3492 95
0 3492 171
0 3492 272
0 3492 397
0 3492 548
0 3492 725
0 3492 923
0 3492 1140
0 3492 1371
0 3492 1613
0 3492 1861
0 3492 2113
0 3492 2364
0 3492 2611
0 3492 2849
0 3492 3075
0 3492 3285
0 3492 3476
0 3480 3638
0 3472 3795
0 3466 3947
0 3465 4095
0 3651 0
0 3651 10
0 3651 40
0 3651 93
0 3651 168
0 3651 267
0 3651 391
0 3651 539
0 3651 713
0 3651 909
0 3651 1123
0 3651 1352
0 3651 1592
0 3651 1839
0 3651 2089
0 3651 2340
0 3651 2587
0 3651 2827
0 3651 3055
0 3651 3269
0 3651 3464
0 3651 3638
0 3646 3795
0 3643 3947
0 3642 4095
0 3805 0
0 3805 9
0 3805 40
0 3805 92
0 3805 167
0 3805 264
0 3805 386
0 3805 533
0 3805 705
0 3805 899
0 3805 1111
0 3805 1338
0 3805 1577
0 3805 1823
0 3805 2073
0 3805 2323
0 3805 2570
0 3805 2811
0 3805 3041
0 3805 3257
0 3805 3455
0 3805 3632
0 3805 3795
0 3803 3947
0 3802 4095
0 3953 0
0 3953 9
0 3953 40
0 3953 91
0 3953 165
0 3953 263
0 3953 384
0 3953 529
0 3953 700
0 3953 893
0 3953 1104
0 3953 1330
0 3953 1568
0 3953 1813
0 3953 2063
0 3953 2313
0 3953 2560
0 3953 2801
0 3953 3032
0 3953 3249
0 3953 3449
0 3953 3628
0 3953 3792
0 3953 3947
0 3953 4095
0 4095 0
0 4095 9
0 4095 40
0 4095 91
0 4095 165
0 4095 262
0 4095 383
0 4095 528
0 4095 698
0 4095 891
0 4095 1102
0 4095 1328
0 4095 1565
0 4095 1810
0 4095 2060
0 4095 2310
0 4095 2557
0 4095 2798
0 4095 3029
0 4095 3247
0 4095 3447
0 4095 3627
0 4095 3791
0 4095 3947
0 4095 4095
145 0 0
145 0 145
74 0 296
50 0 453
38 0 615
31 0 782
26 0 953
23 0 1127
21 0 1304
19 0 1484
18 0 1666
16 0 1850
15 0 2036
15 0 2221
14 0 2404
13 0 2586
13 0 2768
12 0 2949
12 0 3129
12 0 3305
12 0 3476
11 0 3638
11 0 3795
11 0 3947
11 0 4095
145 146 0
145 146 145
74 74 296
50 49 453
38 37 615
31 30 782
26 25 953
23 22 1127
21 19 1304
19 17 1484
18 16 1666
16 14 1850
15 13 2036
15 12 2221
14 12 2404
13 11 2586
13 11 2768
12 10 2949
12 10 3129
12 10 3305
12 9 3476
11 9 3638
11 9 3795
11 9 3947
11 9 4095
74 298 0
74 298 73
74 298 296
50 207 453
38 155 615
31 125 782
26 105 953
23 91 1127
21 81 1304
19 73 1484
18 66 1666
16 61 1850
15 57 2036
15 54 2221
14 51 2404
13 48 2586
13 46 2768
12 44 2949
12 43 3129
12 42 3305
12 41 3476
11 40 3638
11 40 3795
11 39 3947
11 39 4095
50 456 0
50 456 49
50 456 206
50 456 453
38 359 615
31 290 782
26 244 953
23 211 1127
21 187 1304
19 168 1484
18 154 1666
16 142 1850
15 132 2036
15 124 2221
14 117 2404
13 112 2586
13 107 2768
12 103 2949
12 100 3129
12 97 3305
12 95 3476
11 93 3638
11 92 3795
11 92 3947
11 91 4095
38 620 0
38 620 37
38 620 154
38 620 357
38 620 615
31 521 782
26 443 953
23 384 1127
21 340 1304
19 306 1484
18 279 1666
16 258 1850
15 240 2036
15 225 2221
14 213 2404
13 203 2586
13 194 2768
12 187 2949
12 181 3129
12 176 3305
12 172 3476
11 170 3638
11 168 3795
11 167 3947
11 166 4095
31 788 0
31 788 30
31 788 124
31 788 289
31 788 517
31 788 782
26 689 953
23 607 1127
21 541 1304
19 487 1484
18 445 1666
16 410 1850
15 382 2036
15 358 2221
14 338 2404
13 322 2586
13 308 2768
12 296 2949
12 287 3129
12 280 3305
12 274 3476
11 269 3638
11 266 3795
11 264 3947
11 264 4095
26 960 0
26 960 25
26 960 104
26 960 242
26 960 441
26 960 684
26 960 953
23 863 1127
21 779 1304
19 708 1484
18 649 1666
16 600 1850
15 559 2036
15 524 2221
14 495 2404
13 470 2586
13 449 2768
12 433 2949
12 419 3129
12 408 3305
12 399 3476
11 393 3638
11 389 3795
11 386 3947
11 385 4095
23 1135 0
23 1135 22
23 1135 90
23 1135 210
23 1135 383
23 1135 603
23 1135 857
23 1135 1127
21 1041 1304
19 956 1484
18 884 1666
16 821 1850
15 768 2036
15 722 2221
14 682 2404
13 649 2586
13 621 2768
12 597 2949
12 578 3129
12 563 3305
12 551 3476
11 542 3638
11 536 3795
11 532 3947
11 531 4095
21 1314 0
21 1314 19
21 1314 80
21 1314 186
21 1314 338
21 1314 538
21 1314 774
21 1314 1033
21 1314 1304
19 1222 1484
18 1139 1666
16 1066 1850
15 1002 2036
15 946 2221
14 897 2404
13 854 2586
13 818 2768
12 788 2949
12 764 3129
12 744 3305
12 728 3476
11 716 3638
11 708 3795
11 703 3947
11 702 4095
19 1495 0
19 1495 17
19 1495 72
19 1495 167
19 1495 304
19 1495 485
19 1495 704
19 1495 950
19 1495 1214
19 1495 1484
18 1407 1666
16 1327 1850
15 1254 2036
15 1189 2221
14 1132 2404
13 1081 2586
13 1038 2768
12 1002 2949
12 972 3129
12 947 3305
12 928 3476
11 914 3638
11 903 3795
11 897 3947
11 895 4095
18 1678 0
18 1678 16
18 1678 66
18 1678 153
18 1678 277
18 1678 442
18 1678 645
18 1678 878
18 1678 1132
18 1678 1397
18 1678 1666
16 1595 1850
15 1518 2036
15 1447 2221
14 1382 2404
13 1324 2586
13 1275 2768
12 1233 2949
12 1198 3129
12 1169 3305
12 1147 3476
11 1129 3638
11 1118 3795
11 1110 3947
11 1108 4095
