Examples/Curves - Clean neutrals.3dl
#25pt 3DLUT created by 3D LUT Creator Pro (c) Oleg Sharonov
#Copyright Oleg Sharonov
0 128 256 384 512 640 768 896 1023
0 0 0
6 6 478
23 23 964
52 52 1452
97 97 1940
155 155 2428
225 225 2917
295 295 3405
367 367 3893
6 510 6
6 510 510
26 512 1010
55 517 1500
100 530 1984
161 550 2467
230 576 2950
299 609 3434
370 646 3918
26 1022 26
26 1022 518
26 1022 1022
58 1022 1524
103 1024 2019
168 1029 2509
238 1038 2995
306 1052 3479
376 1070 3962
58 1533 58
58 1533 531
58 1533 1028
58 1534 1534
107 1533 2037
171 1534 2535
243 1537 3029
312 1542 3518
383 1550 4005
107 2044 107
107 2044 550
107 2044 1038
107 2045 1539
107 2045 2045
174 2045 2549
245 2045 3049
316 2046 3545
386 2049 4038
174 2555 174
174 2555 575
174 2555 1050
174 2556 1547
174 2556 2050
174 2556 2556
248 2556 3061
318 2556 3562
389 2557 4060
248 3066 248
248 3066 605
248 3066 1067
248 3066 1557
248 3067 2057
248 3067 2561
248 3068 3068
320 3067 3572
393 3067 4074
320 3577 320
320 3577 641
320 3577 1086
320 3577 1570
320 3578 2066
320 3578 2568
320 3579 3073
322 3579 3579
393 3579 4084
394 4088 394
394 4088 682
394 4088 1109
394 4089 1585
394 4089 2077
394 4089 2576
394 4089 3079
394 4090 3584
394 4090 4090
501 6 6
505 6 505
500 23 992
506 55 1475
521 97 1958
542 158 2443
570 228 2928
604 297 3415
643 367 3901
512 512 6
512 512 512
518 518 978
528 528 1470
543 543 1958
564 564 2445
592 592 2932
624 624 3418
661 661 3905
518 1022 26
543 1018 543
545 1019 1019
547 1022 1513
559 1026 2006
579 1033 2495
604 1044 2982
635 1058 3467
671 1077 3951
531 1533 58
554 1530 554
554 1531 1035
556 1532 1532
569 1533 2032
588 1535 2528
614 1538 3021
645 1544 3509
681 1553 3996
550 2044 107
572 2042 572
572 2042 1046
572 2043 1542
573 2044 2044
594 2044 2545
620 2045 3044
652 2047 3539
688 2050 4032
575 2555 174
596 2554 596
596 2554 1060
596 2554 1551
596 2555 2052
596 2556 2556
624 2555 3058
656 2556 3558
694 2557 4056
605 3066 248
626 3065 626
626 3065 1077
626 3065 1562
626 3066 2060
626 3066 2562
626 3067 3067
659 3067 3571
696 3067 4072
641 3577 320
660 3576 660
660 3576 1097
660 3577 1576
661 3577 2069
661 3577 2570
661 3578 3073
661 3579 3579
699 3578 4083
682 4088 394
700 4088 700
700 4088 1119
700 4088 1591
700 4088 2080
700 4088 2578
700 4089 3080
700 4089 3584
700 4090 4090
1005 26 26
1008 26 509
1011 26 1011
1005 55 1500
1005 100 1985
1010 161 2468
1022 230 2951
1037 299 3435
1057 370 3919
1017 514 26
993 528 528
1000 532 1000
1006 537 1492
1011 551 1981
1020 571 2467
1031 596 2951
1047 628 3436
1067 664 3921
1023 1023 26
1022 1022 546
1024 1024 1024
1032 1032 1467
1038 1038 1966
1047 1047 2459
1060 1060 2947
1076 1076 3435
1095 1095 3922
1029 1534 58
1036 1532 556
1074 1523 1074
1077 1526 1526
1066 1533 2014
1070 1537 2507
1080 1543 2998
1094 1550 3488
1112 1560 3975
1038 2045 107
1047 2043 572
1079 2038 1079
1080 2039 1552
1081 2041 2041
1084 2043 2536
1093 2045 3031
1107 2048 3525
1125 2053 4016
1050 2556 174
1060 2554 596
1091 2550 1091
1091 2551 1565
1091 2552 2056
1092 2553 2553
1102 2554 3052
1116 2555 3550
1134 2557 4046
1067 3067 248
1077 3065 626
1106 3062 1106
1106 3063 1578
1106 3063 2067
1107 3064 2564
1107 3065 3065
1122 3065 3566
1141 3066 4066
1086 3578 320
1097 3577 661
1125 3574 1125
1125 3574 1592
1125 3575 2079
1125 3575 2574
1126 3576 3074
1126 3577 3577
1145 3577 4079
1110 4089 394
1120 4088 700
1147 4086 1147
1147 4086 1607
1147 4086 2090
1147 4087 2584
1148 4087 3083
1148 4088 3585
1148 4089 4089
1510 55 55
1512 55 522
1514 58 1015
1518 58 1518
1512 103 2009
1509 165 2495
1510 235 2979
1515 304 3462
1525 374 3945
1519 525 58
1501 542 542
1504 543 1015
1509 545 1509
1509 558 2001
1510 578 2490
1514 603 2975
1520 633 3460
1530 669 3944
1529 1025 58
1522 1028 551
1484 1045 1045
1493 1051 1493
1510 1049 1986
1519 1057 2478
1526 1067 2967
1535 1083 3455
1546 1101 3941
1535 1535 58
1535 1535 557
1533 1533 1081
1536 1536 1536
1545 1545 1957
1550 1550 2457
1557 1557 2953
1566 1566 3446
1577 1577 3935
1540 2046 107
1543 2045 573
1554 2041 1081
1603 2028 1603
1607 2033 2033
1587 2043 2512
1586 2048 3004
1591 2053 3497
1600 2060 3988
1548 2556 174
1552 2555 596
1566 2552 1091
1608 2544 1608
1609 2546 2070
1611 2548 2548
1605 2552 3039
1609 2556 3533
1617 2559 4026
1558 3067 248
1563 3066 626
1579 3064 1106
1616 3058 1616
1616 3059 2086
1617 3060 2570
1618 3062 3062
1621 3064 3557
1629 3065 4054
1570 3578 320
1576 3577 661
1592 3575 1125
1627 3570 1627
1627 3571 2099
1628 3572 2584
1628 3573 3077
1629 3574 3574
1637 3575 4073
1585 4089 394
1591 4088 700
1608 4086 1147
1641 4082 1641
1641 4083 2111
1642 4084 2596
1642 4084 3089
1642 4085 3586
1643 4086 4086
2016 103 103
2016 103 541
2018 103 1023
2021 103 1521
2026 103 2026
2019 168 2517
2015 238 3005
2013 308 3490
2015 377 3973
2023 542 103
2008 560 560
2010 562 1028
2014 563 1519
2019 564 2019
2016 584 2511
2014 609 3000
2015 640 3486
2018 675 3971
2033 1031 107
2025 1036 566
1996 1055 1055
2000 1058 1522
2006 1061 2006
2011 1066 2498
2015 1076 2989
2019 1090 3477
2025 1109 3964
2042 1537 107
2038 1538 571
2026 1542 1072
1977 1562 1562
1986 1569 1986
2014 1564 2478
2026 1568 2972
2034 1575 3465
2042 1586 3955
2047 2047 107
2046 2046 575
2045 2045 1084
2043 2043 1615
2048 2048 2048
2059 2059 2449
2064 2064 2944
2069 2069 3445
2076 2076 3940
2051 2557 174
2053 2557 597
2058 2555 1093
2074 2549 1612
2131 2534 2131
2137 2541 2541
2111 2553 3009
2104 2559 3501
2106 2565 3993
2058 3068 248
2061 3067 626
2069 3065 1107
2088 3061 1617
2139 3049 2139
2141 3052 2589
2144 3055 3055
2129 3062 3541
2128 3066 4033
2067 3579 322
2070 3578 661
2079 3576 1126
2099 3572 1628
2143 3564 2143
2144 3565 2608
2146 3567 3085
2147 3570 3570
2144 3573 4062
2077 4090 394
2081 4089 700
2091 4087 1148
2112 4084 1642
2152 4077 2152
2153 4078 2621
2153 4080 3102
2154 4081 3590
2155 4083 4083
2520 168 168
2520 168 564
2522 168 1035
2525 171 1527
2528 171 2027
2532 171 2532
2525 240 3025
2520 312 3513
2518 381 3999
2526 566 171
2514 585 585
2516 585 1043
2519 586 1528
2522 587 2025
2527 588 2527
2522 614 3019
2519 645 3509
2518 680 3996
2536 1041 171
2528 1048 588
2503 1068 1068
2506 1070 1537
2511 1072 2022
2516 1074 2516
2517 1084 3008
2518 1098 3499
2519 1116 3987
2546 1541 174
2541 1543 593
2527 1550 1080
2488 1571 1571
2493 1575 2027
2500 1579 2500
2513 1579 2993
2520 1585 3485
2525 1595 3975
2553 2048 174
2551 2049 595
2545 2050 1088
2528 2055 1597
2472 2078 2078
2482 2087 2482
2517 2081 2968
2533 2082 3465
2542 2087 3959
2559 2559 174
2558 2558 597
2558 2558 1094
2556 2556 1616
2553 2553 2148
2559 2559 2559
2572 2572 2942
2577 2577 3433
2582 2582 3934
2563 3069 248
2564 3069 627
2567 3067 1108
2574 3064 1619
2594 3057 2145
2658 3039 2658
2666 3048 3048
2634 3063 3506
2623 3071 3996
2569 3580 322
2571 3579 661
2576 3578 1126
2586 3575 1629
2610 3568 2146
2670 3554 2670
2673 3558 3108
2676 3562 3562
2655 3571 4042
2577 4090 394
2579 4090 700
2585 4089 1148
2598 4086 1642
2622 4080 2153
2673 4070 2673
2675 4072 3130
2676 4074 3599
2678 4077 4077
3024 240 240
3025 240 595
3026 243 1050
3028 243 1536
3031 243 2033
3035 243 2534
3039 243 3039
3032 314 3532
3027 384 4021
3029 595 243
3020 614 614
3021 614 1059
3023 615 1540
3026 616 2032
3030 617 2532
3035 618 3035
3029 649 3527
3025 685 4017
3039 1055 243
3031 1063 617
3010 1085 1085
3013 1086 1551
3016 1087 2034
3020 1089 2527
3026 1091 3026
3024 1105 3518
3023 1123 4009
3050 1548 245
3044 1551 620
3030 1560 1093
2998 1582 1582
3002 1584 2046
3007 1587 2525
3012 1590 3012
3018 1595 3505
3021 1604 3996
3059 2052 245
3056 2053 624
3047 2056 1099
3028 2064 1599
2978 2088 2088
2985 2093 2532
2992 2099 2992
3014 2095 3486
3024 2098 3980
3065 2560 248
3064 2560 626
3060 2561 1105
3051 2563 1612
3028 2569 2125
2967 2594 2594
2979 2605 2979
3021 2597 3458
3040 2596 3956
3070 3070 248
3070 3070 627
3069 3069 1109
3068 3068 1622
3066 3066 2152
3064 3064 2680
3071 3071 3071
3085 3085 3433
3090 3090 3923
3075 3581 322
3075 3580 661
3077 3579 1127
3081 3577 1631
3090 3573 2149
3114 3565 2678
3186 3545 3186
3196 3555 3555
3155 3573 4004
3080 4091 394
3081 4091 701
3085 4090 1148
3091 4088 1643
3105 4084 2155
3133 4075 2677
3199 4059 3199
3203 4064 3626
3207 4069 4069
3529 314 314
3529 314 630
3530 314 1070
3532 314 1548
3535 314 2040
3538 316 2539
3542 316 3041
3546 316 3546
3539 388 4039
3533 631 314
3525 649 649
3526 649 1079
3528 649 1553
3531 650 2042
3534 651 2538
3538 652 3039
3543 653 3543
3537 689 4036
3542 1074 316
3535 1082 651
3517 1105 1105
3519 1105 1565
3522 1106 2046
3525 1107 2537
3530 1109 3034
3535 1111 3535
3531 1128 4028
3552 1558 318
3547 1562 654
3534 1572 1110
3505 1595 1595
3508 1597 2060
3512 1599 2540
3517 1601 3029
3523 1604 3523
3524 1612 4015
3563 2057 318
3559 2059 656
3550 2063 1116
3531 2074 1608
3490 2098 2098
3495 2100 2555
3501 2104 3026
3507 2108 3507
3518 2109 4000
3571 2563 320
3569 2563 659
3563 2565 1121
3552 2569 1618
3527 2579 2120
3470 2605 2605
3477 2611 3037
3486 2618 3486
3514 2612 3978
3577 3071 320
3576 3072 660
3574 3072 1124
3568 3073 1626
3557 3075 2139
3529 3083 2651
3461 3110 3110
3474 3123 3474
3525 3113 3951
3582 3582 322
3582 3582 662
3581 3581 1127
3580 3580 1632
3579 3579 2153
3576 3576 2687
3574 3574 3213
3583 3583 3583
3599 3599 3921
3586 4092 394
3587 4092 701
3588 4091 1149
3590 4090 1644
3595 4087 2157
3607 4082 2682
3634 4072 3210
3716 4049 3716
3728 4061 4061
4033 386 386
4034 386 670
4034 386 1093
4036 386 1563
4038 388 2050
4041 388 2545
4045 388 3045
4049 388 3547
4053 389 4053
4037 671 386
4030 688 688
4031 688 1102
4033 689 1568
4035 689 2052
4038 690 2546
4041 691 3043
4045 691 3545
4050 692 4050
4044 1096 388
4038 1104 690
4023 1127 1127
4025 1128 1582
4027 1128 2059
4030 1129 2547
4034 1131 3042
4038 1132 3541
4043 1133 4043
4055 1571 389
4050 1575 692
4038 1587 1132
4012 1611 1611
4015 1612 2075
4018 1613 2554
4023 1615 3041
4027 1617 3535
4033 1619 4033
4066 2064 391
4062 2067 695
4053 2073 1137
4034 2085 1620
3999 2109 2109
4003 2111 2571
4007 2113 3046
4013 2116 3529
4019 2120 4019
4075 2567 393
4073 2568 697
4066 2571 1141
4054 2577 1629
4030 2589 2126
3982 2614 2614
3987 2618 3064
3994 2622 3528
4001 2627 4001
4083 3074 393
4082 3074 698
4078 3075 1144
4070 3078 1636
4055 3083 2140
4026 3094 2644
3962 3122 3122
3971 3128 3543
3980 3136 3980
4089 3583 394
4088 3583 700
4086 3583 1147
4083 3584 1641
4075 3585 2151
4061 3588 2668
4031 3597 3177
3953 3628 3628
3968 3642 3968
4094 4094 394
4094 4094 701
4093 4093 1149
4092 4092 1645
4091 4091 2160
4089 4089 2687
4087 4087 3221
4084 4084 3749
4095 4095 4095
