Examples/Gradient map toning (Brown shadows, Cyan highlights).3dl
#25pt 3DLUT created by 3D LUT Creator Pro (c) Oleg Sharonov
#Copyright Oleg Sharonov
#IMAGEPROFILE sRGB IEC61966-2.1 v.2.10
#INPUTGAMMA sRGB IEC61966-2.1 v.2.10
#OUTPUTGAMMA sRGB IEC61966-2.1 v.2.10
0 43 86 128 171 214 256 299 341 384 427 469 512 555 597 640 682 725 768 810 853 896 938 981 1023 
0 0 0
2 2 93
2 2 195
4 4 305
7 7 425
11 11 552
14 14 688
14 18 835
14 24 988
9 31 1150
4 34 1319
20 31 1492
36 24 1671
54 14 1854
61 16 2041
67 16 2231
71 18 2427
72 18 2626
72 18 2828
69 18 3033
63 16 3242
54 13 3452
40 9 3665
22 5 3879
0 0 4095
5 133 5
5 133 99
7 135 201
9 137 310
11 138 429
14 142 557
18 146 692
18 151 839
16 156 992
11 162 1153
11 164 1321
25 160 1494
43 151 1672
54 149 1855
61 151 2041
67 153 2232
72 153 2428
74 155 2627
74 155 2829
72 153 3034
67 153 3243
58 151 3453
45 147 3666
27 144 3880
5 140 4095
13 270 13
14 270 108
16 272 210
18 273 321
20 275 438
24 278 563
25 282 698
24 285 844
20 289 998
11 292 1158
20 292 1325
34 286 1497
47 283 1675
56 285 1856
63 286 2043
71 287 2234
76 289 2430
80 289 2629
80 289 2831
78 290 3036
74 289 3244
65 289 3455
52 287 3667
36 286 3881
14 283 4095
27 410 27
27 410 122
29 411 224
31 412 334
33 413 448
34 415 572
34 416 706
31 418 851
24 422 1004
20 422 1164
31 421 1329
42 421 1501
51 422 1678
60 423 1860
67 424 2046
76 425 2237
81 426 2433
87 427 2631
89 428 2834
89 429 3039
83 430 3247
76 430 3457
65 430 3670
49 430 3884
29 429 4095
38 550 38
38 550 133
40 550 235
40 551 345
42 552 457
43 553 579
40 554 713
31 557 858
24 559 1009
27 561 1169
34 562 1334
43 562 1505
52 564 1682
61 565 1863
72 566 2050
80 567 2241
89 569 2436
94 570 2635
97 571 2837
99 573 3042
96 574 3250
90 575 3460
80 576 3672
65 577 3886
47 578 4095
29 697 42
29 698 138
29 698 242
29 698 350
29 700 462
29 701 583
24 703 719
22 704 863
25 706 1014
31 707 1173
36 708 1338
45 709 1509
54 711 1686
65 712 1867
76 713 2054
85 714 2245
94 716 2440
101 717 2639
106 719 2841
109 720 3046
108 722 3254
104 725 3464
96 726 3676
83 728 3889
65 730 4095
13 849 43
13 850 140
14 850 244
16 851 353
20 851 464
24 852 588
25 853 724
27 854 868
29 856 1019
34 857 1178
40 858 1343
49 859 1514
58 861 1690
67 862 1872
78 864 2058
89 865 2249
99 867 2444
108 869 2643
114 871 2845
117 873 3050
119 875 3257
117 878 3467
111 880 3679
101 882 3892
85 885 4095
22 1003 43
24 1003 142
25 1003 246
27 1004 354
31 1005 468
33 1005 594
33 1006 730
34 1008 874
36 1009 1025
40 1010 1183
45 1012 1347
51 1014 1518
60 1015 1694
71 1016 1876
81 1018 2062
92 1020 2253
103 1022 2448
112 1024 2647
119 1026 2848
125 1029 3053
126 1031 3261
126 1034 3470
123 1037 3682
115 1040 3895
104 1044 4095
34 1160 40
36 1160 140
38 1160 248
40 1161 356
42 1161 473
42 1162 600
42 1163 736
42 1165 880
43 1166 1030
45 1167 1188
51 1169 1352
56 1171 1522
63 1172 1699
72 1174 1880
83 1176 2066
94 1178 2257
104 1181 2452
114 1183 2650
123 1185 2852
129 1188 3056
133 1191 3264
135 1194 3473
133 1198 3685
127 1201 3898
119 1205 4095
49 1320 36
51 1320 138
52 1320 248
52 1321 360
51 1321 479
51 1322 606
51 1324 742
51 1325 885
52 1326 1036
54 1328 1193
56 1330 1357
61 1331 1527
69 1333 1703
76 1336 1884
85 1338 2070
96 1340 2261
106 1342 2455
115 1345 2653
125 1348 2855
132 1351 3060
136 1354 3267
139 1357 3476
139 1361 3688
136 1365 3901
129 1369 4095
63 1483 34
63 1484 140
63 1484 253
63 1484 367
61 1485 485
61 1486 612
61 1487 748
61 1489 891
61 1490 1041
61 1492 1198
65 1494 1362
69 1496 1532
74 1498 1707
80 1500 1888
89 1502 2074
97 1505 2264
108 1508 2458
117 1511 2656
126 1514 2858
133 1517 3062
139 1520 3269
141 1524 3478
143 1528 3690
141 1532 3903
136 1536 4095
74 1651 40
74 1651 147
74 1651 259
74 1652 373
72 1653 491
72 1654 619
72 1655 754
71 1656 897
71 1658 1047
72 1659 1204
72 1661 1367
76 1663 1536
80 1666 1711
85 1668 1892
92 1671 2077
101 1673 2267
109 1676 2461
117 1679 2659
126 1682 2860
133 1686 3064
139 1689 3271
143 1693 3480
145 1697 3691
144 1702 3904
140 1706 4095
85 1821 45
85 1822 153
85 1822 267
85 1822 378
83 1823 498
83 1824 624
83 1825 760
81 1827 902
81 1828 1052
81 1830 1209
81 1832 1372
83 1834 1541
87 1837 1716
90 1839 1896
96 1842 2081
103 1844 2270
109 1848 2464
117 1851 2661
125 1854 2862
132 1857 3066
137 1861 3273
141 1865 3482
144 1869 3692
144 1874 3905
143 1879 4095
96 1995 51
96 1996 160
96 1996 272
94 1997 385
94 1997 504
94 1998 630
92 1999 766
92 2001 908
90 2002 1057
90 2004 1214
90 2006 1377
90 2008 1545
92 2011 1720
96 2013 1899
99 2016 2084
104 2019 2273
111 2022 2467
117 2025 2664
123 2029 2864
130 2032 3068
136 2036 3274
140 2040 3483
143 2044 3693
143 2049 3905
141 2054 4095
104 2173 54
104 2173 165
104 2173 278
103 2174 389
103 2175 509
103 2176 636
101 2177 771
101 2178 913
99 2180 1063
99 2182 1218
97 2183 1381
97 2186 1549
99 2188 1724
101 2191 1903
103 2193 2087
108 2196 2276
111 2199 2469
117 2202 2665
122 2206 2866
127 2210 3069
132 2213 3275
136 2217 3483
139 2222 3693
140 2226 3905
140 2231 4095
111 2354 58
111 2354 169
111 2354 282
111 2355 394
109 2355 514
109 2356 641
109 2357 775
108 2359 918
106 2360 1068
106 2362 1224
104 2364 1386
104 2366 1554
104 2368 1727
104 2371 1907
106 2373 2090
109 2376 2278
112 2379 2471
115 2383 2667
120 2386 2867
125 2389 3070
129 2393 3275
132 2397 3483
135 2401 3693
135 2406 3904
148 2411 4095
115 2537 60
115 2537 173
115 2538 285
114 2538 398
114 2539 517
114 2540 645
112 2541 781
112 2542 923
111 2543 1072
111 2545 1228
109 2547 1390
108 2549 1558
108 2551 1731
108 2554 1910
109 2556 2093
109 2559 2281
112 2562 2473
114 2565 2669
117 2568 2868
120 2572 3071
123 2576 3276
126 2579 3483
127 2584 3692
127 2588 3903
165 2592 4095
117 2724 61
117 2724 174
117 2724 287
117 2725 400
115 2725 520
115 2726 648
115 2727 784
114 2728 927
114 2730 1077
112 2731 1232
111 2733 1394
111 2735 1562
109 2737 1735
109 2739 1913
109 2742 2096
109 2744 2283
111 2747 2475
112 2750 2670
114 2753 2869
115 2757 3071
117 2760 3276
119 2764 3483
120 2768 3692
120 2772 3902
149 2776 4095
115 2913 60
115 2913 174
115 2914 287
115 2914 401
115 2915 523
114 2915 652
114 2916 788
114 2917 931
112 2919 1081
112 2920 1237
111 2922 1398
109 2924 1566
109 2926 1738
108 2928 1916
108 2930 2099
106 2932 2286
108 2935 2477
108 2938 2672
108 2941 2870
109 2943 3071
111 2947 3275
111 2950 3482
111 2954 3690
109 2957 3901
130 2961 4095
111 3105 58
111 3105 173
111 3106 287
111 3106 402
111 3106 524
111 3107 654
109 3108 791
109 3109 934
109 3110 1084
108 3111 1240
106 3113 1402
106 3114 1569
104 3116 1742
103 3118 1919
103 3120 2101
101 3122 2288
101 3125 2478
101 3127 2673
101 3130 2871
101 3132 3072
101 3135 3275
101 3138 3481
99 3141 3689
97 3144 3899
94 3148 4095
101 3299 52
101 3300 169
101 3300 283
101 3300 400
101 3301 524
101 3301 655
101 3302 793
101 3303 937
99 3304 1088
99 3305 1244
97 3306 1406
97 3308 1573
96 3309 1745
96 3311 1922
94 3312 2104
92 3314 2290
92 3316 2480
90 3318 2674
90 3321 2871
90 3323 3072
89 3325 3275
87 3328 3480
85 3330 3687
83 3333 3896
80 3336 4095
85 3496 43
85 3496 162
85 3496 279
85 3496 398
85 3497 523
85 3497 655
85 3498 794
85 3499 939
85 3499 1090
85 3500 1247
85 3501 1409
83 3503 1576
83 3504 1748
81 3505 1925
81 3507 2106
80 3508 2292
78 3510 2482
78 3511 2675
76 3513 2872
76 3515 3072
74 3517 3274
72 3519 3479
69 3520 3686
67 3522 3894
61 3525 4095
63 3694 33
63 3694 151
63 3694 272
63 3695 392
63 3695 520
63 3695 655
65 3696 795
65 3696 941
65 3697 1092
65 3698 1249
65 3698 1412
65 3699 1579
65 3700 1751
63 3701 1928
63 3702 2109
61 3703 2294
61 3704 2483
60 3706 2676
60 3707 2872
58 3708 3072
56 3709 3273
54 3710 3478
51 3712 3684
47 3713 3892
43 3714 4095
34 3894 18
34 3894 137
34 3894 261
36 3894 386
36 3895 516
36 3895 652
38 3895 794
38 3895 941
38 3896 1094
38 3896 1252
40 3897 1414
40 3897 1582
40 3898 1754
40 3898 1930
40 3899 2111
40 3900 2296
40 3900 2485
38 3901 2677
38 3901 2873
36 3902 3072
34 3903 3273
33 3903 3476
31 3904 3682
27 3904 3889
22 3905 4095
0 4095 0
0 4095 120
0 4095 246
2 4095 376
2 4095 510
2 4095 649
4 4095 793
4 4095 942
5 4095 1095
7 4095 1254
7 4095 1417
9 4095 1584
11 4095 1756
11 4095 1933
11 4095 2114
13 4095 2298
13 4095 2487
13 4095 2678
13 4095 2874
11 4095 3072
11 4095 3272
9 4095 3475
7 4095 3680
4 4095 3887
0 4095 4095
194 0 0
194 0 95
194 2 199
194 4 312
195 5 433
197 9 561
198 13 697
197 18 843
194 24 996
187 29 1157
192 31 1325
203 27 1498
212 20 1676
220 14 1858
223 16 2044
227 16 2235
228 18 2430
229 18 2628
228 18 2830
226 18 3035
220 16 3243
212 13 3453
201 9 3666
186 5 3880
165 0 4095
197 131 4
197 133 100
198 133 204
198 135 317
200 138 438
200 142 564
201 146 700
200 151 847
195 156 1000
191 160 1161
198 158 1327
207 155 1499
216 149 1677
220 149 1859
223 151 2045
227 153 2236
229 153 2431
231 155 2629
229 155 2831
227 155 3036
223 153 3244
215 151 3454
205 149 3667
191 146 3881
171 140 4095
204 269 13
204 270 109
204 270 213
204 273 328
205 275 444
207 278 571
207 280 706
204 285 852
198 287 1005
198 289 1164
205 286 1330
214 283 1502
218 283 1679
222 285 1860
226 286 2047
229 287 2238
232 289 2432
233 289 2631
233 290 2833
232 290 3038
228 290 3246
222 289 3456
211 287 3668
198 286 3882
179 283 4095
212 409 25
212 410 124
212 410 228
212 411 339
214 413 455
214 414 578
212 416 713
207 418 858
203 419 1010
208 418 1169
212 419 1335
216 421 1506
220 422 1682
224 423 1864
228 424 2050
233 426 2241
237 427 2435
238 428 2634
239 429 2836
238 430 3041
236 430 3248
229 431 3458
220 431 3670
208 431 3884
192 430 4095
219 549 36
219 549 133
219 550 239
218 551 348
218 552 462
218 554 584
212 556 720
208 558 864
210 559 1015
211 560 1174
214 562 1339
218 562 1510
222 564 1686
227 566 1867
232 566 2054
237 568 2244
240 570 2439
244 571 2637
245 572 2839
245 573 3044
243 575 3251
239 576 3461
232 577 3673
220 578 3887
205 579 4095
210 698 40
210 698 138
208 699 244
208 700 353
210 701 466
211 702 589
211 703 725
211 704 869
211 706 1020
212 707 1179
215 708 1343
219 709 1514
223 711 1690
228 712 1872
234 714 2058
240 715 2248
245 717 2443
249 718 2641
252 720 2843
253 722 3048
252 723 3255
249 726 3465
243 728 3676
233 729 3890
220 731 4095
208 849 42
210 849 140
211 850 248
212 850 356
214 851 469
215 852 593
214 853 730
214 854 874
214 856 1025
215 857 1183
218 858 1348
220 860 1518
226 861 1694
231 863 1876
237 865 2062
243 866 2252
249 868 2447
253 870 2645
256 872 2847
259 874 3051
259 876 3258
258 879 3468
252 882 3679
245 884 3893
234 887 4095
215 1003 42
215 1003 142
216 1003 249
218 1004 357
219 1005 472
219 1005 599
218 1007 736
218 1008 880
218 1009 1031
218 1011 1189
220 1012 1353
223 1014 1523
227 1016 1699
232 1018 1880
239 1019 2066
245 1021 2256
251 1023 2451
256 1025 2649
261 1028 2850
264 1030 3055
265 1033 3262
264 1036 3471
261 1038 3683
255 1042 3896
246 1045 4095
222 1160 40
223 1160 140
224 1160 249
224 1161 358
224 1162 477
223 1162 605
223 1164 741
222 1165 885
222 1166 1035
222 1168 1193
223 1170 1357
226 1172 1527
229 1173 1703
234 1175 1884
240 1177 2070
246 1180 2260
253 1182 2454
259 1184 2652
263 1187 2854
267 1190 3058
269 1193 3265
270 1196 3474
268 1199 3686
264 1203 3898
256 1207 4095
229 1320 36
231 1321 138
231 1321 249
231 1321 363
229 1322 483
229 1323 611
228 1324 747
227 1326 890
226 1327 1041
226 1329 1198
227 1330 1362
228 1333 1532
232 1335 1707
237 1337 1888
242 1339 2073
247 1341 2263
254 1344 2458
260 1346 2656
265 1349 2857
269 1352 3061
272 1355 3268
273 1359 3477
273 1363 3688
270 1367 3901
264 1371 4095
238 1484 34
237 1484 140
237 1485 254
236 1485 369
236 1486 489
234 1487 617
233 1488 753
232 1490 896
231 1491 1046
231 1493 1203
231 1495 1366
232 1497 1536
234 1499 1711
239 1501 1892
244 1504 2077
249 1507 2267
254 1509 2461
261 1512 2659
266 1515 2859
270 1518 3064
273 1522 3270
276 1525 3479
277 1529 3690
275 1534 3903
270 1538 4095
