Examples/Gradient map.3dl
#25pt 3DLUT created by 3D LUT Creator Pro (c) Oleg Sharonov
#Copyright Oleg Sharonov
#IMAGEPROFILE Nikon sRGB 4.0.0.3001 v.2.20
#INPUTGAMMA Nikon sRGB 4.0.0.3001 v.2.20
#OUTPUTGAMMA Nikon sRGB 4.0.0.3001 v.2.20
0 43 86 128 171 214 256 299 341 384 427 469 512 555 597 640 682 725 768 810 853 896 938 981 1023 
350 193 1320
365 200 1315
389 211 1307
422 227 1295
467 248 1280
525 275 1261
586 304 1240
646 333 1220
706 361 1200
767 390 1179
827 418 1159
888 447 1138
949 475 1118
1009 504 1098
1069 532 1077
1130 561 1057
1190 589 1037
1251 618 1016
1312 647 996
1372 675 975
1432 704 955
1493 733 934
1553 761 914
1614 790 894
1675 818 873
461 245 1282
476 252 1277
500 263 1269
531 278 1259
568 296 1246
611 316 1232
659 339 1216
709 362 1199
760 387 1181
815 412 1163
870 438 1145
925 464 1126
983 492 1106
1040 518 1087
1098 546 1068
1156 573 1048
1214 601 1028
1273 629 1008
1332 656 989
1391 684 969
1451 713 949
1510 741 929
1569 769 909
1629 797 889
1689 825 868
593 307 1238
605 313 1234
619 320 1229
641 330 1222
668 343 1213
701 358 1201
739 376 1189
781 396 1175
826 418 1159
873 440 1143
922 463 1127
974 487 1109
1026 512 1092
1080 538 1074
1134 563 1055
1190 589 1037
1246 616 1018
1303 643 999
1360 670 979
1417 697 960
1475 724 941
1533 751 921
1591 779 901
1650 806 882
1708 834 862
729 372 1192
738 376 1189
748 381 1186
763 388 1180
783 397 1174
809 409 1165
839 424 1155
873 440 1143
911 458 1131
951 477 1117
995 497 1102
1040 519 1087
1088 541 1071
1137 565 1054
1188 588 1037
1239 613 1020
1292 638 1002
1346 663 984
1400 689 966
1455 715 947
1511 741 929
1566 767 910
1623 794 891
1680 821 871
1737 848 852
865 436 1146
871 439 1144
880 443 1141
891 448 1137
907 456 1132
927 465 1125
951 477 1117
979 490 1108
1010 504 1097
1045 521 1085
1083 539 1073
1123 558 1059
1165 578 1045
1209 598 1030
1255 620 1015
1303 643 998
1352 666 982
1402 690 965
1453 714 948
1505 738 930
1558 763 912
1611 788 895
1665 814 876
1720 840 858
1775 866 839
1002 500 1100
1006 502 1099
1013 506 1096
1022 510 1093
1035 516 1089
1051 524 1083
1071 533 1077
1094 544 1069
1120 556 1060
1150 570 1050
1182 586 1039
1217 602 1027
1255 620 1015
1294 638 1002
1336 658 987
1379 679 973
1424 700 958
1470 722 942
1518 744 926
1567 767 910
1616 791 893
1667 815 876
1718 839 858
1771 864 841
1824 889 823
1137 565 1054
1142 567 1053
1147 569 1051
1154 572 1049
1165 577 1045
1178 584 1041
1195 592 1035
1214 601 1028
1236 611 1021
1262 623 1012
1290 637 1003
1321 651 992
1354 667 981
1389 683 969
1426 701 957
1466 720 944
1507 739 930
1549 759 915
1594 780 901
1639 801 885
1686 823 870
1733 846 854
1782 869 837
1831 892 820
1881 916 804
1273 629 1008
1276 630 1007
1281 632 1006
1288 635 1004
1296 640 1001
1308 645 997
1322 652 992
1339 660 986
1358 669 980
1380 679 973
1404 691 964
1431 703 955
1461 717 945
1492 732 935
1526 748 923
1561 764 912
1599 782 899
1638 801 886
1678 820 872
1720 840 858
1764 860 843
1808 881 828
1854 903 813
1900 925 797
1948 947 781
1410 693 962
1412 694 962
1416 696 960
1421 699 959
1429 702 956
1439 707 953
1451 713 949
1465 719 944
1482 727 938
1501 736 932
1523 747 924
1547 758 916
1573 770 908
1601 783 898
1631 798 888
1663 813 877
1697 829 866
1733 846 854
1770 863 841
1809 882 828
1849 901 814
1891 920 800
1934 941 786
1978 961 771
2023 983 756
1545 757 917
1548 758 916
1551 760 915
1556 762 913
1562 765 911
1571 769 908
1581 774 905
1594 780 900
1609 787 895
1626 795 890
1645 804 883
1666 814 876
1690 825 868
1715 837 860
1742 850 850
1771 864 841
1802 879 830
1835 894 819
1869 910 808
1905 927 796
1942 945 783
1981 963 770
2021 982 757
2062 1001 743
2104 1021 728
1682 822 871
1684 822 870
1687 824 869
1690 826 868
1697 829 866
1704 832 863
1713 836 860
1724 842 856
1738 848 852
1753 855 847
1770 863 841
1789 872 835
1810 882 828
1833 893 820
1857 905 812
1884 917 803
1912 930 793
1942 944 783
1973 959 773
2006 975 761
2041 991 750
2077 1008 738
2114 1026 725
2153 1044 712
2193 1063 699
1818 886 825
1819 887 824
1822 888 824
1826 890 822
1831 892 821
1837 895 818
1846 899 815
1856 904 812
1868 909 808
1881 916 804
1897 923 798
1914 931 793
1933 940 786
1953 950 779
1976 960 772
2000 972 764
2026 984 755
2053 997 746
2082 1011 736
2113 1025 726
2145 1040 715
2178 1056 703
2213 1072 692
2249 1089 680
2286 1107 667
1954 950 779
1955 951 779
1958 952 778
1961 953 777
1965 956 775
1972 958 773
1979 962 771
1988 966 768
1999 971 764
2011 977 760
2025 984 755
2040 991 750
2058 999 744
2076 1008 738
2097 1018 731
2119 1028 723
2143 1039 715
2168 1051 707
2195 1064 698
2223 1077 688
2253 1091 678
2284 1106 668
2316 1121 657
2350 1137 646
2385 1154 634
2090 1014 733
2091 1015 733
2093 1016 732
2096 1017 731
2100 1019 730
2106 1022 728
2113 1025 726
2121 1029 723
2130 1033 720
2142 1039 716
2154 1045 712
2168 1051 707
2184 1059 702
2201 1067 696
2220 1076 689
2240 1085 683
2262 1096 675
2286 1107 667
2310 1118 659
2337 1131 650
2364 1144 641
2393 1158 631
2423 1172 621
2455 1187 610
2488 1202 599
2226 1078 688
2227 1079 687
2229 1080 686
2232 1081 685
2235 1083 684
2240 1085 683
2247 1088 680
2254 1092 678
2263 1096 675
2273 1101 671
2285 1106 668
2297 1112 663
2312 1119 658
2328 1127 653
2345 1135 647
2364 1144 641
2384 1153 634
2406 1163 627
2428 1174 619
2453 1186 611
2479 1198 602
2506 1211 593
2534 1224 584
2564 1238 574
2594 1252 563
2362 1143 642
2363 1143 641
2365 1144 641
2367 1145 640
2371 1147 639
2375 1149 637
2381 1152 635
2388 1155 633
2396 1159 630
2405 1163 627
2416 1168 623
2428 1174 619
2441 1180 615
2456 1187 610
2472 1195 605
2489 1203 599
2508 1212 592
2528 1221 586
2549 1231 578
2572 1242 571
2596 1253 563
2621 1265 554
2647 1278 545
2675 1291 536
2704 1304 526
2498 1207 596
2499 1207 595
2500 1208 595
2502 1209 594
2506 1211 593
2510 1213 592
2515 1215 590
2522 1218 588
2529 1222 585
2538 1226 582
2548 1230 579
2558 1236 575
2571 1241 571
2584 1248 567
2599 1255 562
2615 1262 556
2633 1271 550
2651 1279 544
2671 1289 537
2693 1299 530
2715 1309 523
2739 1321 515
2764 1332 506
2789 1345 497
2817 1357 488
2634 1271 550
2634 1271 550
2636 1272 549
2638 1273 548
2641 1275 547
2645 1277 546
2650 1279 544
2656 1281 542
2663 1285 540
2671 1289 537
2680 1293 534
2690 1298 531
2701 1303 527
2714 1309 523
2728 1316 518
2743 1323 513
2759 1330 508
2776 1339 502
2795 1347 495
2815 1357 489
2836 1367 482
2858 1377 474
2882 1388 466
2906 1400 458
2932 1412 450
2770 1335 504
2770 1336 504
2772 1336 503
2774 1337 503
2777 1339 502
2780 1340 500
2785 1342 499
2790 1345 497
2797 1348 495
2804 1352 492
2813 1356 490
2822 1360 486
2833 1365 483
2844 1371 479
2857 1377 474
2871 1383 470
2887 1390 465
2903 1398 459
2920 1406 453
2939 1415 447
2959 1424 440
2979 1434 433
3001 1445 426
3024 1456 418
3049 1467 410
2906 1399 458
2906 1400 458
2908 1400 458
2910 1401 457
2912 1403 456
2916 1404 455
2920 1406 453
2925 1409 452
2931 1411 450
2938 1415 447
2946 1418 445
2955 1423 442
2965 1427 438
2975 1432 435
2988 1438 431
3001 1444 426
3015 1451 421
3030 1458 416
3047 1466 411
3064 1474 405
3083 1483 399
3102 1492 392
3123 1502 385
3145 1512 378
3167 1523 370
3042 1464 412
3042 1464 412
3044 1465 412
3045 1465 411
3048 1467 410
3051 1468 409
3055 1470 408
3060 1472 406
3065 1475 404
3072 1478 402
3079 1481 400
3087 1485 397
3097 1490 394
3107 1495 390
3118 1500 387
3131 1506 382
3144 1512 378
3159 1519 373
3174 1526 368
3190 1534 362
3208 1542 356
3227 1551 350
3246 1560 344
3267 1570 337
3288 1580 329
3178 1528 367
3178 1528 366
3179 1529 366
3181 1529 365
3183 1531 365
3186 1532 364
3190 1534 362
3194 1536 361
3200 1538 359
3206 1541 357
3213 1545 355
3221 1548 352
3229 1552 349
3239 1557 346
3250 1562 342
3261 1567 338
3274 1573 334
3288 1580 329
3302 1587 325
3318 1594 319
3334 1602 314
3352 1610 308
3370 1619 302
3390 1628 295
3410 1638 288
3313 1592 321
3314 1593 320
3315 1593 320
3317 1594 320
3319 1595 319
3322 1596 318
3325 1598 317
3329 1600 315
3334 1602 314
3340 1605 312
3347 1608 310
3354 1611 307
3362 1615 304
3371 1619 301
3382 1624 298
3393 1629 294
3405 1635 290
3417 1641 286
3431 1648 281
3446 1654 276
3461 1662 271
3478 1670 265
3496 1678 259
3514 1687 253
3534 1696 247
3450 1656 275
3450 1657 275
3451 1657 274
3453 1658 274
3455 1659 273
3457 1660 272
3461 1662 271
3465 1663 270
3469 1666 268
3474 1668 266
3481 1671 264
3488 1674 262
3496 1678 259
3504 1682 256
3514 1687 253
3524 1692 250
3535 1697 246
3548 1703 242
3561 1709 237
3574 1715 233
3589 1722 228
3605 1730 222
3622 1738 217
3639 1746 211
3658 1755 205
3585 1721 229
3586 1721 229
3587 1721 229
3588 1722 228
3590 1723 227
3593 1724 227
3596 1725 226
3600 1727 224
3604 1729 223
3609 1732 221
3615 1734 219
3622 1738 217
3629 1741 214
3637 1745 212
3646 1749 209
3656 1754 205
3667 1759 202
3678 1764 198
3691 1770 194
3704 1776 189
3718 1783 184
3733 1790 179
3749 1798 174
3766 1806 168
3783 1814 162
398 215 1304
413 223 1298
434 232 1291
467 248 1280
514 270 1264
566 295 1247
618 319 1230
673 345 1211
730 372 1192
789 400 1172
846 427 1153
905 455 1133
963 482 1113
1022 510 1093
1082 538 1073
1141 566 1053
1201 594 1033
1260 623 1013
1320 651 993
1380 679 972
1440 708 952
1501 736 932
1560 764 912
1620 793 891
1681 821 871
509 268 1266
523 274 1262
541 283 1255
568 296 1246
603 312 1234
643 331 1221
685 351 1207
732 373 1191
782 397 1174
833 421 1157
887 446 1139
942 472 1120
996 498 1102
1053 525 1083
1110 551 1064
1167 578 1044
1224 606 1025
1283 633 1005
1341 661 986
1400 688 966
1458 716 946
1517 744 926
1577 772 906
1635 800 886
1695 828 866
625 323 1227
637 328 1223
650 334 1219
669 344 1212
695 355 1204
726 370 1193
762 387 1181
801 406 1168
844 426 1153
890 448 1138
938 470 1122
988 494 1105
1040 518 1087
1093 543 1069
1146 569 1051
1201 594 1033
1256 621 1014
1312 647 996
1368 674 976
1425 700 957
1482 727 938
1540 755 919
1598 782 899
1656 809 880
1714 837 860
752 383 1184
760 387 1181
770 391 1178
785 398 1173
804 407 1167
828 419 1158
858 432 1149
890 448 1138
927 465 1125
966 484 1112
1009 504 1098
1053 525 1083
1100 547 1067
1149 570 1051
1198 593 1034
1249 617 1017
1302 642 999
1354 667 981
1408 692 963
1462 718 945
1518 744 926
1573 770 907
1629 797 888
1686 824 869
1743 850 850
883 444 1140
888 447 1138
897 451 1135
908 456 1132
923 463 1127
943 473 1120
966 484 1112
994 497 1103
1024 511 1093
1058 527 1081
1095 544 1069
1134 563 1055
1176 583 1041
1219 603 1027
1265 625 1011
1312 647 996
1360 670 979
1410 693 962
1461 717 945
1512 742 928
1565 766 910
1618 791 892
1672 817 874
1726 842 856
1781 868 837
1015 507 1095
1020 509 1094
1026 512 1092
1035 516 1089
1048 522 1085
1064 530 1079
1083 539 1073
1106 550 1065
1132 562 1056
1161 576 1046
1193 591 1036
1227 607 1024
1264 624 1012
1303 643 998
1345 662 984
1387 682 970
1432 704 955
1478 725 939
1525 748 924
1574 771 907
1623 794 891
1674 818 874
1724 842 856
1776 866 839
1829 891 821
1149 570 1051
1153 572 1049
1158 574 1047
1165 578 1045
1175 582 1041
1189 589 1037
1205 597 1031
1224 606 1025
1247 616 1017
1272 628 1009
1299 641 1000
1330 655 989
1362 671 978
1398 687 967
1434 705 954
1473 723 941
1514 742 927
1556 762 913
1600 783 898
1645 804 883
1692 826 867
1739 849 852
1787 871 835
1837 895 819
1887 918 802
1283 633 1005
1286 635 1004
1291 637 1003
1297 640 1001
1306 644 998
1317 649 994
1331 656 989
1347 664 984
1366 673 977
1388 683 970
1412 694 962
1439 707 953
1468 721 943
1499 735 932
1533 751 921
1568 768 909
1605 785 897
1644 804 884
1684 823 870
1726 842 856
1769 863 841
1813 884 826
1859 905 811
1905 927 795
1953 950 779
1418 697 960
1420 698 959
1424 700 958
1429 702 956
1437 706 953
1447 711 950
1459 716 946
1473 723 941
1490 731 935
1509 740 929
1530 750 922
1554 761 914
1580 773 905
1608 787 896
1638 801 886
1670 816 875
1703 832 863
1739 849 852
1776 866 839
1815 884 826
1855 903 812
1896 923 798
1939 943 784
1982 964 769
2027 985 754
1552 761 914
1555 762 914
1558 763 912
1563 765 911
1569 769 909
1578 773 906
1588 777 902
1601 783 898
1616 790 893
1633 798 887
1651 807 881
1673 817 874
1696 828 866
1721 840 858
1748 853 848
1777 866 839
1808 881 828
1840 896 817
1875 913 806
1910 929 794
1947 947 781
1986 965 768
2025 984 755
2067 1003 741
2109 1023 727
1688 824 869
1690 825 868
1692 827 867
1697 829 866
1702 831 864
1710 835 861
1719 839 858
1730 845 854
1744 851 850
1759 858 845
1775 866 839
1794 875 833
1815 885 826
1838 895 818
1863 907 810
1889 919 801
1917 933 791
1947 947 781
1978 962 771
2011 977 760
2046 993 748
2081 1010 736
2119 1028 724
2157 1046 711
2196 1065 697
