Examples/Gradient map toning.3dl
#25pt 3DLUT created by 3D LUT Creator Pro (c) Oleg Sharonov
#Copyright Oleg Sharonov
#IMAGEPROFILE Nikon sRGB 4.0.0.3001 v.2.20
#INPUTGAMMA Nikon sRGB 4.0.0.3001 v.2.20
#OUTPUTGAMMA Nikon sRGB 4.0.0.3001 v.2.20
0 43 86 128 171 214 256 299 341 384 427 469 512 555 597 640 682 725 768 810 853 896 938 981 1023 
0 0 0
0 0 138
2 2 279
2 2 421
4 4 564
4 5 710
4 9 857
4 13 1008
2 16 1161
7 16 1317
16 16 1475
29 13 1637
40 9 1801
45 11 1968
51 13 2138
56 14 2312
60 14 2491
63 16 2674
65 16 2861
63 16 3053
60 14 3251
52 13 3453
42 11 3661
24 5 3875
0 0 4095
9 97 9
9 99 147
11 99 286
11 100 426
13 104 568
11 108 714
9 111 862
5 117 1012
4 120 1166
13 120 1321
24 118 1479
36 115 1640
45 115 1803
51 118 1970
56 120 2140
61 124 2314
67 126 2492
71 128 2675
72 129 2863
71 129 3055
69 129 3252
61 129 3455
49 128 3663
33 124 3876
9 120 4095
22 206 22
22 206 160
24 208 294
24 212 432
24 215 573
20 219 720
14 224 868
9 230 1018
9 233 1171
22 232 1326
34 228 1484
47 226 1644
52 228 1807
60 233 1973
65 237 2143
71 239 2317
76 242 2495
80 246 2678
81 248 2865
81 251 3057
80 251 3254
72 251 3456
61 251 3664
45 249 3878
22 246 4095
42 329 42
42 329 178
42 331 307
42 334 440
38 338 582
31 342 728
22 345 876
11 350 1026
20 350 1178
34 347 1332
49 344 1489
58 345 1649
65 348 1811
72 353 1977
78 356 2147
85 360 2321
90 364 2499
96 367 2681
97 369 2868
99 372 3060
97 374 3257
90 376 3460
81 377 3668
65 377 3881
43 376 4095
61 451 61
60 452 194
60 453 318
60 455 448
52 458 590
42 461 736
29 464 883
20 467 1033
34 466 1185
51 463 1339
61 464 1495
69 469 1654
78 473 1816
85 477 1982
94 482 2152
101 486 2326
108 489 2503
112 494 2686
115 498 2873
117 501 3064
117 504 3261
112 507 3464
104 509 3671
90 510 3885
71 511 4095
78 574 78
76 574 207
76 576 327
76 578 454
65 580 596
51 584 742
36 587 890
38 588 1039
52 589 1190
61 592 1344
71 595 1500
80 600 1659
89 605 1821
99 609 1987
108 613 2157
115 618 2330
122 623 2508
127 627 2690
132 631 2877
135 635 3069
136 639 3266
133 642 3468
127 645 3676
117 648 3889
101 650 4095
89 700 89
89 701 215
87 703 334
85 705 460
69 709 601
52 713 746
43 718 893
51 722 1042
58 726 1193
67 730 1347
78 734 1503
89 738 1662
99 743 1825
109 748 1991
119 753 2161
127 758 2334
135 762 2512
141 767 2695
147 772 2882
151 776 3073
153 781 3270
153 784 3473
149 788 3680
141 791 3894
129 794 4095
72 845 92
69 846 216
67 849 334
61 852 461
49 856 602
43 859 747
47 863 894
54 866 1042
63 870 1194
72 874 1348
83 879 1505
94 883 1664
106 888 1827
115 893 1994
126 898 2164
136 903 2338
144 908 2516
152 913 2698
159 918 2885
164 922 3077
168 928 3274
169 932 3477
168 936 3685
162 940 3898
153 943 4095
34 1001 89
36 1002 214
42 1004 330
47 1005 460
49 1007 601
51 1010 746
54 1013 892
60 1017 1042
67 1021 1194
76 1025 1348
87 1030 1505
97 1035 1665
109 1039 1828
120 1044 1995
132 1050 2165
141 1055 2340
151 1060 2518
159 1065 2701
168 1070 2888
174 1075 3081
179 1080 3278
181 1085 3480
181 1089 3689
179 1094 3903
172 1098 4095
43 1159 83
51 1159 208
58 1161 327
60 1162 459
60 1164 600
61 1167 744
63 1171 891
69 1174 1040
74 1178 1192
81 1183 1346
90 1187 1503
101 1192 1664
112 1197 1828
123 1202 1995
135 1207 2166
144 1212 2340
154 1217 2519
164 1223 2702
174 1228 2890
180 1233 3083
187 1238 3281
191 1243 3483
193 1248 3692
192 1252 3906
188 1257 4095
67 1322 74
72 1323 201
76 1324 325
76 1326 459
74 1328 598
74 1330 742
76 1334 888
78 1337 1037
83 1341 1189
89 1345 1343
96 1350 1501
104 1354 1662
115 1359 1826
125 1365 1993
136 1370 2164
147 1375 2340
157 1380 2519
167 1385 2702
176 1391 2891
184 1396 3084
191 1401 3282
196 1406 3486
200 1411 3694
201 1416 3909
198 1420 4095
92 1491 63
94 1492 197
94 1493 325
92 1495 458
90 1497 596
89 1499 738
89 1502 884
90 1506 1033
92 1510 1184
97 1514 1339
103 1518 1497
109 1523 1658
117 1528 1822
127 1533 1990
136 1538 2162
147 1543 2338
157 1548 2517
167 1553 2702
176 1558 2890
185 1564 3084
193 1569 3282
199 1574 3486
203 1579 3696
206 1584 3911
205 1588 4095
112 1666 61
111 1667 200
109 1668 327
108 1669 457
106 1671 594
104 1674 735
103 1677 880
103 1680 1028
104 1683 1180
106 1687 1334
111 1692 1492
115 1696 1653
122 1701 1818
129 1706 1986
137 1711 2158
147 1716 2334
156 1721 2514
165 1726 2699
175 1731 2888
184 1736 3083
192 1741 3282
199 1746 3486
204 1751 3696
208 1756 3912
215 1761 4095
126 1846 69
125 1847 204
123 1848 328
122 1849 457
120 1851 591
119 1853 731
117 1856 875
115 1859 1023
115 1862 1174
117 1866 1328
119 1870 1486
122 1874 1648
126 1879 1813
132 1884 1981
139 1888 2154
147 1893 2330
154 1898 2511
164 1904 2696
172 1908 2886
181 1913 3080
189 1918 3280
196 1923 3485
202 1928 3696
207 1933 3912
252 1938 4095
139 2032 76
137 2032 208
136 2033 329
135 2034 456
133 2036 589
132 2038 727
129 2040 870
127 2043 1017
127 2046 1168
127 2050 1322
127 2053 1480
129 2057 1641
132 2062 1806
136 2066 1975
141 2071 2148
147 2076 2325
154 2080 2506
162 2085 2691
169 2090 2882
177 2095 3077
186 2099 3277
192 2104 3483
198 2109 3694
203 2113 3911
268 2118 4095
148 2221 83
147 2222 211
145 2223 330
144 2224 454
143 2225 586
141 2227 723
140 2229 865
139 2232 1011
137 2235 1161
136 2238 1315
136 2241 1473
136 2245 1634
137 2249 1799
140 2253 1968
143 2258 2141
148 2262 2318
153 2267 2500
159 2271 2686
167 2276 2877
174 2280 3073
180 2285 3274
187 2289 3480
193 2293 3692
197 2298 3910
271 2302 4095
154 2415 89
154 2416 212
153 2417 330
152 2418 453
151 2419 582
149 2420 718
148 2422 859
147 2425 1005
144 2427 1154
143 2430 1308
143 2434 1465
141 2437 1626
143 2441 1792
143 2444 1961
145 2448 2134
148 2453 2312
152 2457 2494
157 2461 2680
162 2465 2872
168 2469 3068
174 2473 3269
180 2478 3476
186 2482 3689
190 2486 3907
292 2489 4095
158 2614 90
158 2614 214
157 2615 329
157 2616 450
156 2617 579
154 2618 713
153 2620 853
151 2622 997
149 2624 1146
148 2627 1300
147 2630 1457
145 2633 1618
145 2636 1783
145 2640 1953
147 2643 2126
148 2647 2304
151 2651 2486
153 2654 2673
157 2658 2865
162 2662 3062
167 2666 3264
171 2670 3472
176 2673 3685
180 2677 3904
297 2679 4095
158 2816 90
158 2816 212
158 2817 327
157 2818 446
156 2819 573
156 2820 707
154 2821 846
153 2823 990
151 2825 1139
149 2827 1291
148 2830 1448
147 2832 1610
145 2835 1775
145 2838 1944
145 2842 2118
145 2845 2296
147 2848 2479
149 2852 2666
152 2855 2858
154 2858 3056
158 2862 3258
162 2865 3466
165 2868 3680
169 2871 3900
295 2873 4095
154 3022 87
154 3022 208
153 3023 323
153 3023 441
153 3024 567
152 3025 700
151 3026 838
149 3028 982
148 3030 1130
147 3031 1282
145 3033 1439
144 3036 1600
143 3038 1765
141 3041 1935
141 3044 2109
141 3047 2287
141 3049 2470
143 3052 2658
144 3055 2851
145 3058 3049
148 3061 3252
151 3064 3460
152 3067 3675
154 3069 3895
239 3071 4095
144 3231 80
144 3231 200
144 3232 316
144 3232 434
143 3233 559
143 3234 692
141 3235 830
141 3236 973
140 3237 1121
139 3239 1273
137 3240 1429
136 3242 1590
135 3244 1756
133 3247 1925
133 3249 2099
132 3251 2278
132 3254 2461
132 3256 2650
132 3258 2843
133 3261 3041
135 3263 3245
136 3265 3454
136 3267 3669
137 3269 3890
231 3270 4095
127 3443 67
127 3443 189
127 3444 304
127 3444 424
126 3444 549
126 3445 682
126 3446 820
125 3447 963
125 3448 1110
123 3449 1263
123 3451 1419
122 3452 1580
120 3454 1746
120 3455 1915
119 3457 2090
117 3459 2269
117 3461 2452
117 3462 2641
115 3464 2834
115 3466 3033
115 3468 3237
115 3470 3447
115 3471 3663
115 3473 3884
112 3474 4095
99 3658 51
99 3658 173
99 3658 290
99 3659 411
99 3659 537
99 3659 670
99 3660 808
99 3661 951
99 3661 1099
97 3662 1251
97 3663 1408
97 3664 1569
96 3666 1735
96 3667 1905
96 3668 2079
94 3669 2258
94 3671 2442
92 3672 2631
92 3673 2825
90 3674 3025
90 3675 3230
89 3676 3440
87 3677 3656
85 3678 3878
81 3679 4095
56 3875 29
56 3876 149
56 3876 270
56 3876 393
56 3876 522
56 3876 656
58 3877 795
58 3877 938
58 3878 1086
58 3878 1239
60 3879 1396
60 3879 1557
60 3880 1723
60 3881 1893
60 3881 2068
60 3882 2248
60 3883 2432
58 3884 2622
58 3884 2816
58 3885 3016
56 3885 3221
54 3886 3432
52 3886 3649
49 3886 3872
43 3886 4095
0 4095 0
0 4095 118
0 4095 242
2 4095 371
2 4095 503
2 4095 639
4 4095 779
5 4095 924
5 4095 1073
7 4095 1226
9 4095 1383
9 4095 1545
11 4095 1711
13 4095 1882
14 4095 2057
14 4095 2237
14 4095 2422
16 4095 2611
16 4095 2806
14 4095 3007
14 4095 3213
13 4095 3424
9 4095 3642
5 4095 3865
0 4095 4095
104 2 2
104 4 138
106 4 276
109 5 416
111 5 559
115 9 705
117 11 853
117 14 1003
118 18 1157
129 18 1313
142 16 1472
155 13 1634
167 11 1798
176 13 1965
183 13 2135
191 14 2310
197 16 2489
201 16 2672
204 16 2860
205 16 3052
204 14 3250
201 13 3452
194 11 3661
181 5 3875
160 0 4095
113 102 11
115 104 147
117 104 283
118 106 422
120 108 563
120 111 709
120 115 857
118 120 1008
122 122 1161
135 122 1317
149 120 1476
164 117 1637
174 117 1800
181 118 1967
189 122 2137
195 124 2312
201 126 2490
207 128 2673
210 129 2861
211 131 3053
211 131 3251
207 129 3454
200 128 3662
187 126 3876
167 120 4095
126 213 24
128 213 160
129 215 292
131 217 428
131 221 569
129 224 715
128 230 863
122 235 1014
129 235 1167
144 233 1322
160 230 1480
173 228 1640
181 232 1803
189 235 1970
197 239 2140
203 242 2314
208 244 2493
214 248 2676
218 249 2863
219 251 3056
219 253 3253
216 253 3456
210 253 3664
198 249 3878
181 246 4095
146 338 42
147 338 176
147 339 304
149 341 437
147 344 577
142 347 723
135 350 871
129 353 1021
142 351 1173
158 348 1328
174 345 1485
184 348 1645
192 351 1808
200 356 1974
207 358 2144
214 363 2318
220 365 2497
226 369 2679
229 372 2867
232 374 3059
232 376 3256
229 377 3459
224 378 3667
215 378 3881
200 377 4095
165 458 60
165 458 192
167 460 316
167 461 444
162 463 585
153 466 731
142 469 878
142 470 1028
160 467 1180
176 466 1334
186 468 1491
195 472 1650
204 476 1813
211 479 1979
219 484 2149
227 488 2323
233 491 2501
238 496 2684
243 500 2871
245 503 3063
246 506 3260
245 508 3463
242 510 3671
233 512 3885
220 512 4095
183 581 76
183 581 204
183 582 325
183 584 451
174 586 592
162 589 737
155 591 884
164 592 1033
176 592 1185
186 596 1339
195 600 1495
204 604 1654
214 608 1817
222 612 1984
231 616 2154
238 621 2327
245 625 2506
251 629 2688
256 634 2875
260 638 3068
262 641 3265
261 645 3467
259 647 3675
252 649 3889
242 652 4095
192 709 87
192 709 212
191 711 330
189 713 455
178 717 596
165 720 740
165 724 888
173 727 1036
183 730 1188
192 734 1342
203 738 1498
211 742 1658
222 746 1821
231 751 1987
239 755 2157
247 760 2332
255 765 2510
262 770 2693
268 774 2880
272 778 3072
276 782 3269
277 786 3472
276 790 3680
270 793 3894
262 796 4095
173 854 89
171 856 214
171 858 330
171 860 456
164 863 597
165 866 742
173 868 888
179 872 1038
189 875 1189
198 879 1343
207 883 1500
218 887 1660
227 892 1823
237 896 1990
246 901 2160
255 906 2335
264 911 2513
271 916 2696
279 920 2883
284 925 3076
287 930 3273
290 934 3476
290 938 3684
287 942 3898
281 945 4095
151 1009 85
156 1009 210
165 1010 328
171 1012 456
173 1014 597
176 1016 741
181 1019 888
187 1022 1037
194 1026 1189
203 1030 1343
212 1034 1500
222 1038 1661
232 1043 1824
242 1048 1991
251 1053 2162
261 1058 2337
269 1063 2516
279 1068 2699
285 1072 2886
292 1078 3079
297 1082 3277
301 1087 3480
302 1092 3688
301 1096 3902
297 1099 4095
171 1166 80
176 1166 205
183 1167 325
186 1169 456
186 1171 596
187 1173 740
191 1176 886
195 1179 1035
201 1183 1187
208 1187 1342
216 1191 1499
226 1196 1660
234 1200 1824
244 1205 1991
254 1210 2162
264 1215 2337
273 1220 2517
283 1225 2700
291 1230 2888
298 1235 3081
304 1240 3279
309 1245 3482
311 1250 3691
312 1254 3906
310 1258 4095
192 1328 72
197 1329 200
200 1330 323
200 1331 456
200 1334 595
200 1336 738
201 1339 883
204 1342 1032
208 1346 1184
215 1350 1339
222 1354 1497
229 1358 1658
238 1363 1822
246 1368 1990
256 1373 2161
266 1378 2337
276 1383 2516
284 1388 2700
293 1393 2889
301 1398 3082
309 1403 3281
314 1408 3484
318 1413 3694
320 1417 3909
319 1422 4095
