Examples/Gradient map toning.3dl
#25pt 3DLUT created by 3D LUT Creator Pro (c) Oleg Sharonov
#Copyright Oleg Sharonov
#IMAGEPROFILE Nikon sRGB 4.0.0.3001 v.2.20
#INPUTGAMMA Nikon sRGB 4.0.0.3001 v.2.20
#OUTPUTGAMMA Nikon sRGB 4.0.0.3001 v.2.20
0 128 256 384 512 640 768 896 1023
0 0 0
2 2 421
4 9 857
7 16 1317
40 9 1801
56 14 2312
65 16 2861
52 13 3453
0 0 4095
42 329 42
42 334 440
22 345 876
34 347 1332
65 348 1811
85 360 2321
97 369 2868
90 376 3460
43 376 4095
89 700 89
85 705 460
43 718 893
67 730 1347
99 743 1825
127 758 2334
147 772 2882
153 784 3473
129 794 4095
43 1159 83
60 1162 459
63 1171 891
81 1183 1346
112 1197 1828
144 1212 2340
174 1228 2890
191 1243 3483
188 1257 4095
112 1666 61
108 1669 457
103 1677 880
106 1687 1334
122 1701 1818
147 1716 2334
175 1731 2888
199 1746 3486
215 1761 4095
148 2221 83
144 2224 454
140 2229 865
136 2238 1315
137 2249 1799
148 2262 2318
167 2276 2877
187 2289 3480
271 2302 4095
158 2816 90
157 2818 446
154 2821 846
149 2827 1291
145 2835 1775
145 2845 2296
152 2855 2858
162 2865 3466
295 2873 4095
127 3443 67
127 3444 424
126 3446 820
123 3449 1263
120 3454 1746
117 3459 2269
115 3464 2834
115 3470 3447
112 3474 4095
0 4095 0
2 4095 371
4 4095 779
7 4095 1226
11 4095 1711
14 4095 2237
16 4095 2806
13 4095 3424
0 4095 4095
365 9 9
372 13 411
380 20 843
402 22 1303
435 13 1788
459 16 2303
480 18 2855
492 14 3450
487 0 4095
393 353 45
398 356 430
393 361 858
425 353 1315
450 360 1797
474 369 2311
495 377 2862
509 382 3456
507 380 4095
415 730 81
418 734 445
426 740 873
446 747 1327
472 758 1809
498 770 2323
523 781 2874
540 792 3469
544 801 4095
434 1184 74
442 1186 447
448 1192 873
462 1201 1329
486 1212 1812
514 1225 2328
542 1239 2882
565 1252 3479
577 1265 4095
473 1687 60
473 1689 449
475 1695 866
483 1704 1319
499 1715 1804
522 1728 2323
549 1742 2881
575 1756 3482
594 1769 4095
501 2237 81
501 2239 448
502 2243 854
506 2251 1303
515 2261 1787
530 2272 2309
552 2285 2870
575 2297 3476
638 2309 4095
517 2826 89
517 2827 441
519 2831 837
522 2836 1281
527 2844 1765
537 2852 2287
551 2862 2852
568 2871 3463
636 2879 4095
511 3448 67
513 3449 419
515 3451 813
519 3454 1254
525 3458 1737
533 3463 2261
544 3468 2829
556 3473 3444
582 3477 4095
470 4095 0
472 4095 368
476 4095 774
483 4095 1219
492 4095 1704
504 4095 2231
516 4095 2802
540 4095 3422
567 4095 4095
866 20 25
873 18 402
885 16 821
902 14 1275
923 20 1760
948 22 2281
974 24 2840
998 18 3443
1015 0 4095
883 364 45
889 364 413
898 367 829
912 372 1282
933 378 1767
957 386 2287
983 391 2845
1007 393 3448
1025 389 4095
903 766 63
909 767 423
916 771 839
930 777 1292
950 784 1777
974 793 2297
1001 802 2856
1026 810 3459
1046 816 4095
925 1221 60
929 1223 428
935 1227 843
947 1234 1295
965 1242 1781
990 1252 2302
1017 1262 2863
1045 1273 3468
1068 1283 4095
947 1722 58
948 1724 433
954 1728 840
964 1735 1289
980 1744 1775
1002 1754 2298
1029 1765 2862
1058 1776 3470
1087 1787 4095
967 2266 78
969 2268 435
973 2271 832
982 2277 1277
995 2285 1762
1015 2294 2286
1038 2305 2853
1066 2315 3465
1114 2324 4095
984 2847 83
986 2848 430
991 2851 819
999 2855 1259
1011 2861 1742
1027 2868 2268
1047 2876 2837
1074 2884 3453
1132 2890 4095
994 3459 61
996 3459 410
1001 3461 797
1009 3463 1236
1020 3467 1718
1035 3471 2244
1055 3476 2816
1084 3480 3436
1114 3483 4095
991 4095 2
993 4095 360
998 4095 761
1007 4095 1204
1019 4095 1688
1037 4095 2217
1062 4095 2791
1089 4095 3416
1119 4094 4094
1453 9 13
1457 11 377
1465 13 782
1479 16 1231
1497 20 1718
1518 24 2244
1542 22 2813
1567 14 3427
1589 0 4092
1464 382 24
1468 383 383
1475 387 788
1487 392 1236
1504 396 1723
1525 402 2249
1549 406 2817
1573 406 3432
1596 398 4095
1484 799 38
1487 800 392
1493 803 798
1504 808 1245
1519 814 1731
1539 821 2257
1563 829 2826
1587 834 3441
1610 837 4095
1503 1261 38
1505 1262 402
1511 1265 804
1521 1270 1250
1535 1277 1736
1555 1285 2263
1578 1294 2833
1603 1302 3449
1627 1308 4095
1519 1763 52
1521 1764 410
1526 1768 805
1535 1773 1248
1549 1780 1734
1568 1788 2261
1591 1797 2833
1617 1806 3452
1642 1813 4095
1533 2302 69
1535 2303 414
1540 2306 801
1549 2311 1240
1562 2317 1724
1580 2324 2253
1602 2332 2826
1628 2341 3448
1655 2348 4095
1547 2873 72
1549 2874 411
1554 2876 791
1562 2880 1227
1575 2885 1709
1592 2891 2238
1613 2897 2813
1637 2903 3438
1672 2909 4095
1558 3473 52
1561 3473 393
1566 3475 774
1574 3477 1207
1587 3480 1689
1603 3483 2218
1623 3487 2796
1647 3490 3424
1672 3492 4095
1567 4095 0
1568 4095 347
1574 4095 741
1583 4095 1180
1595 4095 1664
1612 4095 2195
1632 4095 2774
1654 4095 3406
1679 4093 4093
2068 0 0
2071 0 347
2077 0 742
2087 4 1183
2100 9 1668
2115 13 2200
2131 11 2779
2148 2 3407
2163 0 4087
2077 394 4
2079 395 351
2084 399 746
2094 403 1186
2106 409 1672
2120 414 2204
2137 417 2782
2153 415 3410
2168 406 4091
2093 830 14
2095 831 361
2100 833 754
2108 838 1194
2119 844 1679
2132 850 2211
2147 856 2789
2163 860 3417
2178 861 4095
2110 1300 24
2111 1302 373
2116 1304 761
2123 1309 1200
2133 1315 1685
2145 1322 2216
2160 1329 2795
2176 1335 3424
2192 1340 4095
2123 1805 40
2124 1806 383
2128 1809 765
2135 1813 1201
2144 1819 1685
2156 1826 2217
2171 1833 2797
2187 1840 3428
2204 1847 4095
2133 2340 54
2134 2341 389
2138 2343 764
2144 2347 1197
2153 2352 1680
2165 2359 2211
2180 2366 2793
2196 2372 3426
2214 2378 4095
2140 2903 56
2142 2903 387
2145 2905 758
2152 2908 1187
2161 2912 1669
2173 2917 2201
2187 2922 2783
2203 2927 3419
2221 2932 4095
2147 3488 40
2148 3489 371
2152 3490 743
2158 3492 1172
2167 3494 1653
2179 3497 2185
2193 3500 2769
2210 3503 3407
2228 3504 4095
2151 4093 0
2153 4093 328
2156 4094 714
2163 4094 1149
2172 4095 1632
2184 4095 2166
2199 4095 2752
2215 4094 3393
2233 4092 4092
2648 0 0
2652 0 321
2656 0 705
2663 0 1137
2673 0 1621
2684 0 2157
2695 0 2744
2705 0 3386
2713 0 4083
2656 406 0
2658 407 324
2662 410 707
2668 414 1140
2677 419 1624
2688 425 2159
2698 428 2747
2708 426 3388
2717 415 4086
2668 862 2
2670 863 333
2673 865 713
2679 869 1145
2687 875 1629
2696 881 2164
2706 886 2752
2716 889 3394
2724 889 4092
2682 1343 13
2683 1344 344
2686 1346 720
2692 1350 1150
2699 1356 1634
2707 1362 2169
2716 1368 2757
2726 1373 3399
2734 1377 4095
2693 1850 25
2694 1851 353
2697 1853 724
2702 1857 1153
2708 1862 1635
2716 1868 2170
2725 1875 2759
2735 1881 3403
2744 1886 4095
2701 2381 36
2702 2382 360
2704 2384 725
2709 2387 1151
2715 2392 1632
2723 2397 2167
2732 2403 2757
2741 2409 3402
2751 2414 4095
2705 2934 38
2706 2935 358
2709 2936 721
2713 2939 1145
2719 2942 1625
2727 2947 2160
2736 2951 2750
2746 2956 3397
2757 2959 4095
2708 3505 24
2709 3506 344
2712 3507 709
2716 3508 1133
2722 3511 1613
2730 3513 2149
2740 3516 2740
2750 3518 3389
2761 3519 4095
2710 4091 0
2711 4092 305
2713 4092 684
2718 4092 1114
2724 4093 1597
2732 4094 2133
2742 4094 2727
2753 4093 3378
2765 4090 4090
3182 0 0
3188 0 299
3191 0 669
3196 0 1096
3202 0 1577
3210 0 2116
3217 0 2713
3222 0 3367
3225 0 4083
3191 423 0
3192 424 301
3195 427 671
3199 431 1097
3205 437 1579
3212 441 2118
3219 445 2714
3224 443 3369
3227 432 4084
3199 899 0
3200 900 307
3203 902 676
3207 906 1101
3212 911 1582
3219 916 2121
3225 920 2718
3230 923 3373
3232 922 4088
3209 1390 4
3210 1391 316
3212 1393 680
3216 1396 1104
3220 1401 1586
3226 1406 2124
3231 1412 2721
3236 1417 3377
3239 1419 4093
3217 1899 13
3218 1900 323
3220 1902 685
3223 1905 1107
3227 1910 1587
3232 1915 2126
3238 1921 2723
3242 1926 3379
3246 1930 4095
3223 2426 20
3223 2427 328
3225 2429 686
3228 2431 1106
3232 2435 1585
3237 2440 2124
3242 2445 2721
3247 2450 3379
3251 2454 4095
3225 2969 20
3226 2969 326
3228 2971 682
3231 2973 1101
3235 2976 1580
3239 2980 2118
3245 2984 2717
3250 2988 3376
3254 2990 4095
3226 3525 9
3227 3525 314
3229 3526 673
3232 3527 1092
3236 3529 1571
3240 3532 2110
3246 3534 2709
3252 3536 3370
3257 3537 4095
3226 4091 0
3227 4091 283
3229 4091 653
3231 4092 1078
3236 4092 1559
3241 4093 2099
3247 4093 2700
3253 4092 3363
3259 4090 4090
3666 0 0
3671 0 283
3673 0 639
3677 0 1058
3681 0 1538
3685 0 2080
3688 0 2685
3690 0 3353
3688 0 4086
3673 452 0
3673 453 283
3675 455 641
3678 460 1059
3682 465 1539
3686 470 2081
3690 473 2686
3691 472 3354
3689 461 4087
3677 943 0
3678 943 287
3680 945 643
3682 949 1061
3686 953 1541
3690 958 2082
3692 963 2687
3694 964 3356
3692 963 4089
3683 1442 0
3683 1443 292
3685 1445 646
3687 1448 1063
3690 1452 1542
3694 1457 2084
3696 1462 2689
3697 1466 3358
3696 1468 4092
3688 1953 5
3688 1954 296
3689 1956 649
3691 1958 1064
3694 1963 1542
3697 1967 2084
3699 1972 2689
3700 1977 3359
3699 1980 4094
3691 2475 9
3691 2476 299
3692 2477 649
3694 2480 1063
3696 2484 1541
3699 2488 2082
3701 2493 2688
3702 2497 3358
3702 2500 4095
3692 3007 9
3692 3008 298
3693 3009 647
3695 3011 1059
3697 3014 1537
3699 3017 2078
3702 3021 2685
3703 3024 3356
3703 3026 4095
3691 3547 2
3692 3547 289
3693 3548 639
3694 3549 1053
3697 3551 1531
3699 3554 2073
3702 3556 2679
3704 3557 3353
3704 3557 4093
3690 4091 0
3691 4092 270
3692 4092 625
3694 4093 1043
3696 4093 1522
3698 4094 2065
3701 4094 2673
3704 4093 3348
3705 4091 4091
4095 0 0
4095 2 274
4095 5 616
4095 13 1026
4095 22 1503
4095 31 2049
4095 34 2662
4095 27 3344
4095 0 4095
4095 494 0
4095 495 274
4095 498 617
4095 501 1026
4095 507 1503
4095 512 2049
4095 515 2662
4095 514 3344
4095 504 4095
4095 994 2
4095 995 276
4095 997 617
4095 1000 1026
4095 1004 1503
4095 1008 2048
4095 1012 2662
4095 1014 3344
4095 1011 4095
4095 1501 4
4095 1501 278
4095 1503 618
4095 1506 1026
4095 1510 1503
4095 1514 2048
4095 1519 2661
4095 1522 3344
4095 1519 4095
4095 2013 7
4095 2013 279
4095 2015 619
4095 2017 1026
4095 2021 1502
4095 2025 2046
4095 2030 2660
4095 2034 3343
4095 2030 4095
4095 2530 7
4095 2530 279
4095 2531 618
4095 2534 1024
4095 2537 1500
4095 2541 2044
4095 2545 2658
4095 2547 3342
4095 2544 4095
4095 3050 7
4095 3051 279
4095 3052 616
4095 3054 1021
4095 3056 1496
4095 3059 2041
4095 3063 2655
4095 3062 3342
4095 3059 4095
4095 3573 5
4095 3573 274
4095 3574 612
4095 3575 1017
4095 3577 1492
4095 3579 2037
4095 3579 2654
4095 3578 3341
4095 3576 4095
4095 4095 52
4095 4095 279
4095 4095 606
4095 4095 1011
4095 4095 1488
4095 4095 2036
4095 4095 2653
4095 4095 3340
4095 4095 4095
