Examples/Gradient map toning.3dl
#25pt 3DLUT created by 3D LUT Creator Pro (c) Oleg Sharonov
#Copyright Oleg Sharonov
#IMAGEPROFILE Nikon sRGB 4.0.0.3001 v.2.20
#INPUTGAMMA Nikon sRGB 4.0.0.3001 v.2.20
#OUTPUTGAMMA Nikon sRGB 4.0.0.3001 v.2.20
0 256 512 768 1023
0 0 0
4 9 857
40 9 1801
65 16 2861
0 0 4095
89 700 89
43 718 893
99 743 1825
147 772 2882
129 794 4095
112 1666 61
103 1677 880
122 1701 1818
175 1731 2888
215 1761 4095
158 2816 90
154 2821 846
145 2835 1775
152 2855 2858
295 2873 4095
0 4095 0
4 4095 779
11 4095 1711
16 4095 2806
0 4095 4095
866 20 25
885 16 821
923 20 1760
974 24 2840
1015 0 4095
903 766 63
916 771 839
950 784 1777
1001 802 2856
1046 816 4095
947 1722 58
954 1728 840
980 1744 1775
1029 1765 2862
1087 1787 4095
984 2847 83
991 2851 819
1011 2861 1742
1047 2876 2837
1132 2890 4095
991 4095 2
998 4095 761
1019 4095 1688
1062 4095 2791
1119 4094 4094
2068 0 0
2077 0 742
2100 9 1668
2131 11 2779
2163 0 4087
2093 830 14
2100 833 754
2119 844 1679
2147 856 2789
2178 861 4095
2123 1805 40
2128 1809 765
2144 1819 1685
2171 1833 2797
2204 1847 4095
2140 2903 56
2145 2905 758
2161 2912 1669
2187 2922 2783
2221 2932 4095
2151 4093 0
2156 4094 714
2172 4095 1632
2199 4095 2752
2233 4092 4092
3182 0 0
3191 0 669
3202 0 1577
3217 0 2713
3225 0 4083
3199 899 0
3203 902 676
3212 911 1582
3225 920 2718
3232 922 4088
3217 1899 13
3220 1902 685
3227 1910 1587
3238 1921 2723
3246 1930 4095
3225 2969 20
3228 2971 682
3235 2976 1580
3245 2984 2717
3254 2990 4095
3226 4091 0
3229 4091 653
3236 4092 1559
3247 4093 2700
3259 4090 4090
4095 0 0
4095 5 616
4095 22 1503
4095 34 2662
4095 0 4095
4095 994 2
4095 997 617
4095 1004 1503
4095 1012 2662
4095 1011 4095
4095 2013 7
4095 2015 619
4095 2021 1502
4095 2030 2660
4095 2030 4095
4095 3050 7
4095 3052 616
4095 3056 1496
4095 3063 2655
4095 3059 4095
4095 4095 52
4095 4095 606
4095 4095 1488
4095 4095 2653
4095 4095 4095
