Examples/Gradient map.3dl
#25pt 3DLUT created by 3D LUT Creator Pro (c) Oleg Sharonov
#Copyright Oleg Sharonov
#IMAGEPROFILE Nikon sRGB 4.0.0.3001 v.2.20
#INPUTGAMMA Nikon sRGB 4.0.0.3001 v.2.20
#OUTPUTGAMMA Nikon sRGB 4.0.0.3001 v.2.20
0 256 512 768 1023
350 193 1320
586 304 1240
949 475 1118
1312 647 996
1675 818 873
1137 565 1054
1195 592 1035
1354 667 981
1594 780 901
1881 916 804
1954 950 779
1979 962 771
2058 999 744
2195 1064 698
2385 1154 634
2770 1335 504
2785 1342 499
2833 1365 483
2920 1406 453
3049 1467 410
3585 1721 229
3596 1725 226
3629 1741 214
3691 1770 194
3783 1814 162
841 425 1154
931 467 1124
1151 571 1050
1443 709 951
1768 862 842
1297 640 1001
1344 662 985
1480 726 939
1694 827 867
1960 953 777
2028 985 754
2052 997 746
2127 1032 721
2258 1094 677
2441 1180 615
2815 1356 489
2830 1364 484
2877 1386 468
2962 1426 439
3088 1486 397
3617 1735 219
3627 1740 215
3660 1756 204
3721 1784 184
3812 1827 153
1415 696 961
1456 715 947
1578 772 906
1774 865 840
2026 984 755
1672 817 874
1704 832 863
1801 878 831
1966 956 775
2186 1060 701
2244 1087 681
2265 1097 674
2329 1127 653
2445 1182 614
2609 1259 558
2953 1422 442
2967 1428 438
3010 1449 423
3091 1487 396
3209 1543 356
3714 1781 186
3724 1786 182
3755 1801 172
3814 1828 152
3902 1870 122
1988 966 768
2013 978 759
2089 1014 733
2224 1077 688
2411 1166 625
2152 1044 712
2175 1054 705
2243 1087 682
2365 1144 641
2537 1225 583
2583 1247 567
2600 1255 561
2653 1280 543
2749 1326 511
2889 1392 464
3190 1534 362
3203 1540 358
3242 1558 345
3314 1593 320
3422 1643 284
3888 1863 127
3897 1868 124
3927 1882 114
3982 1908 95
4065 1947 67
2562 1237 574
2578 1245 569
2632 1270 551
2729 1316 518
2870 1383 470
2677 1292 535
2693 1299 530
2743 1323 513
2835 1366 482
2969 1429 437
3006 1447 424
3020 1453 420
3062 1473 405
3141 1511 379
3257 1565 340
3514 1687 253
3525 1692 249
3559 1708 238
3622 1738 217
3717 1783 185
4095 1981 43
4095 1981 43
4095 1981 43
4095 1981 43
4095 1981 43
