Examples/Gradient map toning (Brown shadows, Cyan highlights).3dl
#25pt 3DLUT created by 3D LUT Creator Pro (c) Oleg Sharonov
#Copyright Oleg Sharonov
#IMAGEPROFILE sRGB IEC61966-2.1 v.2.10
#INPUTGAMMA sRGB IEC61966-2.1 v.2.10
#OUTPUTGAMMA sRGB IEC61966-2.1 v.2.10
0 128 256 384 512 640 768 896 1023
0 0 0
4 4 305
14 14 688
9 31 1150
36 24 1671
67 16 2231
72 18 2828
54 13 3452
0 0 4095
27 410 27
31 412 334
34 416 706
20 422 1164
51 422 1678
76 425 2237
89 428 2834
76 430 3457
29 429 4095
13 849 43
16 851 353
25 853 724
34 857 1178
58 861 1690
89 865 2249
114 871 2845
117 878 3467
85 885 4095
49 1320 36
52 1321 360
51 1324 742
54 1328 1193
69 1333 1703
96 1340 2261
125 1348 2855
139 1357 3476
129 1369 4095
85 1821 45
85 1822 378
83 1825 760
81 1830 1209
87 1837 1716
103 1844 2270
125 1854 2862
141 1865 3482
143 1879 4095
111 2354 58
111 2355 394
109 2357 775
106 2362 1224
104 2368 1727
109 2376 2278
120 2386 2867
132 2397 3483
148 2411 4095
115 2913 60
115 2914 401
114 2916 788
112 2920 1237
109 2926 1738
106 2932 2286
108 2941 2870
111 2950 3482
130 2961 4095
85 3496 43
85 3496 398
85 3498 794
85 3500 1247
83 3504 1748
80 3508 2292
76 3513 2872
72 3519 3479
61 3525 4095
0 4095 0
2 4095 376
4 4095 793
7 4095 1254
11 4095 1756
13 4095 2298
13 4095 2874
9 4095 3475
0 4095 4095
529 0 0
529 2 328
528 13 719
531 18 1177
536 14 1690
537 18 2245
533 18 2838
521 13 3457
495 0 4095
538 409 24
539 410 350
540 413 732
538 418 1187
539 423 1696
541 428 2251
540 431 2843
530 433 3462
507 433 4095
547 850 38
548 851 363
546 854 746
543 859 1200
544 864 1708
548 870 2263
550 876 2853
546 883 3471
529 892 4095
554 1324 34
553 1325 371
550 1328 761
546 1333 1213
547 1339 1720
551 1346 2273
555 1355 2863
556 1365 3480
546 1377 4095
557 1827 43
556 1828 387
553 1831 775
551 1836 1226
550 1843 1731
551 1851 2282
554 1861 2870
556 1873 3485
551 1887 4095
559 2360 56
559 2361 400
557 2363 788
553 2368 1238
551 2375 1741
549 2383 2290
550 2393 2874
550 2404 3486
555 2418 4095
554 2918 58
553 2919 406
553 2922 798
550 2925 1249
547 2931 1751
544 2938 2296
540 2946 2877
538 2956 3485
532 2967 4095
536 3499 42
536 3500 401
536 3501 803
534 3504 1258
532 3507 1759
528 3511 2302
525 3516 2879
519 3522 3482
512 3528 4095
498 4095 0
498 4095 381
498 4095 802
498 4095 1264
498 4095 1766
498 4095 2307
494 4095 2880
491 4095 3479
483 4095 4095
1019 0 0
1020 2 356
1023 5 760
1025 11 1219
1025 14 1727
1022 18 2275
1016 20 2859
1005 14 3469
988 2 4095
1028 413 16
1029 415 367
1030 418 768
1030 424 1226
1028 430 1732
1025 436 2281
1020 439 2863
1010 442 3472
993 443 4095
1039 860 29
1039 861 377
1039 865 781
1037 870 1238
1034 876 1743
1031 883 2291
1026 891 2872
1018 899 3480
1003 908 4095
1044 1338 27
1044 1339 388
1042 1342 792
1039 1348 1249
1036 1355 1754
1033 1363 2300
1029 1373 2881
1023 1384 3488
1011 1397 4095
1044 1844 40
1043 1845 401
1041 1848 803
1038 1854 1259
1034 1861 1763
1031 1870 2308
1027 1880 2887
1022 1893 3492
1013 1908 4095
1040 2376 52
1039 2377 411
1037 2380 812
1034 2385 1268
1030 2392 1770
1026 2401 2314
1021 2411 2891
1016 2423 3494
1011 2438 4095
1031 2932 54
1031 2933 415
1029 2936 820
1026 2940 1276
1023 2945 1777
1018 2952 2319
1013 2961 2893
1007 2971 3492
999 2982 4095
1016 3508 38
1015 3508 411
1014 3510 822
1012 3512 1282
1009 3516 1784
1005 3520 2323
1000 3525 2894
994 3531 3490
986 3537 4095
991 4095 0
991 4095 393
991 4095 821
990 4095 1287
988 4095 1790
985 4095 2328
982 4095 2896
976 4095 3487
970 4095 4095
1508 4 4
1509 5 383
1510 7 806
1511 13 1271
1510 18 1776
1506 20 2318
1500 22 2890
1491 16 3486
1478 7 4095
1514 430 11
1514 432 388
1515 435 811
1514 439 1276
1512 445 1781
1509 452 2322
1502 456 2893
1493 460 3489
1480 462 4095
1523 886 20
1523 887 398
1522 890 820
1520 895 1285
1517 902 1789
1513 910 2329
1506 918 2900
1497 928 3494
1485 938 4095
1527 1369 24
1526 1371 408
1525 1374 829
1522 1379 1293
1519 1387 1798
1514 1396 2337
1508 1406 2907
1500 1419 3500
1488 1433 4095
1526 1878 36
1525 1879 417
1523 1882 837
1520 1887 1301
1517 1895 1804
1512 1904 2343
1506 1916 2912
1498 1930 3503
1488 1946 4095
1520 2409 45
1519 2410 425
1518 2412 844
1515 2418 1307
1511 2424 1810
1506 2433 2348
1500 2444 2915
1493 2457 3504
1484 2472 4095
1511 2959 45
1510 2960 428
1509 2962 848
1507 2966 1313
1503 2971 1816
1498 2979 2352
1492 2988 2916
1485 2998 3503
1476 3010 4095
1498 3523 33
1497 3524 424
1496 3525 851
1494 3528 1318
1491 3531 1821
1487 3535 2356
1482 3541 2918
1475 3547 3502
1467 3553 4095
1480 4095 2
1480 4095 410
1479 4095 850
1478 4095 1322
1476 4095 1826
1473 4095 2360
1469 4095 2920
1464 4095 3501
1457 4095 4095
1995 9 7
1995 11 412
1996 13 853
1995 16 1327
1994 22 1833
1991 24 2368
1986 25 2928
1979 22 3507
1969 13 4095
1998 458 9
1998 459 415
1998 461 856
1997 466 1330
1996 471 1835
1992 477 2370
1987 483 2930
1979 487 3509
1969 491 4095
2003 928 13
2003 930 421
2002 933 861
2000 938 1335
1998 944 1841
1994 952 2375
1988 961 2933
1981 972 3512
1970 983 4095
2005 1421 18
2005 1422 428
2003 1425 867
2001 1431 1341
1998 1438 1846
1994 1447 2380
1988 1459 2937
1981 1472 3514
1971 1487 4095
2003 1932 27
2003 1933 435
2002 1936 873
1999 1942 1346
1996 1949 1851
1992 1959 2384
1986 1971 2940
1978 1985 3516
1969 2001 4095
1998 2459 34
1998 2460 439
1997 2463 878
1994 2468 1351
1991 2475 1855
1987 2484 2387
1981 2495 2943
1974 2508 3517
1965 2524 4095
1991 2999 33
1990 3000 440
1989 3002 881
1987 3006 1355
1984 3012 1860
1980 3019 2391
1975 3028 2945
1968 3038 3517
1960 3050 4095
1981 3547 24
1980 3548 439
1979 3549 883
1978 3551 1360
1975 3555 1865
1972 3559 2395
1967 3564 2948
1961 3570 3517
1954 3576 4095
1969 4095 5
1969 4095 433
1968 4095 886
1967 4095 1366
1965 4095 1871
1963 4095 2401
1959 4095 2952
1954 4095 3519
1948 4095 4095
2488 16 7
2488 18 441
2488 20 901
2488 24 1385
2486 25 1892
2484 29 2422
2480 29 2969
2474 27 3531
2467 20 4095
2489 494 7
2489 496 442
2488 498 902
2488 501 1386
2486 506 1893
2484 511 2422
2479 516 2969
2474 521 3531
2466 532 4095
2489 988 9
2489 989 444
2489 991 903
2487 995 1387
2485 1002 1895
2483 1009 2423
2478 1018 2970
2472 1028 3531
2465 1043 4095
2489 1492 13
2488 1494 447
2488 1496 906
2486 1501 1390
2484 1508 1897
2480 1517 2425
2476 1528 2970
2470 1541 3530
2462 1556 4095
2486 2007 16
2486 2008 450
2485 2011 909
2483 2016 1393
2481 2023 1899
2477 2032 2427
2473 2043 2971
2467 2056 3530
2459 2069 4095
2482 2528 16
2482 2529 453
2481 2531 912
2479 2536 1396
2477 2543 1903
2473 2551 2429
2469 2562 2973
2463 2571 3531
2457 2581 4095
2477 3053 14
2477 3054 453
2476 3056 915
2474 3060 1400
2472 3065 1907
2469 3072 2433
2465 3078 2976
2460 3084 3532
2454 3091 4095
2471 3578 11
2471 3579 454
2470 3580 919
2469 3582 1406
2467 3585 1913
2464 3588 2439
2461 3591 2981
2457 3594 3535
2452 3597 4095
2466 4095 7
2466 4095 456
2465 4095 925
2464 4095 1414
2463 4095 1922
2461 4095 2448
2458 4095 2988
2454 4095 3539
2450 4095 4095
2997 22 5
2997 22 469
2996 24 947
2996 27 1442
2995 29 1952
2993 31 2476
2990 31 3011
2987 29 3555
2982 25 4095
2994 555 5
2994 556 468
2994 559 946
2993 564 1440
2992 570 1950
2990 578 2474
2987 589 3009
2983 600 3552
2978 614 4095
2991 1068 4
2991 1069 467
2990 1072 945
2990 1076 1439
2988 1083 1948
2986 1092 2472
2983 1103 3006
2979 1116 3548
2974 1131 4094
2988 1579 2
2987 1580 466
2987 1582 945
2986 1587 1439
2985 1593 1948
2983 1601 2471
2979 1612 3005
2975 1624 3546
2970 1638 4091
2985 2089 0
2985 2089 466
2984 2092 946
2984 2095 1440
2982 2101 1950
2980 2108 2472
2977 2117 3005
2973 2127 3546
2968 2139 4090
2983 2596 0
2983 2597 467
2982 2599 948
2981 2602 1444
2980 2606 1953
2978 2611 2475
2975 2618 3008
2971 2627 3547
2967 2636 4090
2981 3102 0
2981 3102 469
2981 3103 952
2980 3105 1449
2979 3108 1959
2977 3112 2481
2974 3117 3012
2971 3122 3551
2967 3129 4091
2980 3602 2
2980 3603 473
2980 3603 959
2979 3604 1456
2978 3606 1967
2976 3608 2488
2974 3610 3019
2971 3613 3555
2967 3616 4094
2980 4095 9
2980 4095 482
2979 4095 967
2979 4095 1466
2978 4095 1977
2976 4095 2498
2974 4095 3027
2972 4095 3562
2969 4095 4095
3529 20 5
3529 20 495
3529 22 993
3529 22 1498
3528 24 2010
3527 24 2529
3526 24 3053
3524 24 3577
3522 22 4095
3523 649 0
3523 650 491
3522 652 988
3522 656 1493
3522 661 2005
3520 669 2524
3519 677 3047
3517 688 3571
3515 701 4093
3516 1170 0
3516 1171 486
3516 1174 984
3516 1178 1489
3515 1183 2001
3514 1191 2519
3513 1201 3042
3511 1213 3565
3508 1226 4087
3512 1675 0
3512 1675 483
3512 1677 982
3512 1681 1488
3511 1686 2000
3510 1694 2517
3508 1703 3039
3506 1714 3562
3504 1727 4083
3510 2171 0
3510 2171 480
3510 2173 983
3510 2176 1489
3509 2181 2001
3508 2187 2519
3507 2195 3040
3505 2204 3562
3502 2216 4081
3511 2661 0
3511 2661 481
3511 2662 985
3510 2665 1492
3510 2668 2005
3508 2673 2522
3507 2680 3043
3505 2687 3564
3503 2696 4082
3513 3145 0
3512 3146 485
3512 3147 991
3512 3148 1499
3511 3151 2012
3510 3154 2529
3509 3158 3049
3507 3164 3569
3505 3170 4086
3515 3625 0
3515 3625 493
3515 3625 998
3515 3626 1507
3514 3627 2021
3513 3629 2538
3512 3631 3057
3511 3634 3576
3509 3637 4091
3520 4095 9
3520 4095 506
3519 4095 1009
3519 4095 1519
3519 4095 2032
3518 4095 2549
3517 4095 3067
3516 4095 3585
3514 4095 4095
4095 0 0
4095 0 524
4095 0 1038
4095 0 1551
4095 0 2063
4095 0 2574
4095 0 3084
4095 0 3591
4095 0 4095
4085 744 0
4085 744 517
4085 746 1032
4085 749 1544
4085 753 2056
4085 759 2566
4085 767 3075
4085 776 3582
4085 784 4086
4076 1275 0
4076 1275 510
4076 1277 1026
4077 1280 1538
4077 1285 2049
4077 1291 2560
4077 1300 3068
4077 1310 3575
4077 1318 4078
4071 1772 0
4072 1773 504
4072 1775 1023
4072 1778 1536
4072 1782 2047
4072 1788 2556
4072 1796 3065
4072 1806 3570
4073 1810 4073
4071 2254 0
4071 2255 502
4071 2256 1023
4071 2259 1537
4071 2263 2048
4071 2268 2557
4071 2275 3064
4071 2283 3570
4072 2284 4072
4073 2726 0
4073 2726 504
4074 2728 1027
4074 2729 1541
4074 2732 2052
4074 2737 2561
4074 2742 3068
4074 2746 3572
4075 2746 4075
4078 3190 0
4079 3190 513
4079 3191 1035
4079 3192 1548
4079 3194 2059
4079 3197 2568
4079 3200 3074
4079 3201 3577
4080 3201 4080
4086 3646 0
4086 3646 525
4086 3647 1045
4086 3647 1559
4086 3648 2069
4086 3650 2577
4086 3650 3081
4086 3650 3584
4087 3650 4087
4095 4095 52
4095 4095 544
4095 4095 1060
4095 4095 1572
4095 4095 2079
4095 4095 2585
4095 4095 3089
4095 4095 3592
4095 4095 4095
