Examples/Gradient map toning (Brown shadows, Cyan highlights).3dl
#25pt 3DLUT created by 3D LUT Creator Pro (c) Oleg Sharonov
#Copyright Oleg Sharonov
#IMAGEPROFILE sRGB IEC61966-2.1 v.2.10
#INPUTGAMMA sRGB IEC61966-2.1 v.2.10
#OUTPUTGAMMA sRGB IEC61966-2.1 v.2.10
0 256 512 768 1023
0 0 0
14 14 688
36 24 1671
72 18 2828
0 0 4095
13 849 43
25 853 724
58 861 1690
114 871 2845
85 885 4095
85 1821 45
83 1825 760
87 1837 1716
125 1854 2862
143 1879 4095
115 2913 60
114 2916 788
109 2926 1738
108 2941 2870
130 2961 4095
0 4095 0
4 4095 793
11 4095 1756
13 4095 2874
0 4095 4095
1019 0 0
1023 5 760
1025 14 1727
1016 20 2859
988 2 4095
1039 860 29
1039 865 781
1034 876 1743
1026 891 2872
1003 908 4095
1044 1844 40
1041 1848 803
1034 1861 1763
1027 1880 2887
1013 1908 4095
1031 2932 54
1029 2936 820
1023 2945 1777
1013 2961 2893
999 2982 4095
991 4095 0
991 4095 821
988 4095 1790
982 4095 2896
970 4095 4095
1995 9 7
1996 13 853
1994 22 1833
1986 25 2928
1969 13 4095
2003 928 13
2002 933 861
1998 944 1841
1988 961 2933
1970 983 4095
2003 1932 27
2002 1936 873
1996 1949 1851
1986 1971 2940
1969 2001 4095
1991 2999 33
1989 3002 881
1984 3012 1860
1975 3028 2945
1960 3050 4095
1969 4095 5
1968 4095 886
1965 4095 1871
1959 4095 2952
1948 4095 4095
2997 22 5
2996 24 947
2995 29 1952
2990 31 3011
2982 25 4095
2991 1068 4
2990 1072 945
2988 1083 1948
2983 1103 3006
2974 1131 4094
2985 2089 0
2984 2092 946
2982 2101 1950
2977 2117 3005
2968 2139 4090
2981 3102 0
2981 3103 952
2979 3108 1959
2974 3117 3012
2967 3129 4091
2980 4095 9
2979 4095 967
2978 4095 1977
2974 4095 3027
2969 4095 4095
4095 0 0
4095 0 1038
4095 0 2063
4095 0 3084
4095 0 4095
4076 1275 0
4076 1277 1026
4077 1285 2049
4077 1300 3068
4077 1318 4078
4071 2254 0
4071 2256 1023
4071 2263 2048
4071 2275 3064
4072 2284 4072
4078 3190 0
4079 3191 1035
4079 3194 2059
4079 3200 3074
4080 3201 4080
4095 4095 52
4095 4095 1060
4095 4095 2079
4095 4095 3089
4095 4095 4095
