Examples/Gradient map.3dl
#25pt 3DLUT created by 3D LUT Creator Pro (c) Oleg Sharonov
#Copyright Oleg Sharonov
#IMAGEPROFILE Nikon sRGB 4.0.0.3001 v.2.20
#INPUTGAMMA Nikon sRGB 4.0.0.3001 v.2.20
#OUTPUTGAMMA Nikon sRGB 4.0.0.3001 v.2.20
0 128 256 384 512 640 768 896 1023
350 193 1320
422 227 1295
586 304 1240
767 390 1179
949 475 1118
1130 561 1057
1312 647 996
1493 733 934
1675 818 873
729 372 1192
763 388 1180
839 424 1155
951 477 1117
1088 541 1071
1239 613 1020
1400 689 966
1566 767 910
1737 848 852
1137 565 1054
1154 572 1049
1195 592 1035
1262 623 1012
1354 667 981
1466 720 944
1594 780 901
1733 846 854
1881 916 804
1545 757 917
1556 762 913
1581 774 905
1626 795 890
1690 825 868
1771 864 841
1869 910 808
1981 963 770
2104 1021 728
1954 950 779
1961 953 777
1979 962 771
2011 977 760
2058 999 744
2119 1028 723
2195 1064 698
2284 1106 668
2385 1154 634
2362 1143 642
2367 1145 640
2381 1152 635
2405 1163 627
2441 1180 615
2489 1203 599
2549 1231 578
2621 1265 554
2704 1304 526
2770 1335 504
2774 1337 503
2785 1342 499
2804 1352 492
2833 1365 483
2871 1383 470
2920 1406 453
2979 1434 433
3049 1467 410
3178 1528 367
3181 1529 365
3190 1534 362
3206 1541 357
3229 1552 349
3261 1567 338
3302 1587 325
3352 1610 308
3410 1638 288
3585 1721 229
3588 1722 228
3596 1725 226
3609 1732 221
3629 1741 214
3656 1754 205
3691 1770 194
3733 1790 179
3783 1814 162
554 289 1251
607 314 1233
714 364 1197
854 431 1150
1012 505 1097
1179 584 1040
1351 665 982
1525 748 924
1702 831 864
824 416 1160
852 430 1151
916 460 1129
1015 507 1095
1140 566 1053
1282 633 1005
1435 705 954
1597 781 900
1762 860 844
1186 588 1038
1201 595 1033
1239 613 1020
1303 643 998
1391 684 969
1499 735 933
1623 794 891
1759 858 845
1904 927 796
1576 772 907
1586 776 903
1611 788 895
1654 809 880
1716 838 859
1796 876 832
1892 921 800
2002 973 763
2124 1030 722
1975 960 772
1982 963 770
2000 972 764
2031 987 753
2077 1008 737
2138 1037 717
2213 1072 692
2301 1114 662
2401 1161 628
2378 1150 636
2383 1153 634
2397 1159 630
2421 1171 622
2456 1187 610
2504 1210 594
2564 1238 574
2635 1272 549
2717 1311 522
2782 1341 500
2787 1343 498
2797 1348 495
2817 1357 488
2845 1371 479
2883 1389 466
2932 1412 449
2991 1440 429
3060 1472 406
3188 1533 363
3192 1535 362
3200 1539 359
3216 1546 354
3240 1557 346
3272 1572 335
3312 1591 321
3362 1615 305
3420 1642 285
3594 1725 226
3597 1726 225
3605 1730 223
3618 1736 218
3638 1745 211
3665 1758 202
3699 1774 191
3741 1794 177
3791 1818 160
841 425 1154
869 438 1145
931 467 1124
1028 513 1091
1151 571 1050
1291 637 1003
1443 709 951
1603 784 897
1768 862 842
1006 502 1099
1026 512 1092
1074 535 1076
1153 572 1049
1257 621 1014
1381 680 972
1520 745 925
1669 815 875
1825 889 822
1297 640 1001
1311 646 996
1344 662 985
1401 689 966
1480 726 939
1578 773 906
1694 827 867
1822 888 824
1960 953 777
1650 807 882
1659 811 878
1683 822 870
1723 841 857
1782 869 837
1857 905 812
1949 948 781
2054 997 745
2171 1053 706
2028 985 754
2035 988 752
2052 997 746
2082 1011 736
2127 1032 721
2185 1059 701
2258 1094 677
2343 1134 648
2441 1180 615
2418 1169 622
2424 1172 621
2437 1178 616
2460 1189 608
2495 1206 597
2542 1228 581
2600 1255 561
2670 1288 538
2751 1326 510
2815 1356 489
2819 1359 487
2830 1364 484
2848 1372 478
2877 1386 468
2914 1404 455
2962 1426 439
3020 1454 420
3088 1486 397
3215 1545 354
3218 1547 353
3227 1551 350
3243 1559 345
3266 1569 337
3297 1584 326
3337 1603 313
3386 1626 296
3444 1654 277
3617 1735 219
3620 1737 218
3627 1740 215
3640 1746 211
3660 1756 204
3686 1768 195
3721 1784 184
3762 1804 169
3812 1827 153
1128 560 1057
1145 568 1052
1186 588 1038
1254 620 1015
1347 663 984
1460 717 946
1588 777 902
1728 843 855
1877 914 805
1238 612 1020
1252 619 1016
1288 636 1003
1348 664 983
1432 704 955
1535 752 920
1655 809 880
1787 871 835
1930 939 787
1464 719 944
1476 724 940
1504 738 931
1552 760 915
1620 792 892
1706 833 862
1810 882 828
1927 937 788
2055 998 745
1770 863 841
1779 867 838
1800 877 831
1837 895 819
1890 920 801
1959 953 777
2044 993 749
2143 1039 715
2253 1091 678
2118 1028 724
2125 1031 721
2141 1038 716
2169 1052 707
2211 1071 692
2266 1098 674
2335 1130 651
2417 1169 623
2510 1213 592
2488 1202 599
2494 1205 597
2506 1211 593
2529 1221 585
2562 1237 574
2607 1258 559
2663 1285 540
2731 1317 517
2809 1354 491
2871 1383 470
2875 1385 469
2885 1390 465
2904 1399 459
2931 1411 450
2968 1429 437
3015 1451 422
3071 1478 402
3137 1509 380
3261 1567 338
3264 1569 337
3273 1573 334
3288 1580 329
3311 1591 322
3342 1605 311
3381 1624 298
3429 1647 282
3486 1673 263
3656 1754 205
3659 1755 204
3666 1759 202
3679 1765 198
3698 1774 191
3725 1786 182
3758 1802 171
3799 1821 157
3848 1845 140
1415 696 961
1427 701 957
1456 715 947
1506 739 930
1578 772 906
1667 815 876
1774 865 840
1894 922 799
2026 984 755
1494 733 934
1505 738 930
1532 751 921
1579 773 906
1645 804 883
1730 844 855
1831 892 820
1946 946 782
2073 1006 739
1672 817 874
1681 821 871
1704 832 863
1744 851 850
1801 878 831
1875 913 806
1966 956 775
2070 1005 740
2186 1060 701
1931 939 787
1938 943 784
1957 952 778
1990 967 767
2037 989 751
2099 1019 730
2176 1055 704
2266 1097 674
2368 1146 639
2244 1087 681
2250 1090 679
2265 1097 674
2291 1109 665
2329 1127 653
2380 1152 635
2445 1182 614
2521 1218 588
2609 1259 558
2589 1250 565
2593 1252 563
2605 1258 559
2627 1268 552
2658 1283 542
2701 1303 527
2754 1328 509
2818 1358 488
2893 1394 462
2953 1422 442
2957 1424 441
2967 1428 438
2984 1437 432
3010 1449 423
3046 1466 411
3091 1487 396
3145 1513 377
3209 1543 356
3329 1599 315
3333 1601 314
3341 1605 312
3356 1612 307
3378 1622 299
3408 1637 289
3446 1655 276
3493 1677 260
3548 1703 242
3714 1781 186
3717 1782 185
3724 1786 182
3736 1792 178
3755 1801 172
3781 1813 163
3814 1828 152
3854 1847 139
3902 1870 122
1702 831 864
1710 835 861
1733 846 854
1771 864 841
1827 890 822
1900 925 797
1989 967 767
2092 1015 733
2206 1069 694
1762 860 844
1771 864 841
1792 874 834
1829 891 821
1882 916 803
1952 949 780
2038 990 751
2136 1036 718
2247 1089 680
1904 927 796
1911 930 793
1930 939 787
1963 955 776
2012 977 760
2075 1007 738
2153 1044 712
2245 1087 681
2348 1136 646
2123 1030 722
2130 1033 720
2146 1041 714
2174 1054 705
2216 1074 691
2271 1100 672
2339 1132 649
2421 1171 622
2514 1215 590
2400 1161 629
2406 1164 627
2419 1170 622
2443 1181 614
2478 1198 602
2525 1220 586
2584 1248 567
2654 1281 543
2736 1319 515
2717 1311 522
2722 1313 520
2733 1318 516
2753 1327 510
2782 1341 500
2822 1360 486
2872 1384 470
2933 1412 449
3004 1446 425
3060 1472 406
3064 1474 405
3073 1478 402
3090 1486 396
3115 1498 388
3148 1514 376
3191 1534 362
3243 1559 344
3304 1588 324
3419 1642 285
3423 1644 284
3431 1647 281
3445 1654 276
3466 1664 269
3495 1678 260
3532 1695 247
3577 1716 232
3630 1742 214
3791 1818 160
3794 1819 159
3801 1822 156
3813 1828 152
3831 1837 146
3856 1848 138
3888 1864 127
3928 1882 114
3974 1904 98
1988 966 768
1995 969 765
2013 978 759
2044 993 749
2089 1014 733
2149 1042 713
2224 1077 688
2311 1119 659
2411 1166 625
2036 989 751
2043 992 749
2060 1000 743
2090 1015 733
2134 1035 718
2193 1063 699
2265 1097 674
2350 1137 646
2447 1183 613
2152 1044 712
2159 1047 710
2175 1054 705
2202 1067 695
2243 1087 682
2297 1112 663
2365 1144 641
2445 1182 614
2537 1225 583
2339 1132 649
2344 1134 648
2358 1141 643
2383 1153 635
2419 1170 622
2468 1193 606
2529 1221 585
2601 1256 561
2685 1296 532
2583 1247 567
2588 1249 565
2600 1255 561
2622 1265 554
2653 1280 543
2696 1300 529
2749 1326 511
2814 1356 489
2889 1392 464
2871 1383 470
2875 1385 468
2886 1390 465
2904 1399 459
2931 1412 450
2968 1429 437
3015 1451 421
3071 1478 402
3138 1509 380
3190 1534 362
3194 1536 361
3203 1540 358
3219 1547 353
3242 1558 345
3274 1573 334
3314 1593 320
3364 1616 304
3422 1643 284
3532 1695 247
3535 1697 246
3542 1700 244
3556 1707 239
3576 1716 232
3604 1729 223
3639 1746 211
3682 1766 196
3733 1790 179
3888 1863 127
3891 1865 126
3897 1868 124
3909 1873 120
3927 1882 114
3951 1893 106
3982 1908 95
4020 1926 83
4065 1947 67
2275 1102 671
2280 1104 669
2295 1111 664
2321 1123 655
2359 1141 643
2409 1165 626
2472 1195 604
2547 1230 579
2634 1271 550
2314 1120 658
2320 1123 656
2334 1130 651
2359 1141 642
2396 1159 630
2445 1182 613
2507 1211 593
2581 1246 568
2666 1286 539
2411 1166 625
2416 1168 623
2430 1175 619
2454 1186 611
2488 1202 599
2535 1225 583
2594 1252 563
2664 1285 540
2745 1324 512
2571 1241 571
2576 1244 569
2588 1249 565
2609 1260 558
2641 1275 547
2684 1295 533
2738 1320 515
2803 1351 493
2878 1387 467
2787 1343 498
2791 1345 497
2802 1350 493
2821 1359 487
2849 1373 477
2888 1391 464
2936 1414 448
2995 1442 428
3064 1474 405
3048 1467 410
3051 1468 409
3061 1473 406
3078 1481 400
3103 1493 392
3137 1509 380
3180 1529 366
3232 1554 348
3294 1583 327
3343 1606 311
3346 1608 310
3355 1611 307
3369 1618 302
3391 1629 295
3421 1643 285
3459 1661 272
3505 1683 256
3560 1709 238
3664 1757 203
3667 1759 202
3674 1762 199
3687 1768 195
3706 1777 188
3732 1790 180
3766 1806 168
3807 1825 154
3856 1848 138
4004 1918 88
4006 1919 87
4013 1922 85
4024 1928 81
4041 1936 76
4064 1946 68
4094 1961 58
4095 1978 45
4095 1981 43
2562 1237 574
2566 1239 573
2578 1245 569
2600 1255 561
2632 1270 551
2675 1291 536
2729 1316 518
2794 1347 496
2870 1383 470
2595 1253 563
2600 1255 561
2612 1261 557
2633 1271 550
2664 1285 540
2706 1305 525
2760 1331 507
2824 1361 486
2899 1396 461
2677 1292 535
2682 1294 534
2693 1299 530
2713 1309 523
2743 1323 513
2784 1342 499
2835 1366 482
2897 1395 461
2969 1429 437
2815 1357 489
2820 1359 487
2830 1364 484
2849 1373 477
2877 1386 468
2915 1404 455
2963 1426 439
3020 1454 420
3089 1486 397
3006 1447 424
3010 1449 423
3020 1453 420
3037 1461 414
3062 1473 405
3097 1490 394
3141 1511 379
3194 1536 361
3257 1565 340
3242 1558 345
3245 1560 344
3254 1564 341
3269 1571 336
3292 1582 328
3324 1597 317
3363 1616 304
3411 1638 288
3469 1665 268
3514 1687 253
3517 1688 252
3525 1692 249
3539 1698 245
3559 1708 238
3587 1721 229
3622 1738 217
3666 1759 202
3717 1783 185
3815 1829 152
3818 1830 151
3825 1833 148
3837 1839 144
3855 1848 138
3880 1859 130
3912 1874 119
3950 1893 106
3996 1915 91
4095 1981 43
4095 1981 43
4095 1981 43
4095 1981 43
4095 1981 43
4095 1981 43
4095 1981 43
4095 1981 43
4095 1981 43
