Examples/MaskToImage - Blue-Orange Toning.3dl
#25pt 3DLUT created by 3D LUT Creator Pro (c) Oleg Sharonov
#Copyright Oleg Sharonov
#IMAGEPROFILE sRGB IEC61966-2.1 v.2.10
#INPUTGAMMA sRGB IEC61966-2.1 v.2.10
#OUTPUTGAMMA sRGB IEC61966-2.1 v.2.10
0 128 256 384 512 640 768 896 1023
0 0 0
0 0 539
0 0 1051
0 0 1561
0 0 2069
0 0 2577
0 0 3084
0 0 3590
0 0 4095
49 347 49
7 276 593
2 263 1083
0 261 1582
0 260 2085
0 260 2588
0 260 3093
4 265 3597
24 285 4095
90 784 90
27 666 662
11 625 1143
5 610 1628
5 604 2119
9 604 2615
16 609 3113
38 622 3612
87 650 4095
71 1224 71
40 1142 704
22 1080 1203
14 1045 1683
16 1029 2165
27 1024 2652
51 1026 3143
97 1038 3636
172 1066 4095
51 1728 51
40 1678 697
31 1616 1225
27 1569 1720
34 1540 2204
58 1525 2688
104 1520 3173
170 1527 3659
257 1548 4095
42 2267 42
40 2240 664
40 2198 1206
49 2156 1718
69 2122 2214
109 2100 2703
168 2088 3189
243 2088 3673
340 2100 4095
63 2837 63
65 2824 635
76 2801 1167
96 2774 1685
127 2749 2190
175 2728 2687
236 2715 3178
316 2709 3665
418 2713 4095
120 3441 120
123 3435 620
133 3426 1131
152 3413 1641
181 3401 2146
224 3389 2646
281 3381 3143
356 3375 3635
458 3374 4095
0 4095 0
0 4094 555
0 4092 1070
0 4091 1578
0 4091 2084
0 4091 2587
0 4092 3091
0 4094 3593
0 4095 4095
595 0 0
336 9 567
263 2 1083
261 0 1582
260 0 2085
260 0 2588
260 0 3093
265 4 3597
285 24 4095
599 440 0
354 333 595
270 270 1110
265 265 1602
263 263 2099
263 263 2599
267 267 3101
278 278 3603
310 310 4095
406 791 96
319 679 682
287 634 1163
274 615 1644
272 609 2132
276 607 2625
287 615 3121
314 631 3618
365 665 4095
378 1233 74
338 1153 715
305 1088 1216
289 1052 1695
287 1034 2176
296 1027 2661
323 1031 3150
368 1045 3641
435 1075 4095
351 1738 54
334 1688 704
314 1625 1234
305 1576 1729
308 1545 2213
329 1529 2695
369 1525 3179
430 1532 3664
511 1554 4095
329 2276 43
326 2249 669
321 2206 1212
324 2162 1725
342 2128 2221
374 2105 2709
426 2092 3194
497 2092 3677
590 2104 4095
339 2845 67
342 2832 638
348 2808 1172
364 2780 1690
391 2754 2195
432 2733 2692
489 2718 3182
566 2712 3668
667 2716 4095
383 3447 127
387 3442 625
395 3431 1135
412 3419 1645
439 3405 2150
478 3393 2650
534 3384 3146
608 3378 3638
709 3377 4095
285 4095 24
278 4095 564
269 4095 1075
260 4095 1583
251 4094 2088
243 4094 2591
247 4095 3094
281 4095 3596
376 4095 4095
1103 0 0
1122 0 425
716 11 1112
610 5 1628
604 5 2119
604 9 2615
609 16 3113
622 38 3612
650 87 4095
1120 438 0
1134 444 431
725 326 1129
615 274 1644
609 272 2132
607 276 2625
615 287 3121
631 314 3618
665 365 4095
1129 916 0
1136 922 451
744 709 1163
627 627 1680
618 618 2161
619 619 2648
630 630 3140
654 654 3633
698 698 4095
777 1250 74
731 1183 724
687 1118 1235
644 1065 1723
634 1044 2201
637 1037 2682
654 1042 3167
689 1059 3655
748 1096 4095
726 1757 60
705 1707 717
677 1642 1253
657 1590 1750
652 1557 2232
661 1539 2713
688 1534 3194
736 1543 3676
809 1569 4095
690 2296 51
683 2268 679
673 2223 1225
668 2177 1740
673 2140 2236
694 2115 2723
732 2102 3206
792 2101 3687
879 2116 4095
678 2863 80
678 2849 647
680 2825 1181
688 2795 1701
705 2766 2207
737 2743 2703
786 2728 3192
855 2721 3676
951 2725 4095
699 3463 148
701 3456 636
708 3445 1144
721 3431 1654
744 3416 2160
779 3403 2659
830 3392 3154
901 3385 3644
1000 3384 4095
650 4095 87
647 4095 587
645 4095 1090
645 4095 1594
648 4095 2098
658 4095 2600
680 4095 3101
724 4095 3601
801 4095 4095
1610 0 0
1622 0 429
1644 0 898
1156 14 1647
1029 16 2165
1024 27 2652
1026 51 3143
1038 97 3636
1066 172 4095
1620 441 0
1630 445 432
1650 453 902
1163 326 1657
1034 287 2176
1027 296 2661
1031 323 3150
1045 368 3641
1075 435 4095
1641 920 0
1648 923 438
1663 932 908
1177 697 1682
1044 634 2201
1037 637 2682
1042 654 3167
1059 689 3655
1096 748 4095
1644 1410 0
1648 1413 454
1657 1420 929
1193 1149 1709
1060 1060 2234
1053 1053 2712
1060 1060 3192
1084 1084 3674
1130 1130 4095
1376 1816 38
1365 1803 599
1344 1776 1136
1202 1675 1720
1075 1573 2259
1072 1554 2737
1084 1550 3216
1118 1562 3694
1176 1594 4095
1140 2315 61
1128 2288 690
1111 2244 1241
1095 2197 1760
1087 2157 2257
1093 2131 2743
1116 2117 3224
1161 2117 3701
1232 2135 4095
1102 2886 101
1099 2871 659
1096 2846 1196
1095 2814 1717
1102 2784 2224
1120 2759 2719
1155 2742 3207
1211 2735 3688
1296 2740 4095
1095 3484 181
1095 3477 654
1099 3465 1160
1107 3449 1669
1123 3433 2174
1150 3417 2673
1192 3404 3166
1256 3396 3653
1347 3395 4095
1066 4095 172
1065 4095 623
1066 4095 1114
1070 4095 1613
1079 4095 2114
1095 4095 2614
1123 4095 3113
1169 4095 3610
1247 4095 4095
2113 0 0
2120 0 432
2136 0 900
2080 5 1444
1653 33 2165
1525 58 2688
1520 104 3173
1527 170 3659
1548 257 4095
2119 445 0
2126 447 434
2141 452 902
2084 436 1447
1658 341 2172
1529 329 2695
1525 369 3179
1532 430 3664
1554 511 4095
2134 922 0
2139 924 438
2152 930 907
2094 893 1455
1670 700 2190
1539 661 2713
1534 688 3194
1543 736 3676
1569 809 4095
2151 1418 0
2155 1420 442
2164 1427 913
2105 1381 1463
1685 1138 2212
1554 1072 2737
1550 1084 3216
1562 1118 3694
1594 1176 4095
2149 1920 4
2152 1922 457
2158 1927 931
2111 1894 1469
1698 1652 2226
1570 1570 2758
1570 1570 3235
1587 1587 3710
1628 1628 4095
1946 2370 71
1943 2367 560
1937 2359 1070
1927 2347 1587
1700 2225 2221
1584 2146 2760
1591 2134 3240
1618 2137 3714
1670 2160 4095
1636 2899 136
1631 2886 666
1623 2864 1199
1614 2834 1722
1609 2805 2230
1596 2774 2734
1615 2757 3220
1654 2751 3699
1720 2760 4095
1581 3502 227
1580 3495 679
1581 3483 1179
1583 3466 1687
1592 3448 2191
1609 3431 2688
1640 3417 3179
1690 3408 3663
1768 3408 4095
1548 4095 257
1548 4095 670
1550 4095 1144
1554 4095 1638
1563 4095 2135
1580 4095 2632
1608 4095 3128
1653 4095 3620
1730 4095 4095
2612 0 0
2617 0 432
2629 0 903
2644 0 1393
2526 34 1996
2199 104 2666
2088 168 3189
2088 243 3673
2100 340 4095
2617 446 0
2622 447 434
2633 451 904
2647 457 1394
2529 430 1999
2203 394 2672
2092 426 3194
2092 497 3677
2104 590 4095
2627 925 0
2631 927 437
2641 932 908
2653 938 1398
2538 862 2006
2214 731 2684
2102 732 3206
2101 792 3687
2116 879 4095
2640 1420 0
2643 1422 440
2651 1427 912
2661 1433 1403
2548 1336 2015
2228 1149 2702
2117 1116 3224
2117 1161 3701
2135 1232 4095
2651 1930 0
2653 1933 446
2660 1937 917
2668 1944 1408
2555 1845 2022
2242 1645 2715
2134 1591 3240
2137 1618 3714
2160 1670 4095
2645 2443 16
2647 2445 465
2651 2449 935
2657 2454 1426
2554 2382 2024
2248 2208 2716
2149 2149 3243
2159 2159 3717
2191 2191 4095
2497 2931 170
2496 2930 577
2495 2928 1049
2493 2925 1548
2490 2920 2057
2245 2817 2698
2160 2768 3225
2182 2766 3701
2227 2781 4095
2266 3505 281
2265 3502 673
2264 3495 1147
2262 3485 1647
2262 3473 2152
2237 3454 2666
2169 3425 3188
2204 3418 3668
2264 3421 4095
2100 4095 340
2099 4095 723
2100 4095 1179
2103 4095 1664
2110 4095 2156
2124 4095 2649
2147 4095 3141
2186 4095 3628
2255 4095 4095
3110 0 0
3113 0 431
3122 0 906
3133 0 1396
3143 5 1906
3005 112 2533
2789 224 3150
2709 316 3665
2713 418 4095
3113 444 0
3116 446 432
3124 451 907
3135 458 1398
3144 468 1907
3008 460 2536
2792 492 3154
2712 566 3668
2716 667 4095
3120 928 0
3123 930 436
3130 934 910
3140 940 1401
3148 947 1910
3015 860 2543
2801 806 3163
2721 855 3676
2725 951 4095
3129 1424 0
3132 1426 441
3138 1430 915
3146 1435 1405
3153 1441 1914
3024 1315 2552
2814 1197 3176
2735 1211 3688
2740 1296 4095
3138 1934 0
3140 1935 449
3145 1939 920
3152 1945 1410
3157 1951 1919
3032 1814 2560
2827 1668 3188
2751 1654 3699
2760 1720 4095
3142 2456 7
3144 2458 457
3148 2462 926
3154 2467 1415
3158 2472 1923
3033 2349 2564
2836 2210 3191
2766 2182 3701
2781 2227 4095
3134 2980 52
3135 2982 484
3138 2985 946
3142 2989 1433
3146 2993 1939
3028 2912 2563
2836 2807 3182
2778 2778 3690
2804 2804 4095
3031 3503 261
3031 3503 618
3032 3504 1057
3033 3504 1536
3034 3503 2034
3016 3496 2556
2830 3441 3161
2786 3422 3664
2827 3432 4095
2863 4095 346
2863 4095 693
2863 4095 1128
2865 4095 1605
2868 4095 2099
2872 4095 2599
2805 4095 3130
2770 4095 3633
2826 4095 4095
3604 0 0
3607 0 433
3613 0 911
3621 5 1402
3628 36 1911
3618 87 2452
3526 202 3055
3416 331 3621
3374 458 4095
3606 447 0
3609 450 435
3615 457 912
3622 468 1404
3629 484 1912
3619 494 2454
3528 514 3058
3419 594 3623
3377 709 4095
3611 933 0
3614 935 440
3619 940 916
3626 948 1407
3632 957 1915
3622 946 2457
3533 887 3063
3426 902 3629
3384 1000 4095
3618 1430 0
3620 1431 451
3625 1435 922
3631 1442 1412
3635 1449 1920
3626 1428 2462
3541 1323 3072
3435 1277 3638
3395 1347 4095
3623 1940 20
3625 1941 464
3629 1945 930
3634 1950 1418
3638 1957 1925
3629 1931 2468
3547 1808 3080
3446 1727 3646
3408 1768 4095
3626 2461 49
3628 2463 479
3631 2466 940
3635 2471 1426
3638 2477 1931
3629 2452 2473
3550 2335 3086
3454 2244 3651
3421 2264 4095
3625 2994 72
3626 2995 491
3629 2998 948
3632 3002 1432
3635 3007 1936
3626 2988 2477
3548 2895 3087
3457 2819 3648
3432 2827 4095
3616 3530 101
3617 3531 508
3619 3533 964
3622 3536 1447
3624 3539 1950
3620 3535 2477
3539 3481 3084
3454 3438 3638
3442 3442 4095
3555 4095 158
3555 4095 553
3556 4095 1013
3558 4095 1501
3560 4095 2003
3562 4095 2516
3522 4095 3065
3434 4095 3619
3438 4095 4095
4095 0 0
4095 9 453
4095 33 925
4095 76 1415
4095 132 1922
4095 186 2445
4095 196 3003
4095 104 3566
4095 0 4095
4095 467 7
4095 471 457
4095 483 927
4095 502 1416
4095 528 1923
4095 559 2446
4095 544 3004
4095 460 3568
4095 391 4095
4095 947 27
4095 950 468
4095 957 933
4095 968 1421
4095 983 1927
4095 1002 2449
4095 962 3008
4095 867 3572
4095 819 4095
4095 1441 61
4095 1443 484
4095 1449 943
4095 1457 1428
4095 1468 1933
4095 1481 2454
4095 1426 3014
4095 1321 3579
4095 1273 4095
4095 1950 109
4095 1951 507
4095 1956 957
4095 1963 1438
4095 1971 1940
4095 1981 2460
4095 1920 3020
4095 1811 3586
4095 1762 4095
4095 2470 159
4095 2472 534
4095 2475 974
4095 2481 1450
4095 2488 1950
4095 2495 2467
4095 2437 3027
4095 2336 3592
4095 2289 4095
4095 3001 199
4095 3002 559
4095 3005 991
4095 3010 1463
4095 3015 1960
4095 3020 2474
4095 2973 3033
4095 2892 3595
4095 2855 4095
4095 3541 204
4095 3542 565
4095 3544 998
4095 3547 1471
4095 3551 1967
4095 3554 2481
4095 3525 3036
4095 3474 3595
4095 3455 4095
4095 4095 0
4095 4095 473
4095 4095 959
4095 4095 1456
4095 4095 1964
4095 4095 2483
4095 4095 3022
4095 4095 3571
4095 4095 4095
