Examples/MaskToImage - Cyan-Orange Toning.3dl
#25pt 3DLUT created by 3D LUT Creator Pro (c) Oleg Sharonov
#Copyright Oleg Sharonov
#IMAGEPROFILE sRGB IEC61966-2.1 v.2.10
#INPUTGAMMA sRGB IEC61966-2.1 v.2.10
#OUTPUTGAMMA sRGB IEC61966-2.1 v.2.10
0 128 256 384 512 640 768 896 1023
0 0 0
0 0 576
0 0 1131
0 0 1694
0 0 2262
0 0 2726
0 0 3188
0 0 3646
0 0 4095
6 489 6
0 445 603
0 418 1157
0 401 1712
0 364 2276
0 361 2735
0 357 3194
0 380 3649
8 471 4095
8 983 8
0 940 637
0 890 1201
0 860 1751
0 833 2307
0 849 2755
0 865 3207
0 890 3657
34 944 4095
10 1477 10
6 1441 657
0 1383 1245
0 1335 1800
0 1299 2353
0 1322 2787
0 1345 3228
0 1374 3671
90 1419 4095
14 1971 14
12 1941 669
4 1884 1277
0 1826 1847
0 1779 2404
0 1801 2824
0 1826 3254
0 1855 3688
179 1897 4095
18 2501 18
16 2483 657
6 2440 1275
0 2387 1862
0 2339 2432
0 2359 2844
0 2384 3266
0 2413 3691
217 2450 4095
30 3031 30
26 3019 647
4 2987 1268
0 2944 1867
0 2900 2450
0 2918 2857
0 2942 3272
0 2968 3691
241 3000 4095
38 3562 38
28 3554 640
0 3531 1260
0 3498 1864
0 3463 2457
0 3479 2862
0 3500 3274
0 3523 3689
224 3547 4095
0 4095 0
0 4090 619
0 4075 1242
0 4054 1850
0 4034 2453
0 4048 2859
0 4065 3271
0 4082 3686
0 4095 4095
583 0 0
466 0 549
289 0 1170
271 0 1720
217 0 2281
195 0 2740
195 0 3198
195 0 3653
345 24 4095
568 480 0
407 484 598
297 432 1189
273 410 1736
215 370 2294
195 365 2747
195 364 3203
195 390 3656
353 484 4095
445 1004 8
383 972 630
308 905 1223
281 870 1770
213 839 2323
195 854 2767
195 870 3216
203 896 3664
372 951 4095
404 1496 10
374 1464 649
322 1396 1259
291 1345 1815
209 1307 2366
195 1327 2797
195 1350 3236
223 1378 3676
410 1424 4095
390 1985 16
374 1959 660
336 1895 1286
302 1835 1858
205 1786 2414
195 1807 2833
195 1830 3261
269 1860 3693
469 1901 4095
378 2512 22
368 2496 650
337 2449 1281
295 2395 1869
195 2345 2440
195 2365 2851
195 2389 3271
259 2417 3695
500 2454 4095
379 3040 36
371 3029 645
337 2995 1273
265 2951 1872
195 2906 2456
195 2923 2862
195 2946 3276
197 2972 3694
524 3003 4095
381 3568 50
372 3560 641
322 3537 1262
195 3503 1868
195 3468 2462
195 3484 2866
195 3503 3277
195 3525 3692
521 3549 4095
360 4095 24
337 4095 626
227 4080 1244
195 4058 1855
195 4037 2457
195 4051 2862
195 4067 3274
195 4083 3688
414 4095 4095
1142 0 0
1148 0 367
930 0 1099
610 0 1782
565 0 2328
563 0 2774
564 0 3224
599 0 3672
698 102 4095
1173 441 0
1055 487 486
872 484 1144
613 430 1793
567 384 2338
563 381 2781
565 385 3228
602 421 3675
702 518 4095
1135 961 0
1017 992 529
812 965 1195
652 901 1803
569 855 2363
564 868 2798
567 884 3239
609 912 3681
716 972 4095
961 1508 8
899 1500 606
780 1452 1231
631 1370 1852
575 1325 2399
567 1343 2824
575 1363 3257
626 1392 3693
743 1440 4095
860 2011 18
826 1994 640
755 1942 1264
644 1859 1885
581 1805 2440
575 1822 2855
591 1844 3279
657 1872 3706
788 1915 4095
796 2538 30
777 2524 643
733 2484 1263
644 2417 1890
557 2363 2460
547 2380 2868
572 2402 3286
662 2429 3707
818 2466 4095
766 3061 54
754 3051 645
722 3021 1259
636 2969 1888
483 2922 2471
461 2937 2876
510 2957 3288
649 2982 3704
848 3012 4095
754 3585 86
745 3578 648
714 3557 1253
602 3519 1881
389 3481 2475
389 3495 2877
389 3513 3287
577 3533 3699
865 3556 4095
742 4095 92
727 4095 643
669 4093 1249
453 4070 1867
389 4047 2468
389 4059 2872
389 4074 3282
389 4088 3694
839 4095 4095
1711 0 0
1720 0 322
1699 0 823
1395 2 1648
957 0 2387
927 0 2830
940 0 3267
976 2 3705
1056 213 4095
1736 425 0
1669 457 392
1642 480 905
1353 485 1681
960 418 2393
927 412 2835
942 424 3270
979 471 3706
1060 577 4095
1769 911 0
1702 944 387
1471 991 1088
1272 964 1743
980 894 2404
931 894 2848
946 910 3279
986 943 3712
1072 1009 4095
1701 1442 0
1627 1468 468
1424 1490 1131
1218 1446 1791
1052 1381 2398
938 1369 2868
955 1388 3292
1000 1417 3720
1095 1469 4095
1506 2000 16
1458 2003 575
1337 1988 1194
1187 1933 1827
1019 1854 2448
949 1848 2892
971 1867 3310
1026 1895 3730
1133 1940 4095
1347 2554 42
1315 2549 618
1241 2525 1227
1140 2475 1845
941 2394 2494
944 2406 2899
972 2424 3311
1040 2450 3727
1166 2486 4095
1248 3085 84
1229 3078 640
1181 3056 1241
1108 3014 1853
919 2949 2498
924 2961 2900
961 2978 3309
1050 3000 3720
1203 3030 4095
1194 3608 144
1182 3602 658
1147 3584 1248
1083 3552 1854
863 3504 2495
860 3514 2897
917 3529 3304
1043 3547 3712
1241 3568 4095
1166 4095 192
1154 4095 673
1111 4095 1255
995 4090 1871
598 4063 2487
584 4072 2889
732 4084 3297
980 4095 3704
1267 4095 4095
2286 0 0
2294 0 253
2299 0 716
2230 0 1314
1860 4 2196
1421 0 2863
1309 22 3325
1348 152 3749
1422 333 4095
2306 381 0
2257 420 317
2261 442 778
2188 479 1373
1828 487 2221
1420 468 2866
1311 482 3327
1350 544 3750
1426 659 4095
2345 878 0
2295 907 295
2148 965 928
2076 983 1509
1759 967 2276
1422 943 2874
1316 950 3332
1358 990 3753
1437 1067 4095
2366 1379 0
2315 1405 301
2174 1458 921
1861 1484 1704
1670 1445 2342
1441 1423 2881
1326 1424 3341
1372 1456 3757
1458 1514 4095
2270 1923 0
2216 1943 427
2072 1979 1029
1817 1978 1743
1625 1927 2386
1510 1913 2871
1373 1906 3344
1398 1930 3763
1494 1978 4095
2048 2518 30
2010 2526 549
1910 2535 1131
1747 2519 1772
1587 2471 2403
1474 2460 2883
1353 2457 3346
1418 2481 3754
1530 2518 4095
1861 3085 115
1834 3085 618
1766 3078 1194
1658 3054 1807
1534 3010 2424
1388 3000 2909
1362 3007 3337
1442 3027 3742
1576 3056 4095
1734 3622 203
1716 3619 666
1671 3608 1231
1594 3585 1829
1487 3549 2437
1355 3544 2910
1363 3553 3327
1466 3568 3729
1633 3587 4095
1660 4095 287
1647 4095 710
1609 4095 1258
1524 4095 1853
1310 4087 2491
1262 4090 2915
1336 4095 3318
1479 4095 3719
1701 4095 4095
2745 0 0
2752 0 225
2768 0 691
2769 0 1192
2690 0 1854
2421 14 2673
2157 76 3286
2049 232 3757
2096 414 4095
2756 381 0
2736 411 271
2749 429 735
2748 461 1236
2667 493 1891
2407 492 2686
2155 513 3289
2051 589 3757
2098 720 4095
2780 902 0
2759 920 241
2698 956 839
2691 973 1346
2609 986 1982
2375 973 2715
2153 976 3294
2055 1019 3759
2105 1109 4095
2808 1404 0
2786 1419 205
2724 1451 821
2578 1477 1525
2507 1472 2122
2329 1454 2759
2156 1450 3301
2064 1478 3763
2118 1546 4095
2812 1917 0
2789 1929 221
2726 1954 843
2593 1974 1521
2368 1946 2286
2282 1935 2804
2170 1931 3306
2095 1949 3762
2139 2002 4095
2734 2467 0
2708 2477 384
2640 2498 960
2512 2510 1611
2338 2487 2309
2254 2479 2819
2204 2482 3287
2104 2495 3753
2159 2536 4095
2587 3035 30
2568 3040 532
2519 3047 1079
2430 3046 1685
2309 3024 2326
2232 3020 2826
2185 3024 3288
2102 3037 3745
2187 3068 4095
2462 3589 183
2448 3590 625
2411 3589 1162
2347 3580 1747
2256 3559 2360
2182 3557 2846
2092 3561 3320
2117 3574 3733
2226 3594 4095
2371 4095 291
2363 4095 693
2339 4095 1212
2289 4095 1782
2186 4095 2397
2047 4095 2905
2049 4095 3326
2133 4095 3724
2282 4095 4095
3201 0 0
3208 0 203
3224 0 684
3242 0 1150
3238 0 1697
3143 14 2454
2980 34 3147
2840 225 3698
2781 471 4095
3207 383 0
3200 405 233
3215 423 714
3231 457 1183
3225 499 1729
3132 500 2470
2974 502 3153
2839 588 3699
2779 766 4095
3221 925 0
3213 936 205
3191 959 789
3203 976 1264
3192 996 1809
3106 989 2512
2961 980 3168
2839 1023 3702
2777 1144 4095
3240 1435 0
3231 1443 195
3208 1462 770
3148 1478 1402
3133 1485 1943
3062 1475 2580
2940 1462 3192
2839 1486 3707
2785 1570 4095
3255 1945 0
3246 1951 195
3222 1966 761
3165 1978 1387
3045 1962 2121
3003 1954 2669
2917 1944 3221
2844 1960 3713
2799 2020 4095
3249 2471 0
3238 2478 195
3211 2493 794
3153 2507 1411
3048 2500 2113
2924 2480 2755
2889 2483 3240
2836 2498 3713
2808 2545 4095
3193 3012 0
3181 3017 315
3151 3028 916
3091 3037 1521
2997 3028 2188
2908 3019 2765
2874 3022 3245
2826 3036 3712
2823 3072 4095
3102 3561 0
3093 3563 506
3070 3567 1042
3025 3568 1617
2957 3559 2236
2904 3557 2760
2847 3559 3256
2808 3570 3714
2846 3594 4095
3024 4095 186
3020 4095 608
3010 4095 1113
2988 4095 1656
2943 4095 2236
2874 4095 2771
2747 4095 3309
2778 4095 3722
2885 4095 4095
3653 0 0
3658 0 233
3672 0 705
3692 0 1150
3709 90 1639
3675 117 2349
3613 58 3021
3537 50 3621
3485 391 4095
3656 413 0
3656 427 251
3669 449 725
3687 488 1173
3702 540 1664
3669 546 2364
3609 517 3028
3535 511 3623
3485 705 4095
3661 956 0
3661 962 233
3660 977 775
3675 997 1231
3686 1023 1727
3655 1019 2400
3600 996 3046
3532 989 3629
3484 1106 4095
3671 1471 0
3670 1475 201
3668 1485 761
3652 1494 1332
3658 1508 1834
3631 1500 2464
3585 1480 3077
3525 1473 3640
3484 1552 4095
3680 1982 0
3679 1985 195
3676 1992 750
3661 1996 1319
3616 1983 1986
3598 1975 2553
3564 1961 3119
3519 1958 3653
3482 2016 4095
3685 2503 0
3683 2506 195
3677 2514 747
3661 2522 1319
3620 2516 1969
3573 2497 2607
3550 2490 3140
3510 2492 3659
3471 2540 4095
3678 3027 0
3674 3030 195
3666 3037 787
3647 3045 1361
3609 3042 1994
3573 3030 2601
3531 3021 3164
3501 3026 3664
3456 3067 4095
3648 3557 0
3644 3559 271
3633 3563 894
3611 3567 1468
3573 3563 2087
3543 3557 2652
3515 3554 3178
3487 3560 3670
3466 3589 4095
3603 4092 0
3603 4093 419
3602 4094 960
3599 4095 1481
3592 4095 2012
3574 4095 2572
3533 4094 3137
3427 4095 3705
3487 4095 4095
4095 0 0
4095 20 387
4095 84 782
4095 184 1196
4095 290 1646
4095 327 2318
4095 302 2965
4095 130 3566
4095 0 4095
4095 506 2
4095 515 387
4095 541 781
4095 586 1194
4095 649 1642
4095 672 2314
4095 652 2963
4095 551 3566
4095 495 4095
4095 1012 6
4095 1017 388
4095 1033 780
4095 1061 1189
4095 1101 1633
4095 1112 2306
4095 1093 2958
4095 1025 3565
4095 990 4095
4095 1520 14
4095 1524 392
4095 1536 779
4095 1558 1182
4095 1588 1618
4095 1593 2291
4095 1572 2949
4095 1518 3563
4095 1487 4095
4095 2028 30
4095 2032 403
4095 2043 784
4095 2062 1180
4095 2090 1600
4095 2091 2269
4095 2070 2934
4095 2018 3559
4095 1985 4095
4095 2545 38
4095 2549 412
4095 2559 795
4095 2577 1188
4095 2603 1594
4095 2609 2239
4095 2593 2906
4095 2548 3548
4095 2514 4095
4095 3061 48
4095 3063 430
4095 3072 823
4095 3086 1224
4095 3109 1629
4095 3118 2236
4095 3115 2870
4095 3080 3526
4095 3041 4095
4095 3576 58
4095 3577 457
4095 3583 874
4095 3592 1298
4095 3607 1722
4095 3613 2298
4095 3615 2882
4095 3608 3487
4095 3568 4095
4095 4095 0
4095 4095 466
4095 4095 934
4095 4095 1404
4095 4095 1878
4095 4095 2434
4095 4095 2989
4095 4095 3541
4095 4095 4095
