Examples/Masks - Curves - Saturation Contrast.3dl
#25pt 3DLUT created by 3D LUT Creator Pro (c) Oleg Sharonov
#Copyright Oleg Sharonov
#IMAGEPROFILE 
#INPUTGAMMA 
#OUTPUTGAMMA 
0 128 256 384 512 640 768 896 1023
0 0 0
3 3 488
0 0 1008
0 0 1580
0 0 2176
0 0 2763
0 0 3297
0 0 3754
0 0 4095
10 434 10
13 439 439
6 394 1008
0 347 1616
0 302 2226
0 230 2813
0 100 3336
0 3 3779
26 228 4095
0 1015 0
6 1041 297
3 1028 959
0 981 1658
0 946 2314
0 919 2913
0 896 3419
0 902 3826
6 1004 4095
0 1668 0
0 1695 152
0 1708 878
0 1671 1685
0 1637 2410
0 1620 3034
0 1626 3523
0 1670 3882
0 1788 4075
0 2378 0
0 2402 3
0 2425 792
0 2405 1701
0 2378 2505
0 2370 3170
0 2396 3648
0 2455 3940
0 2553 4047
0 2984 0
0 3000 0
0 3014 758
0 2996 1680
0 2968 2476
0 2956 3114
0 2970 3565
0 3005 3876
0 3068 4046
0 3378 0
0 3389 0
0 3396 804
0 3380 1656
0 3358 2400
0 3350 3010
0 3361 3469
0 3386 3820
0 3426 4063
0 3727 0
0 3734 94
0 3736 880
0 3721 1644
0 3703 2327
0 3696 2907
0 3703 3374
0 3720 3765
0 3742 4082
0 4095 0
16 4095 360
16 4095 973
0 4088 1630
0 4077 2244
0 4072 2792
0 4076 3269
0 4085 3702
0 4095 4095
471 6 6
471 6 462
437 3 1011
393 0 1600
347 0 2202
284 0 2788
177 0 3316
81 0 3767
269 26 4095
443 427 13
440 423 423
403 386 1016
356 337 1636
312 291 2250
245 217 2836
123 87 3355
39 0 3791
273 243 4095
316 1039 3
324 1061 297
308 1042 969
269 989 1677
217 951 2337
97 921 2934
0 897 3436
0 905 3838
214 1011 4095
183 1696 0
192 1721 152
186 1730 886
152 1687 1701
48 1648 2429
0 1628 3052
0 1633 3538
0 1677 3893
0 1796 4080
42 2403 0
48 2426 3
39 2446 798
0 2423 1714
0 2392 2521
0 2382 3186
0 2406 3662
0 2458 3943
0 2554 4052
0 2997 0
0 3012 0
0 3025 766
0 3004 1687
0 2974 2481
0 2961 3117
0 2972 3567
0 3007 3878
0 3068 4050
0 3387 0
0 3397 0
0 3403 811
0 3385 1661
0 3362 2403
0 3352 3012
0 3363 3470
0 3387 3821
0 3426 4065
136 3732 0
152 3739 113
142 3740 887
23 3725 1647
0 3706 2328
0 3698 2907
0 3705 3374
0 3720 3765
0 3741 4084
379 4095 16
389 4095 370
389 4095 977
352 4090 1632
250 4079 2243
32 4074 2790
0 4078 3267
0 4086 3701
434 4095 4095
1035 0 0
1053 3 379
1049 0 977
1022 0 1615
999 0 2239
982 0 2829
970 0 3348
977 0 3783
1061 0 4093
1060 343 3
1079 349 349
1068 332 977
1031 295 1645
1003 248 2283
982 145 2874
968 0 3385
978 0 3806
1070 195 4095
1053 1005 0
1071 1022 252
1068 1017 938
1031 979 1681
996 943 2361
965 907 2965
939 872 3462
952 878 3851
1070 999 4094
1024 1694 0
1038 1714 126
1043 1724 870
1015 1690 1705
972 1653 2448
907 1628 3079
842 1626 3562
854 1669 3906
1037 1795 4074
988 2417 0
999 2437 0
1004 2456 785
976 2436 1718
890 2405 2539
692 2391 3211
475 2397 3664
553 2440 3937
915 2535 4051
963 2991 0
971 3005 0
973 3016 762
935 2997 1681
823 2968 2471
592 2953 3106
291 2961 3559
310 2992 3873
765 3051 4050
971 3379 0
977 3388 0
975 3394 805
937 3378 1653
838 3357 2392
649 3347 3000
425 3355 3460
389 3377 3815
741 3413 4066
1000 3725 0
1005 3731 90
1003 3732 881
973 3719 1637
904 3702 2315
790 3695 2894
676 3701 3363
658 3715 3758
861 3735 4083
1042 4094 0
1046 4095 367
1044 4095 974
1028 4088 1624
992 4078 2231
940 4074 2777
900 4078 3257
909 4086 3694
1035 4095 4095
1616 0 0
1637 0 297
1646 0 933
1625 0 1630
1606 0 2289
1600 0 2888
1611 0 3396
1647 0 3806
1740 0 4079
1649 269 0
1669 271 271
1675 264 931
1648 233 1653
1622 165 2325
1612 0 2928
1622 0 3428
1659 0 3827
1756 42 4083
1679 973 0
1698 984 195
1705 986 898
1676 961 1683
1644 922 2393
1626 868 3010
1629 807 3500
1668 804 3869
1780 961 4078
1694 1687 0
1710 1703 81
1721 1714 841
1697 1690 1705
1661 1653 2474
1624 1616 3118
1607 1597 3598
1646 1636 3924
1788 1778 4060
1704 2430 0
1716 2446 0
1727 2463 751
1705 2448 1715
1647 2409 2547
1562 2372 3202
1506 2364 3646
1542 2400 3926
1701 2495 4046
1666 2975 0
1674 2986 0
1678 2995 741
1653 2979 1661
1591 2953 2450
1497 2935 3085
1423 2937 3541
1434 2961 3863
1584 3018 4050
1644 3364 0
1650 3372 0
1650 3377 783
1625 3364 1632
1569 3345 2368
1486 3334 2976
1415 3340 3442
1407 3357 3804
1526 3390 4066
1633 3713 0
1637 3718 26
1635 3719 866
1614 3709 1619
1572 3695 2293
1512 3689 2870
1461 3693 3343
1450 3705 3747
1536 3723 4083
1619 4089 0
1622 4091 352
1620 4091 967
1607 4085 1610
1582 4078 2211
1549 4075 2756
1524 4079 3238
1523 4087 3683
1584 4094 4094
2225 0 0
2244 0 209
2258 0 888
2245 0 1643
2230 0 2344
2230 0 2959
2256 0 3456
2311 0 3837
2415 0 4061
2258 186 0
2276 189 189
2290 180 884
2272 132 1661
2252 0 2374
2249 0 2993
2273 0 3485
2328 0 3855
2435 0 4063
2303 945 0
2321 953 113
2335 956 855
2315 933 1684
2290 877 2433
2281 766 3068
2301 625 3552
2356 595 3896
2473 859 4058
2347 1683 0
2362 1695 0
2377 1704 795
2361 1685 1702
2333 1639 2506
2311 1570 3170
2316 1512 3649
2371 1541 3954
2492 1720 4046
2370 2421 0
2381 2432 0
2389 2441 703
2369 2420 1683
2325 2378 2512
2274 2329 3170
2248 2304 3621
2275 2331 3911
2379 2430 4044
2305 2952 0
2313 2961 0
2317 2968 688
2298 2954 1626
2255 2929 2414
2198 2905 3051
2159 2897 3515
2168 2913 3848
2257 2967 4051
2260 3344 0
2266 3350 0
2266 3354 736
2247 3344 1597
2208 3327 2332
2155 3315 2941
2113 3316 3413
2107 3327 3789
2173 3356 4067
2219 3698 0
2222 3702 0
2220 3704 836
2204 3696 1590
2172 3685 2259
2131 3680 2836
2098 3683 3315
2087 3691 3730
2131 3706 4083
2168 4084 0
2170 4086 322
2167 4086 955
2156 4082 1589
2136 4078 2183
2112 4077 2726
2092 4081 3213
2086 4087 3667
2115 4093 4093
2829 0 0
2844 0 81
2860 0 839
2852 0 1661
2838 0 2409
2844 0 3046
2878 0 3535
2942 0 3884
3048 0 4048
2859 58 0
2874 61 61
2889 45 835
2878 0 1675
2861 0 2434
2864 0 3076
2897 0 3562
2961 0 3901
3069 0 4050
2907 915 0
2922 921 0
2937 921 802
2925 883 1692
2906 770 2485
2905 477 3145
2935 0 3627
2999 0 3942
3111 593 4047
2961 1688 0
2974 1697 0
2990 1703 718
2981 1677 1696
2963 1600 2546
2955 1451 3241
2954 1337 3689
2987 1377 3954
3063 1609 4045
2936 2398 0
2945 2406 0
2953 2411 633
2937 2389 1642
2907 2339 2470
2877 2271 3129
2865 2224 3590
2885 2238 3896
2954 2345 4048
2865 2932 0
2872 2938 0
2876 2942 601
2862 2928 1579
2832 2900 2368
2797 2866 3007
2774 2845 3481
2780 2850 3832
2836 2902 4057
2808 3326 0
2812 3331 0
2813 3334 664
2799 3324 1553
2770 3308 2285
2735 3293 2896
2709 3286 3378
2703 3289 3770
2741 3313 4071
2750 3687 0
2753 3690 0
2752 3691 796
2738 3685 1554
2715 3676 2217
2686 3670 2793
2662 3671 3281
2651 3675 3710
2673 3686 4084
2680 4083 0
2682 4084 284
2679 4085 941
2670 4083 1565
2654 4080 2150
2636 4081 2689
2620 4084 3182
2612 4089 3649
2623 4093 4093
3367 0 0
3380 0 0
3392 0 788
3381 0 1692
3366 0 2494
3372 0 3160
3407 0 3644
3468 0 3957
3561 0 4053
3390 0 0
3403 0 0
3415 0 784
3403 0 1704
3385 0 2516
3390 0 3187
3424 0 3669
3485 0 3973
3578 0 4055
3428 883 0
3440 890 0
3453 886 742
3440 817 1715
3423 573 2560
3427 0 3250
3460 0 3731
3495 0 3987
3551 332 4057
3445 1702 0
3454 1709 0
3462 1710 655
3444 1669 1689
3419 1565 2538
3405 1386 3206
3411 1234 3658
3436 1259 3941
3488 1531 4058
3379 2389 0
3386 2395 0
3392 2396 590
3380 2370 1616
3359 2311 2436
3343 2227 3090
3341 2161 3558
3357 2161 3882
3403 2274 4061
3319 2920 0
3324 2925 0
3327 2926 541
3317 2909 1546
3298 2876 2328
3278 2832 2965
3268 2798 3446
3273 2791 3815
3309 2840 4067
3269 3316 0
3273 3320 0
3274 3320 617
3264 3310 1518
3245 3292 2244
3224 3271 2851
3209 3256 3341
3205 3251 3750
3227 3271 4077
3219 3681 0
3221 3683 0
3220 3683 776
3211 3678 1526
3195 3670 2178
3177 3662 2750
3161 3659 3244
3153 3658 3689
3163 3665 4087
3156 4087 0
3157 4088 291
3155 4088 942
3148 4087 1548
3138 4086 2119
3126 4086 2652
3116 4088 3150
3108 4091 3629
3111 4094 4094
3798 0 0
3808 0 0
3815 0 766
3796 0 1752
3774 0 2608
3775 0 3301
3800 0 3763
3829 0 4009
3872 0 4073
3814 0 0
3824 0 0
3831 0 767
3810 0 1764
3786 0 2629
3783 0 3314
3798 0 3750
3827 0 4001
3868 0 4075
3822 896 0
3830 905 0
3834 903 746
3810 824 1756
3781 547 2603
3771 0 3264
3784 0 3704
3810 0 3974
3848 573 4076
3783 1722 0
3790 1728 0
3794 1726 716
3777 1684 1703
3755 1581 2525
3747 1408 3176
3757 1257 3628
3779 1277 3928
3813 1553 4076
3739 2391 0
3744 2396 0
3747 2395 646
3737 2366 1624
3723 2304 2418
3716 2215 3058
3721 2141 3526
3737 2133 3866
3765 2250 4075
3703 2913 0
3707 2917 0
3710 2915 585
3703 2896 1546
3692 2859 2305
3684 2809 2928
3684 2766 3412
3692 2750 3797
3713 2798 4079
3679 3308 0
3682 3310 0
3683 3309 650
3677 3298 1512
3667 3277 2215
3658 3252 2812
3653 3231 3305
3654 3219 3729
3666 3234 4084
3655 3677 0
3656 3678 0
3656 3677 806
3651 3672 1519
3642 3663 2149
3634 3654 2711
3627 3647 3208
3624 3642 3667
3628 3645 4090
3620 4092 0
3620 4092 372
3619 4092 971
3615 4092 1544
3610 4091 2094
3605 4091 2617
3600 4092 3118
3596 4093 3609
3596 4094 4094
4095 0 0
4095 36 61
4095 42 867
4072 0 1825
4038 0 2654
4028 0 3299
4042 0 3728
4066 0 3991
4095 3 4095
4095 68 36
4095 107 107
4095 116 882
4078 0 1825
4044 0 2646
4033 0 3288
4045 0 3717
4068 0 3984
4095 255 4095
4095 999 6
4095 1008 110
4095 1010 884
4076 957 1801
4047 787 2604
4038 347 3238
4050 0 3673
4070 19 3957
4095 1007 4095
4077 1763 0
4083 1769 0
4083 1767 858
4066 1731 1747
4047 1645 2525
4042 1508 3150
4053 1398 3597
4071 1431 3911
4092 1693 4092
4062 2402 0
4066 2405 0
4067 2403 799
4058 2375 1668
4048 2318 2417
4048 2237 3032
4058 2170 3496
4073 2166 3849
4089 2291 4089
4061 2905 0
4064 2908 0
4066 2905 742
4062 2885 1586
4057 2848 2300
4059 2798 2901
4067 2754 3381
4077 2737 3778
4088 2791 4088
4074 3296 0
4076 3297 0
4077 3295 778
4075 3283 1542
4072 3262 2204
4073 3235 2780
4078 3210 3272
4084 3195 3709
4090 3213 4090
4088 3668 0
4089 3669 103
4089 3667 896
4088 3662 1540
4087 3653 2134
4087 3643 2678
4088 3634 3175
4090 3627 3645
4093 3629 4093
4095 4095 0
4095 4095 488
4095 4095 1016
4095 4095 1549
4094 4094 2073
4094 4094 2584
4094 4094 3087
4095 4095 3589
4095 4095 4095
