Examples/Masks fit - Orange.3dl
#25pt 3DLUT created by 3D LUT Creator Pro (c) Oleg Sharonov
#Copyright Oleg Sharonov
0 43 86 128 171 214 256 299 341 384 427 469 512 555 597 640 682 725 768 810 853 896 938 981 1023 
0 0 0
6 2 163
28 10 308
67 29 436
122 60 545
194 100 635
283 152 707
390 215 759
514 288 793
655 372 807
812 466 805
970 562 801
1129 658 797
1287 755 794
1445 852 790
1604 950 787
1762 1048 784
1920 1145 781
2078 1244 778
2237 1342 775
2395 1440 772
2553 1538 769
2711 1637 766
2869 1735 763
3027 1834 760
7 165 0
12 167 163
32 170 310
71 181 436
126 202 546
197 233 639
285 274 712
390 327 767
512 389 803
652 463 820
808 547 818
967 635 814
1127 724 809
1286 816 805
1444 908 801
1603 1001 797
1762 1096 793
1920 1190 790
2079 1286 786
2237 1381 783
2395 1477 780
2554 1574 776
2712 1670 773
2870 1767 770
3028 1864 767
28 321 0
29 326 158
42 329 312
77 334 444
127 348 557
202 370 638
289 402 714
393 445 770
514 497 808
652 560 826
808 634 826
967 714 821
1127 797 817
1286 882 812
1445 970 808
1603 1058 804
1762 1149 800
1921 1240 796
2079 1332 793
2238 1425 789
2396 1518 786
2555 1613 782
2713 1707 779
2871 1802 775
3029 1897 772
62 470 0
62 477 149
66 484 308
91 489 451
140 496 568
201 511 672
291 534 733
402 568 768
522 612 807
660 666 826
815 730 827
974 801 824
1132 876 820
1291 955 816
1450 1037 812
1609 1121 808
1767 1207 804
1925 1294 800
2084 1383 796
2242 1473 793
2401 1564 789
2559 1655 786
2717 1748 782
2875 1841 779
3034 1934 776
110 615 0
109 622 142
116 628 283
124 638 446
158 645 583
221 653 685
295 670 775
390 695 839
527 730 829
674 776 821
828 831 824
986 893 821
1144 961 818
1302 1034 815
1460 1110 812
1618 1189 808
1776 1271 805
1934 1354 801
2092 1439 798
2251 1526 794
2408 1613 791
2567 1703 787
2725 1792 784
2883 1883 781
3041 1975 777
172 753 0
170 761 135
178 766 268
183 777 419
200 788 578
243 797 707
320 808 795
409 826 870
510 853 936
654 888 929
839 936 840
1003 991 815
1160 1052 813
1317 1118 811
1474 1188 809
1632 1262 806
1789 1339 803
1947 1418 800
2104 1500 797
2262 1583 793
2420 1668 790
2577 1754 787
2735 1841 784
2892 1929 781
3050 2019 778
248 884 0
246 892 128
253 898 254
267 905 375
260 925 564
295 935 701
348 947 822
439 958 895
543 978 956
658 1007 1007
796 1044 1028
986 1090 946
1179 1146 813
1336 1206 805
1492 1271 803
1649 1340 801
1806 1412 799
1962 1487 796
2119 1565 794
2276 1644 791
2433 1726 788
2591 1809 785
2748 1894 782
2905 1979 779
3063 2066 776
340 1009 0
337 1016 121
343 1023 239
357 1030 354
370 1042 484
356 1069 699
409 1078 816
473 1092 926
579 1105 984
698 1127 1030
828 1157 1066
967 1196 1095
1138 1242 1054
1326 1296 945
1514 1358 795
1670 1421 794
1825 1489 793
1981 1560 791
2137 1633 789
2294 1710 787
2450 1788 784
2607 1868 782
2764 1950 779
2920 2033 777
3077 2117 774
447 1125 0
445 1133 113
448 1141 225
462 1147 333
482 1157 435
477 1181 622
485 1204 806
543 1217 920
619 1233 1019
740 1248 1064
874 1271 1094
1015 1304 1118
1153 1345 1143
1300 1392 1150
1480 1445 1070
1666 1505 933
1848 1570 785
2003 1636 784
2158 1706 783
2314 1779 781
2469 1854 779
2625 1931 777
2781 2009 775
2938 2090 773
3094 2172 770
570 1235 0
568 1242 105
571 1250 209
583 1257 310
604 1267 406
630 1279 495
601 1317 758
633 1337 906
699 1353 1015
787 1370 1102
923 1387 1131
1064 1413 1152
1203 1448 1173
1341 1491 1195
1478 1540 1220
1643 1593 1176
1820 1651 1079
2006 1715 908
2181 1782 775
2336 1852 774
2491 1923 773
2646 1997 771
2802 2073 769
2957 2150 767
3113 2229 765
710 1337 0
708 1344 97
711 1352 194
721 1360 287
741 1369 376
768 1381 459
772 1407 623
739 1449 888
802 1464 996
876 1484 1099
977 1504 1175
1117 1524 1195
1256 1553 1213
1394 1591 1230
1531 1635 1250
1667 1685 1272
1810 1740 1278
1983 1797 1197
2160 1859 1079
2347 1926 866
2514 1996 765
2669 2067 764
2824 2139 763
2979 2214 761
3134 2291 760
867 1431 0
866 1438 89
868 1445 178
874 1455 264
896 1463 345
923 1475 421
954 1490 490
925 1533 762
904 1575 999
993 1588 1077
1070 1612 1176
1173 1636 1245
1312 1660 1260
1450 1692 1274
1586 1732 1289
1722 1778 1306
1856 1829 1326
1991 1885 1349
2151 1942 1306
2324 2003 1209
2500 2068 1070
2687 2138 809
2848 2209 756
3002 2281 754
3157 2355 753
1040 1518 0
1038 1525 81
1040 1532 162
1046 1542 240
1062 1552 316
1085 1565 386
1113 1581 452
1134 1606 551
1092 1658 887
1106 1692 1072
1189 1712 1155
1266 1740 1253
1370 1768 1315
1507 1796 1327
1643 1831 1338
1779 1872 1351
1913 1919 1365
2047 1971 1382
2181 2027 1404
2322 2087 1410
2492 2147 1326
2663 2211 1215
2839 2279 1052
3027 2351 747
3181 2422 746
1214 1604 0
1213 1611 74
1215 1618 148
1219 1629 220
1229 1641 290
1250 1654 356
1275 1671 418
1303 1693 475
1289 1734 723
1261 1783 1011
1304 1813 1149
1385 1838 1233
1461 1870 1329
1567 1901 1386
1703 1932 1395
1838 1969 1403
1972 2012 1413
2106 2060 1425
2239 2112 1441
2373 2169 1460
2505 2229 1481
2662 2291 1436
2832 2354 1340
3002 2421 1215
3177 2490 1032
1388 1691 0
1387 1698 68
1389 1705 136
1392 1716 203
1397 1729 268
1416 1743 329
1438 1760 388
1464 1782 442
1491 1807 493
1454 1861 868
1429 1911 1139
1502 1936 1225
1581 1965 1311
1657 2000 1406
1764 2034 1458
1899 2067 1463
2033 2106 1469
2166 2150 1477
2299 2199 1487
2432 2252 1500
2565 2310 1516
2697 2371 1535
2836 2434 1541
3002 2496 1455
3170 2562 1352
1563 1779 0
1562 1785 63
1563 1792 126
1566 1802 187
1570 1817 248
1583 1831 306
1604 1849 361
1627 1870 413
1652 1895 462
1654 1934 645
1624 1987 1000
1609 2037 1247
1699 2061 1303
1777 2093 1388
1854 2131 1483
1961 2167 1530
2095 2202 1532
2228 2243 1536
2361 2288 1542
2493 2338 1550
2625 2392 1561
2757 2450 1574
2889 2511 1591
3021 2575 1610
3176 2638 1567
1738 1867 0
1737 1873 58
1738 1880 117
1740 1890 174
1744 1904 230
1752 1920 285
1770 1937 337
1791 1958 386
1814 1982 433
1839 2011 477
1815 2063 826
1795 2114 1129
1813 2157 1315
1897 2186 1380
1974 2222 1466
2050 2262 1560
2159 2300 1601
2292 2337 1602
2424 2379 1603
2556 2426 1608
2687 2477 1614
2819 2531 1623
2950 2589 1634
3082 2651 1648
3214 2714 1667
1913 1955 0
1912 1961 54
1913 1968 109
1915 1977 162
1917 1990 215
1921 2008 267
1937 2025 316
1956 2045 362
1978 2069 407
2001 2098 449
2023 2131 503
1984 2190 976
1966 2243 1258
2012 2281 1388
2093 2313 1458
2170 2351 1544
2246 2394 1637
2357 2433 1673
2489 2472 1671
2620 2516 1671
2751 2563 1674
2882 2615 1679
3013 2670 1685
3144 2728 1695
3275 2789 1709
2088 2044 0
2087 2049 51
2088 2056 102
2089 2065 152
2092 2078 201
2094 2095 250
2105 2112 296
2123 2132 341
2143 2156 383
2165 2184 423
2188 2215 462
2176 2264 758
2156 2318 1114
2136 2373 1391
2211 2406 1463
2290 2441 1535
2366 2481 1621
2442 2526 1714
2554 2566 1745
2686 2607 1742
2816 2652 1740
2947 2700 1741
3077 2753 1744
3207 2808 1749
3302 2866 1763
2263 2133 0
2262 2138 48
2263 2144 95
2264 2153 142
2266 2166 189
2268 2181 234
2274 2200 279
2291 2220 321
2309 2243 362
2329 2270 400
2351 2301 437
2373 2335 472
2343 2393 935
2329 2447 1246
2317 2501 1499
2409 2532 1538
2487 2570 1613
2563 2612 1698
2639 2658 1791
2752 2700 1817
2882 2742 1813
3012 2788 1810
3142 2837 1809
3272 2890 1811
3304 2946 1825
2438 2221 0
2437 2226 45
2437 2232 89
2439 2241 134
2440 2253 178
2442 2269 221
2444 2288 263
2459 2307 303
2476 2330 342
2494 2356 379
2515 2386 414
2536 2419 448
2541 2463 632
2514 2521 1087
2502 2576 1377
2521 2624 1563
2606 2659 1614
2683 2699 1690
2759 2743 1776
2835 2791 1868
2950 2833 1890
3079 2876 1884
3209 2923 1880
3291 2974 1883
3307 3028 1894
2613 2311 0
2612 2315 42
2613 2321 84
2614 2330 126
2615 2341 167
2616 2356 208
2618 2375 248
2627 2395 287
2643 2417 324
2661 2442 359
2680 2471 393
2700 2504 425
2721 2540 456
2702 2595 871
2687 2650 1228
2674 2707 1509
2721 2749 1633
2803 2786 1691
2880 2828 1768
2956 2874 1854
3031 2923 1946
3147 2967 1964
3276 3011 1957
3293 3061 1961
3309 3113 1968
2788 2400 0
2787 2405 40
2788 2410 80
2788 2418 119
2790 2430 158
2791 2444 197
2792 2462 235
2797 2483 271
2811 2504 307
2828 2529 341
2846 2557 373
2865 2588 405
2885 2624 435
2906 2662 463
2872 2724 1047
2861 2780 1364
2843 2839 1646
2920 2875 1706
3000 2915 1769
3076 2958 1847
3152 3006 1933
3228 3056 2025
3280 3102 2044
3295 3150 2045
3311 3200 2046
2963 2489 0
2962 2493 38
2962 2499 75
2963 2507 113
2964 2518 150
2965 2532 186
2966 2550 222
2967 2571 257
2980 2592 291
2995 2615 324
3012 2642 355
3030 2673 386
3050 2707 414
3070 2745 442
3062 2796 772
3044 2853 1202
3035 2910 1498
3024 2968 1755
3117 3002 1782
3196 3043 1847
3272 3089 1926
3280 3140 2018
3285 3193 2115
3298 3241 2132
3314 3289 2129
3138 2578 0
3137 2583 36
3137 2588 71
3138 2596 107
3139 2606 142
3140 2620 177
3141 2637 211
3142 2658 244
3149 2679 277
3164 2702 308
3180 2729 338
3197 2758 368
3215 2791 395
3234 2827 422
3254 2867 448
3228 2927 988
3218 2983 1346
3208 3041 1632
3229 3092 1817
3281 3131 1861
3287 3177 1933
3292 3226 2018
3298 3278 2110
3303 3333 2205
3316 3380 2216
171 0 0
172 4 165
184 13 315
212 33 442
256 62 555
317 101 649
395 150 724
489 210 780
601 281 818
730 363 836
876 456 835
1029 553 829
1183 650 823
1337 747 817
1492 845 812
1647 943 807
1803 1041 803
1959 1139 799
2115 1237 795
2272 1336 791
2428 1434 787
2585 1533 783
2741 1632 780
2898 1730 776
3055 1829 773
171 169 1
171 171 171
178 173 332
201 183 472
242 203 589
302 233 678
382 275 736
475 325 794
584 386 834
710 457 854
854 540 856
1008 629 847
1163 720 840
1318 811 833
1474 904 827
1630 998 821
1786 1093 815
1942 1188 811
2099 1283 806
2256 1379 801
2413 1475 797
2570 1572 793
2727 1669 789
2884 1766 785
3042 1863 781
180 332 1
178 336 169
182 338 334
202 341 482
243 352 604
302 372 697
382 403 757
479 445 797
588 496 839
713 557 861
856 629 864
1011 710 856
1166 793 848
1321 879 841
1477 966 834
1633 1055 828
1790 1146 823
1946 1237 817
2103 1330 812
2260 1422 808
2417 1516 803
2574 1610 799
2732 1705 794
2889 1800 790
3046 1896 786
202 486 0
199 492 162
199 497 329
213 500 484
248 505 616
297 516 733
374 537 806
474 569 842
595 613 839
720 665 863
863 727 867
1017 798 859
1172 874 852
1327 953 845
1483 1035 839
1639 1119 833
1795 1205 827
1952 1292 822
2108 1381 817
2265 1471 812
2422 1562 807
2579 1654 803
2737 1746 798
2894 1839 794
3051 1932 790
237 634 0
236 640 148
236 646 312
237 654 480
264 658 623
313 664 741
374 678 844
460 699 915
577 731 933
722 776 895
875 831 864
1028 893 858
1182 961 851
1337 1033 845
1493 1109 839
1648 1188 834
1804 1269 828
1961 1353 823
2117 1438 818
2274 1524 814
2430 1612 809
2587 1701 805
2744 1791 800
2901 1882 796
3058 1973 792
286 775 0
284 781 141
288 786 283
288 797 456
298 806 617
334 812 751
398 820 853
474 835 942
561 859 1019
693 890 1026
855 935 974
1043 992 857
1198 1053 847
1352 1118 842
1506 1188 837
1661 1262 832
1817 1339 827
1973 1418 822
2129 1499 818
2285 1582 813
2441 1667 809
2598 1753 805
2755 1840 801
2911 1928 797
3068 2017 793
350 909 0
348 915 134
351 921 266
359 928 411
353 945 598
378 954 744
423 962 869
502 972 956
592 989 1030
695 1014 1091
827 1048 1113
1000 1091 1060
1190 1146 947
1370 1208 835
1524 1272 832
1678 1341 827
1833 1413 823
1988 1487 819
2143 1565 815
2299 1644 811
2455 1726 807
2611 1809 803
2767 1893 799
2924 1979 795
3080 2065 792
428 1036 0
426 1043 126
429 1048 251
441 1053 371
442 1069 541
431 1091 740
477 1098 862
533 1109 977
626 1120 1048
732 1139 1106
851 1166 1152
980 1202 1187
1156 1245 1141
1339 1297 1054
1528 1358 906
1698 1424 821
1852 1491 817
2006 1561 814
2161 1635 811
2316 1710 807
2471 1788 803
2627 1868 800
2783 1950 796
2939 2033 793
3095 2117 789
521 1156 0
520 1162 119
522 1169 236
533 1174 350
552 1181 457
539 1207 674
542 1229 853
596 1239 970
663 1251 1074
772 1264 1130
893 1284 1172
1027 1313 1202
1166 1352 1226
1318 1397 1223
1496 1447 1152
1677 1506 1044
1868 1572 849
2027 1639 807
2181 1708 804
2336 1780 801
2490 1855 798
2645 1932 795
2800 2010 792
2956 2090 789
3111 2172 786
631 1268 0
629 1275 111
632 1281 221
640 1288 328
660 1295 429
671 1310 567
651 1343 804
675 1362 956
735 1375 1068
815 1390 1161
939 1404 1201
1076 1426 1227
1215 1458 1248
1353 1498 1270
1490 1545 1294
1659 1596 1244
1835 1653 1157
2015 1716 1022
2204 1785 797
2358 1854 794
2511 1925 792
2666 1998 789
2820 2074 787
2975 2151 784
3130 2230 781
757 1373 0
755 1379 103
758 1386 206
764 1394 306
784 1400 400
810 1410 487
798 1440 699
777 1476 930
828 1491 1050
896 1507 1156
989 1524 1236
1128 1540 1261
1267 1566 1280
1406 1601 1298
1542 1642 1318
1678 1691 1339
1825 1744 1336
1998 1800 1261
2173 1861 1155
2354 1927 988
2535 1998 784
2688 2068 782
2842 2141 780
2996 2215 778
3151 2292 775
