Examples/Masked Alt - Double Camera Calibration.3dl
#25pt 3DLUT created by 3D LUT Creator Pro (c) Oleg Sharonov
#Copyright Oleg Sharonov
#IMAGEPROFILE sRGB IEC61966-2.1 v.2.10
#INPUTGAMMA sRGB IEC61966-2.1 v.2.10
#OUTPUTGAMMA sRGB IEC61966-2.1 v.2.10
0 256 512 768 1023
0 0 0
0 547 994
0 1131 2025
0 1570 3047
1 1843 3849
0 1012 0
0 1043 1157
0 1343 2202
0 1675 3208
0 1905 3952
0 1952 0
0 1970 1236
0 2060 2399
0 2194 3455
3 2331 4095
0 2911 0
0 2929 1234
0 2984 2411
0 3071 3455
3 3161 4095
0 3885 0
0 3897 1234
0 3936 2411
0 3997 3455
0 4061 4095
974 3 21
819 136 1170
0 945 2207
0 1461 3154
0 1757 3913
1020 957 0
810 1047 1182
0 1292 2294
0 1623 3273
0 1855 3994
988 1945 0
796 1976 1204
0 2062 2398
0 2197 3448
0 2333 4095
979 2913 0
794 2931 1207
0 2986 2400
0 3073 3448
0 3163 4095
979 3886 0
794 3899 1207
0 3937 2400
0 3998 3448
0 4062 4095
1977 68 57
1940 173 1080
1682 560 2325
912 1094 3411
0 1537 4062
1997 955 0
1968 975 1066
1674 1200 2339
993 1474 3417
0 1736 4083
1986 1952 0
1914 1981 1112
1660 2071 2361
1097 2207 3423
0 2342 4095
1986 2920 0
1914 2938 1112
1660 2993 2361
1098 3079 3424
3 3169 4095
1986 3891 0
1914 3903 1113
1660 3941 2361
1097 4002 3424
0 4067 4095
3113 275 61
3080 400 901
2971 685 2246
2736 1085 3361
2452 1439 4095
3126 1030 0
3102 1020 834
2966 1251 2265
2732 1513 3368
2456 1720 4095
3129 1976 0
3089 2005 859
2959 2094 2271
2732 2228 3369
2456 2362 4095
3129 2934 0
3089 2952 859
2959 3007 2271
2732 3093 3369
2456 3183 4095
3129 3901 0
3089 3913 859
2959 3952 2271
2732 4012 3369
2456 4076 4095
4095 602 0
4095 709 0
4095 965 2078
4095 1265 3256
4095 1515 4095
4095 1150 0
4095 1206 0
4095 1363 2078
4095 1578 3256
4095 1777 4095
4095 2024 0
4095 2053 0
4095 2139 2077
4095 2270 3256
4095 2400 4095
4095 2964 0
4095 2981 3
4095 3035 2077
4095 3120 3256
4095 3209 4095
4095 3921 0
4095 3933 3
4095 3971 2077
4095 4032 3257
4095 4095 4095
