Examples/Masks - Channels - Pastel greens.3dl
#25pt 3DLUT created by 3D LUT Creator Pro (c) Oleg Sharonov
#Copyright Oleg Sharonov
0 43 86 128 171 214 256 299 341 384 427 469 512 555 597 640 682 725 768 810 853 896 938 981 1023 
0 0 0
81 58 174
186 132 341
312 240 512
434 347 682
559 455 852
684 564 1025
807 671 1194
932 779 1365
1056 887 1536
1180 995 1707
1304 1102 1877
1428 1210 2048
1553 1318 2218
1677 1426 2389
1801 1533 2559
1925 1641 2730
2050 1749 2901
2174 1857 3071
2298 1964 3242
2422 2072 3412
2546 2180 3583
2671 2287 3754
2795 2395 3924
2919 2503 4095
0 171 65
52 171 171
161 198 341
293 289 512
422 384 682
548 485 852
675 587 1023
801 692 1194
926 796 1365
1051 902 1536
1176 1008 1707
1301 1114 1877
1425 1220 2048
1549 1327 2218
1674 1434 2389
1798 1541 2559
1923 1648 2730
2047 1756 2901
2172 1863 3071
2296 1970 3242
2420 2077 3412
2545 2185 3583
2669 2292 3754
2793 2400 3924
2917 2507 4095
0 341 155
13 341 171
123 339 339
269 345 513
404 430 683
535 522 853
663 618 1023
792 718 1195
918 819 1365
1044 921 1535
1169 1025 1706
1295 1130 1877
1420 1235 2048
1545 1340 2218
1670 1446 2389
1795 1552 2559
1920 1658 2730
2044 1765 2900
2168 1871 3071
2293 1978 3242
2418 2085 3412
2542 2192 3583
2667 2299 3754
2791 2406 3924
2915 2513 4095
0 513 267
0 513 267
65 510 341
222 512 512
372 512 682
512 575 853
646 663 1023
777 757 1195
906 853 1365
1033 951 1536
1160 1052 1706
1287 1154 1877
1412 1256 2047
1538 1359 2218
1664 1463 2389
1789 1568 2560
1914 1673 2730
2039 1778 2900
2164 1884 3071
2289 1990 3242
2414 2096 3412
2539 2203 3583
2663 2309 3754
2788 2415 3924
2912 2522 4095
0 683 381
0 683 381
0 683 381
152 682 512
328 682 682
478 682 852
619 720 1023
755 807 1195
888 897 1365
1018 990 1535
1147 1087 1707
1274 1185 1877
1402 1285 2048
1529 1386 2218
1655 1488 2389
1781 1590 2559
1907 1694 2730
2033 1797 2900
2158 1902 3071
2283 2006 3242
2408 2112 3412
2533 2217 3583
2658 2322 3754
2783 2428 3924
2908 2534 4095
0 853 494
0 853 494
0 853 494
48 853 512
260 853 682
431 853 853
584 853 1024
726 867 1194
863 951 1364
997 1039 1536
1129 1131 1706
1259 1225 1877
1388 1321 2047
1516 1419 2218
1644 1518 2389
1771 1619 2560
1898 1720 2730
2024 1822 2900
2150 1925 3071
2276 2028 3242
2401 2131 3412
2527 2236 3583
2652 2340 3754
2777 2445 3924
2902 2550 4095
0 1024 610
0 1024 610
0 1024 609
0 1024 609
149 1024 683
365 1024 853
536 1023 1023
689 1024 1195
833 1024 1365
971 1097 1535
1106 1183 1706
1240 1273 1877
1371 1365 2048
1501 1459 2218
1629 1555 2389
1758 1653 2559
1886 1752 2730
2013 1852 2900
2140 1952 3071
2266 2054 3242
2392 2156 3412
2519 2259 3583
2644 2362 3754
2770 2466 3924
2896 2570 4095
0 1195 723
0 1195 723
0 1195 723
0 1195 723
0 1195 723
269 1194 853
472 1195 1024
640 1195 1195
793 1195 1365
938 1194 1535
1078 1243 1707
1215 1328 1877
1349 1416 2048
1481 1506 2218
1612 1599 2389
1742 1694 2559
1871 1789 2730
1999 1887 2900
2127 1986 3071
2255 2085 3242
2382 2185 3412
2508 2286 3583
2635 2388 3754
2761 2490 3924
2887 2593 4095
0 1365 837
0 1365 837
0 1365 837
0 1365 836
0 1365 836
107 1365 853
383 1365 1024
577 1365 1194
743 1365 1365
898 1365 1536
1044 1365 1707
1185 1390 1877
1323 1474 2048
1458 1560 2218
1591 1649 2389
1723 1740 2559
1853 1833 2730
1983 1928 2901
2112 2024 3071
2241 2121 3242
2369 2220 3412
2496 2319 3583
2623 2419 3754
2751 2519 3924
2877 2621 4095
0 1536 951
0 1536 951
0 1536 951
0 1536 951
0 1536 950
0 1535 950
248 1536 1024
493 1535 1194
682 1536 1365
848 1536 1536
1003 1536 1707
1149 1535 1877
1291 1537 2047
1430 1619 2218
1566 1704 2389
1700 1792 2560
1833 1882 2730
1965 1974 2901
2095 2067 3071
2225 2162 3242
2354 2258 3412
2482 2355 3583
2611 2453 3754
2738 2552 3924
2865 2652 4095
0 1707 1065
0 1707 1065
0 1707 1065
0 1707 1065
0 1707 1065
0 1706 1064
16 1706 1064
377 1706 1195
602 1707 1365
787 1707 1536
952 1707 1707
1106 1706 1877
1254 1707 2048
1397 1707 2218
1537 1766 2389
1674 1850 2559
1809 1937 2730
1942 2025 2900
2075 2116 3071
2206 2208 3242
2336 2302 3412
2466 2396 3583
2595 2492 3754
2724 2590 3924
2852 2687 4095
0 1877 1179
0 1877 1179
0 1877 1179
0 1877 1179
0 1877 1178
0 1877 1178
0 1877 1178
186 1877 1195
497 1877 1365
710 1877 1536
891 1877 1706
1056 1877 1877
1211 1877 2047
1359 1877 2218
1503 1877 2389
1644 1913 2559
1782 1996 2730
1918 2081 2901
2052 2169 3071
2184 2258 3242
2317 2349 3412
2448 2442 3583
2578 2536 3754
2708 2631 3924
2837 2727 4095
0 2048 1293
0 2048 1293
0 2048 1293
0 2048 1293
0 2048 1293
0 2048 1292
0 2048 1292
0 2048 1292
345 2048 1365
612 2048 1536
817 2048 1706
995 2048 1877
1160 2047 2047
1315 2048 2218
1464 2048 2389
1609 2048 2559
1750 2059 2730
1889 2142 2901
2025 2227 3071
2160 2313 3242
2294 2402 3412
2426 2492 3583
2558 2583 3754
2689 2676 3924
2819 2770 4095
0 2218 1407
0 2218 1407
0 2218 1407
0 2218 1407
0 2218 1407
0 2218 1406
0 2218 1406
0 2218 1406
61 2218 1405
481 2218 1536
725 2218 1706
924 2218 1877
1100 2218 2048
1264 2218 2218
1419 2218 2389
1569 2218 2559
1714 2218 2730
1856 2218 2900
1996 2288 3071
2133 2372 3242
2269 2458 3412
2403 2546 3583
2536 2635 3754
2669 2725 3924
2800 2817 4095
0 2389 1521
0 2389 1521
0 2389 1521
0 2389 1521
0 2389 1521
0 2389 1521
0 2389 1520
0 2389 1520
0 2389 1520
276 2389 1536
605 2389 1706
835 2389 1877
1029 2389 2048
1204 2389 2218
1368 2389 2389
1524 2389 2559
1674 2389 2730
1819 2389 2900
1962 2389 3071
2102 2435 3242
2241 2518 3412
2377 2603 3583
2512 2690 3754
2645 2778 3924
2779 2868 4095
0 2559 1635
0 2559 1635
0 2559 1635
0 2559 1635
0 2559 1634
0 2559 1634
0 2559 1634
0 2559 1634
0 2559 1634
0 2559 1633
439 2559 1706
725 2559 1877
944 2559 2048
1134 2559 2218
1308 2559 2389
1472 2559 2559
1628 2559 2730
1778 2559 2901
1925 2559 3071
2068 2559 3242
2209 2582 3412
2347 2664 3583
2485 2749 3754
2620 2835 3924
2754 2922 4095
0 2730 1749
0 2730 1749
0 2730 1749
0 2730 1749
0 2730 1749
0 2730 1749
0 2730 1748
0 2730 1748
0 2730 1748
0 2730 1748
136 2730 1747
580 2730 1877
841 2730 2048
1053 2730 2218
1240 2730 2389
1413 2730 2559
1576 2730 2730
1732 2730 2900
1883 2730 3071
2030 2730 3242
2174 2730 3412
2315 2730 3583
2454 2811 3754
2592 2895 3924
2728 2980 4095
0 2900 1863
0 2901 1863
0 2901 1863
0 2901 1863
0 2901 1863
0 2901 1863
0 2901 1862
0 2901 1862
0 2901 1862
0 2901 1861
0 2900 1861
363 2900 1877
711 2900 2048
955 2900 2218
1161 2901 2389
1345 2901 2559
1517 2901 2730
1680 2900 2900
1836 2900 3071
1987 2900 3242
2135 2900 3412
2279 2900 3583
2421 2901 3754
2561 2958 3924
2699 3041 4095
0 3071 1977
0 3071 1977
0 3071 1977
0 3071 1977
0 3071 1977
0 3071 1976
0 3071 1976
0 3071 1976
0 3071 1976
0 3071 1975
0 3071 1975
0 3071 1975
532 3071 2048
834 3071 2218
1067 3071 2389
1268 3071 2559
1450 3071 2730
1621 3071 2901
1784 3071 3071
1940 3071 3242
2092 3071 3412
2240 3071 3583
2385 3071 3754
2527 3071 3924
2667 3105 4095
0 3242 2091
0 3242 2091
0 3242 2091
0 3242 2091
0 3242 2091
0 3242 2090
0 3242 2090
0 3242 2090
0 3242 2090
0 3242 2090
0 3242 2089
0 3242 2089
228 3242 2089
678 3242 2218
953 3242 2389
1177 3242 2559
1374 3242 2730
1555 3242 2901
1725 3242 3071
1888 3242 3242
2044 3242 3412
2196 3242 3583
2345 3242 3754
2490 3242 3924
2633 3242 4095
0 3412 2205
0 3412 2205
0 3412 2205
0 3412 2205
0 3412 2205
0 3412 2205
0 3412 2205
0 3412 2204
0 3412 2204
0 3412 2204
0 3412 2203
0 3412 2203
0 3412 2203
452 3412 2218
812 3412 2389
1070 3412 2559
1286 3412 2730
1480 3412 2901
1660 3412 3071
1829 3412 3242
1992 3412 3412
2149 3412 3583
2301 3412 3754
2449 3412 3924
2595 3412 4095
0 3583 2319
0 3583 2319
0 3583 2319
0 3583 2319
0 3583 2319
0 3583 2319
0 3583 2318
0 3583 2318
0 3583 2318
0 3583 2318
0 3583 2317
0 3583 2317
0 3583 2317
0 3583 2317
624 3583 2389
940 3583 2559
1184 3583 2730
1395 3583 2901
1586 3583 3071
1765 3583 3242
1934 3583 3412
2096 3583 3583
2253 3583 3754
2405 3583 3924
2554 3583 4095
0 3754 2433
0 3754 2433
0 3754 2433
0 3754 2433
0 3754 2433
0 3754 2433
0 3754 2432
0 3754 2432
0 3754 2432
0 3754 2432
0 3754 2432
0 3754 2432
0 3754 2431
0 3754 2431
318 3754 2430
774 3754 2559
1062 3754 2730
1296 3754 2900
1503 3754 3071
1692 3754 3242
1869 3754 3412
2037 3754 3583
2199 3754 3754
2357 3754 3924
2510 3754 4095
0 3924 2547
0 3924 2547
0 3924 2547
0 3924 2546
0 3924 2546
0 3924 2546
0 3924 2546
0 3924 2546
0 3924 2546
0 3924 2546
0 3924 2546
0 3924 2545
0 3924 2545
0 3924 2545
0 3924 2544
541 3924 2559
912 3924 2730
1181 3924 2900
1408 3924 3071
1611 3924 3242
1798 3924 3412
1974 3924 3583
2142 3924 3754
2303 3924 3924
2460 3924 4095
0 4095 2661
0 4095 2661
0 4095 2661
0 4095 2661
0 4095 2661
0 4095 2661
0 4095 2660
0 4095 2660
3 4095 2660
3 4095 2660
6 4095 2660
6 4095 2660
0 4095 2659
0 4095 2659
0 4095 2658
45 4095 2658
715 4095 2730
1044 4095 2901
1297 4095 3071
1518 4095 3242
1718 4095 3412
1903 4095 3583
2079 4095 3754
2246 4095 3924
2408 4095 4095
171 0 0
198 103 171
280 180 339
379 273 510
489 376 683
602 477 853
719 580 1024
837 685 1194
958 792 1365
1078 897 1535
1199 1004 1706
1322 1111 1877
1444 1217 2047
1567 1324 2218
1690 1431 2389
1813 1539 2560
1936 1646 2730
2060 1753 2900
2183 1861 3071
2306 1968 3242
2430 2076 3413
2554 2183 3583
2677 2291 3754
2801 2398 3924
2925 2506 4095
171 171 72
171 171 171
260 235 339
363 318 510
477 409 683
593 505 853
711 604 1024
830 705 1194
951 808 1364
1073 912 1536
1195 1017 1706
1318 1122 1876
1441 1228 2047
1564 1334 2218
1687 1440 2389
1810 1547 2559
1934 1654 2730
2057 1760 2901
2181 1867 3071
2304 1974 3242
2428 2081 3412
2552 2188 3583
2676 2296 3754
2800 2403 3924
2924 2510 4095
171 339 245
171 339 245
233 341 341
343 370 512
460 452 682
579 541 852
700 634 1025
821 731 1194
944 831 1365
1067 932 1536
1189 1035 1707
1312 1138 1877
1436 1242 2048
1559 1347 2218
1683 1452 2389
1807 1558 2560
1930 1663 2730
2054 1769 2900
2178 1876 3071
2302 1982 3242
2426 2089 3412
2550 2195 3583
2673 2302 3754
2797 2409 3924
2922 2516 4095
171 512 336
171 512 336
183 512 341
308 512 512
433 512 682
558 592 852
683 678 1025
807 769 1195
931 864 1365
1056 961 1536
1180 1061 1707
1304 1161 1877
1428 1263 2048
1553 1366 2219
1677 1470 2389
1801 1574 2559
1925 1678 2730
2049 1783 2900
2173 1889 3071
2298 1994 3242
2422 2100 3412
2546 2206 3583
2670 2312 3754
2794 2418 3924
2918 2525 4095
171 682 434
171 682 434
171 682 434
255 683 512
394 682 682
527 683 853
658 735 1024
787 819 1194
914 907 1365
1041 1001 1536
1167 1095 1707
1293 1193 1877
1418 1292 2047
1543 1392 2218
1668 1494 2389
1793 1596 2559
1918 1698 2730
2043 1802 2901
2167 1906 3071
2292 2011 3242
2416 2115 3413
2541 2220 3583
2666 2326 3754
2790 2431 3924
2914 2537 4095
171 853 538
171 853 538
171 853 537
171 853 537
337 853 683
485 853 853
625 852 1023
759 878 1195
891 961 1365
1020 1048 1535
1149 1139 1706
1277 1233 1877
1404 1328 2048
1531 1425 2218
1657 1524 2389
1783 1624 2559
1908 1725 2730
2034 1826 2900
2159 1929 3071
2284 2032 3242
2409 2135 3412
2534 2239 3583
2659 2344 3754
2784 2448 3924
2909 2553 4095
171 1024 645
171 1024 645
171 1024 644
171 1024 644
252 1024 683
427 1024 853
580 1023 1023
724 1024 1195
861 1023 1364
995 1105 1536
1127 1191 1707
1257 1280 1877
1387 1371 2048
1515 1465 2218
1643 1561 2389
1770 1658 2559
1896 1756 2730
2023 1856 2901
2149 1957 3071
2275 2058 3242
2401 2160 3412
2526 2262 3583
2652 2365 3754
2777 2469 3924
2902 2572 4095
171 1194 752
171 1194 752
171 1194 752
171 1194 752
171 1194 751
345 1195 853
521 1194 1023
677 1195 1195
823 1195 1365
963 1194 1535
1099 1251 1706
1234 1335 1877
1365 1422 2047
1496 1512 2218
1625 1604 2389
1754 1699 2560
1882 1794 2730
2010 1892 2901
2137 1990 3071
2263 2089 3242
2390 2189 3412
2516 2290 3583
2642 2391 3754
2768 2494 3924
2893 2596 4095
171 1365 862
171 1365 862
171 1365 862
171 1365 862
171 1365 862
217 1365 862
442 1365 1024
618 1365 1194
776 1365 1365
924 1365 1536
1066 1365 1707
1204 1396 1877
1339 1479 2048
1473 1565 2218
1605 1654 2389
1735 1745 2559
1865 1838 2730
1994 1932 2901
2122 2028 3071
2250 2125 3242
2377 2223 3412
2504 2322 3583
2631 2422 3754
2757 2522 3924
2884 2624 4095
171 1536 973
171 1536 973
171 1536 973
171 1536 973
171 1536 973
171 1536 972
328 1536 1024
541 1536 1195
717 1536 1365
876 1536 1536
1026 1536 1707
1169 1536 1877
1309 1543 2048
1446 1625 2218
1580 1710 2389
1713 1797 2559
1844 1887 2730
1975 1978 2900
2105 2071 3071
2234 2166 3242
2362 2262 3412
2490 2359 3583
2618 2457 3754
2745 2555 3924
2872 2655 4095
171 1706 1084
171 1706 1084
171 1706 1084
171 1706 1084
171 1706 1084
171 1706 1084
171 1706 1083
437 1707 1195
642 1707 1365
816 1706 1535
977 1706 1706
1127 1707 1877
1272 1707 2048
1413 1707 2218
1551 1770 2389
1687 1854 2559
1820 1941 2730
1953 2029 2901
2084 2119 3071
2215 2211 3242
2345 2305 3412
2474 2400 3583
2603 2496 3754
2731 2592 3924
2859 2690 4095
