Examples/MaskToImage - Cyan-Orange Toning.3dl
#25pt 3DLUT created by 3D LUT Creator Pro (c) Oleg Sharonov
#Copyright Oleg Sharonov
#IMAGEPROFILE sRGB IEC61966-2.1 v.2.10
#INPUTGAMMA sRGB IEC61966-2.1 v.2.10
#OUTPUTGAMMA sRGB IEC61966-2.1 v.2.10
0 43 86 128 171 214 256 299 341 384 427 469 512 555 597 640 682 725 768 810 853 896 938 981 1023 
0 0 0
0 0 196
0 0 387
0 0 576
0 0 758
0 0 944
0 0 1131
0 0 1318
0 0 1506
0 0 1694
0 0 1882
0 0 2072
0 0 2262
0 0 2417
0 0 2572
0 0 2726
0 0 2881
0 0 3035
0 0 3188
0 0 3342
0 0 3494
0 0 3646
0 0 3797
0 0 3947
0 0 4095
2 161 2
0 149 204
0 137 395
0 131 583
0 123 765
0 119 951
0 117 1137
0 113 1323
0 111 1510
0 105 1698
0 95 1886
0 79 2075
0 65 2265
0 65 2420
0 65 2574
0 65 2728
0 65 2882
0 65 3036
0 65 3189
0 65 3343
0 65 3495
0 65 3647
0 65 3798
0 85 3947
2 157 4095
4 324 4
0 311 211
0 296 405
0 285 592
0 274 775
0 268 960
0 263 1145
0 259 1331
0 254 1517
0 249 1704
0 240 1891
0 224 2080
0 196 2269
0 190 2423
0 184 2577
0 176 2731
0 168 2884
0 162 3038
0 158 3191
0 156 3344
0 164 3496
0 180 3648
0 210 3798
0 258 3948
4 314 4095
6 489 6
2 477 218
0 461 415
0 445 603
0 433 788
0 424 972
0 418 1157
0 412 1341
0 407 1526
0 401 1712
0 394 1899
0 383 2087
0 364 2276
0 364 2429
0 363 2581
0 361 2735
0 358 2888
0 357 3041
0 357 3194
0 360 3346
0 367 3498
0 380 3649
0 403 3800
0 433 3949
8 471 4095
6 655 6
4 642 224
0 626 424
0 608 616
0 593 803
0 581 987
0 573 1170
0 565 1354
0 559 1538
0 553 1723
0 546 1909
0 537 2096
0 523 2284
0 526 2436
0 528 2588
0 530 2740
0 531 2893
0 532 3045
0 535 3197
0 540 3349
0 547 3500
0 558 3651
0 575 3801
0 598 3950
14 628 4095
8 818 8
6 808 229
2 792 432
0 773 628
0 757 816
0 742 1002
0 730 1185
0 721 1369
0 713 1552
0 706 1736
0 699 1921
0 690 2107
0 678 2295
0 683 2445
0 687 2596
0 691 2747
0 695 2898
0 698 3050
0 703 3202
0 708 3353
0 716 3504
0 727 3654
0 741 3804
0 761 3952
22 786 4095
8 983 8
6 973 232
4 959 438
0 940 637
0 921 829
0 905 1017
0 890 1201
0 878 1385
0 869 1568
0 860 1751
0 852 1935
0 843 2121
0 833 2307
0 838 2456
0 844 2605
0 849 2755
0 854 2906
0 860 3056
0 865 3207
0 872 3357
0 880 3508
0 890 3657
0 904 3806
0 921 3954
34 944 4095
8 1148 8
8 1139 233
6 1125 443
2 1107 645
0 1088 841
0 1069 1031
0 1053 1217
0 1039 1401
0 1027 1584
0 1017 1767
0 1007 1951
0 998 2135
0 987 2322
0 994 2468
0 1001 2616
0 1007 2765
0 1013 2914
0 1019 3063
0 1026 3213
0 1033 3363
0 1042 3512
0 1052 3661
0 1065 3810
0 1081 3957
48 1102 4095
10 1313 10
8 1305 234
6 1292 446
4 1274 652
2 1255 850
0 1235 1043
0 1217 1231
0 1201 1416
0 1187 1600
0 1175 1783
0 1164 1967
0 1154 2151
0 1143 2337
0 1150 2482
0 1157 2628
0 1164 2775
0 1171 2923
0 1178 3072
0 1186 3220
0 1194 3369
0 1203 3518
0 1213 3666
0 1226 3813
0 1241 3960
66 1260 4095
10 1477 10
10 1470 236
8 1458 449
6 1441 657
2 1422 859
0 1402 1054
0 1383 1245
0 1365 1431
0 1349 1616
0 1335 1800
0 1323 1984
0 1311 2168
0 1299 2353
0 1307 2497
0 1315 2641
0 1322 2787
0 1330 2933
0 1337 3081
0 1345 3228
0 1354 3376
0 1363 3523
0 1374 3671
0 1386 3817
0 1401 3963
90 1419 4095
10 1642 10
10 1635 237
10 1623 452
8 1608 662
4 1589 866
2 1569 1064
0 1549 1257
0 1530 1446
0 1513 1632
0 1498 1817
0 1484 2001
0 1471 2185
0 1458 2370
0 1466 2512
0 1473 2655
0 1481 2799
0 1489 2944
0 1497 3090
0 1505 3237
0 1514 3383
0 1523 3530
0 1534 3676
0 1546 3822
12 1560 3967
119 1578 4095
12 1806 12
12 1800 238
10 1789 453
8 1775 665
6 1757 872
4 1737 1072
0 1716 1268
0 1697 1459
0 1678 1646
0 1661 1832
0 1646 2017
0 1632 2202
0 1618 2387
0 1625 2527
0 1633 2669
0 1641 2812
0 1648 2956
0 1657 3100
0 1665 3245
0 1674 3391
0 1684 3536
0 1695 3682
0 1707 3827
40 1721 3970
147 1737 4095
14 1971 14
14 1965 240
12 1955 455
12 1941 669
10 1924 877
6 1904 1080
4 1884 1277
0 1864 1470
0 1844 1660
0 1826 1847
0 1809 2033
0 1794 2218
0 1779 2404
0 1786 2543
0 1793 2683
0 1801 2824
0 1809 2967
0 1817 3110
0 1826 3254
0 1835 3399
0 1845 3543
0 1855 3688
0 1867 3831
72 1881 3974
179 1897 4095
14 2148 14
14 2144 236
14 2135 450
12 2122 664
10 2107 873
8 2089 1077
4 2070 1277
0 2051 1472
0 2032 1664
0 2014 1854
0 1997 2041
0 1981 2228
0 1966 2415
0 1972 2552
0 1979 2691
0 1987 2832
0 1995 2973
0 2003 3116
0 2012 3259
0 2021 3402
0 2031 3546
0 2042 3689
0 2053 3832
84 2066 3975
193 2081 4095
16 2325 16
16 2321 234
16 2314 446
14 2303 660
12 2289 869
10 2273 1075
4 2255 1276
0 2237 1473
0 2219 1667
0 2201 1859
0 2184 2048
0 2167 2236
0 2152 2424
0 2158 2561
0 2165 2699
0 2173 2838
0 2181 2979
0 2190 3120
0 2198 3262
0 2208 3405
0 2217 3548
0 2228 3690
0 2239 3833
94 2252 3974
206 2266 4095
18 2501 18
18 2498 234
18 2492 444
16 2483 657
14 2470 866
12 2456 1072
6 2440 1275
0 2422 1473
0 2405 1669
0 2387 1862
0 2370 2053
0 2354 2243
0 2339 2432
0 2345 2568
0 2352 2705
0 2359 2844
0 2367 2984
0 2376 3124
0 2384 3266
0 2394 3407
0 2403 3549
0 2413 3691
0 2424 3833
100 2437 3973
217 2450 4095
22 2678 22
22 2676 234
20 2670 441
20 2662 653
16 2651 863
12 2638 1070
6 2623 1273
0 2607 1473
0 2590 1670
0 2573 1865
0 2557 2057
0 2541 2249
0 2526 2439
0 2532 2575
0 2538 2711
0 2545 2849
0 2553 2988
0 2562 3128
0 2570 3268
0 2579 3409
0 2589 3550
0 2599 3691
0 2609 3832
104 2621 3972
229 2634 4095
26 2855 26
26 2852 236
24 2848 440
22 2841 650
20 2831 861
14 2819 1067
6 2805 1271
0 2790 1472
0 2775 1670
0 2759 1866
0 2743 2060
0 2728 2253
0 2713 2445
0 2718 2580
0 2725 2716
0 2732 2853
0 2739 2991
0 2748 3131
0 2756 3270
0 2765 3411
0 2774 3551
0 2784 3691
0 2794 3832
104 2805 3971
236 2817 4095
30 3031 30
30 3029 237
28 3026 440
26 3019 647
22 3010 858
16 2999 1064
4 2987 1268
0 2973 1470
0 2959 1670
0 2944 1867
0 2929 2062
0 2914 2256
0 2900 2450
0 2905 2584
0 2911 2720
0 2918 2857
0 2926 2994
0 2933 3133
0 2942 3272
0 2950 3412
0 2959 3552
0 2968 3691
0 2978 3831
94 2988 3969
241 3000 4095
34 3208 34
34 3206 238
32 3203 439
30 3197 645
24 3189 855
14 3180 1062
0 3168 1266
0 3156 1468
0 3143 1668
0 3129 1867
0 3115 2063
0 3101 2259
0 3087 2454
0 3092 2588
0 3098 2723
0 3105 2859
0 3112 2996
0 3120 3134
0 3127 3273
0 3136 3412
0 3144 3552
0 3153 3691
0 3162 3830
76 3172 3968
243 3182 4095
38 3385 38
38 3383 240
34 3380 438
30 3375 643
22 3368 851
10 3360 1059
0 3350 1263
0 3338 1466
0 3326 1667
0 3313 1866
0 3300 2063
0 3288 2260
0 3275 2456
0 3280 2590
0 3286 2725
0 3292 2861
0 3299 2998
0 3306 3135
0 3314 3274
0 3321 3412
0 3329 3551
0 3338 3690
0 3346 3828
42 3355 3966
237 3364 4095
38 3562 38
38 3560 238
34 3558 435
28 3554 640
18 3548 847
2 3540 1055
0 3531 1260
0 3521 1463
0 3509 1664
0 3498 1864
0 3486 2062
0 3475 2260
0 3463 2457
0 3468 2591
0 3474 2726
0 3479 2862
0 3486 2999
0 3493 3136
0 3500 3274
0 3507 3412
0 3515 3551
0 3523 3689
0 3530 3827
0 3538 3964
224 3547 4095
34 3739 34
32 3738 234
28 3736 432
20 3732 636
6 3727 842
0 3720 1050
0 3712 1255
0 3703 1459
0 3693 1660
0 3683 1861
0 3672 2060
0 3662 2259
0 3652 2458
0 3657 2591
0 3662 2726
0 3668 2862
0 3674 2999
0 3680 3136
0 3687 3274
0 3694 3412
0 3701 3550
0 3708 3688
0 3715 3826
0 3722 3963
195 3729 4095
24 3917 24
20 3916 224
14 3914 425
4 3911 629
0 3906 836
0 3900 1043
0 3893 1250
0 3885 1453
0 3877 1655
0 3868 1857
0 3859 2057
0 3850 2256
0 3842 2456
0 3847 2590
0 3852 2725
0 3857 2861
0 3863 2998
0 3869 3135
0 3875 3273
0 3882 3411
0 3888 3549
0 3894 3687
0 3900 3825
0 3906 3961
133 3912 4095
0 4095 0
0 4094 206
0 4093 413
0 4090 619
0 4087 827
0 4082 1034
0 4075 1242
0 4069 1446
0 4062 1649
0 4054 1850
0 4047 2051
0 4040 2252
0 4034 2453
0 4038 2587
0 4043 2722
0 4048 2859
0 4054 2996
0 4059 3133
0 4065 3271
0 4071 3409
0 4077 3548
0 4082 3686
0 4087 3824
0 4091 3960
0 4095 4095
199 0 0
155 0 184
99 0 403
93 0 588
87 0 770
85 0 954
83 0 1140
81 0 1326
77 0 1512
71 0 1700
65 0 1887
65 0 2076
65 0 2266
65 0 2421
65 0 2575
65 0 2729
65 0 2883
65 0 3037
65 0 3190
65 0 3343
65 0 3496
65 0 3648
65 0 3798
65 0 3948
113 4 4095
191 161 0
137 163 201
105 147 405
95 135 594
89 127 776
87 123 961
83 119 1145
81 115 1331
77 111 1517
73 105 1703
65 97 1891
65 81 2079
65 65 2269
65 65 2423
65 65 2577
65 65 2731
65 65 2885
65 65 3038
65 65 3191
65 65 3344
65 65 3497
65 65 3648
65 65 3799
65 87 3948
115 161 4095
161 332 4
133 324 209
105 306 415
97 291 601
91 280 785
87 272 969
85 266 1153
83 261 1337
79 256 1523
73 251 1709
65 241 1896
65 224 2084
65 196 2273
65 192 2427
65 184 2580
65 178 2733
65 170 2887
65 162 3040
65 158 3193
65 158 3346
65 166 3498
65 182 3649
65 214 3799
65 261 3949
117 317 4095
147 498 6
129 487 217
109 468 423
101 451 612
95 438 797
91 427 980
87 420 1163
83 414 1347
79 408 1532
73 404 1717
65 395 1904
65 384 2091
65 365 2280
65 365 2432
65 364 2584
65 361 2737
65 360 2890
65 358 3043
65 357 3196
65 361 3348
65 368 3499
65 383 3651
65 404 3801
65 435 3950
121 474 4095
141 662 8
129 651 221
113 632 429
105 614 622
99 599 809
93 585 993
89 576 1176
85 568 1360
81 562 1543
75 555 1728
65 548 1913
65 539 2100
65 524 2288
65 527 2439
65 529 2591
65 530 2743
65 531 2895
65 533 3047
65 536 3199
65 541 3351
65 548 3502
65 559 3653
65 577 3802
65 599 3951
127 630 4095
137 825 8
129 816 226
115 797 436
109 778 632
101 761 822
97 746 1007
91 733 1191
87 723 1374
83 716 1557
75 708 1741
65 700 1925
65 691 2111
65 679 2298
65 684 2448
65 688 2599
65 692 2749
65 695 2901
65 699 3052
65 704 3203
65 709 3354
65 717 3505
65 727 3655
65 742 3805
65 762 3953
135 787 4095
135 989 8
129 980 229
117 963 441
111 944 641
105 926 834
99 908 1021
95 894 1206
89 881 1389
85 871 1572
77 863 1755
65 854 1939
65 845 2124
65 834 2311
65 839 2459
65 845 2608
65 850 2758
65 855 2908
65 860 3058
65 866 3209
65 873 3359
65 881 3509
65 891 3659
65 905 3807
65 922 3955
147 945 4095
135 1153 8
131 1145 230
121 1129 445
115 1111 648
109 1091 844
103 1073 1034
97 1056 1220
93 1041 1405
85 1030 1588
77 1019 1771
65 1009 1954
65 999 2139
65 989 2325
65 995 2471
65 1001 2619
65 1008 2767
65 1014 2916
65 1020 3065
65 1027 3215
65 1034 3364
65 1043 3514
65 1053 3663
65 1066 3811
73 1083 3958
163 1103 4095
135 1317 10
131 1310 233
123 1296 446
117 1278 654
111 1258 853
107 1238 1046
101 1220 1234
95 1204 1420
87 1190 1604
79 1177 1787
65 1166 1970
65 1155 2154
65 1144 2340
65 1151 2485
65 1158 2630
65 1165 2777
65 1172 2925
65 1179 3073
65 1187 3222
65 1195 3371
65 1204 3519
65 1214 3667
65 1227 3814
87 1242 3961
180 1261 4095
135 1481 10
131 1475 234
125 1462 448
119 1444 659
115 1425 861
109 1405 1057
103 1385 1247
97 1367 1434
89 1351 1619
79 1337 1803
65 1325 1987
65 1313 2171
65 1301 2356
65 1308 2499
65 1316 2643
65 1323 2789
65 1331 2935
65 1338 3082
65 1346 3230
65 1355 3377
65 1364 3525
65 1375 3672
65 1387 3818
105 1402 3964
201 1420 4095
135 1645 10
133 1639 236
127 1628 449
121 1611 663
117 1592 868
113 1572 1066
107 1552 1259
101 1532 1448
93 1515 1634
81 1500 1819
65 1485 2003
65 1472 2187
65 1459 2372
65 1467 2514
65 1474 2657
65 1482 2801
65 1490 2946
65 1498 3092
65 1506 3238
65 1515 3384
65 1524 3531
65 1535 3677
65 1547 3823
127 1561 3967
224 1579 4095
