Examples/Masks limit - Blue.3dl
#25pt 3DLUT created by 3D LUT Creator Pro (c) Oleg Sharonov
#Copyright Oleg Sharonov
0 43 86 128 171 214 256 299 341 384 427 469 512 555 597 640 682 725 768 810 853 896 938 981 1023 
0 0 0
0 65 123
0 155 269
0 269 416
0 383 565
0 496 713
0 525 884
0 529 1060
0 531 1234
0 532 1408
0 532 1581
0 531 1754
0 529 1927
0 527 2099
0 525 2272
0 523 2444
0 520 2616
0 517 2788
0 514 2960
0 511 3132
0 507 3304
0 504 3476
0 501 3648
0 497 3819
0 494 3991
0 68 139
19 123 195
10 206 310
0 306 448
0 412 591
0 521 736
0 606 889
0 626 1062
0 639 1235
0 648 1408
0 654 1581
0 658 1753
0 661 1925
0 663 2098
0 663 2270
0 663 2442
0 663 2614
0 662 2786
0 661 2958
0 659 3130
0 657 3302
0 655 3474
0 653 3646
0 650 3818
0 648 3990
0 158 297
13 206 310
48 271 376
29 354 490
3 449 615
0 550 757
0 648 903
0 691 1071
0 721 1240
0 743 1411
0 759 1582
0 771 1754
0 780 1926
0 786 2098
0 792 2270
0 795 2442
0 798 2613
0 800 2785
0 801 2957
0 801 3129
0 801 3301
0 801 3473
0 800 3645
0 799 3817
0 797 3989
0 276 454
0 310 461
58 352 478
90 420 557
61 503 671
45 593 788
0 681 930
0 742 1090
0 788 1254
0 824 1421
0 851 1590
0 872 1760
0 889 1930
0 902 2101
0 912 2272
0 920 2443
0 926 2615
0 932 2786
0 935 2958
0 938 3130
0 941 3301
0 942 3473
0 943 3645
0 944 3817
0 944 3988
0 407 578
0 416 614
0 451 627
103 501 659
149 570 738
103 653 852
72 732 976
30 798 1116
0 855 1275
0 901 1437
0 938 1603
0 968 1770
0 991 1938
0 1011 2107
0 1027 2277
0 1040 2448
0 1050 2618
0 1059 2789
0 1066 2960
0 1072 3132
0 1076 3303
0 1080 3475
0 1083 3646
0 1085 3818
0 1087 3989
0 595 572
0 577 675
0 579 742
27 612 773
146 673 821
179 743 908
129 812 1031
93 877 1162
74 933 1302
0 983 1457
0 1026 1619
0 1062 1784
0 1092 1950
0 1118 2117
0 1138 2285
0 1156 2455
0 1171 2624
0 1183 2794
0 1193 2965
0 1202 3135
0 1209 3306
0 1215 3477
0 1221 3648
0 1220 3821
0 1216 3994
0 779 563
0 762 681
0 758 774
0 773 840
111 810 886
169 863 971
193 920 1075
150 977 1207
116 1030 1343
93 1079 1487
55 1122 1638
0 1161 1800
0 1195 1963
0 1225 2129
0 1250 2296
0 1271 2463
0 1290 2632
0 1305 2801
0 1319 2971
0 1330 3141
0 1338 3311
0 1341 3484
0 1343 3656
0 1343 3829
0 1342 4001
0 961 553
0 946 681
0 938 789
0 944 881
0 966 955
166 1004 1019
184 1049 1126
199 1096 1243
163 1144 1381
133 1189 1522
110 1231 1669
95 1268 1819
15 1304 1978
0 1336 2142
0 1363 2307
0 1388 2474
0 1409 2641
0 1424 2810
0 1437 2980
0 1447 3151
0 1454 3322
0 1460 3493
0 1464 3665
0 1467 3837
0 1468 4009
0 1142 541
0 1128 677
0 1119 796
0 1120 904
0 1133 998
30 1156 1081
170 1192 1170
192 1231 1286
202 1272 1411
170 1312 1554
144 1351 1699
121 1387 1848
105 1420 2001
76 1449 2158
0 1477 2323
0 1500 2489
0 1521 2656
0 1538 2824
0 1552 2993
0 1564 3163
0 1574 3333
0 1582 3504
0 1588 3675
0 1592 3846
0 1595 4018
0 1327 514
0 1315 656
0 1307 785
0 1305 904
0 1312 1013
0 1329 1114
101 1353 1208
167 1385 1318
186 1418 1443
191 1452 1577
164 1485 1725
140 1517 1875
120 1546 2027
105 1573 2183
94 1598 2340
35 1621 2504
0 1641 2671
0 1659 2838
0 1674 3006
0 1687 3175
0 1698 3345
0 1707 3515
0 1715 3685
0 1721 3856
0 1726 4027
0 1520 465
0 1510 613
0 1503 752
0 1500 881
0 1503 1005
0 1513 1121
0 1529 1232
138 1552 1337
157 1578 1467
174 1605 1601
176 1632 1743
153 1659 1895
133 1685 2049
116 1709 2204
102 1731 2362
92 1752 2522
74 1770 2684
0 1788 2851
0 1803 3018
0 1817 3187
0 1828 3356
0 1838 3525
0 1847 3695
0 1854 3865
0 1859 4036
0 1712 418
0 1703 571
0 1696 716
0 1693 854
0 1694 988
0 1700 1116
0 1711 1240
25 1726 1361
144 1746 1479
146 1767 1620
159 1790 1761
160 1812 1909
141 1833 2065
124 1854 2221
109 1874 2380
97 1893 2539
87 1909 2701
80 1925 2863
44 1939 3030
0 1953 3197
0 1964 3366
0 1974 3535
0 1983 3705
0 1991 3874
0 1997 4045
0 1901 373
0 1894 529
0 1889 680
0 1885 826
0 1885 967
0 1888 1104
0 1895 1238
0 1906 1369
71 1920 1497
128 1937 1630
134 1955 1776
144 1973 1923
143 1990 2076
128 2008 2234
114 2025 2393
101 2041 2554
91 2056 2715
82 2070 2878
75 2083 3042
64 2095 3207
15 2106 3375
0 2116 3544
0 2125 3713
0 2132 3883
0 2139 4053
0 2090 331
0 2084 490
0 2079 645
0 2076 796
0 2075 943
0 2076 1087
0 2081 1229
0 2088 1368
0 2098 1505
90 2111 1640
115 2125 1784
121 2139 1935
129 2154 2086
127 2169 2243
114 2183 2403
103 2197 2565
92 2210 2727
83 2222 2890
75 2234 3054
69 2244 3219
64 2254 3385
42 2263 3553
0 2272 3721
0 2279 3891
0 2285 4060
0 2277 291
0 2272 452
0 2268 610
0 2265 765
0 2263 917
0 2264 1067
0 2267 1215
0 2272 1360
0 2279 1505
19 2288 1648
96 2299 1788
102 2310 1941
107 2322 2095
114 2334 2251
112 2346 2410
101 2358 2572
91 2369 2736
82 2380 2899
75 2390 3064
68 2399 3229
62 2408 3395
57 2416 3561
50 2423 3729
22 2430 3898
0 2436 4067
0 2462 254
0 2458 417
0 2455 577
0 2452 736
0 2451 891
0 2451 1046
0 2453 1198
0 2456 1349
0 2461 1498
0 2467 1647
46 2475 1795
91 2485 1942
90 2494 2100
94 2504 2258
99 2514 2416
97 2523 2577
88 2532 2742
80 2541 2906
73 2550 3071
66 2558 3237
60 2566 3403
55 2573 3570
51 2579 3737
47 2585 3905
34 2591 4073
0 2647 219
0 2644 383
0 2641 546
0 2639 707
0 2637 866
0 2637 1023
0 2638 1180
0 2640 1335
0 2644 1489
0 2648 1642
0 2654 1795
55 2661 1946
77 2669 2100
78 2676 2261
81 2684 2421
85 2692 2582
83 2699 2745
75 2707 2911
69 2714 3076
63 2721 3243
57 2727 3409
52 2733 3576
48 2739 3744
44 2744 3911
41 2749 4080
0 2830 186
0 2827 352
0 2825 516
0 2823 679
0 2822 841
0 2822 1001
0 2822 1161
0 2824 1319
0 2826 1477
0 2829 1634
0 2833 1790
13 2838 1946
56 2844 2101
65 2851 2261
66 2857 2423
69 2863 2585
72 2869 2748
69 2875 2913
64 2881 3080
58 2887 3247
53 2892 3414
49 2897 3581
45 2902 3749
41 2907 3917
38 2911 4085
0 3012 156
0 3010 323
0 3008 489
0 3007 654
0 3006 817
0 3005 980
0 3006 1142
0 3007 1303
0 3008 1463
0 3010 1623
0 3013 1783
0 3017 1942
27 3021 2101
53 3026 2259
54 3031 2422
56 3036 2586
58 3041 2750
60 3046 2915
57 3051 3082
53 3055 3249
48 3060 3417
44 3064 3584
41 3068 3753
37 3072 3921
34 3075 4090
0 3193 129
0 3192 297
0 3190 464
0 3189 630
0 3188 795
0 3188 959
0 3188 1123
0 3188 1286
0 3190 1449
0 3191 1612
0 3193 1774
0 3196 1935
0 3199 2097
30 3203 2258
46 3207 2420
45 3210 2585
45 3214 2751
47 3218 2917
48 3222 3083
46 3225 3250
42 3229 3418
39 3232 3587
36 3235 3755
33 3239 3924
30 3241 4093
0 3373 104
0 3372 273
0 3371 440
0 3370 608
0 3370 774
0 3369 940
0 3369 1105
0 3369 1271
0 3370 1435
0 3371 1600
0 3373 1764
0 3375 1928
0 3377 2091
8 3379 2255
29 3382 2418
36 3385 2583
35 3388 2750
36 3391 2916
37 3394 3083
38 3397 3251
36 3400 3419
33 3402 3588
31 3405 3757
28 3407 3926
26 3410 4095
0 3552 82
0 3552 251
0 3551 420
0 3550 588
0 3549 755
0 3549 922
0 3549 1089
0 3549 1256
0 3550 1422
0 3551 1588
0 3552 1754
0 3553 1919
0 3554 2085
0 3556 2250
13 3558 2415
25 3561 2581
27 3563 2747
27 3565 2915
28 3567 3083
28 3569 3251
29 3571 3419
27 3573 3588
25 3575 3757
23 3577 3927
21 3579 4095
0 3730 63
0 3730 232
0 3729 401
0 3729 570
0 3728 738
0 3728 906
0 3728 1074
0 3728 1242
0 3728 1409
0 3729 1577
0 3730 1744
0 3731 1911
0 3732 2078
0 3733 2244
0 3734 2411
13 3736 2578
20 3738 2745
20 3739 2913
20 3741 3081
20 3742 3250
21 3744 3419
21 3745 3588
20 3747 3757
18 3748 3927
16 3750 4095
0 3907 46
0 3907 216
0 3906 385
0 3906 554
0 3906 723
0 3906 892
0 3906 1061
0 3906 1229
0 3906 1398
0 3906 1566
0 3907 1734
0 3907 1902
0 3908 2070
0 3909 2238
0 3910 2406
4 3911 2574
11 3912 2742
15 3913 2910
14 3914 3080
14 3916 3249
14 3917 3418
14 3918 3587
14 3919 3757
13 3920 3926
12 3921 4095
0 4083 32
0 4083 202
0 4083 371
0 4083 541
0 4082 711
0 4082 880
0 4082 1050
0 4082 1219
0 4082 1388
0 4083 1557
0 4083 1726
0 4083 1895
0 4084 2064
0 4084 2233
0 4085 2401
0 4086 2570
5 4086 2739
8 4087 2908
9 4088 3077
9 4089 3247
9 4090 3417
9 4090 3586
9 4091 3756
9 4092 3925
8 4092 4095
0 68 139
19 123 195
10 206 310
0 306 448
0 412 591
0 521 736
28 527 905
49 531 1076
64 532 1247
76 533 1418
86 533 1590
95 531 1761
101 530 1933
107 528 2105
112 525 2276
116 523 2448
120 520 2620
124 517 2791
126 514 2963
129 511 3135
132 507 3306
134 504 3478
136 501 3650
137 497 3821
139 494 3993
39 123 180
171 171 171
149 245 302
113 336 440
65 434 583
3 538 727
17 598 888
40 619 1060
57 633 1233
71 642 1406
81 649 1578
90 654 1751
98 657 1924
104 659 2096
109 660 2268
114 660 2441
118 660 2613
122 659 2785
125 658 2957
128 657 3129
130 655 3301
132 653 3473
135 651 3645
136 649 3817
138 646 3989
0 209 318
119 248 316
195 302 362
183 381 477
129 471 614
55 569 755
11 649 906
34 689 1073
52 718 1241
66 740 1412
78 756 1583
87 768 1754
95 777 1926
102 784 2098
107 789 2270
112 793 2441
116 796 2613
120 798 2785
123 799 2957
126 799 3129
129 799 3301
131 799 3473
134 799 3645
136 797 3816
137 796 3988
0 310 470
45 341 468
177 381 479
230 442 547
209 522 661
189 610 783
97 690 932
36 745 1092
52 789 1256
65 823 1423
76 850 1591
86 871 1760
93 887 1931
100 900 2101
106 910 2272
111 918 2444
115 925 2615
119 930 2786
122 934 2958
126 937 3130
128 939 3301
131 941 3473
133 942 3645
135 943 3817
137 943 3988
14 440 573
0 442 622
78 474 629
243 520 650
273 586 731
243 667 845
222 743 970
164 807 1116
71 859 1276
68 903 1439
77 938 1604
86 967 1771
93 991 1939
100 1010 2108
105 1026 2278
110 1039 2448
115 1049 2619
119 1058 2790
122 1065 2961
125 1071 3132
128 1075 3303
130 1079 3475
132 1082 3646
135 1085 3818
136 1086 3989
46 616 568
30 601 670
19 603 731
141 629 775
275 683 818
299 751 904
262 821 1026
238 885 1158
226 939 1299
134 988 1458
81 1028 1620
88 1063 1784
95 1093 1950
101 1117 2118
106 1138 2286
111 1155 2455
115 1170 2625
119 1182 2795
122 1193 2965
125 1201 3136
128 1208 3306
130 1215 3477
132 1220 3649
135 1219 3821
137 1215 3995
68 793 560
57 778 678
48 774 765
43 790 834
223 818 891
292 869 970
311 926 1073
278 983 1204
254 1036 1341
238 1083 1484
198 1126 1638
101 1163 1800
98 1196 1964
103 1225 2130
108 1250 2296
112 1271 2464
116 1289 2632
119 1305 2801
122 1318 2971
125 1330 3141
128 1337 3312
131 1340 3484
134 1342 3656
136 1342 3829
139 1341 4002
84 971 550
76 957 678
69 950 785
64 956 875
91 976 953
290 1007 1019
306 1052 1126
321 1099 1242
291 1147 1379
267 1193 1521
250 1234 1667
239 1272 1817
166 1306 1979
106 1336 2143
110 1364 2308
114 1388 2474
117 1409 2642
121 1424 2811
125 1436 2981
128 1446 3151
131 1454 3322
134 1459 3494
136 1463 3665
138 1466 3837
141 1467 4010
97 1149 539
90 1136 675
85 1128 794
81 1129 900
79 1141 994
167 1162 1082
298 1194 1170
316 1233 1286
327 1273 1411
299 1314 1553
277 1354 1698
260 1390 1847
247 1422 1999
218 1452 2158
131 1478 2323
119 1501 2489
122 1521 2657
125 1538 2825
128 1552 2994
131 1564 3163
134 1573 3334
136 1581 3504
139 1587 3675
141 1592 3847
143 1595 4018
108 1333 511
104 1321 653
99 1313 783
96 1312 900
94 1319 1010
94 1335 1111
230 1356 1210
298 1386 1318
316 1419 1443
322 1453 1577
298 1486 1724
277 1518 1874
261 1548 2026
249 1575 2182
240 1599 2339
190 1622 2504
127 1641 2671
130 1659 2838
133 1674 3007
135 1687 3175
137 1698 3345
139 1707 3515
141 1715 3685
143 1720 3856
145 1725 4027
120 1524 463
116 1515 611
113 1507 750
111 1505 878
109 1508 1002
108 1518 1119
113 1533 1231
267 1552 1341
293 1578 1468
309 1605 1602
312 1633 1743
292 1660 1895
274 1686 2048
260 1710 2204
249 1733 2361
240 1753 2521
222 1771 2684
160 1788 2851
137 1803 3019
139 1817 3187
141 1828 3356
142 1838 3525
144 1846 3695
146 1853 3865
147 1859 4036
