Examples/Masks - Curves - Saturation Contrast.3dl
#25pt 3DLUT created by 3D LUT Creator Pro (c) Oleg Sharonov
#Copyright Oleg Sharonov
#IMAGEPROFILE 
#INPUTGAMMA 
#OUTPUTGAMMA 
0 43 86 128 171 214 256 299 341 384 427 469 512 555 597 640 682 725 768 810 853 896 938 981 1023 
0 0 0
0 0 168
0 0 330
3 3 488
3 3 641
3 3 818
0 0 1008
0 0 1197
0 0 1386
0 0 1580
0 0 1776
0 0 1976
0 0 2176
0 0 2376
0 0 2573
0 0 2763
0 0 2949
0 0 3126
0 0 3297
0 0 3460
0 0 3614
0 0 3754
0 0 3875
0 0 3989
0 0 4095
0 161 0
0 161 161
3 165 320
3 165 477
6 168 628
3 158 813
3 149 1007
0 139 1199
0 132 1391
0 126 1585
0 116 1782
0 110 1983
0 100 2183
0 84 2383
0 68 2579
0 45 2770
0 16 2954
0 0 3132
0 0 3302
0 0 3465
0 0 3619
0 0 3758
0 0 3878
0 0 3991
3 81 4095
3 306 3
3 306 158
6 308 308
6 310 457
10 312 603
6 297 801
3 280 1006
0 269 1204
0 257 1400
0 245 1597
0 233 1797
0 220 1998
0 206 2200
0 189 2401
0 165 2597
0 139 2787
0 103 2970
0 65 3146
0 19 3315
0 0 3476
0 0 3628
0 0 3766
0 0 3883
0 42 3994
13 158 4095
10 434 10
10 434 158
13 436 297
13 439 439
13 437 573
10 417 788
6 394 1008
3 377 1215
0 362 1416
0 347 1616
0 332 1819
0 318 2023
0 302 2226
0 282 2428
0 260 2624
0 230 2813
0 195 2996
0 149 3170
0 100 3336
0 55 3495
0 16 3645
0 3 3779
0 45 3893
0 119 4000
26 228 4095
10 597 10
10 599 149
13 601 276
13 604 401
16 610 530
13 590 765
6 564 1003
3 545 1221
0 528 1429
0 513 1635
0 499 1843
0 484 2050
0 470 2256
0 454 2459
0 436 2656
0 414 2845
0 391 3026
0 363 3198
0 334 3362
0 304 3518
0 280 3664
0 276 3794
0 308 3904
0 358 4006
36 425 4095
6 803 6
6 807 119
6 814 235
10 824 349
13 837 465
10 822 722
6 798 983
0 778 1216
0 762 1434
0 749 1647
0 735 1861
0 725 2074
0 713 2285
0 701 2491
0 689 2689
0 676 2878
0 662 3057
0 648 3228
0 633 3389
0 620 3541
0 613 3684
0 617 3809
0 644 3913
0 679 4009
26 725 4095
0 1015 0
0 1020 97
3 1028 198
6 1041 297
6 1058 399
6 1049 674
3 1028 959
0 1010 1207
0 994 1436
0 981 1658
0 969 1880
0 957 2099
0 946 2314
0 937 2524
0 928 2724
0 919 2913
0 911 3092
0 902 3260
0 896 3419
0 892 3567
0 892 3706
0 902 3826
0 929 3922
0 963 4012
6 1004 4095
0 1230 0
0 1235 78
0 1244 161
0 1258 248
3 1276 334
3 1273 627
0 1255 932
0 1238 1195
0 1223 1436
0 1210 1668
0 1197 1898
0 1186 2124
0 1176 2345
0 1167 2559
0 1160 2761
0 1154 2951
0 1148 3129
0 1145 3296
0 1143 3451
0 1144 3596
0 1149 3730
0 1165 3843
0 1194 3931
0 1229 4014
0 1270 4091
0 1446 0
0 1451 61
0 1460 129
0 1474 198
0 1493 271
0 1494 579
0 1480 905
0 1465 1183
0 1451 1435
0 1439 1677
0 1426 1916
0 1414 2149
0 1404 2377
0 1396 2596
0 1390 2801
0 1385 2992
0 1382 3169
0 1381 3333
0 1383 3486
0 1388 3626
0 1398 3755
0 1417 3862
0 1450 3942
0 1486 4015
0 1527 4084
0 1668 0
0 1674 42
0 1682 97
0 1695 152
0 1714 212
0 1718 533
0 1708 878
0 1696 1169
0 1683 1433
0 1671 1685
0 1659 1933
0 1647 2175
0 1637 2410
0 1628 2633
0 1623 2842
0 1620 3034
0 1619 3210
0 1621 3373
0 1626 3523
0 1635 3659
0 1647 3783
0 1670 3882
0 1706 3952
0 1745 4016
0 1788 4075
0 1899 0
0 1904 26
0 1913 65
0 1925 107
0 1943 149
0 1949 488
0 1943 850
0 1933 1155
0 1922 1430
0 1911 1691
0 1900 1948
0 1888 2199
0 1878 2441
0 1871 2670
0 1866 2883
0 1864 3077
0 1865 3254
0 1869 3415
0 1877 3562
0 1889 3693
0 1905 3811
0 1931 3903
0 1970 3962
0 2011 4016
0 2055 4065
0 2136 0
0 2141 0
0 2150 29
0 2161 58
0 2178 87
0 2186 442
0 2182 822
0 2175 1139
0 2166 1425
0 2157 1696
0 2146 1963
0 2135 2223
0 2126 2473
0 2119 2708
0 2116 2926
0 2115 3122
0 2118 3300
0 2125 3460
0 2135 3603
0 2149 3730
0 2168 3843
0 2197 3926
0 2239 3973
0 2282 4016
0 2329 4054
0 2378 0
0 2383 0
0 2391 0
0 2402 3
0 2417 19
0 2426 391
0 2425 792
0 2420 1125
0 2413 1420
0 2405 1701
0 2395 1978
0 2386 2247
0 2378 2505
0 2372 2748
0 2370 2970
0 2370 3170
0 2375 3349
0 2384 3508
0 2396 3648
0 2413 3771
0 2432 3874
0 2455 3940
0 2488 3974
0 2521 4010
0 2553 4047
0 2620 0
0 2626 0
0 2632 0
0 2642 0
0 2657 0
0 2666 330
0 2667 759
0 2663 1108
0 2658 1415
0 2652 1707
0 2644 1993
0 2636 2272
0 2626 2536
0 2617 2778
0 2610 2997
0 2607 3188
0 2608 3357
0 2611 3505
0 2618 3634
0 2628 3747
0 2641 3846
0 2661 3918
0 2690 3958
0 2718 4000
0 2746 4044
0 2826 0
0 2830 0
0 2835 0
0 2843 0
0 2855 0
0 2862 306
0 2860 751
0 2855 1099
0 2848 1406
0 2839 1694
0 2829 1976
0 2818 2247
0 2808 2505
0 2800 2744
0 2795 2960
0 2793 3150
0 2794 3319
0 2798 3468
0 2805 3599
0 2815 3716
0 2827 3818
0 2845 3896
0 2869 3944
0 2894 3993
0 2918 4044
0 2984 0
0 2988 0
0 2993 0
0 3000 0
0 3010 0
0 3016 322
0 3014 758
0 3009 1098
0 3003 1398
0 2996 1680
0 2986 1956
0 2977 2223
0 2968 2476
0 2961 2712
0 2957 2925
0 2956 3114
0 2958 3282
0 2963 3432
0 2970 3565
0 2979 3685
0 2990 3792
0 3005 3876
0 3027 3931
0 3048 3988
0 3068 4046
0 3126 0
0 3130 0
0 3134 0
0 3140 0
0 3149 0
0 3154 345
0 3152 769
0 3147 1101
0 3141 1394
0 3135 1670
0 3126 1940
0 3117 2201
0 3109 2449
0 3103 2681
0 3100 2891
0 3100 3078
0 3102 3246
0 3107 3397
0 3113 3533
0 3121 3656
0 3132 3767
0 3145 3857
0 3163 3920
0 3182 3985
0 3199 4051
0 3256 0
0 3259 0
0 3263 0
0 3268 0
0 3277 0
0 3280 377
0 3278 783
0 3273 1107
0 3268 1393
0 3261 1662
0 3253 1926
0 3245 2181
0 3238 2424
0 3232 2652
0 3229 2858
0 3229 3044
0 3231 3212
0 3236 3363
0 3242 3501
0 3250 3627
0 3259 3743
0 3270 3838
0 3286 3909
0 3302 3983
0 3317 4056
0 3378 0
0 3381 0
0 3384 0
0 3389 0
0 3396 0
0 3399 416
0 3396 804
0 3391 1116
0 3386 1394
0 3380 1656
0 3372 1914
0 3364 2163
0 3358 2400
0 3352 2623
0 3350 2826
0 3350 3010
0 3352 3177
0 3356 3330
0 3361 3469
0 3368 3598
0 3376 3718
0 3386 3820
0 3400 3900
0 3413 3981
0 3426 4063
0 3496 0
0 3497 0
0 3500 0
0 3505 0
0 3511 42
0 3513 460
0 3510 827
0 3505 1128
0 3500 1396
0 3494 1652
0 3486 1902
0 3479 2144
0 3473 2376
0 3468 2594
0 3465 2794
0 3465 2976
0 3467 3143
0 3470 3296
0 3475 3438
0 3481 3570
0 3488 3694
0 3497 3802
0 3509 3890
0 3520 3979
0 3530 4070
0 3611 0
0 3612 0
0 3615 0
0 3619 19
0 3624 126
0 3625 508
0 3622 853
0 3617 1141
0 3612 1400
0 3606 1648
0 3600 1891
0 3593 2126
0 3587 2352
0 3582 2565
0 3579 2762
0 3579 2942
0 3581 3108
0 3584 3262
0 3588 3406
0 3594 3542
0 3599 3670
0 3607 3784
0 3617 3880
0 3626 3978
0 3634 4076
0 3727 0
0 3729 0
0 3731 0
0 3734 94
0 3738 222
0 3739 559
0 3736 880
0 3731 1155
0 3727 1404
0 3721 1644
0 3715 1878
0 3709 2107
0 3703 2327
0 3699 2535
0 3696 2728
0 3696 2907
0 3697 3073
0 3700 3228
0 3703 3374
0 3708 3512
0 3713 3645
0 3720 3765
0 3728 3870
0 3735 3976
0 3742 4082
0 3848 0
0 3849 0
0 3850 58
0 3853 186
0 3857 312
0 3857 611
0 3853 909
0 3850 1169
0 3845 1409
0 3840 1639
0 3835 1865
0 3829 2086
0 3824 2300
0 3820 2503
0 3818 2693
0 3817 2870
0 3818 3035
0 3821 3191
0 3824 3340
0 3828 3482
0 3832 3619
0 3837 3745
0 3843 3858
0 3849 3972
0 3854 4087
0 3970 0
0 3971 29
0 3972 145
0 3974 276
0 3977 398
0 3977 664
0 3974 940
0 3971 1185
0 3967 1413
0 3963 1634
0 3958 1852
0 3953 2066
0 3949 2272
0 3945 2469
0 3943 2656
0 3943 2831
0 3944 2996
0 3945 3154
0 3948 3305
0 3951 3450
0 3955 3591
0 3959 3724
0 3964 3846
0 3968 3968
0 3972 4092
0 4095 0
3 4095 119
6 4095 240
16 4095 360
29 4095 482
29 4095 721
16 4095 973
0 4095 1202
0 4091 1419
0 4088 1630
0 4084 1839
0 4080 2044
0 4077 2244
0 4074 2436
0 4072 2618
0 4072 2792
0 4072 2957
0 4074 3116
0 4076 3269
0 4079 3418
0 4082 3563
0 4085 3702
0 4089 3832
0 4092 3963
0 4095 4095
165 0 0
165 0 165
165 3 326
165 3 482
168 6 635
158 3 818
152 3 1008
142 0 1199
136 0 1390
126 0 1582
119 0 1780
110 0 1979
100 0 2180
87 0 2381
71 0 2576
45 0 2767
16 0 2952
0 0 3129
0 0 3299
0 0 3462
0 0 3617
0 0 3756
0 0 3877
0 0 3990
81 3 4095
161 161 3
161 161 161
161 161 318
165 165 472
168 168 624
158 158 811
149 149 1008
139 139 1201
132 132 1394
126 126 1588
116 116 1785
110 110 1986
97 97 2187
84 84 2387
68 68 2583
45 45 2773
13 13 2958
0 0 3135
0 0 3305
0 0 3467
0 0 3621
0 0 3760
0 0 3879
0 0 3992
84 84 4095
158 304 6
158 304 158
161 306 306
165 308 454
165 308 599
155 295 799
142 280 1008
136 267 1206
126 255 1403
119 245 1600
113 233 1800
103 220 2002
94 206 2204
78 189 2404
61 165 2601
36 136 2791
6 100 2974
0 61 3150
0 19 3318
0 0 3479
0 0 3631
0 0 3768
0 0 3885
0 45 3995
90 161 4095
158 433 10
158 431 158
161 433 297
165 434 434
165 434 570
152 416 788
139 394 1010
129 376 1217
119 362 1419
113 347 1620
103 332 1823
97 316 2026
84 299 2231
71 280 2432
48 257 2628
23 230 2817
0 192 2999
0 149 3173
0 100 3339
0 52 3498
0 13 3647
0 6 3781
0 45 3894
0 119 4001
100 230 4095
149 597 10
149 597 149
149 599 273
152 603 399
155 609 528
145 590 765
129 564 1005
119 543 1223
110 528 1432
103 513 1639
94 499 1846
84 484 2053
74 470 2260
55 454 2464
32 436 2660
3 416 2849
0 391 3029
0 363 3201
0 334 3365
0 304 3520
0 278 3667
0 273 3796
0 308 3905
0 360 4007
103 425 4095
119 807 6
123 810 123
123 815 235
129 826 349
132 838 465
126 823 723
116 798 985
107 780 1218
97 764 1437
90 750 1650
81 737 1865
71 725 2078
58 713 2288
36 700 2494
10 689 2692
0 675 2881
0 662 3061
0 648 3231
0 633 3392
0 620 3544
0 613 3686
0 618 3812
0 644 3914
0 680 4011
90 726 4095
97 1020 0
100 1025 100
100 1033 198
107 1045 297
110 1061 399
107 1052 676
97 1031 961
90 1012 1209
84 997 1439
78 983 1662
68 970 1884
55 958 2103
36 948 2318
10 938 2528
0 928 2728
0 920 2917
0 912 3095
0 903 3263
0 896 3422
0 892 3570
0 892 3708
0 903 3828
0 930 3923
0 964 4013
61 1005 4095
78 1235 0
81 1240 81
81 1249 161
84 1262 248
87 1280 336
87 1276 628
81 1258 934
74 1242 1198
68 1226 1439
61 1212 1671
52 1199 1901
36 1188 2128
13 1177 2349
0 1168 2563
0 1161 2765
0 1154 2955
0 1150 3133
0 1146 3299
0 1144 3454
0 1145 3598
0 1151 3732
0 1166 3845
0 1196 3933
0 1231 4015
19 1271 4092
61 1452 0
61 1457 61
61 1466 129
65 1479 201
68 1498 273
68 1498 582
65 1484 907
58 1469 1185
52 1455 1438
42 1441 1680
29 1429 1919
10 1417 2153
0 1406 2381
0 1397 2599
0 1390 2804
0 1386 2995
0 1383 3172
0 1383 3336
0 1385 3489
0 1390 3629
0 1399 3758
0 1418 3864
0 1451 3943
0 1488 4017
0 1530 4085
42 1674 0
45 1679 45
45 1688 97
48 1701 152
48 1719 212
48 1723 536
45 1712 880
42 1700 1173
32 1687 1436
23 1674 1688
3 1662 1936
0 1649 2178
0 1639 2413
0 1631 2636
0 1625 2845
0 1622 3037
0 1621 3214
0 1623 3376
0 1627 3525
0 1636 3661
0 1649 3785
0 1672 3884
0 1708 3954
0 1747 4018
0 1789 4076
26 1905 0
26 1910 26
26 1918 65
29 1931 107
29 1948 149
29 1954 489
26 1947 852
19 1937 1158
10 1926 1433
0 1915 1694
0 1903 1951
0 1891 2203
0 1881 2444
0 1873 2674
0 1868 2886
0 1866 3080
0 1867 3257
0 1871 3418
0 1879 3564
0 1890 3696
0 1907 3814
0 1933 3905
0 1972 3964
0 2013 4018
0 2058 4066
