Examples/Masks - Grey & Orange.3dl
#25pt 3DLUT created by 3D LUT Creator Pro (c) Oleg Sharonov
#Copyright Oleg Sharonov
0 256 512 768 1023
0 0 0
192 192 192
535 535 535
877 877 877
1220 1220 1220
861 861 861
905 905 905
1033 1033 1033
1236 1236 1236
1488 1488 1488
1751 1751 1751
1771 1771 1771
1832 1832 1832
1941 1941 1941
2096 2096 2096
2642 2642 2642
2653 2653 2653
2690 2690 2690
2759 2759 2759
2861 2861 2861
3532 3532 3532
3540 3540 3540
3565 3565 3565
3613 3613 3613
3686 3686 3686
914 79 79
514 514 514
723 723 723
999 999 999
1306 1306 1306
995 995 745
1024 1024 1024
1137 1137 1137
1321 1321 1321
1557 1557 1557
1808 1808 1808
1827 1827 1827
1886 1886 1886
1991 1991 1991
2142 2142 2142
2676 2676 2676
2687 2687 2687
2724 2724 2724
2791 2791 2791
2891 2891 2891
3555 3555 3555
3563 3563 3563
3589 3589 3589
3636 3636 3636
3708 3708 3708
1849 178 178
1035 979 1007
1122 1122 1122
1308 1308 1308
1546 1546 1546
2047 1024 0
1915 1079 1079
1412 1412 1412
1558 1558 1558
1757 1757 1757
1995 1995 1496
2007 2007 1758
2048 2048 2048
2143 2143 2143
2282 2282 2282
2782 2782 2782
2793 2793 2793
2828 2828 2828
2892 2892 2892
2988 2988 2988
3630 3630 3630
3637 3637 3637
3662 3662 3662
3708 3708 3708
3778 3778 3778
2783 277 277
2289 774 1279
1600 1600 1600
1728 1728 1728
1905 1905 1905
3071 1024 0
2826 1156 1156
1803 1803 1803
1914 1914 1914
2072 2072 2072
3071 2048 0
3071 2048 1024
2932 2097 2097
2398 2398 2398
2519 2519 2519
2995 2995 2246
3002 3002 2503
3026 3026 2777
3071 3071 3071
3160 3160 3160
3765 3765 3765
3772 3772 3772
3796 3796 3796
3840 3840 3840
3907 3907 3907
3717 375 375
3376 726 1388
2319 1885 2102
2201 2201 2201
2335 2335 2335
4066 1042 33
3748 1242 1242
2709 1954 2205
2342 2342 2342
2466 2466 2466
4095 2048 0
4095 2048 1024
3832 2161 2161
2734 2734 2734
2837 2837 2837
4095 3071 0
4095 3071 1024
4095 3071 2048
3953 3118 3118
3405 3405 3405
3995 3995 2997
4000 4000 3252
4016 4016 3518
4048 4048 3798
4095 4095 4095
