Examples/Masks - Channels - Pastel greens.3dl
#25pt 3DLUT created by 3D LUT Creator Pro (c) Oleg Sharonov
#Copyright Oleg Sharonov
0 256 512 768 1023
0 0 0
684 564 1025
1428 1210 2048
2174 1857 3071
2919 2503 4095
0 1024 610
536 1023 1023
1371 1365 2048
2140 1952 3071
2896 2570 4095
0 2048 1293
0 2048 1292
1160 2047 2047
2025 2227 3071
2819 2770 4095
0 3071 1977
0 3071 1976
532 3071 2048
1784 3071 3071
2667 3105 4095
0 4095 2661
0 4095 2660
0 4095 2659
1297 4095 3071
2408 4095 4095
1024 0 0
1104 792 1024
1651 1323 2047
2313 1926 3071
3016 2551 4095
1024 1024 429
1024 1024 1024
1603 1464 2047
2282 2018 3071
2994 2616 4095
1024 2048 1516
1024 2048 1515
1434 2048 2048
2177 2282 3071
2921 2812 4095
1024 3071 2117
1024 3071 2117
1024 3071 2115
1959 3071 3071
2776 3141 4095
1024 4095 2759
1025 4095 2759
1023 4095 2757
1545 4095 3071
2531 4095 4095
2048 0 0
2048 0 1024
2194 1625 2047
2701 2129 3071
3303 2698 4095
2048 1024 0
2048 1024 1024
2160 1737 2048
2675 2211 3071
3284 2758 4095
2047 2047 857
2048 2048 1453
2048 2048 2048
2590 2449 3071
3219 2942 4095
2048 3071 2503
2048 3071 2502
2048 3071 2501
2420 3071 3071
3093 3255 4095
2047 4095 3046
2048 4095 3046
2048 4095 3045
2120 4095 3071
2882 4095 4095
3071 0 0
3071 0 1024
3071 718 2198
3284 2459 3071
3772 2949 4095
3071 1024 0
3071 1024 1024
3071 1414 2221
3264 2527 3071
3755 3004 4095
3071 2048 0
3071 2048 1024
3071 2167 2290
3199 2731 3071
3701 3170 4095
3071 3071 1286
3071 3071 1881
3071 3071 2477
3071 3071 3071
3597 3456 4095
3071 4095 3181
3071 4095 3276
3071 4095 3372
3072 4095 3507
3426 4095 4095
4095 0 0
4095 0 1024
4095 0 2048
4095 1505 3200
4095 3292 4095
4095 1024 0
4095 1024 1024
4095 1024 2048
4095 2022 3224
4095 3339 4095
4095 2048 0
4095 2048 1024
4095 2048 2048
4095 2600 3298
4095 3485 4095
4095 3071 196
4095 3071 1167
4095 3075 2137
4095 3242 3427
4095 3740 4095
4095 4095 1713
4095 4095 2308
4095 4095 2904
4095 4095 3607
4095 4095 4095
