Examples/Masks - 2D - Desaturate.3dl
#25pt 3DLUT created by 3D LUT Creator Pro (c) Oleg Sharonov
#Copyright Oleg Sharonov
#IMAGEPROFILE sRGB IEC61966-2.1 v.2.10
#INPUTGAMMA sRGB IEC61966-2.1 v.2.10
#OUTPUTGAMMA sRGB IEC61966-2.1 v.2.10
0 256 512 768 1023
0 0 0
0 268 847
0 539 1698
0 811 2545
0 1080 3394
0 626 199
0 789 890
0 989 1593
0 1233 2400
0 1491 3267
0 1254 399
0 1351 1061
0 1515 1717
0 1683 2386
0 1848 3058
0 1878 598
0 1961 1274
0 2034 1835
0 2169 2471
0 2298 3107
2 2502 799
0 2573 1463
0 2557 1983
0 2653 2556
3 2751 3156
532 0 0
670 263 831
717 526 1659
758 817 2565
805 1107 3481
628 620 197
1024 1024 1024
958 1034 1910
947 1170 2768
927 1529 3371
667 1239 394
953 1834 1041
976 1898 1943
980 1930 2755
989 2031 3275
676 1965 625
921 2566 1158
965 2627 1967
998 2721 2814
1036 2574 3297
701 2709 862
860 2837 1462
943 2908 2077
1011 3022 2702
1071 3144 3366
1065 0 0
1327 275 869
1476 552 1739
1620 828 2599
1737 1101 3464
1256 684 217
1873 981 1007
1921 1065 1948
1918 1212 2813
1905 1617 3469
1332 1357 431
1900 1867 1063
2048 2048 2048
2000 2033 2935
2007 2203 3567
1406 2030 646
1851 2615 1183
1981 2861 2044
2021 2927 2967
2067 2861 3589
1478 2704 860
1728 2972 1518
1911 3271 2189
2025 3402 2906
2116 3544 3658
1595 0 0
1980 293 926
2200 577 1815
2387 866 2723
2484 1155 3628
1867 785 249
2633 1013 1050
2761 1139 1967
2864 1277 2909
2763 1739 3648
1994 1477 469
2714 1853 1135
2932 2011 2042
2991 2094 3000
2988 2371 3750
2106 2208 702
2757 2719 1238
2960 2927 2093
3071 3071 3071
3076 3091 3894
2198 2941 938
2588 3164 1607
2852 3468 2313
3026 3784 3090
3113 3897 3937
2125 0 0
2579 312 987
2901 603 1897
3028 903 2839
3226 1207 3789
2437 877 278
2952 1097 1150
3308 1340 2021
3378 1603 2926
3527 1853 3830
2656 1593 505
3162 1855 1328
3544 2105 2168
3694 2329 3051
3783 2537 3940
2736 2384 759
3246 2609 1518
3662 2887 2306
3935 3105 3137
3988 3249 4043
2786 3175 1011
3236 3408 1720
3618 3705 2453
3934 3964 3218
4095 4095 4095
