Examples/Masks limit - Orange.3dl
#25pt 3DLUT created by 3D LUT Creator Pro (c) Oleg Sharonov
#Copyright Oleg Sharonov
0 43 86 128 171 214 256 299 341 384 427 469 512 555 597 640 682 725 768 810 853 896 938 981 1023 
0 0 0
2 1 168
10 4 330
23 10 486
41 20 636
64 33 781
92 50 921
125 69 1054
164 92 1182
208 118 1305
257 147 1421
311 180 1532
370 216 1638
434 255 1738
504 297 1832
579 343 1920
647 385 2015
660 394 2172
672 402 2329
685 411 2486
698 420 2643
711 428 2799
724 437 2956
737 446 3112
750 455 3269
30 146 0
34 159 148
40 170 303
52 178 456
70 188 606
94 201 751
123 215 889
157 233 1022
196 254 1150
240 278 1272
290 306 1388
344 336 1498
404 369 1603
469 406 1702
539 446 1796
615 489 1884
661 518 2003
673 528 2160
685 538 2318
698 548 2475
710 558 2632
722 568 2789
735 577 2946
748 587 3102
761 596 3259
127 247 0
128 272 115
132 303 250
142 329 387
157 349 528
178 367 664
207 385 801
242 405 933
281 427 1060
326 451 1181
376 478 1297
431 507 1406
491 540 1511
557 575 1609
627 614 1702
670 641 1826
681 653 1984
692 665 2143
703 676 2300
715 687 2458
727 698 2616
739 709 2773
751 719 2930
763 730 3087
776 740 3244
296 314 0
296 347 68
291 390 194
299 435 312
312 476 427
331 510 555
352 539 672
381 565 790
421 592 915
466 621 1034
517 650 1149
572 682 1258
633 715 1361
677 744 1483
686 760 1642
696 775 1802
706 789 1961
716 803 2119
727 816 2278
738 828 2436
749 840 2594
760 852 2752
772 863 2910
784 874 3067
796 885 3224
540 351 0
538 386 30
517 440 81
525 494 235
539 554 344
553 609 432
575 658 540
601 702 648
622 738 732
661 774 835
685 805 976
693 831 1135
701 853 1295
709 874 1454
717 893 1614
726 910 1774
735 926 1933
745 941 2092
755 955 2251
765 969 2410
775 982 2569
786 995 2727
797 1007 2885
808 1019 3043
820 1031 3201
822 374 0
817 409 0
809 457 7
781 528 118
781 600 274
776 675 386
767 744 476
759 803 593
755 853 730
743 893 847
725 924 958
727 953 1107
735 979 1265
743 1002 1424
751 1024 1584
759 1043 1743
768 1062 1903
777 1079 2062
786 1095 2221
796 1110 2381
806 1124 2539
816 1138 2698
826 1152 2857
837 1164 3015
848 1177 3173
908 513 0
903 541 14
877 588 38
838 652 82
837 706 301
835 773 423
831 839 541
823 901 634
816 955 750
812 1003 883
808 1044 1018
792 1077 1129
772 1104 1239
779 1130 1394
787 1154 1553
795 1176 1712
803 1196 1871
812 1215 2030
821 1233 2189
830 1250 2349
839 1266 2508
849 1281 2667
858 1295 2825
869 1309 2984
879 1323 3142
970 664 0
965 685 27
943 723 61
910 775 109
880 833 210
893 880 466
890 942 571
887 1003 690
880 1059 787
873 1109 903
869 1155 1034
868 1196 1175
859 1230 1298
842 1259 1410
823 1283 1522
832 1308 1680
840 1330 1838
848 1351 1997
857 1370 2156
866 1389 2315
875 1406 2474
884 1423 2633
894 1439 2792
903 1454 2951
913 1468 3109
1032 812 0
1028 830 37
1007 860 79
980 903 132
944 957 197
941 1002 398
948 1051 598
946 1108 717
943 1164 838
937 1217 938
931 1265 1054
927 1309 1183
925 1349 1322
923 1384 1460
911 1414 1577
893 1440 1687
878 1462 1806
887 1485 1964
895 1507 2122
904 1527 2281
913 1546 2439
922 1564 2598
931 1581 2757
940 1597 2916
950 1613 3074
1094 959 0
1091 973 45
1073 999 93
1048 1036 150
1017 1083 216
981 1136 295
1004 1170 579
1005 1220 737
1003 1273 862
1001 1325 985
995 1375 1087
990 1422 1203
986 1464 1331
985 1503 1467
984 1539 1611
977 1570 1736
965 1597 1854
945 1620 1962
934 1641 2088
943 1663 2245
952 1684 2404
961 1703 2562
970 1722 2721
979 1739 2879
988 1756 3038
1158 1104 0
1155 1116 51
1140 1138 105
1116 1170 164
1089 1211 232
1056 1259 311
1046 1301 480
1065 1336 753
1063 1386 876
1062 1437 1007
1060 1486 1130
1055 1534 1233
1050 1578 1350
1047 1620 1476
1045 1658 1611
1044 1693 1753
1043 1726 1893
1034 1753 2013
1021 1778 2130
997 1800 2232
993 1820 2368
1001 1841 2525
1010 1861 2683
1020 1880 2842
1029 1898 3000
1223 1247 0
1221 1258 56
1207 1276 114
1185 1305 176
1160 1341 246
1130 1384 324
1097 1432 411
1115 1463 673
1125 1501 909
1123 1550 1017
1122 1599 1150
1120 1647 1273
1116 1692 1378
1111 1735 1494
1108 1776 1620
1106 1813 1754
1106 1848 1894
1106 1881 2039
1101 1910 2167
1091 1936 2287
1077 1959 2403
1050 1979 2499
1052 2000 2646
1061 2020 2803
1071 2039 2961
1290 1390 0
1287 1399 60
1275 1416 121
1255 1441 186
1231 1473 257
1204 1512 335
1174 1556 421
1149 1600 542
1181 1626 849
1186 1667 1039
1184 1714 1157
1184 1760 1293
1182 1806 1416
1178 1851 1521
1174 1893 1638
1171 1932 1764
1169 1969 1896
1168 2004 2034
1169 2037 2177
1169 2067 2319
1161 2094 2440
1151 2118 2560
1135 2140 2674
1105 2158 2765
1114 2179 2922
1358 1531 0
1356 1539 63
1345 1554 127
1326 1577 194
1303 1606 266
1278 1642 345
1250 1682 430
1219 1726 522
1228 1757 753
1247 1788 1017
1248 1831 1173
1247 1876 1297
1247 1921 1435
1246 1966 1557
1242 2009 1664
1238 2050 1780
1235 2089 1905
1234 2125 2037
1233 2160 2174
1233 2193 2315
1235 2224 2461
1231 2252 2590
1222 2277 2712
1211 2300 2831
1195 2320 2943
1428 1672 0
1425 1679 65
1415 1692 132
1399 1712 201
1376 1740 274
1352 1772 353
1326 1810 437
1297 1851 528
1265 1895 625
1301 1916 938
1313 1950 1185
1312 1993 1308
1311 2038 1436
1311 2081 1576
1310 2125 1697
1307 2167 1805
1304 2207 1921
1301 2245 2046
1299 2282 2176
1299 2316 2312
1299 2349 2452
1300 2380 2596
1301 2409 2738
1294 2435 2860
1286 2459 2982
1499 1811 0
1497 1818 68
1487 1830 136
1472 1848 207
1451 1873 281
1428 1903 360
1403 1938 444
1375 1976 534
1345 2018 629
1341 2052 814
1371 2076 1110
1380 2111 1337
1377 2155 1444
1377 2198 1575
1378 2241 1716
1377 2284 1837
1374 2325 1945
1371 2365 2061
1368 2402 2185
1367 2438 2315
1366 2472 2449
1366 2505 2588
1367 2536 2730
1369 2566 2876
1367 2593 3007
1571 1950 0
1569 1956 69
1561 1967 140
1546 1983 212
1527 2006 287
1504 2034 366
1480 2067 450
1454 2103 538
1426 2143 633
1396 2185 732
1423 2207 1017
1442 2236 1276
1446 2273 1463
1445 2316 1580
1445 2358 1713
1446 2400 1855
1445 2442 1975
1442 2483 2083
1439 2522 2200
1437 2559 2323
1435 2595 2452
1435 2629 2585
1435 2662 2723
1436 2693 2864
1438 2723 3009
1645 2087 0
1644 2093 71
1636 2103 142
1622 2118 216
1604 2139 291
1581 2166 370
1558 2196 454
1533 2230 542
1506 2268 635
1478 2308 733
1450 2349 844
1499 2364 1196
1513 2395 1440
1514 2434 1593
1513 2476 1716
1514 2518 1851
1515 2559 1993
1514 2600 2112
1512 2640 2221
1509 2679 2337
1507 2716 2460
1506 2751 2588
1505 2786 2721
1505 2818 2857
1506 2849 2998
1721 2224 0
1719 2229 72
1712 2238 145
1699 2253 219
1682 2272 295
1660 2297 375
1638 2326 458
1614 2358 546
1588 2393 638
1560 2432 734
1531 2472 835
1547 2497 1081
1575 2521 1365
1586 2553 1604
1584 2594 1725
1584 2635 1851
1584 2676 1988
1586 2717 2130
1585 2758 2248
1583 2798 2358
1580 2836 2474
1579 2872 2596
1577 2908 2723
1577 2942 2855
1566 2974 2989
1798 2360 0
1797 2365 73
1790 2373 147
1778 2387 222
1762 2405 299
1741 2428 378
1718 2455 461
1695 2486 548
1670 2519 639
1644 2556 734
1616 2595 834
1587 2636 937
1631 2651 1273
1650 2679 1529
1658 2712 1752
1656 2754 1857
1656 2794 1986
1657 2835 2123
1659 2875 2267
1658 2915 2384
1656 2955 2494
1654 2992 2610
1652 3029 2731
1651 3064 2858
1618 3097 2983
1877 2495 0
1876 2499 74
1869 2507 148
1858 2520 224
1842 2537 301
1823 2559 381
1800 2585 463
1778 2613 550
1754 2646 640
1728 2681 734
1701 2718 832
1673 2758 934
1669 2789 1118
1712 2806 1448
1726 2835 1690
1731 2871 1875
1729 2912 1990
1729 2953 2120
1731 2993 2259
1733 3033 2402
1732 3072 2519
1730 3111 2629
1728 3149 2745
1710 3184 2863
1672 3218 2982
1958 2630 0
1956 2634 74
1950 2641 149
1939 2653 226
1925 2669 303
1906 2689 383
1884 2714 466
1861 2741 551
1838 2772 641
1813 2806 734
1787 2842 830
1760 2880 931
1731 2920 1035
1766 2937 1338
1792 2961 1615
1804 2992 1851
1805 3030 2002
1804 3070 2122
1805 3110 2255
1806 3150 2394
1808 3189 2538
1808 3229 2653
1806 3268 2763
1765 3303 2872
1725 3338 2986
2040 2763 0
2039 2767 75
2033 2774 150
2023 2785 227
2009 2800 305
1991 2820 385
1970 2843 467
1946 2869 552
1924 2898 641
1900 2931 733
1874 2965 828
1848 3002 927
1820 3041 1030
1792 3081 1136
1853 3090 1523
1872 3116 1777
1882 3148 2012
1881 3188 2131
1881 3228 2255
1882 3267 2389
1883 3307 2529
1886 3346 2673
1862 3384 2783
1820 3420 2886
1779 3456 2994
2124 2896 0
2122 2899 75
2117 2906 151
2107 2916 228
2094 2931 306
2077 2949 386
2056 2971 468
2033 2997 552
2011 3025 640
1988 3056 732
1963 3089 826
1937 3125 924
1910 3162 1025
1882 3201 1129
1901 3224 1385
1938 3243 1695
1953 3271 1937
1961 3304 2158
1959 3345 2261
1959 3384 2387
1960 3424 2522
1937 3461 2659
1913 3499 2799
1874 3536 2905
1833 3573 3007
2209 3027 0
2208 3031 76
2202 3037 152
2193 3047 229
2180 3061 307
2164 3078 387
2145 3100 469
2122 3124 553
2100 3151 640
2077 3181 730
2052 3213 823
2027 3247 920
2000 3284 1020
1973 3322 1122
1945 3361 1228
1997 3372 1587
2023 3396 1860
2035 3426 2095
2040 3461 2279
2026 3500 2389
1998 3537 2513
1973 3574 2645
1949 3612 2782
1926 3650 2922
1887 3688 3026
169 5 0
174 8 159
182 12 319
194 18 473
211 29 623
232 43 767
259 59 905
291 79 1038
328 103 1165
370 129 1286
417 159 1402
469 192 1512
527 229 1617
589 268 1715
657 311 1808
730 357 1896
790 395 1999
804 403 2157
817 411 2314
831 420 2472
844 428 2629
858 437 2786
872 445 2943
885 453 3099
899 462 3256
177 150 14
171 171 171
201 182 302
218 190 450
236 200 597
258 212 737
283 226 871
316 244 1003
353 266 1130
396 291 1251
444 318 1366
497 349 1476
555 383 1580
618 421 1678
686 461 1770
760 505 1857
799 529 1985
812 539 2144
826 549 2302
839 558 2460
853 567 2617
866 577 2774
880 586 2932
893 595 3089
907 604 3245
264 243 5
263 273 147
272 311 273
295 341 394
315 362 524
337 380 656
361 397 783
392 416 909
432 438 1036
476 463 1156
525 490 1271
579 520 1381
638 553 1484
702 589 1582
771 629 1674
807 652 1807
819 663 1966
832 675 2125
844 686 2284
857 696 2442
870 707 2600
883 717 2758
896 727 2916
909 738 3073
922 748 3230
423 302 0
420 337 92
416 384 232
433 438 341
456 485 440
479 523 559
503 553 668
529 579 777
559 604 884
605 633 1003
656 663 1118
711 695 1227
772 729 1330
809 755 1461
820 771 1621
832 785 1782
844 799 1942
855 812 2101
867 824 2261
879 837 2420
892 848 2578
904 860 2737
916 871 2895
929 881 3053
942 892 3210
653 328 0
645 370 5
634 422 129
639 484 288
660 553 370
685 616 447
711 670 548
740 715 645
767 754 731
794 788 811
805 816 948
817 841 1109
828 863 1270
839 883 1431
850 902 1592
861 919 1753
872 934 1913
883 949 2073
895 963 2233
906 977 2393
918 990 2552
929 1002 2711
941 1014 2869
953 1026 3028
965 1038 3186
830 406 0
824 439 0
823 479 16
835 532 195
870 594 322
881 675 409
882 748 490
881 811 602
882 863 735
876 903 848
865 936 964
851 962 1082
861 987 1240
872 1011 1401
883 1032 1561
893 1051 1722
904 1069 1882
915 1086 2043
925 1102 2203
936 1117 2363
947 1131 2522
958 1145 2681
970 1158 2841
981 1171 2999
993 1184 3158
994 494 0
990 523 0
966 569 8
939 633 98
942 690 326
941 763 448
942 837 552
942 902 640
940 960 753
940 1010 883
938 1052 1012
930 1085 1129
916 1113 1243
907 1137 1370
917 1161 1530
928 1183 1690
938 1203 1850
948 1222 2010
959 1240 2170
969 1257 2330
980 1272 2490
990 1287 2649
1001 1302 2809
1012 1316 2968
1023 1329 3127
1078 635 0
1072 659 14
1043 701 37
1007 759 78
997 812 253
1001 865 491
1001 933 584
1002 998 695
1001 1059 788
999 1112 902
999 1159 1031
1000 1202 1171
993 1237 1291
983 1266 1409
966 1290 1520
963 1313 1657
974 1336 1817
984 1357 1976
994 1376 2136
1004 1395 2296
1014 1412 2456
1025 1429 2615
1035 1444 2775
1046 1459 2934
1057 1474 3093
1145 783 0
1140 802 27
1117 836 59
1084 885 104
1046 944 166
1059 984 422
1062 1038 615
1062 1100 723
1062 1160 839
1060 1216 935
1058 1266 1050
1057 1312 1178
1058 1353 1315
1057 1389 1450
1049 1420 1569
1037 1446 1687
1016 1468 1793
1021 1490 1942
1031 1512 2102
1041 1532 2261
1051 1551 2420
1061 1569 2580
1072 1586 2739
1082 1602 2898
1093 1618 3058
1212 931 0
1208 946 36
1188 974 76
1158 1015 126
1125 1066 188
1104 1116 320
1121 1154 588
1122 1208 746
1122 1265 864
1122 1321 982
1121 1373 1082
1118 1421 1196
1117 1465 1323
1117 1506 1459
1119 1543 1602
1114 1574 1726
1105 1602 1847
1092 1626 1962
1069 1646 2067
1079 1668 2225
1089 1688 2384
1099 1708 2543
1110 1726 2702
1120 1744 2861
1130 1761 3020
1279 1076 0
1275 1088 43
1258 1113 90
1230 1148 143
1201 1193 207
1167 1244 283
1172 1282 506
1183 1322 753
1183 1375 881
1183 1428 1005
1183 1481 1125
1182 1531 1227
1179 1577 1342
1178 1620 1468
1178 1659 1602
1179 1696 1743
1179 1729 1881
1172 1757 2002
1162 1783 2122
1146 1805 2235
1129 1824 2347
1139 1846 2506
1149 1865 2665
1159 1884 2823
1170 1902 2982
