Examples/Masks - 2D - Desaturate.3dl
#25pt 3DLUT created by 3D LUT Creator Pro (c) Oleg Sharonov
#Copyright Oleg Sharonov
#IMAGEPROFILE sRGB IEC61966-2.1 v.2.10
#INPUTGAMMA sRGB IEC61966-2.1 v.2.10
#OUTPUTGAMMA sRGB IEC61966-2.1 v.2.10
0 43 86 128 171 214 256 299 341 384 427 469 512 555 597 640 682 725 768 810 853 896 938 981 1023 
0 0 0
0 46 148
0 89 284
0 134 426
0 180 568
0 224 705
0 268 847
0 314 992
0 359 1130
0 405 1274
0 449 1415
0 494 1559
0 539 1698
0 585 1838
0 630 1980
0 674 2120
0 719 2262
0 765 2403
0 811 2545
0 855 2687
0 899 2826
0 944 2968
0 991 3110
0 1035 3252
0 1080 3394
0 105 33
0 132 150
0 171 273
0 219 417
0 270 569
0 316 717
0 363 870
0 408 1015
0 453 1153
0 499 1296
0 539 1434
0 584 1577
0 628 1715
0 673 1855
0 716 1994
0 760 2134
0 802 2273
0 847 2414
0 892 2556
0 935 2697
0 979 2836
0 1021 2973
0 1067 3116
0 1111 3256
0 1156 3398
0 208 65
0 230 182
0 262 297
0 303 422
0 343 547
0 389 680
0 432 822
0 478 969
0 528 1122
0 578 1276
0 623 1426
0 668 1578
0 717 1733
0 761 1873
0 804 2011
0 845 2148
0 888 2287
0 928 2425
0 973 2566
0 1015 2706
0 1058 2845
0 1099 2981
0 1142 3120
0 1187 3261
0 1231 3402
0 313 98
0 340 224
0 360 327
0 396 448
0 436 573
0 475 696
0 510 813
0 548 934
0 594 1078
0 642 1225
0 690 1375
0 733 1521
0 777 1667
0 825 1817
0 874 1969
0 919 2118
0 964 2271
0 1009 2422
0 1054 2576
0 1097 2717
0 1138 2855
0 1179 2991
0 1220 3127
0 1263 3267
0 1307 3407
0 417 131
0 451 264
0 461 364
0 491 475
0 529 598
0 569 723
0 603 839
0 637 956
0 671 1074
0 710 1195
0 758 1337
0 800 1479
0 843 1621
0 886 1763
0 935 1914
0 979 2060
0 1024 2209
0 1068 2355
0 1113 2506
0 1157 2654
0 1203 2805
0 1247 2955
0 1292 3106
0 1336 3256
0 1384 3410
0 522 165
0 561 300
0 572 409
0 591 507
0 623 625
0 662 747
0 696 865
0 730 982
0 763 1099
0 796 1216
0 833 1338
0 872 1457
0 911 1585
0 953 1725
0 997 1867
0 1043 2013
0 1085 2158
0 1129 2303
0 1172 2447
0 1216 2595
0 1259 2740
0 1304 2890
0 1347 3036
0 1392 3185
0 1435 3332
0 626 199
0 665 334
0 683 451
0 693 548
0 723 656
0 755 773
0 789 890
0 824 1008
0 857 1125
0 889 1242
0 922 1360
0 956 1478
0 989 1593
0 1026 1710
0 1064 1832
0 1107 1973
0 1150 2115
0 1190 2257
0 1233 2400
0 1276 2542
0 1318 2685
0 1361 2831
0 1404 2977
0 1448 3122
0 1491 3267
0 731 232
0 764 363
0 788 488
0 800 590
0 819 685
0 850 800
0 880 914
0 914 1031
0 947 1148
0 980 1266
0 1012 1383
0 1043 1498
0 1076 1613
0 1109 1729
0 1142 1845
0 1179 1963
0 1213 2078
0 1253 2216
0 1293 2356
0 1335 2495
0 1376 2635
0 1417 2777
0 1460 2921
0 1501 3062
0 1543 3206
0 836 265
0 868 394
0 893 522
0 905 628
0 916 723
0 944 827
0 971 938
0 1002 1053
0 1036 1170
0 1070 1287
0 1102 1405
0 1130 1518
0 1161 1632
0 1193 1747
0 1225 1862
0 1259 1980
0 1290 2094
0 1323 2208
0 1358 2326
0 1394 2454
0 1436 2591
0 1475 2730
0 1516 2872
0 1556 3010
0 1597 3150
0 943 298
0 974 427
0 1000 555
0 1011 665
0 1022 764
0 1040 858
0 1066 966
0 1094 1076
0 1126 1193
0 1160 1310
0 1194 1428
0 1222 1541
0 1249 1652
0 1280 1766
0 1312 1881
0 1344 1997
0 1375 2111
0 1404 2224
0 1434 2339
0 1468 2454
0 1500 2569
0 1537 2691
0 1575 2829
0 1615 2967
0 1654 3102
0 1048 332
0 1078 460
0 1109 589
0 1116 700
0 1127 802
0 1138 897
0 1161 993
0 1189 1104
0 1216 1215
0 1250 1333
0 1284 1450
0 1313 1563
0 1339 1674
0 1366 1785
0 1397 1900
0 1429 2016
0 1459 2129
0 1488 2242
0 1517 2354
0 1546 2467
0 1576 2581
0 1609 2696
0 1642 2812
0 1675 2928
0 1712 3061
0 1152 366
0 1181 493
0 1212 622
0 1224 737
0 1231 839
0 1241 935
0 1256 1025
0 1282 1131
0 1309 1242
0 1338 1354
0 1372 1472
0 1401 1585
0 1427 1696
0 1454 1807
0 1480 1918
0 1512 2034
0 1542 2146
0 1571 2258
0 1600 2370
0 1625 2480
0 1655 2594
0 1685 2707
0 1714 2821
0 1748 2937
0 1777 3049
0 1254 399
0 1284 527
0 1313 654
0 1330 775
0 1336 876
0 1344 972
0 1351 1061
0 1375 1158
0 1402 1268
0 1430 1379
0 1459 1493
0 1488 1607
0 1515 1717
0 1541 1828
0 1567 1939
0 1595 2051
0 1625 2164
0 1654 2274
0 1683 2386
0 1708 2497
0 1734 2606
0 1763 2720
0 1792 2832
0 1822 2947
0 1848 3058
0 1357 431
0 1383 555
0 1412 682
0 1433 807
0 1440 912
0 1445 1006
0 1452 1098
0 1467 1190
0 1493 1293
0 1520 1404
0 1548 1515
0 1574 1626
0 1601 1737
0 1627 1847
0 1653 1958
0 1679 2069
0 1706 2179
0 1734 2290
0 1763 2401
0 1788 2511
0 1813 2620
0 1840 2730
0 1869 2843
0 1898 2955
0 1923 3066
0 1461 464
0 1485 586
0 1512 710
0 1537 836
0 1543 946
0 1547 1042
0 1550 1131
0 1558 1222
0 1581 1314
0 1608 1425
0 1636 1536
0 1659 1644
0 1685 1755
0 1711 1865
0 1737 1974
0 1763 2085
0 1787 2193
0 1814 2302
0 1842 2413
0 1866 2521
0 1891 2630
0 1916 2740
0 1943 2851
0 1972 2963
0 1996 3071
0 1565 496
0 1590 618
0 1613 740
0 1642 866
0 1648 980
0 1651 1077
0 1653 1168
0 1657 1257
0 1673 1347
0 1698 1447
0 1725 1558
0 1749 1666
0 1771 1772
0 1797 1883
0 1823 1992
0 1849 2102
0 1872 2210
0 1895 2316
0 1923 2426
0 1947 2534
0 1971 2642
0 1995 2752
0 2019 2861
0 2047 2973
0 2072 3080
0 1670 530
0 1693 651
0 1717 772
0 1741 895
0 1752 1014
0 1754 1112
0 1756 1204
0 1759 1293
0 1765 1380
0 1788 1471
0 1815 1580
0 1838 1688
0 1860 1794
0 1883 1901
0 1908 2010
0 1934 2119
0 1958 2226
0 1981 2332
0 2003 2439
0 2027 2547
0 2051 2654
0 2075 2763
0 2099 2872
0 2123 2981
3 2148 3089
0 1774 564
0 1796 684
0 1819 805
0 1843 926
0 1856 1046
0 1858 1146
0 1858 1238
0 1861 1329
0 1864 1414
0 1879 1503
0 1903 1600
0 1925 1708
0 1947 1815
0 1968 1920
0 1991 2026
0 2017 2136
0 2041 2243
0 2063 2349
0 2086 2454
0 2106 2558
0 2130 2666
0 2153 2774
0 2177 2883
0 2201 2992
0 2221 3097
0 1878 598
0 1901 718
0 1923 838
0 1946 959
0 1961 1078
0 1961 1180
0 1961 1274
0 1963 1365
0 1966 1452
0 1970 1535
0 1992 1626
0 2013 1729
0 2034 1835
0 2055 1940
0 2076 2045
0 2100 2152
0 2124 2259
0 2147 2365
0 2169 2471
0 2188 2573
0 2209 2677
0 2232 2785
0 2255 2893
0 2279 3002
0 2298 3107
0 1982 630
0 2001 748
0 2024 868
0 2046 987
0 2065 1107
0 2063 1211
0 2063 1307
0 2065 1399
0 2068 1488
0 2072 1573
0 2083 1658
0 2102 1749
0 2122 1855
0 2142 1961
0 2163 2065
0 2184 2170
0 2207 2276
0 2230 2382
0 2252 2488
0 2271 2590
0 2290 2691
0 2311 2797
0 2334 2904
0 2357 3012
0 2376 3117
0 2085 663
0 2103 779
0 2124 898
0 2146 1016
0 2169 1135
0 2166 1243
0 2163 1337
0 2164 1431
0 2166 1521
0 2170 1608
0 2174 1691
0 2188 1775
0 2207 1874
0 2227 1979
0 2248 2084
0 2269 2188
0 2287 2290
0 2310 2396
0 2332 2501
0 2351 2603
0 2370 2704
0 2388 2807
0 2410 2914
0 2433 3021
0 2451 3125
0 2188 695
0 2206 812
0 2225 928
0 2246 1046
0 2268 1164
0 2270 1274
0 2265 1369
0 2263 1462
0 2265 1553
0 2268 1641
0 2271 1726
0 2277 1808
0 2291 1892
0 2311 1997
0 2332 2102
0 2354 2206
0 2371 2307
0 2389 2408
0 2411 2514
0 2430 2616
0 2449 2717
0 2467 2820
0 2486 2923
0 2508 3030
3 2527 3133
0 2292 729
0 2308 842
0 2326 958
0 2345 1075
0 2368 1193
0 2373 1302
0 2368 1401
0 2363 1493
0 2364 1585
0 2366 1675
0 2368 1760
0 2367 1840
0 2379 1923
0 2396 2015
0 2417 2119
0 2438 2224
0 2456 2325
0 2472 2425
0 2491 2527
0 2510 2629
0 2528 2730
0 2547 2832
0 2564 2935
0 2584 3039
0 2601 3142
0 2396 763
0 2411 874
0 2428 988
0 2446 1104
0 2466 1221
0 2476 1331
0 2470 1431
0 2465 1525
0 2462 1614
0 2464 1705
0 2465 1791
0 2463 1873
0 2468 1954
0 2480 2034
0 2500 2136
0 2521 2240
0 2539 2342
0 2555 2441
0 2571 2541
0 2587 2640
0 2606 2741
0 2624 2844
0 2642 2946
0 2660 3049
0 2675 3149
2 2502 799
2 2516 910
2 2531 1019
2 2549 1135
3 2568 1250
0 2579 1361
0 2573 1463
3 2568 1556
0 2563 1645
0 2562 1734
0 2562 1821
3 2560 1904
0 2557 1983
0 2569 2064
0 2582 2151
0 2603 2256
0 2620 2357
0 2637 2457
0 2653 2556
6 2667 2652
3 2684 2752
3 2702 2854
3 2720 2957
7 2738 3060
3 2751 3156
89 0 0
107 42 136
101 84 269
96 132 418
99 180 568
102 229 722
103 271 857
104 317 1001
107 364 1147
109 409 1286
111 454 1432
111 498 1572
114 544 1713
115 590 1856
118 636 1999
119 681 2142
121 727 2284
123 773 2426
127 818 2569
128 863 2712
128 907 2853
132 954 2997
134 1001 3141
134 1044 3281
134 1089 3423
103 101 31
171 171 171
153 170 316
141 194 458
134 228 603
131 266 748
127 305 893
124 348 1042
124 392 1192
124 438 1340
124 479 1487
124 525 1639
126 568 1780
126 612 1921
128 655 2064
129 699 2205
131 741 2348
132 785 2490
135 830 2633
136 873 2775
136 916 2915
139 959 3056
141 1005 3200
141 1049 3339
138 1162 3435
102 194 60
154 300 170
154 310 319
144 315 455
137 340 593
134 373 735
130 406 873
127 442 1014
127 484 1160
127 527 1308
126 568 1453
125 609 1600
126 653 1748
126 698 1896
128 744 2047
129 787 2195
131 832 2345
132 875 2495
135 921 2643
136 962 2783
136 1005 2924
139 1046 3064
141 1089 3205
141 1132 3343
138 1239 3439
97 304 95
143 418 191
144 426 323
144 445 467
139 458 600
137 481 732
133 508 861
130 539 996
130 576 1137
129 616 1280
129 657 1424
127 694 1565
129 734 1709
128 778 1855
130 823 2005
129 865 2151
131 907 2297
132 950 2444
135 993 2593
136 1037 2742
136 1081 2891
139 1124 3040
141 1168 3189
141 1213 3338
138 1316 3443
96 417 131
136 532 219
139 541 346
138 556 475
139 580 616
138 598 749
135 618 874
132 641 996
132 670 1120
132 706 1259
131 746 1400
130 782 1539
132 820 1680
131 858 1820
133 903 1968
133 944 2112
134 985 2256
135 1026 2400
138 1068 2547
138 1109 2692
138 1152 2839
141 1195 2988
143 1238 3134
142 1280 3278
138 1372 3377
98 535 170
134 650 252
137 659 378
138 669 497
138 693 631
141 722 771
139 738 897
138 758 1021
139 783 1144
138 807 1266
138 840 1391
136 876 1525
138 912 1662
137 948 1799
139 988 1941
139 1029 2084
140 1067 2226
141 1107 2368
144 1148 2509
144 1189 2654
144 1228 2796
147 1271 2944
148 1312 3089
148 1353 3231
145 1435 3321
99 640 204
130 763 286
133 772 411
135 782 529
136 800 650
139 827 784
139 853 916
138 870 1040
139 892 1163
140 916 1286
139 940 1407
138 968 1528
140 999 1649
139 1033 1778
141 1072 1918
141 1110 2056
142 1147 2195
143 1184 2334
146 1223 2475
146 1262 2615
146 1301 2756
149 1342 2900
150 1382 3044
150 1422 3184
148 1495 3269
99 746 237
127 872 316
131 882 443
134 893 561
135 905 676
138 932 803
138 955 929
139 981 1059
140 1001 1183
141 1023 1305
142 1046 1427
141 1069 1546
142 1096 1665
142 1124 1784
144 1156 1906
144 1190 2032
145 1225 2167
146 1261 2304
149 1298 2442
149 1336 2581
149 1373 2718
152 1412 2860
153 1451 3001
152 1488 3138
150 1553 3217
101 856 271
125 985 349
129 991 474
131 1001 593
133 1012 707
137 1032 822
137 1054 946
137 1079 1071
140 1107 1200
141 1128 1323
141 1150 1445
141 1171 1564
143 1193 1680
143 1220 1799
145 1249 1920
145 1277 2040
147 1308 2159
148 1338 2277
150 1374 2414
150 1409 2549
151 1446 2685
154 1483 2824
155 1521 2964
154 1557 3097
152 1612 3170
101 962 304
123 1099 383
127 1103 507
130 1112 626
133 1124 741
137 1138 853
137 1160 969
137 1183 1091
140 1210 1217
142 1238 1345
143 1260 1467
142 1280 1586
145 1300 1702
145 1323 1819
148 1351 1940
147 1378 2059
149 1405 2177
150 1431 2293
153 1461 2410
153 1491 2528
153 1524 2659
156 1561 2796
157 1596 2933
157 1631 3066
155 1677 3132
102 1070 339
122 1213 417
126 1215 542
128 1220 657
132 1232 774
136 1246 886
136 1260 990
136 1283 1111
139 1308 1233
141 1336 1359
142 1365 1485
142 1383 1605
145 1403 1721
145 1422 1837
148 1447 1957
148 1474 2075
150 1500 2192
151 1525 2308
154 1551 2424
154 1576 2539
154 1606 2656
158 1637 2774
159 1670 2903
158 1703 3035
157 1738 3096
