Examples/MaskToImage - Blue-Orange Toning.3dl
#25pt 3DLUT created by 3D LUT Creator Pro (c) Oleg Sharonov
#Copyright Oleg Sharonov
#IMAGEPROFILE sRGB IEC61966-2.1 v.2.10
#INPUTGAMMA sRGB IEC61966-2.1 v.2.10
#OUTPUTGAMMA sRGB IEC61966-2.1 v.2.10
0 43 86 128 171 214 256 299 341 384 427 469 512 555 597 640 682 725 768 810 853 896 938 981 1023 
0 0 0
0 0 194
0 0 367
0 0 539
0 0 710
0 0 880
0 0 1051
0 0 1221
0 0 1391
0 0 1561
0 0 1731
0 0 1900
0 0 2069
0 0 2239
0 0 2408
0 0 2577
0 0 2746
0 0 2915
0 0 3084
0 0 3253
0 0 3422
0 0 3590
0 0 3759
0 0 3927
0 0 4095
14 95 14
4 84 216
0 81 386
0 79 553
0 77 722
0 77 890
0 77 1059
0 77 1228
0 77 1397
0 77 1566
0 77 1735
0 77 1904
0 77 2073
0 75 2242
0 75 2411
0 75 2580
0 75 2749
0 75 2917
0 75 3086
0 75 3255
0 75 3423
0 75 3592
0 75 3760
0 77 3928
5 84 4095
31 206 31
13 185 240
7 175 405
4 170 570
0 166 735
0 166 902
0 165 1069
0 165 1236
0 165 1404
0 165 1573
0 165 1741
0 165 1909
0 165 2078
0 163 2246
0 163 2415
0 163 2583
0 163 2752
0 161 2920
0 161 3089
0 161 3257
0 161 3426
0 163 3594
0 166 3762
5 170 3930
13 179 4095
49 347 49
25 307 269
14 287 432
7 276 593
4 269 754
2 265 918
2 263 1083
0 261 1249
0 261 1415
0 261 1582
0 261 1749
0 260 1917
0 260 2085
0 260 2252
0 260 2420
0 260 2588
0 260 2757
0 260 2925
0 260 3093
0 260 3261
0 261 3429
4 265 3597
7 269 3765
14 276 3932
24 285 4095
69 494 69
40 447 300
24 419 461
14 398 616
9 385 776
5 378 938
4 373 1100
4 371 1264
2 369 1429
2 367 1595
2 365 1761
2 365 1927
0 365 2094
0 365 2261
0 365 2428
2 365 2595
2 365 2763
2 365 2930
4 367 3098
5 369 3266
7 373 3433
11 376 3601
18 382 3768
27 391 3935
40 403 4095
87 641 87
52 589 323
33 553 484
20 527 640
14 513 799
11 503 960
7 495 1121
5 489 1283
4 486 1446
4 485 1610
4 483 1774
4 481 1940
4 480 2105
4 480 2271
4 480 2438
4 480 2604
5 481 2771
7 483 2938
9 485 3105
13 488 3272
16 491 3439
24 497 3606
33 503 3773
43 513 3940
60 525 4095
90 784 90
60 730 336
40 693 502
27 666 662
20 648 823
14 635 984
11 625 1143
9 618 1304
7 613 1465
5 610 1628
5 606 1791
5 605 1954
5 604 2119
5 604 2284
7 604 2449
9 604 2615
11 605 2781
13 606 2947
16 609 3113
22 611 3279
29 616 3446
38 622 3612
49 629 3779
65 638 3945
87 650 4095
87 925 87
61 878 340
45 843 514
33 815 681
25 795 845
18 779 1006
14 766 1165
13 756 1325
9 750 1485
9 745 1646
7 741 1808
7 738 1970
9 736 2134
9 735 2298
11 735 2462
13 735 2627
16 736 2792
20 737 2957
25 740 3122
33 743 3288
42 747 3454
54 753 3619
71 760 3785
90 770 3951
115 782 4095
78 1071 78
61 1033 339
47 1001 522
38 974 696
29 952 863
24 933 1025
18 918 1186
14 906 1345
13 897 1505
13 890 1665
11 884 1826
11 881 1987
13 878 2149
14 876 2312
16 874 2476
20 874 2639
24 875 2803
29 877 2968
36 878 3133
47 882 3297
60 886 3462
74 892 3627
94 899 3792
117 908 3957
144 920 4095
71 1224 71
58 1194 334
49 1168 524
40 1142 704
33 1118 876
27 1097 1041
22 1080 1203
18 1066 1363
16 1054 1523
14 1045 1683
14 1038 1843
14 1033 2004
16 1029 2165
18 1026 2327
22 1024 2490
27 1024 2652
33 1024 2816
40 1024 2979
51 1026 3143
63 1029 3307
78 1033 3471
97 1038 3636
120 1046 3800
145 1055 3964
172 1066 4095
63 1385 63
56 1364 329
49 1341 523
42 1316 707
34 1292 882
29 1270 1051
25 1251 1216
22 1235 1377
20 1222 1538
18 1211 1699
18 1202 1859
20 1196 2019
22 1190 2180
25 1186 2342
29 1183 2503
34 1182 2665
43 1181 2828
52 1181 2991
65 1182 3154
81 1185 3317
101 1188 3480
122 1193 3644
145 1200 3807
171 1208 3971
200 1219 4095
56 1555 56
52 1537 322
47 1518 517
42 1496 704
36 1472 883
31 1450 1056
27 1431 1223
25 1413 1387
24 1399 1550
24 1386 1711
24 1376 1872
25 1368 2033
27 1361 2193
33 1355 2354
38 1352 2516
45 1349 2677
56 1347 2839
67 1347 3001
83 1347 3164
103 1349 3327
123 1352 3489
147 1356 3652
171 1362 3815
198 1370 3977
228 1380 4095
51 1728 51
47 1714 312
43 1698 508
40 1678 697
36 1657 879
33 1636 1055
31 1616 1225
29 1599 1392
27 1583 1557
27 1569 1720
29 1558 1882
31 1548 2043
34 1540 2204
40 1534 2365
49 1529 2526
58 1525 2688
71 1522 2849
85 1521 3011
104 1520 3173
125 1521 3335
145 1524 3497
170 1527 3659
196 1532 3822
225 1539 3983
257 1548 4095
45 1905 45
43 1893 302
42 1880 498
40 1863 688
36 1845 872
34 1826 1050
33 1807 1223
33 1790 1392
31 1774 1559
33 1760 1724
34 1747 1887
38 1737 2049
43 1727 2211
51 1720 2373
60 1714 2534
72 1709 2696
87 1706 2857
104 1703 3019
125 1702 3181
145 1702 3342
169 1704 3504
194 1706 3666
222 1711 3827
252 1717 3989
284 1725 4095
43 2084 43
42 2075 293
40 2064 487
38 2051 676
38 2035 861
36 2018 1041
36 2001 1216
36 1985 1388
38 1970 1557
40 1955 1723
43 1943 1888
49 1932 2052
54 1922 2215
63 1914 2377
76 1907 2539
90 1901 2701
106 1897 2863
125 1894 3024
145 1892 3186
168 1891 3347
192 1891 3509
219 1893 3670
247 1897 3831
278 1902 3992
312 1908 4095
42 2267 42
42 2260 284
42 2251 476
40 2240 664
40 2227 849
40 2213 1029
40 2198 1206
42 2184 1379
45 2169 1550
49 2156 1718
52 2144 1885
60 2132 2050
69 2122 2214
80 2114 2378
94 2106 2540
109 2100 2703
127 2095 2865
147 2091 3027
168 2088 3189
191 2087 3350
216 2087 3511
243 2088 3673
273 2090 3834
305 2094 3994
340 2100 4095
43 2454 43
43 2448 279
43 2441 467
45 2432 653
45 2422 837
47 2410 1017
49 2397 1194
51 2385 1368
54 2372 1540
60 2360 1710
67 2348 1878
74 2337 2044
85 2328 2210
99 2319 2374
114 2312 2538
130 2305 2701
149 2300 2864
169 2295 3026
190 2292 3188
214 2290 3350
241 2289 3511
268 2289 3673
299 2290 3834
331 2293 3994
367 2298 4095
51 2644 51
51 2639 276
52 2634 459
52 2627 643
54 2618 825
56 2609 1004
60 2598 1181
63 2588 1355
69 2577 1528
76 2566 1699
83 2556 1868
94 2546 2035
106 2537 2202
120 2528 2367
135 2521 2532
152 2515 2695
171 2509 2859
191 2504 3022
213 2501 3185
238 2498 3347
265 2496 3509
292 2496 3670
324 2497 3831
357 2499 3991
394 2502 4095
63 2837 63
63 2834 276
65 2830 454
65 2824 635
69 2817 814
71 2810 991
76 2801 1167
80 2793 1342
87 2784 1514
96 2774 1685
104 2766 1855
115 2757 2023
127 2749 2190
141 2741 2357
157 2735 2522
175 2728 2687
193 2723 2851
214 2718 3015
236 2715 3178
261 2712 3341
287 2710 3503
316 2709 3665
347 2709 3826
381 2710 3987
418 2713 4095
80 3035 80
81 3032 280
81 3029 452
85 3024 628
87 3019 804
90 3013 980
96 3007 1155
101 3000 1328
109 2992 1500
117 2985 1671
126 2978 1841
137 2970 2009
149 2964 2177
163 2957 2344
179 2951 2510
195 2946 2675
214 2941 2840
234 2936 3005
257 2933 3168
281 2930 3332
308 2928 3495
337 2926 3657
369 2926 3819
403 2926 3980
440 2928 4095
101 3236 101
103 3233 286
103 3231 452
106 3228 624
108 3224 797
112 3220 970
117 3214 1142
122 3209 1314
129 3203 1486
137 3198 1656
147 3192 1825
157 3186 1994
169 3181 2162
182 3176 2329
197 3171 2496
213 3166 2662
232 3162 2827
252 3158 2992
274 3155 3157
297 3152 3320
324 3150 3484
352 3149 3647
383 3148 3809
417 3148 3971
455 3149 4095
120 3441 120
120 3439 293
122 3438 453
123 3435 620
126 3432 790
129 3429 960
133 3426 1131
139 3422 1301
144 3418 1471
152 3413 1641
161 3409 1810
170 3405 1978
181 3401 2146
194 3397 2313
208 3393 2480
224 3389 2646
241 3386 2812
260 3383 2978
281 3381 3143
304 3378 3307
329 3377 3471
356 3375 3635
387 3374 3798
421 3374 3961
458 3374 4095
127 3652 127
127 3650 294
129 3649 450
130 3648 614
132 3646 781
135 3643 950
137 3641 1118
141 3638 1287
147 3635 1456
153 3633 1625
161 3630 1793
169 3627 1961
178 3624 2129
189 3622 2296
201 3619 2463
215 3617 2629
231 3615 2796
248 3613 2962
267 3611 3127
289 3609 3293
312 3608 3458
339 3607 3622
368 3606 3786
401 3606 3950
437 3606 4095
106 3869 106
106 3868 277
106 3867 435
106 3866 598
106 3865 765
106 3863 932
108 3862 1101
111 3861 1269
112 3859 1437
117 3858 1605
122 3856 1774
127 3855 1941
133 3853 2109
141 3852 2276
151 3851 2444
162 3850 2610
174 3849 2777
188 3848 2944
203 3847 3111
223 3846 3277
243 3846 3443
268 3845 3608
295 3845 3774
325 3844 3939
361 3844 4095
0 4095 0
0 4095 201
0 4094 380
0 4094 555
0 4093 727
0 4092 899
0 4092 1070
0 4092 1239
0 4091 1409
0 4091 1578
0 4091 1747
0 4091 1915
0 4091 2084
0 4091 2252
0 4091 2420
0 4091 2587
0 4092 2755
0 4092 2923
0 4092 3091
0 4093 3258
0 4093 3426
0 4094 3593
0 4094 3761
0 4095 3928
0 4095 4095
238 0 0
104 5 198
81 0 386
79 0 553
77 0 722
77 0 890
77 0 1059
77 0 1228
77 0 1397
77 0 1566
77 0 1735
77 0 1904
77 0 2073
75 0 2242
75 0 2411
75 0 2580
75 0 2749
75 0 2917
75 0 3086
75 0 3255
75 0 3423
75 0 3592
75 0 3760
77 0 3928
84 5 4095
232 138 0
113 104 214
84 84 401
81 81 566
79 79 732
79 79 899
79 79 1066
77 77 1234
77 77 1403
77 77 1571
77 77 1739
77 77 1908
77 77 2077
77 77 2245
77 77 2414
75 75 2582
75 75 2751
75 75 2920
75 75 3088
75 75 3257
75 75 3425
75 75 3593
77 77 3761
82 82 3929
90 90 4095
124 222 42
100 194 258
91 181 420
86 174 582
82 170 745
81 168 910
79 166 1076
79 166 1243
79 165 1410
79 165 1577
79 165 1745
79 165 1913
77 165 2081
77 165 2249
77 165 2418
77 165 2586
77 163 2754
77 163 2923
75 163 3091
77 163 3259
77 165 3427
79 166 3595
82 170 3763
88 175 3931
97 185 4095
144 361 60
113 317 283
99 294 444
91 279 602
86 272 762
82 269 926
82 265 1090
81 263 1255
81 263 1420
79 261 1587
79 261 1754
79 261 1921
79 261 2088
79 261 2255
79 261 2423
79 260 2591
79 261 2759
79 261 2927
79 261 3095
81 263 3263
82 265 3430
86 267 3598
90 272 3766
97 279 3933
109 290 4095
164 506 78
128 456 310
109 425 470
97 403 624
90 389 783
86 382 945
84 376 1107
82 373 1270
82 369 1434
81 369 1599
81 367 1765
81 367 1931
81 365 2097
81 365 2264
81 365 2431
81 367 2598
82 367 2765
82 367 2933
84 369 3100
86 371 3267
90 374 3435
93 380 3602
100 387 3770
111 396 3937
124 409 4095
178 648 92
138 594 329
117 558 490
104 531 646
95 515 806
91 506 966
88 497 1127
86 492 1288
84 488 1451
84 485 1614
82 483 1778
82 481 1943
82 481 2109
82 481 2274
84 481 2440
84 481 2607
86 483 2773
88 485 2940
90 486 3107
93 489 3274
99 494 3441
106 498 3607
115 507 3774
128 517 3941
146 528 4095
181 788 94
146 735 340
124 697 507
109 669 668
102 651 829
95 637 989
91 627 1148
90 621 1309
88 615 1470
86 611 1632
86 607 1794
86 606 1958
86 605 2122
86 604 2287
88 604 2452
88 605 2617
91 606 2783
93 607 2949
97 610 3115
102 613 3281
109 617 3447
120 623 3614
133 631 3780
149 641 3946
171 654 4095
174 929 89
147 882 343
129 847 518
117 819 685
108 798 850
100 781 1010
95 769 1170
93 758 1329
90 751 1489
90 746 1650
88 742 1811
88 739 1974
88 737 2137
90 736 2300
91 736 2464
93 736 2629
97 737 2794
100 738 2959
108 741 3124
115 745 3290
124 748 3455
137 755 3621
153 763 3786
174 772 3952
198 784 4095
165 1075 80
147 1036 341
133 1005 525
120 978 700
111 954 867
106 935 1029
100 920 1190
97 908 1349
93 899 1508
91 892 1668
91 886 1829
91 882 1990
93 879 2152
93 877 2315
97 876 2478
100 875 2641
104 876 2805
109 878 2970
118 880 3134
128 883 3299
140 887 3464
156 894 3629
178 901 3794
201 910 3958
226 922 4095
156 1227 71
144 1198 336
133 1172 527
124 1145 707
115 1121 879
109 1099 1044
104 1082 1206
100 1068 1366
97 1056 1526
95 1047 1686
95 1040 1846
95 1034 2007
97 1030 2168
99 1027 2330
102 1026 2492
108 1024 2655
113 1024 2818
120 1026 2981
131 1027 3145
144 1030 3309
160 1034 3473
181 1040 3637
203 1048 3801
227 1056 3965
253 1068 4095
147 1389 63
140 1367 331
133 1344 525
126 1319 709
118 1295 885
111 1273 1054
108 1254 1218
104 1237 1381
100 1224 1541
100 1213 1701
99 1204 1862
100 1197 2022
102 1191 2183
106 1188 2344
109 1184 2505
117 1183 2667
124 1182 2830
135 1182 2992
147 1183 3155
164 1186 3319
183 1189 3482
204 1195 3645
227 1202 3809
253 1210 3972
282 1221 4095
