Examples/Masks - Desaturate Highlights.3dl
#25pt 3DLUT created by 3D LUT Creator Pro (c) Oleg Sharonov
#Copyright Oleg Sharonov
#IMAGEPROFILE sRGB IEC61966-2.1 v.2.10
#INPUTGAMMA sRGB IEC61966-2.1 v.2.10
#OUTPUTGAMMA sRGB IEC61966-2.1 v.2.10
0 43 86 128 171 214 256 299 341 384 427 469 512 555 597 640 682 725 768 810 853 896 938 981 1023 
0 0 0
0 0 171
0 0 341
0 0 512
0 0 683
0 0 853
0 0 1024
0 0 1194
0 0 1365
0 0 1536
0 0 1706
0 0 1877
0 0 2048
0 0 2218
0 0 2389
0 0 2559
0 0 2730
0 0 2901
0 0 3071
0 0 3242
0 0 3412
0 0 3583
0 0 3754
0 0 3924
0 0 4095
0 171 0
0 171 171
0 171 341
0 171 512
0 171 683
0 171 853
0 171 1024
0 171 1194
0 171 1365
0 171 1536
0 171 1706
0 171 1877
0 171 2048
0 171 2218
0 171 2389
0 171 2559
0 171 2730
0 171 2901
0 171 3071
0 171 3242
0 171 3412
0 171 3583
0 171 3754
0 171 3924
0 171 4095
0 341 0
0 341 171
0 341 341
0 341 512
0 341 683
0 341 853
0 341 1024
0 341 1194
0 341 1365
0 341 1536
0 341 1706
0 341 1877
0 341 2048
0 341 2218
0 341 2389
0 341 2559
0 341 2730
0 341 2901
0 341 3071
0 341 3242
0 341 3412
0 341 3583
0 341 3754
0 341 3924
0 341 4095
0 512 0
0 512 171
0 512 341
0 512 512
0 512 683
0 512 853
0 512 1024
0 512 1194
0 512 1365
0 512 1536
0 512 1706
0 512 1877
0 512 2048
0 512 2218
0 512 2389
0 512 2559
0 512 2730
0 512 2901
0 512 3071
0 512 3242
0 512 3412
0 512 3583
0 512 3754
0 512 3924
0 512 4095
0 683 0
0 683 171
0 683 341
0 683 512
0 683 683
0 683 853
0 683 1024
0 683 1194
0 683 1365
0 683 1536
0 683 1706
0 683 1877
0 683 2048
0 683 2218
0 683 2389
0 683 2559
0 683 2730
0 683 2901
0 683 3071
0 683 3242
0 683 3412
0 683 3583
0 683 3754
0 683 3924
0 683 4095
0 853 0
0 853 171
0 853 341
0 853 512
0 853 683
0 853 853
0 853 1024
0 853 1194
0 853 1365
0 853 1536
0 853 1706
0 853 1877
0 853 2048
0 853 2218
0 853 2389
0 853 2559
0 853 2730
0 853 2901
0 853 3071
0 853 3242
0 853 3412
0 853 3583
0 853 3754
0 853 3924
0 853 4095
0 1024 0
0 1024 171
0 1024 341
0 1024 512
0 1024 683
0 1024 853
0 1024 1024
0 1024 1194
0 1024 1365
0 1024 1536
0 1024 1706
0 1024 1877
0 1024 2048
0 1024 2218
0 1024 2389
0 1024 2559
0 1024 2730
0 1024 2901
0 1024 3071
0 1024 3242
0 1024 3412
0 1024 3583
0 1024 3754
0 1024 3924
0 1024 4095
0 1194 0
0 1194 171
0 1194 341
0 1194 512
0 1194 683
0 1194 853
0 1194 1024
0 1194 1194
0 1194 1365
0 1194 1536
0 1194 1706
0 1194 1877
0 1194 2048
0 1194 2218
0 1194 2389
0 1194 2559
0 1194 2730
0 1194 2901
0 1194 3071
0 1194 3242
0 1194 3412
0 1194 3583
0 1194 3754
0 1194 3924
0 1194 4095
0 1365 0
0 1365 171
0 1365 341
0 1365 512
0 1365 683
0 1365 853
0 1365 1024
0 1365 1194
0 1365 1365
0 1365 1536
0 1365 1706
0 1365 1877
0 1365 2048
0 1365 2218
0 1365 2389
0 1365 2559
0 1365 2730
0 1365 2901
0 1365 3071
0 1365 3242
0 1365 3412
0 1365 3583
0 1365 3754
0 1365 3924
0 1365 4095
0 1536 0
0 1536 171
0 1536 341
0 1536 512
0 1536 683
0 1536 853
0 1536 1024
0 1536 1194
0 1536 1365
0 1536 1536
0 1536 1706
0 1536 1877
0 1536 2048
0 1536 2218
0 1536 2389
0 1536 2559
0 1536 2730
0 1536 2901
0 1536 3071
0 1536 3242
0 1536 3412
0 1536 3583
0 1536 3754
0 1536 3924
0 1536 4095
0 1706 0
0 1706 171
0 1706 341
0 1706 512
0 1706 683
0 1706 853
0 1706 1024
0 1706 1194
0 1706 1365
0 1706 1536
0 1706 1706
0 1706 1877
0 1706 2048
0 1706 2218
0 1706 2389
0 1706 2559
0 1706 2730
0 1706 2901
0 1706 3071
0 1706 3242
0 1706 3412
0 1706 3583
0 1706 3754
0 1706 3924
0 1706 4095
0 1877 0
0 1877 171
0 1877 341
0 1877 512
0 1877 683
0 1877 853
0 1877 1024
0 1877 1194
0 1877 1365
0 1877 1536
0 1877 1706
0 1877 1877
0 1877 2048
0 1877 2218
0 1877 2389
0 1877 2559
0 1877 2730
0 1877 2901
0 1877 3071
0 1877 3242
0 1877 3412
0 1877 3583
0 1877 3754
0 1877 3924
0 1877 4095
0 2048 0
0 2048 171
0 2048 341
0 2048 512
0 2048 683
0 2048 853
0 2048 1024
0 2048 1194
0 2048 1365
0 2048 1536
0 2048 1706
0 2048 1877
0 2048 2048
0 2048 2218
0 2048 2389
0 2048 2559
0 2048 2730
0 2048 2901
0 2048 3071
0 2048 3242
0 2048 3412
0 2048 3583
0 2048 3754
0 2048 3924
0 2048 4095
0 2218 0
0 2218 171
0 2218 341
0 2218 512
0 2218 683
0 2218 853
0 2218 1024
0 2218 1194
0 2218 1365
0 2218 1536
0 2218 1706
0 2218 1877
0 2218 2048
0 2218 2218
0 2218 2389
0 2218 2559
0 2218 2730
0 2218 2901
0 2218 3071
0 2218 3242
0 2218 3412
0 2218 3583
0 2218 3754
0 2218 3924
0 2218 4095
0 2389 0
0 2389 171
0 2389 341
0 2389 512
0 2389 683
0 2389 853
0 2389 1024
0 2389 1194
0 2389 1365
0 2389 1536
0 2389 1706
0 2389 1877
0 2389 2048
0 2389 2218
0 2389 2389
0 2389 2559
0 2389 2730
0 2389 2901
0 2389 3071
0 2389 3242
0 2389 3412
0 2389 3583
0 2389 3754
0 2389 3924
19 2396 4091
0 2559 0
0 2559 171
0 2559 341
0 2559 512
0 2559 683
0 2559 853
0 2559 1024
0 2559 1194
0 2559 1365
0 2559 1536
0 2559 1706
0 2559 1877
0 2559 2048
0 2559 2218
0 2559 2389
0 2559 2559
1 2559 2730
21 2562 2898
43 2565 3066
68 2571 3233
95 2579 3398
125 2589 3563
158 2601 3726
193 2615 3888
230 2632 4049
17 2712 12
18 2712 181
20 2711 350
22 2711 520
25 2710 690
29 2709 860
35 2708 1030
42 2707 1199
51 2707 1369
61 2707 1539
72 2708 1708
86 2709 1877
101 2712 2046
118 2715 2214
137 2720 2381
158 2726 2548
181 2733 2714
206 2742 2880
234 2752 3044
263 2764 3208
295 2777 3370
329 2793 3531
365 2810 3691
404 2829 3850
445 2851 4008
118 2777 79
120 2779 239
124 2780 400
129 2783 562
137 2786 725
146 2790 889
157 2794 1053
170 2800 1218
185 2806 1383
202 2813 1549
220 2821 1715
240 2830 1880
261 2840 2045
285 2851 2210
310 2862 2375
336 2875 2538
365 2889 2701
395 2904 2863
427 2921 3024
461 2939 3184
497 2958 3343
535 2979 3501
575 3001 3658
618 3026 3813
663 3053 3968
229 2831 156
233 2834 306
238 2838 458
246 2843 612
257 2849 767
271 2858 925
287 2867 1083
305 2878 1243
326 2891 1403
348 2904 1564
373 2919 1726
399 2935 1887
426 2951 2049
455 2969 2210
486 2988 2371
518 3007 2531
552 3028 2690
587 3049 2849
623 3072 3006
662 3096 3162
702 3121 3318
745 3147 3472
789 3176 3625
836 3206 3777
885 3237 3928
350 2874 241
355 2878 382
362 2883 525
372 2891 670
386 2900 818
404 2912 968
424 2926 1120
447 2943 1274
473 2961 1429
501 2980 1585
530 3001 1742
562 3023 1899
595 3047 2056
630 3071 2214
666 3096 2370
703 3122 2527
742 3149 2682
782 3177 2836
823 3206 2990
866 3235 3143
911 3266 3294
957 3298 3444
1006 3332 3594
1056 3368 3742
1109 3405 3890
481 2906 335
487 2911 466
495 2917 599
508 2927 736
524 2939 875
545 2954 1018
569 2972 1163
596 2993 1311
626 3016 1460
659 3041 1611
694 3068 1763
730 3097 1915
768 3126 2068
808 3157 2221
849 3188 2374
892 3220 2525
935 3253 2677
980 3287 2827
1026 3322 2976
1073 3357 3125
1122 3394 3272
1173 3432 3419
1225 3471 3564
1280 3512 3709
1337 3555 3853
622 2926 437
629 2932 559
638 2940 683
652 2951 810
670 2965 941
694 2984 1076
721 3005 1214
752 3030 1355
786 3058 1498
823 3088 1643
862 3120 1789
903 3154 1936
946 3189 2084
991 3226 2232
1037 3263 2380
1084 3302 2528
1132 3340 2674
1181 3380 2820
1231 3420 2965
1283 3462 3110
1336 3504 3253
1391 3547 3395
1448 3592 3537
1507 3639 3678
1568 3687 3818
772 2935 548
779 2941 660
790 2950 774
805 2963 892
825 2979 1015
850 3000 1141
880 3025 1271
914 3054 1405
952 3085 1541
993 3120 1680
1036 3157 1821
1082 3196 1962
1129 3237 2105
1178 3279 2248
1228 3322 2391
1279 3366 2533
1332 3410 2675
1385 3456 2817
1440 3502 2957
1496 3549 3097
1554 3597 3236
1613 3646 3374
1674 3696 3511
1737 3748 3648
1802 3802 3784
931 2932 668
939 2939 769
950 2948 874
966 2962 982
988 2981 1096
1015 3004 1214
1047 3032 1336
1084 3064 1462
1124 3099 1592
1169 3138 1724
1216 3180 1858
1265 3224 1994
1317 3269 2131
1369 3317 2268
1424 3365 2406
1479 3414 2543
1536 3464 2680
1593 3515 2816
1652 3566 2952
1712 3618 3087
1774 3672 3221
1837 3726 3355
1902 3782 3488
1969 3840 3621
2039 3899 3753
1099 2917 795
1107 2925 887
1119 2935 981
1136 2950 1081
1159 2970 1185
1187 2995 1294
1221 3025 1408
1260 3060 1527
1304 3099 1648
1351 3142 1773
1401 3188 1901
1454 3236 2030
1509 3286 2161
1565 3338 2293
1623 3391 2424
1683 3445 2556
1743 3501 2688
1805 3556 2819
1868 3613 2950
1932 3671 3080
1997 3730 3210
2065 3790 3339
2134 3851 3467
2205 3914 3595
2278 3979 3723
171 0 0
171 0 171
171 0 341
171 0 512
171 0 683
171 0 853
171 0 1024
171 0 1194
171 0 1365
171 0 1536
171 0 1706
171 0 1877
171 0 2048
171 0 2218
171 0 2389
171 0 2559
171 0 2730
171 0 2901
171 0 3071
171 0 3242
171 0 3412
171 0 3583
171 0 3754
171 0 3924
171 0 4095
171 171 0
171 171 171
171 171 341
171 171 512
171 171 683
171 171 853
171 171 1024
171 171 1194
171 171 1365
171 171 1536
171 171 1706
171 171 1877
171 171 2048
171 171 2218
171 171 2389
171 171 2559
171 171 2730
171 171 2901
171 171 3071
171 171 3242
171 171 3412
171 171 3583
171 171 3754
171 171 3924
171 171 4095
171 341 0
171 341 171
171 341 341
171 341 512
171 341 683
171 341 853
171 341 1024
171 341 1194
171 341 1365
171 341 1536
171 341 1706
171 341 1877
171 341 2048
171 341 2218
171 341 2389
171 341 2559
171 341 2730
171 341 2901
171 341 3071
171 341 3242
171 341 3412
171 341 3583
171 341 3754
171 341 3924
171 341 4095
171 512 0
171 512 171
171 512 341
171 512 512
171 512 683
171 512 853
171 512 1024
171 512 1194
171 512 1365
171 512 1536
171 512 1706
171 512 1877
171 512 2048
171 512 2218
171 512 2389
171 512 2559
171 512 2730
171 512 2901
171 512 3071
171 512 3242
171 512 3412
171 512 3583
171 512 3754
171 512 3924
171 512 4095
171 683 0
171 683 171
171 683 341
171 683 512
171 683 683
171 683 853
171 683 1024
171 683 1194
171 683 1365
171 683 1536
171 683 1706
171 683 1877
171 683 2048
171 683 2218
171 683 2389
171 683 2559
171 683 2730
171 683 2901
171 683 3071
171 683 3242
171 683 3412
171 683 3583
171 683 3754
171 683 3924
171 683 4095
171 853 0
171 853 171
171 853 341
171 853 512
171 853 683
171 853 853
171 853 1024
171 853 1194
171 853 1365
171 853 1536
171 853 1706
171 853 1877
171 853 2048
171 853 2218
171 853 2389
171 853 2559
171 853 2730
171 853 2901
171 853 3071
171 853 3242
171 853 3412
171 853 3583
171 853 3754
171 853 3924
171 853 4095
171 1024 0
171 1024 171
171 1024 341
171 1024 512
171 1024 683
171 1024 853
171 1024 1024
171 1024 1194
171 1024 1365
171 1024 1536
171 1024 1706
171 1024 1877
171 1024 2048
171 1024 2218
171 1024 2389
171 1024 2559
171 1024 2730
171 1024 2901
171 1024 3071
171 1024 3242
171 1024 3412
171 1024 3583
171 1024 3754
171 1024 3924
171 1024 4095
171 1194 0
171 1194 171
171 1194 341
171 1194 512
171 1194 683
171 1194 853
171 1194 1024
171 1194 1194
171 1194 1365
171 1194 1536
171 1194 1706
171 1194 1877
171 1194 2048
171 1194 2218
171 1194 2389
171 1194 2559
171 1194 2730
171 1194 2901
171 1194 3071
171 1194 3242
171 1194 3412
171 1194 3583
171 1194 3754
171 1194 3924
171 1194 4095
171 1365 0
171 1365 171
171 1365 341
171 1365 512
171 1365 683
171 1365 853
171 1365 1024
171 1365 1194
171 1365 1365
171 1365 1536
171 1365 1706
171 1365 1877
171 1365 2048
171 1365 2218
171 1365 2389
171 1365 2559
171 1365 2730
171 1365 2901
171 1365 3071
171 1365 3242
171 1365 3412
171 1365 3583
171 1365 3754
171 1365 3924
171 1365 4095
171 1536 0
171 1536 171
171 1536 341
171 1536 512
171 1536 683
171 1536 853
171 1536 1024
171 1536 1194
171 1536 1365
171 1536 1536
171 1536 1706
171 1536 1877
171 1536 2048
171 1536 2218
171 1536 2389
171 1536 2559
171 1536 2730
171 1536 2901
171 1536 3071
171 1536 3242
171 1536 3412
171 1536 3583
171 1536 3754
171 1536 3924
171 1536 4095
171 1706 0
171 1706 171
171 1706 341
171 1706 512
171 1706 683
171 1706 853
171 1706 1024
171 1706 1194
171 1706 1365
171 1706 1536
171 1706 1706
171 1706 1877
171 1706 2048
171 1706 2218
171 1706 2389
171 1706 2559
171 1706 2730
171 1706 2901
171 1706 3071
171 1706 3242
171 1706 3412
171 1706 3583
171 1706 3754
171 1706 3924
171 1706 4095
