Examples/Masks - Channels - Anti green.3dl
#25pt 3DLUT created by 3D LUT Creator Pro (c) Oleg Sharonov
#Copyright Oleg Sharonov
0 128 256 384 512 640 768 896 1023
0 0 0
0 0 423
0 0 845
0 0 1268
0 0 1691
0 0 2114
0 0 2536
0 0 2959
0 0 3382
58 664 735
28 533 578
4 398 795
0 412 1235
0 417 1667
0 419 2095
0 420 2522
0 421 2947
0 421 3371
203 1283 1402
195 1231 1352
102 1059 1136
32 948 1367
0 803 1606
0 819 2048
0 828 2484
0 833 2916
0 836 3345
379 1902 2069
374 1870 2038
350 1778 1929
197 1586 1694
81 1474 1897
70 1317 2163
0 1209 2417
0 1226 2861
0 1237 3299
556 2520 2736
552 2498 2715
542 2440 2660
473 2304 2455
293 2113 2251
149 1991 2417
97 1885 2722
87 1588 2849
0 1614 3229
732 3138 3403
729 3121 3387
722 3078 3346
709 3000 3271
586 2829 2988
389 2639 2809
225 2511 2947
145 2419 3260
136 2258 3521
907 3756 4070
906 3743 4057
901 3709 4025
890 3648 3967
865 3548 3856
695 3354 3527
486 3166 3367
307 3033 3484
194 2946 3794
1083 4095 4095
1081 4095 4095
1078 4095 4095
1070 4095 4095
1055 4095 4095
983 4068 4013
800 3879 3877
582 3692 3884
392 3556 4027
1259 4095 4095
1257 4095 4095
1254 4095 4095
1248 4095 4095
1236 4095 4095
1221 4095 4095
1099 4095 4005
903 4095 3975
678 4095 4095
512 0 0
512 0 512
448 0 896
434 0 1301
429 0 1715
426 0 2132
425 0 2551
424 0 2971
424 0 3392
500 641 649
512 512 512
495 423 845
423 423 1268
423 423 1691
423 423 2114
423 423 2536
423 423 2959
423 423 3382
461 1285 1385
472 1230 1330
506 1055 1116
520 945 1357
416 813 1626
413 826 2065
416 833 2498
418 836 2927
419 839 3355
512 1907 2066
508 1875 2035
499 1791 1955
495 1589 1692
523 1475 1899
540 1312 2151
405 1215 2429
410 1231 2871
414 1241 3308
653 2523 2734
650 2501 2713
643 2444 2658
620 2314 2476
569 2115 2250
533 1994 2421
548 1883 2719
537 1593 2834
405 1619 3237
807 3141 3401
805 3124 3385
799 3081 3344
788 3003 3269
735 2835 2999
651 2641 2808
584 2513 2948
554 2420 3261
580 2256 3515
969 3759 4069
967 3745 4056
962 3712 4024
953 3651 3965
938 3556 3875
846 3358 3534
737 3167 3366
647 3034 3485
592 2947 3795
1134 4095 4095
1132 4095 4095
1127 4095 4095
1121 4095 4095
1108 4095 4095
1065 4071 4024
955 3882 3881
826 3693 3884
717 3557 4027
1302 4095 4095
1300 4095 4095
1298 4095 4095
1291 4095 4095
1280 4095 4095
1266 4095 4095
1189 4095 4010
1061 4095 3976
917 4095 4095
1024 0 0
1024 0 512
1024 0 1024
924 0 1385
888 0 1776
871 0 2179
863 0 2588
858 0 3002
854 0 3418
1024 512 0
1024 512 512
1024 512 1024
966 455 1364
878 439 1756
865 432 2162
858 429 2575
854 427 2990
852 426 3408
1006 1243 1258
1010 1185 1197
1024 1024 1024
1028 949 1351
971 845 1691
845 845 2114
845 845 2536
845 845 2959
845 845 3382
972 1891 2007
977 1857 1973
991 1768 1884
1019 1570 1639
1030 1469 1880
1038 1300 2110
854 1231 2462
829 1243 2900
833 1250 3333
919 2527 2717
925 2504 2695
940 2444 2636
966 2331 2522
1011 2107 2225
1031 1992 2415
1043 1879 2705
1020 1606 2811
815 1630 3259
971 3149 3397
969 3132 3381
965 3089 3340
957 3010 3266
953 2852 3033
1000 2641 2801
1031 2512 2943
1047 2416 3251
1063 2251 3501
1107 3764 4066
1104 3751 4053
1101 3718 4020
1093 3657 3962
1082 3562 3872
1060 3369 3553
1038 3170 3364
1029 3036 3485
1050 2946 3791
1250 4095 4095
1250 4095 4095
1245 4095 4095
1241 4095 4095
1229 4095 4095
1212 4081 4054
1165 3889 3892
1114 3696 3884
1075 3559 4026
1404 4095 4095
1402 4095 4095
1398 4095 4095
1393 4095 4095
1383 4095 4095
1371 4095 4095
1333 4095 4023
1266 4095 3980
1194 4095 4095
1536 0 0
1536 0 512
1536 0 1024
1536 0 1536
1444 0 1884
1357 0 2262
1328 0 2655
1310 0 3057
1299 0 3464
1536 512 0
1536 512 512
1536 512 1024
1536 512 1536
1466 468 1872
1349 450 2249
1322 441 2643
1306 435 3047
1296 432 3455
1534 1055 221
1535 1031 551
1536 1024 1024
1536 1024 1536
1501 917 1833
1425 884 2211
1305 870 2610
1293 862 3018
1286 858 3431
1510 1844 1865
1513 1809 1828
1521 1717 1730
1536 1536 1536
1539 1474 1882
1524 1329 2114
1441 1268 2536
1268 1268 2959
1268 1268 3382
1478 2495 2623
1482 2471 2599
1491 2410 2538
1505 2296 2423
1531 2084 2158
1541 1986 2397
1548 1876 2686
1509 1635 2861
1313 1651 3303
1435 3135 3344
1439 3117 3327
1447 3072 3283
1463 2990 3201
1487 2855 3054
1524 2624 2752
1541 2507 2929
1551 2411 3234
1561 2243 3475
1376 3769 4050
1380 3756 4036
1389 3721 4002
1406 3657 3940
1429 3558 3843
1471 3375 3567
1516 3160 3334
1541 3028 3464
1553 2941 3776
1432 4095 4095
1432 4095 4095
1428 4095 4095
1424 4095 4095
1416 4095 4095
1406 4095 4095
1450 3901 3915
1505 3694 3884
1538 3554 4012
1563 4095 4095
1563 4095 4095
1559 4095 4095
1556 4095 4095
1548 4095 4095
1538 4095 4095
1525 4095 4049
1516 4095 3987
1510 4095 4095
2047 0 0
2047 0 512
2047 0 1024
2047 0 1536
2047 0 2047
1964 0 2387
1837 0 2755
1794 0 3140
1767 0 3534
2047 512 0
2047 512 512
2047 512 1024
2047 512 1536
2047 512 2047
1975 476 2380
1831 458 2746
1789 447 3131
1763 441 3526
2047 1024 0
2047 1024 512
2047 1024 1024
2047 1024 1536
2047 1024 2047
1995 943 2358
1912 907 2721
1775 888 3107
1752 876 3504
2043 1626 627
2044 1602 869
2047 1552 1095
2048 1536 1536
2048 1536 2047
2027 1401 2301
1979 1333 2665
1886 1310 3057
1730 1298 3461
2014 2445 2473
2016 2421 2447
2022 2358 2381
2032 2241 2255
2048 2048 2048
2051 1991 2401
2055 1887 2680
2005 1691 2959
1909 1691 3382
1984 3098 3237
1987 3080 3218
1993 3035 3172
2003 2951 3087
2019 2819 2953
2043 2597 2674
2052 2501 2911
2058 2408 3218
2065 2236 3424
1945 3740 3966
1948 3727 3953
1954 3691 3917
1964 3627 3853
1981 3527 3754
2004 3375 3582
2037 3139 3275
2052 3021 3443
2060 2934 3756
1895 4095 4095
1898 4095 4095
1903 4095 4095
1915 4095 4095
1931 4095 4095
1954 4094 4095
1991 3895 3960
2030 3677 3862
2051 3544 3984
1832 4095 4095
1835 4095 4095
1842 4095 4095
1854 4095 4095
1871 4095 4095
1894 4095 4095
1924 4095 4095
1976 4095 4000
2021 4095 4095
2559 0 0
2559 0 512
2559 0 1024
2559 0 1536
2559 0 2047
2559 0 2559
2479 0 2893
2324 0 3253
2269 0 3630
2559 512 0
2559 512 512
2559 512 1024
2559 512 1536
2559 512 2047
2559 512 2559
2485 481 2888
2365 464 3247
2265 453 3623
2559 1024 0
2559 1024 512
2559 1024 1024
2559 1024 1536
2559 1024 2047
2559 1024 2559
2498 958 2874
2414 923 3229
2253 901 3605
2559 1543 71
2559 1537 521
2559 1536 1024
2559 1536 1536
2559 1536 2047
2559 1536 2559
2519 1421 2842
2461 1368 3192
2361 1338 3569
2550 2211 1121
2551 2190 1319
2554 2141 1466
2558 2070 1627
2559 2047 2047
2559 2047 2559
2551 1949 2769
2515 1782 3119
2454 1752 3504
2518 3046 3081
2520 3028 3061
2524 2982 3012
2532 2896 2920
2544 2761 2776
2559 2559 2559
2563 2505 2917
2567 2420 3231
2550 2272 3382
2489 3700 3848
2491 3686 3834
2496 3650 3797
2503 3585 3730
2515 3484 3627
2531 3338 3478
2555 3110 3189
2564 3015 3425
2569 2931 3740
2454 4095 4095
2455 4095 4095
2460 4095 4095
2468 4095 4095
2480 4095 4095
2496 4059 4095
2519 3894 4059
2550 3653 3795
2564 3534 3957
2409 4095 4095
2411 4095 4095
2415 4095 4095
2423 4095 4095
2435 4095 4095
2453 4095 4095
2474 4095 4095
2508 4095 4023
2543 4095 4095
3071 0 0
3071 0 512
3071 0 1024
3071 0 1536
3071 0 2047
3071 0 2559
3071 0 3071
2993 0 3400
2880 0 3754
3071 512 0
3071 512 512
3071 512 1024
3071 512 1536
3071 512 2047
3071 512 2559
3071 512 3071
2997 485 3397
2895 469 3749
3071 1024 0
3071 1024 512
3071 1024 1024
3071 1024 1536
3071 1024 2047
3071 1024 2559
3071 1024 3071
3005 968 3387
2922 934 3736
3071 1536 0
3071 1536 512
3071 1536 1024
3071 1536 1536
3071 1536 2047
3071 1536 2559
3071 1536 3071
3020 1443 3366
2955 1391 3710
3070 2089 341
3070 2079 719
3071 2058 1083
3071 2048 1536
3071 2047 2047
3071 2047 2559
3071 2047 3071
3040 1900 3326
2994 1831 3662
3056 2803 1665
3057 2786 1833
3060 2744 1950
3064 2673 2033
3070 2586 2152
3071 2559 2559
3071 2559 3071
3074 2469 3323
3046 2338 3572
3022 3648 3688
3024 3633 3673
3027 3597 3634
3033 3530 3563
3043 3427 3453
3055 3278 3294
3071 3071 3071
3075 3019 3431
3079 2944 3760
2994 4095 4095
2995 4095 4095
2999 4095 4095
3006 4095 4095
3015 4095 4095
3028 4012 4095
3044 3856 4000
3067 3622 3704
3075 3529 3938
2960 4095 4095
2961 4095 4095
2965 4095 4095
2971 4095 4095
2981 4095 4095
2994 4095 4095
3010 4095 4095
3032 4095 4074
3061 4095 4095
3583 0 0
3583 0 512
3583 0 1024
3583 0 1536
3583 0 2047
3583 0 2559
3583 0 3071
3583 0 3583
3505 0 3909
3583 512 0
3583 512 512
3583 512 1024
3583 512 1536
3583 512 2047
3583 512 2559
3583 512 3071
3583 512 3583
3508 488 3906
3583 1024 0
3583 1024 512
3583 1024 1024
3583 1024 1536
3583 1024 2047
3583 1024 2559
3583 1024 3071
3583 1024 3583
3514 975 3899
3583 1536 0
3583 1536 512
3583 1536 1024
3583 1536 1536
3583 1536 2047
3583 1536 2559
3583 1536 3071
3583 1536 3583
3525 1457 3884
3583 2048 0
3583 2048 512
3583 2048 1024
3583 2047 1536
3583 2047 2047
3583 2047 2559
3583 2047 3071
3583 2047 3583
3539 1929 3858
3579 2651 707
3579 2640 1037
3581 2616 1335
3582 2580 1635
3583 2559 2048
3583 2559 2559
3583 2559 3071
3583 2559 3583
3560 2429 3809
3561 3400 2241
3562 3386 2386
3565 3351 2486
3569 3289 2545
3575 3201 2584
3581 3102 2674
3583 3071 3071
3583 3071 3583
3587 2989 3864
3527 4095 4095
3528 4095 4095
3531 4095 4095
3536 4095 4095
3543 4071 4095
3553 3953 3981
3567 3794 3810
3583 3583 3583
3586 3532 3945
3499 4095 4095
3500 4095 4095
3503 4095 4095
3508 4095 4095
3516 4095 4095
3526 4095 4095
3539 4095 4095
3556 4095 4095
3579 4095 4095
4095 0 0
4095 0 512
4095 0 1024
4095 0 1536
4095 0 2047
4095 0 2559
4095 0 3071
4095 0 3583
4095 0 4095
4095 512 0
4095 512 512
4095 512 1024
4095 512 1536
4095 512 2047
4095 512 2559
4095 512 3071
4095 512 3583
4095 512 4095
4095 1024 0
4095 1024 512
4095 1024 1024
4095 1024 1536
4095 1024 2047
4095 1024 2559
4095 1024 3071
4095 1024 3583
4095 1024 4095
4095 1536 0
4095 1536 512
4095 1536 1024
4095 1536 1536
4095 1536 2047
4095 1536 2559
4095 1536 3071
4095 1536 3583
4095 1536 4095
4095 2048 0
4095 2048 512
4095 2047 1024
4095 2047 1536
4095 2047 2047
4095 2047 2559
4095 2047 3071
4095 2047 3583
4095 2047 4095
4094 2578 177
4095 2573 620
4095 2564 1052
4095 2559 1536
4095 2559 2047
4095 2559 2559
4095 2559 3071
4095 2559 3583
4095 2559 4095
4087 3223 1137
4088 3213 1431
4089 3189 1688
4091 3149 1924
4094 3101 2178
4095 3071 2559
4095 3071 3071
4095 3071 3583
4095 3071 4095
4067 3939 2838
4067 3935 2964
4070 3927 3052
4073 3905 3101
4079 3827 3118
4086 3725 3125
4093 3616 3193
4095 3583 3583
4095 3583 4095
4031 4095 4095
4032 4095 4095
4034 4095 4095
4039 4095 4095
4045 4095 4095
4053 4095 4095
4064 4095 4095
4078 4095 4095
4095 4095 4095
