Examples/Masks limit - Orange.3dl
#25pt 3DLUT created by 3D LUT Creator Pro (c) Oleg Sharonov
#Copyright Oleg Sharonov
0 256 512 768 1023
0 0 0
92 50 921
370 216 1638
672 402 2329
750 455 3269
908 513 0
831 839 541
772 1104 1239
821 1233 2189
879 1323 3142
1290 1390 0
1174 1556 421
1182 1806 1416
1169 2037 2177
1114 2179 2922
1721 2224 0
1638 2326 458
1575 2521 1365
1585 2758 2248
1566 2974 2989
2209 3027 0
2145 3100 469
2000 3284 1020
2040 3461 2279
1887 3688 3026
998 332 0
1089 391 683
1376 469 1269
1531 485 2221
1644 520 3173
1092 783 494
1024 1024 1024
1537 1237 1377
1673 1329 2179
1727 1379 3033
1865 1338 0
1802 1500 733
1835 1819 1515
1958 2079 2180
2008 2229 2945
2414 2115 0
2310 2250 352
2284 2459 1451
2322 2742 2257
2377 2987 2962
2945 2899 0
2868 2991 384
2697 3219 888
2764 3401 2313
2611 3666 3005
1996 804 0
2016 707 427
2158 750 1470
2383 704 2269
2516 637 3053
2025 1190 0
2007 1295 733
2161 1454 1551
2459 1506 2248
2629 1517 3037
2145 1703 851
2127 1778 1332
2048 2048 2048
2551 2239 2416
2813 2370 3092
2841 2243 323
2830 2315 974
2762 2540 1855
2851 2829 2535
3082 3072 3113
3500 2907 0
3427 3009 312
3384 3167 1502
3360 3417 2490
3250 3703 3173
3011 1001 0
3013 925 474
3046 921 1451
3204 941 2376
3399 901 3172
3018 1545 0
3016 1533 368
3039 1639 1511
3218 1715 2366
3459 1727 3123
3070 2014 321
3063 2081 977
3032 2258 1868
3193 2437 2582
3528 2542 3193
3199 2618 1191
3196 2639 1673
3151 2809 2293
3071 3071 3071
3576 3256 3436
3831 3151 947
3855 3165 1400
3835 3316 2075
3763 3567 2905
3738 3843 3553
4025 1209 0
4024 1149 503
4048 1050 1180
4076 1151 2433
4095 1119 3287
4024 1837 0
4023 1803 412
4039 1760 1057
4058 1922 2447
4095 1923 3249
4056 2348 0
4053 2368 348
4033 2481 1552
4062 2631 2567
4095 2720 3330
4095 2894 909
4095 2931 1387
4092 3060 2074
4056 3261 2919
4095 3445 3605
4095 3525 1544
4095 3523 2029
4095 3631 2595
4095 3834 3294
4095 4095 4095
