Examples/Masks - Desaturate Highlights.3dl
#25pt 3DLUT created by 3D LUT Creator Pro (c) Oleg Sharonov
#Copyright Oleg Sharonov
#IMAGEPROFILE sRGB IEC61966-2.1 v.2.10
#INPUTGAMMA sRGB IEC61966-2.1 v.2.10
#OUTPUTGAMMA sRGB IEC61966-2.1 v.2.10
0 128 256 384 512 640 768 896 1023
0 0 0
0 0 512
0 0 1024
0 0 1536
0 0 2048
0 0 2559
0 0 3071
0 0 3583
0 0 4095
0 512 0
0 512 512
0 512 1024
0 512 1536
0 512 2048
0 512 2559
0 512 3071
0 512 3583
0 512 4095
0 1024 0
0 1024 512
0 1024 1024
0 1024 1536
0 1024 2048
0 1024 2559
0 1024 3071
0 1024 3583
0 1024 4095
0 1536 0
0 1536 512
0 1536 1024
0 1536 1536
0 1536 2048
0 1536 2559
0 1536 3071
0 1536 3583
0 1536 4095
0 2048 0
0 2048 512
0 2048 1024
0 2048 1536
0 2048 2048
0 2048 2559
0 2048 3071
0 2048 3583
0 2048 4095
0 2559 0
0 2559 512
0 2559 1024
0 2559 1536
0 2559 2048
0 2559 2559
43 2565 3066
125 2589 3563
230 2632 4049
229 2831 156
246 2843 612
287 2867 1083
348 2904 1564
426 2951 2049
518 3007 2531
623 3072 3006
745 3147 3472
885 3237 3928
622 2926 437
652 2951 810
721 3005 1214
823 3088 1643
946 3189 2084
1084 3302 2528
1231 3420 2965
1391 3547 3395
1568 3687 3818
1099 2917 795
1136 2950 1081
1221 3025 1408
1351 3142 1773
1509 3286 2161
1683 3445 2556
1868 3613 2950
2065 3790 3339
2278 3979 3723
512 0 0
512 0 512
512 0 1024
512 0 1536
512 0 2048
512 0 2559
512 0 3071
512 0 3583
512 0 4095
512 512 0
512 512 512
512 512 1024
512 512 1536
512 512 2048
512 512 2559
512 512 3071
512 512 3583
512 512 4095
512 1024 0
512 1024 512
512 1024 1024
512 1024 1536
512 1024 2048
512 1024 2559
512 1024 3071
512 1024 3583
512 1024 4095
512 1536 0
512 1536 512
512 1536 1024
512 1536 1536
512 1536 2048
512 1536 2559
512 1536 3071
512 1536 3583
512 1536 4095
512 2048 0
512 2048 512
512 2048 1024
512 2048 1536
512 2048 2048
512 2048 2559
512 2048 3071
512 2048 3583
512 2048 4095
512 2559 0
512 2559 512
512 2559 1024
512 2559 1536
512 2559 2048
513 2559 2559
565 2568 3064
637 2594 3560
731 2639 4045
681 2824 164
698 2836 618
737 2862 1087
795 2900 1567
869 2949 2050
955 3007 2531
1054 3073 3005
1166 3150 3470
1297 3242 3925
981 2921 448
1010 2946 818
1077 3001 1220
1176 3084 1647
1296 3187 2087
1428 3300 2529
1569 3420 2966
1722 3548 3394
1890 3689 3816
1364 2914 807
1400 2947 1091
1484 3022 1416
1610 3139 1779
1764 3284 2165
1933 3444 2559
2112 3612 2951
2303 3790 3339
2509 3980 3722
1024 0 0
1024 0 512
1024 0 1024
1024 0 1536
1024 0 2048
1024 0 2559
1024 0 3071
1024 0 3583
1024 0 4095
1024 512 0
1024 512 512
1024 512 1024
1024 512 1536
1024 512 2048
1024 512 2559
1024 512 3071
1024 512 3583
1024 512 4095
1024 1024 0
1024 1024 512
1024 1024 1024
1024 1024 1536
1024 1024 2048
1024 1024 2559
1024 1024 3071
1024 1024 3583
1024 1024 4095
1024 1536 0
1024 1536 512
1024 1536 1024
1024 1536 1536
1024 1536 2048
1024 1536 2559
1024 1536 3071
1024 1536 3583
1024 1536 4095
1024 2048 0
1024 2048 512
1024 2048 1024
1024 2048 1536
1024 2048 2048
1024 2048 2559
1024 2048 3071
1024 2048 3583
1024 2048 4095
1024 2559 0
1024 2559 512
1024 2559 1024
1024 2559 1536
1029 2558 2047
1060 2561 2556
1107 2577 3057
1173 2609 3550
1258 2660 4033
1139 2803 189
1156 2816 636
1195 2844 1099
1253 2887 1574
1326 2941 2054
1409 3004 2531
1503 3075 3002
1610 3158 3464
1732 3255 3916
1352 2906 478
1380 2931 842
1446 2987 1237
1543 3073 1659
1660 3178 2095
1789 3295 2533
1925 3419 2966
2072 3551 3391
2233 3696 3810
1644 2902 841
1679 2935 1118
1761 3011 1437
1885 3128 1795
2035 3275 2176
2201 3437 2565
2375 3608 2954
2560 3788 3338
2760 3982 3719
1536 0 0
1536 0 512
1536 0 1024
1536 0 1536
1536 0 2048
1536 0 2559
1536 0 3071
1536 0 3583
1536 0 4095
1536 512 0
1536 512 512
1536 512 1024
1536 512 1536
1536 512 2048
1536 512 2559
1536 512 3071
1536 512 3583
1536 512 4095
1536 1024 0
1536 1024 512
1536 1024 1024
1536 1024 1536
1536 1024 2048
1536 1024 2559
1536 1024 3071
1536 1024 3583
1536 1024 4095
1536 1536 0
1536 1536 512
1536 1536 1024
1536 1536 1536
1536 1536 2048
1536 1536 2559
1536 1536 3071
1536 1536 3583
1536 1536 4095
1536 2048 0
1536 2048 512
1536 2048 1024
1536 2048 1536
1536 2048 2048
1536 2048 2559
1536 2048 3071
1536 2048 3583
1536 2048 4095
1536 2551 7
1537 2550 517
1541 2547 1029
1552 2545 1539
1573 2550 2047
1606 2565 2551
1652 2593 3047
1714 2635 3535
1793 2695 4013
1591 2773 233
1609 2787 668
1649 2819 1121
1708 2868 1588
1781 2930 2061
1864 3001 2533
1956 3081 2998
2059 3171 3455
2177 3276 3902
1723 2884 530
1751 2910 883
1815 2967 1268
1911 3056 1681
2026 3166 2109
2153 3288 2540
2286 3417 2967
2429 3556 3387
2586 3708 3801
1930 2886 898
1964 2919 1165
2043 2995 1475
2164 3113 1823
2311 3262 2196
2473 3427 2578
2644 3602 2960
2825 3788 3339
3020 3987 3714
2048 0 0
2048 0 512
2048 0 1024
2048 0 1536
2048 0 2048
2048 0 2559
2048 0 3071
2048 0 3583
2048 0 4095
2048 512 0
2048 512 512
2048 512 1024
2048 512 1536
2048 512 2048
2048 512 2559
2048 512 3071
2048 512 3583
2048 512 4095
2048 1024 0
2048 1024 512
2048 1024 1024
2048 1024 1536
2048 1024 2048
2048 1024 2559
2048 1024 3071
2048 1024 3583
2048 1024 4095
2048 1536 0
2048 1536 512
2048 1536 1024
2048 1536 1536
2048 1536 2048
2048 1536 2559
2048 1536 3071
2048 1536 3583
2048 1536 4095
2048 2048 0
2048 2048 512
2048 2048 1024
2048 2048 1536
2048 2048 2048
2048 2048 2559
2048 2048 3071
2048 2048 3583
2050 2050 4094
2034 2502 58
2038 2505 551
2049 2511 1049
2068 2523 1550
2096 2544 2050
2133 2574 2546
2182 2616 3036
2243 2672 3517
2319 2745 3988
2026 2738 300
2044 2754 717
2085 2791 1156
2147 2847 1611
2223 2918 2075
2307 3000 2538
2399 3091 2995
2500 3192 3444
2615 3308 3884
2085 2860 607
2112 2886 944
2175 2945 1315
2269 3037 1715
2383 3152 2131
2508 3281 2552
2640 3418 2971
2781 3565 3383
2935 3726 3790
2210 2868 982
2243 2901 1235
2320 2977 1530
2437 3097 1865
2582 3247 2226
2740 3416 2597
2909 3597 2970
3087 3789 3341
3279 3995 3710
2559 0 0
2559 0 512
2559 0 1024
2559 0 1536
2559 0 2048
2559 0 2559
2559 0 3071
2559 0 3583
2559 0 4095
2559 512 0
2559 512 512
2559 512 1024
2559 512 1536
2559 512 2048
2559 512 2559
2559 512 3071
2559 512 3583
2559 512 4095
2559 1024 0
2559 1024 512
2559 1024 1024
2559 1024 1536
2559 1024 2048
2559 1024 2559
2559 1024 3071
2559 1024 3583
2559 1024 4095
2559 1536 0
2559 1536 512
2559 1536 1024
2559 1536 1536
2559 1536 2048
2559 1536 2559
2559 1536 3071
2559 1536 3583
2559 1536 4095
2559 2048 0
2559 2048 512
2559 2048 1024
2559 2048 1536
2559 2048 2048
2559 2048 2559
2566 2056 3069
2591 2090 3567
2632 2145 4055
2495 2456 134
2503 2463 604
2521 2479 1084
2548 2505 1571
2584 2542 2060
2629 2590 2546
2681 2648 3026
2745 2720 3497
2821 2810 3959
2433 2705 391
2452 2723 788
2495 2764 1208
2559 2829 1647
2637 2910 2097
2724 3004 2548
2817 3106 2994
2919 3221 3433
3033 3350 3865
2426 2837 711
2453 2864 1028
2514 2925 1380
2606 3020 1763
2719 3141 2164
2844 3276 2572
2975 3423 2979
3115 3580 3381
3268 3752 3779
2477 2853 1095
2509 2886 1329
2582 2962 1606
2696 3082 1924
2836 3234 2268
2992 3407 2625
3158 3594 2986
3334 3793 3346
3525 4009 3706
3071 0 0
3071 0 512
3071 0 1024
3071 0 1536
3071 0 2048
3071 0 2559
3071 0 3071
3071 0 3583
3071 0 4095
3071 512 0
3071 512 512
3071 512 1024
3071 512 1536
3071 512 2048
3071 512 2559
3071 512 3071
3071 512 3583
3071 512 4095
3071 1024 0
3071 1024 512
3071 1024 1024
3071 1024 1536
3071 1024 2048
3071 1024 2559
3071 1024 3071
3071 1024 3583
3071 1024 4095
3071 1536 0
3071 1536 512
3071 1536 1024
3071 1536 1536
3071 1536 2048
3071 1536 2559
3071 1536 3071
3071 1536 3583
3072 1538 4094
3056 2041 19
3056 2041 526
3054 2043 1036
3055 2049 1545
3060 2064 2052
3072 2089 2555
3092 2128 3051
3124 2184 3538
3169 2259 4015
2915 2421 238
2925 2432 681
2948 2456 1138
2983 2497 1606
3028 2550 2080
3080 2616 2552
3139 2692 3019
3206 2782 3478
3285 2889 3929
2805 2681 512
2824 2700 883
2868 2746 1279
2934 2817 1698
3015 2909 2130
3104 3014 2566
3200 3131 2998
3305 3259 3425
3420 3404 3845
2739 2822 844
2764 2848 1137
2823 2910 1466
2914 3009 1828
3026 3134 2210
3149 3278 2601
3281 3433 2993
3421 3602 3382
3575 3786 3769
2721 2844 1236
2751 2876 1449
2821 2951 1704
2930 3071 2000
3066 3225 2325
3219 3402 2664
3384 3595 3010
3559 3803 3357
3749 4029 3706
3583 0 0
3583 0 512
3583 0 1024
3583 0 1536
3583 0 2048
3583 0 2559
3583 0 3071
3583 0 3583
3583 0 4095
3583 512 0
3583 512 512
3583 512 1024
3583 512 1536
3583 512 2048
3583 512 2559
3583 512 3071
3583 512 3583
3583 512 4095
3583 1024 0
3583 1024 512
3583 1024 1024
3583 1024 1536
3583 1024 2048
3583 1024 2559
3583 1024 3071
3583 1024 3583
3583 1024 4095
3583 1536 0
3583 1536 512
3583 1536 1024
3583 1536 1536
3583 1536 2048
3577 1553 2559
3577 1588 3063
3587 1642 3559
3610 1718 4043
3457 2023 140
3461 2029 614
3469 2043 1096
3482 2069 1583
3502 2105 2072
3527 2154 2559
3558 2217 3039
3598 2295 3511
3650 2392 3975
3286 2405 375
3298 2418 786
3325 2451 1216
3367 2503 1661
3419 2573 2114
3479 2655 2568
3544 2750 3019
3617 2859 3464
3701 2985 3901
3134 2670 663
3153 2691 1005
3197 2740 1374
3264 2818 1769
3347 2919 2179
3439 3036 2594
3539 3166 3010
3647 3310 3421
3766 3471 3828
3015 2817 1007
3039 2843 1273
3095 2906 1576
3183 3007 1912
3293 3137 2271
3416 3287 2642
3548 3453 3016
3690 3633 3390
3845 3831 3763
2934 2844 1408
2962 2875 1596
3028 2949 1826
3132 3068 2097
3263 3223 2397
3413 3404 2716
3576 3603 3043
3751 3820 3374
3942 4058 3710
4095 0 0
4095 0 512
4095 0 1024
4095 0 1536
4095 0 2048
4095 0 2559
4095 0 3071
4095 0 3583
4093 57 4086
4095 512 0
4095 512 512
4095 512 1024
4095 512 1536
4095 512 2048
4095 512 2559
4095 512 3071
4092 531 3580
4090 620 4075
4095 1024 0
4095 1024 512
4095 1024 1024
4095 1024 1536
4093 1027 2048
4079 1057 2560
4071 1104 3064
4072 1170 3559
4084 1260 4044
3987 1558 102
3987 1563 589
3988 1575 1081
3990 1597 1577
3995 1630 2072
4004 1677 2564
4019 1739 3050
4042 1819 3528
4075 1919 3997
3800 2036 299
3807 2046 735
3822 2071 1184
3846 2112 1644
3877 2169 2110
3914 2239 2575
3956 2324 3037
4006 2425 3492
4065 2545 3939
3603 2413 547
3616 2429 923
3646 2467 1321
3692 2530 1737
3751 2613 2166
3817 2711 2598
3889 2824 3029
3969 2952 3455
4060 3099 3877
3414 2678 848
3433 2700 1156
3475 2751 1495
3542 2835 1860
3626 2944 2244
3722 3072 2636
3825 3215 3031
3937 3375 3425
4061 3553 3816
3246 2827 1202
3269 2853 1438
3322 2916 1711
3407 3018 2018
3514 3152 2350
3636 3308 2696
3770 3484 3049
3914 3676 3405
4072 3889 3763
3107 2856 1611
3133 2886 1771
3195 2958 1972
3293 3076 2214
3420 3231 2487
3567 3415 2782
3729 3621 3088
3904 3848 3401
4095 4095 3721
