Examples/Masks - Lighten shadows.3dl
#25pt 3DLUT created by 3D LUT Creator Pro (c) Oleg Sharonov
#Copyright Oleg Sharonov
0 128 256 384 512 640 768 896 1023
0 0 0
0 0 458
0 0 1025
0 0 1696
0 0 2342
0 0 2873
0 0 3316
0 0 3715
0 0 4095
0 462 0
0 462 462
0 463 1025
0 464 1688
0 465 2330
0 467 2861
0 468 3308
0 470 3711
0 472 4095
0 1026 0
0 1026 468
0 1026 1026
0 1026 1673
0 1026 2303
0 1026 2835
0 1025 3289
0 1025 3701
0 1026 4095
0 1658 0
0 1658 474
0 1658 1026
0 1656 1656
0 1654 2273
0 1652 2803
0 1649 3264
0 1645 3688
0 1642 4095
0 2246 0
0 2246 479
0 2244 1025
0 2242 1638
0 2239 2239
0 2235 2767
0 2231 3236
0 2226 3673
0 2221 4095
0 2740 0
0 2739 485
0 2738 1025
0 2736 1620
0 2734 2205
0 2730 2730
0 2726 3207
0 2722 3657
0 2716 4095
0 3186 0
0 3186 491
0 3185 1025
0 3184 1602
0 3182 2171
0 3179 2693
0 3177 3177
0 3174 3640
0 3170 4095
0 3630 0
0 3629 497
0 3629 1025
0 3628 1583
0 3628 2136
0 3626 2655
0 3625 3146
0 3624 3624
1 3622 4095
0 4095 0
0 4095 503
0 4095 1024
0 4095 1565
0 4095 2101
0 4095 2617
0 4095 3116
0 4095 3607
0 4095 4095
460 0 0
460 0 460
461 0 1025
463 0 1693
464 0 2338
466 0 2869
468 0 3313
469 0 3713
471 0 4095
463 463 0
463 463 463
464 464 1026
465 465 1686
466 466 2326
467 467 2858
469 469 3305
470 470 3709
472 472 4095
468 1026 0
468 1026 468
469 1026 1026
469 1026 1672
470 1026 2301
471 1026 2833
472 1025 3287
474 1025 3700
475 1025 4095
474 1657 0
474 1657 474
474 1656 1026
475 1655 1655
475 1653 2271
476 1651 2801
477 1648 3262
478 1644 3687
479 1641 4095
480 2245 0
480 2244 480
480 2243 1025
480 2241 1637
481 2238 2238
481 2234 2765
482 2230 3234
483 2225 3672
484 2219 4095
485 2738 0
485 2738 485
486 2737 1025
486 2735 1619
486 2732 2204
487 2729 2729
487 2725 3206
488 2720 3656
489 2715 4095
491 3185 0
491 3185 491
491 3184 1025
491 3183 1601
492 3181 2170
492 3179 2692
493 3176 3176
493 3173 3640
494 3169 4095
497 3629 0
497 3629 497
497 3629 1025
497 3628 1583
497 3627 2135
498 3626 2654
498 3625 3146
499 3623 3623
500 3621 4095
503 4095 0
503 4095 503
503 4095 1024
503 4095 1564
503 4095 2101
503 4095 2616
504 4095 3115
504 4095 3606
505 4095 4095
1026 0 0
1026 0 463
1025 0 1025
1025 0 1685
1026 0 2326
1026 0 2857
1026 0 3305
1026 0 3709
1025 0 4095
1026 465 0
1026 465 465
1026 466 1026
1026 467 1681
1026 468 2317
1026 469 2849
1026 470 3298
1026 472 3706
1025 473 4095
1026 1026 0
1026 1026 470
1026 1026 1026
1026 1026 1668
1026 1026 2294
1026 1026 2826
1025 1025 3281
1025 1025 3697
1025 1025 4095
1026 1655 0
1026 1654 475
1026 1653 1026
1026 1652 1652
1026 1650 2265
1026 1648 2795
1026 1645 3258
1026 1642 3684
1026 1639 4095
1025 2240 0
1025 2239 480
1025 2238 1025
1026 2236 1635
1026 2234 2234
1025 2230 2761
1025 2226 3231
1025 2221 3670
1025 2215 4095
1025 2734 0
1025 2734 486
1025 2733 1025
1025 2731 1617
1025 2728 2201
1025 2725 2725
1025 2721 3203
1025 2717 3655
1025 2712 4095
1025 3182 0
1025 3182 492
1025 3181 1025
1025 3180 1600
1025 3178 2167
1025 3176 2688
1025 3173 3173
1025 3170 3638
1025 3167 4095
1025 3628 0
1025 3628 497
1025 3627 1025
1025 3627 1581
1025 3626 2133
1025 3625 2651
1025 3623 3143
1024 3622 3622
1024 3620 4095
1024 4095 0
1024 4095 503
1024 4095 1024
1024 4095 1563
1024 4095 2098
1024 4095 2613
1024 4095 3113
1024 4095 3605
1024 4095 4095
1681 0 0
1681 0 467
1679 0 1026
1677 0 1677
1674 0 2310
1670 0 2842
1666 0 3294
1662 0 3703
1657 0 4095
1676 468 0
1676 468 468
1674 468 1026
1672 469 1672
1670 470 2302
1667 471 2835
1663 472 3288
1658 473 3700
1654 475 4095
1664 1026 0
1664 1026 472
1663 1025 1025
1662 1026 1662
1659 1025 2283
1657 1026 2814
1653 1025 3272
1650 1025 3692
1646 1025 4095
1650 1650 0
1649 1649 476
1649 1649 1026
1647 1647 1647
1646 1646 2257
1643 1643 2786
1641 1641 3250
1638 1638 3681
1634 1634 4095
1633 2233 0
1633 2232 482
1632 2231 1025
1631 2229 1631
1630 2226 2226
1628 2223 2753
1626 2219 3225
1624 2214 3667
1621 2209 4095
1616 2728 0
1616 2727 487
1615 2726 1025
1614 2725 1614
1613 2722 2195
1612 2719 2719
1610 2715 3198
1608 2711 3652
1605 2706 4095
1598 3178 0
1598 3178 492
1598 3177 1025
1597 3176 1597
1596 3174 2162
1595 3172 2683
1593 3169 3169
1591 3166 3636
1589 3162 4095
1580 3626 0
1580 3626 498
1580 3625 1025
1579 3625 1579
1578 3624 2129
1577 3623 2647
1576 3621 3140
1574 3620 3620
1573 3618 4095
1562 4095 0
1562 4095 504
1562 4095 1024
1561 4095 1561
1560 4095 2095
1559 4095 2609
1558 4095 3110
1557 4095 3603
1555 4095 4095
2304 0 0
2304 0 470
2301 0 1026
2298 0 1667
2293 0 2293
2287 0 2824
2281 0 3280
2274 0 3697
2265 0 4095
2297 471 0
2296 471 471
2294 471 1026
2291 472 1664
2286 473 2286
2281 474 2817
2275 475 3275
2268 476 3694
2261 478 4095
2278 1026 0
2278 1026 474
2276 1026 1026
2273 1026 1654
2269 1026 2269
2265 1026 2799
2259 1026 3261
2253 1026 3686
2247 1026 4095
2252 1644 0
2252 1643 478
2251 1643 1025
2248 1641 1641
2245 1640 2245
2241 1638 2774
2237 1635 3241
2232 1633 3675
2226 1630 4095
2223 2223 0
2223 2223 483
2222 2222 1025
2220 2220 1626
2217 2217 2217
2214 2214 2743
2210 2210 3217
2206 2206 3663
2201 2201 4095
2192 2719 0
2192 2719 488
2191 2718 1025
2189 2716 1610
2187 2714 2187
2184 2710 2710
2181 2707 3191
2177 2703 3648
2173 2698 4095
2160 3172 0
2159 3171 494
2159 3171 1025
2157 3170 1593
2155 3168 2155
2153 3166 2676
2150 3163 3163
2147 3160 3633
2143 3157 4095
2126 3623 0
2126 3623 499
2126 3622 1024
2124 3622 1576
2123 3621 2123
2121 3620 2640
2118 3619 3135
2115 3617 3617
2112 3615 4095
2093 4095 0
2093 4095 504
2092 4095 1024
2091 4095 1559
2090 4095 2090
2088 4095 2604
2085 4095 3105
2083 4095 3601
2080 4095 4095
2819 0 0
2819 0 473
2817 0 1025
2814 0 1657
2809 0 2274
2804 0 2804
2798 0 3265
2791 0 3688
2784 0 4095
2813 474 0
2812 474 474
2810 475 1025
2808 475 1654
2803 476 2268
2798 476 2798
2792 477 3260
2786 478 3686
2779 479 4095
2796 1026 0
2795 1026 477
2793 1025 1025
2791 1025 1646
2787 1025 2254
2783 1025 2783
2777 1025 3248
2771 1026 3679
2765 1026 4095
2770 1636 0
2770 1636 481
2769 1635 1026
2767 1634 1634
2763 1633 2232
2760 1631 2760
2755 1629 3230
2749 1626 3669
2744 1623 4095
2741 2212 0
2740 2211 485
2739 2210 1025
2737 2209 1620
2735 2206 2206
2731 2203 2731
2727 2200 3207
2723 2195 3657
2717 2191 4095
2708 2708 0
2708 2708 490
2707 2707 1025
2705 2705 1605
2703 2703 2178
2700 2700 2700
2697 2697 3183
2693 2693 3644
2688 2688 4095
2674 3164 0
2674 3164 495
2673 3163 1025
2671 3162 1589
2669 3160 2147
2667 3158 2667
2664 3156 3156
2660 3153 3629
2656 3150 4095
2638 3619 0
2638 3619 500
2637 3619 1024
2636 3618 1572
2634 3617 2115
2632 3616 2632
2629 3615 3128
2626 3613 3613
2623 3612 4095
2602 4095 0
2602 4095 506
2601 4095 1024
2600 4095 1555
2599 4095 2083
2597 4095 2597
2594 4095 3099
2591 4095 3598
2588 4095 4095
3264 0 0
3263 0 477
3262 0 1025
3260 0 1646
3257 0 2254
3253 0 2783
3249 0 3249
3244 0 3680
3238 0 4095
3259 477 0
3259 478 478
3257 478 1025
3255 478 1644
3252 479 2250
3249 479 2778
3245 480 3245
3240 481 3677
3235 482 4095
3247 1025 0
3246 1025 480
3245 1025 1025
3243 1025 1637
3241 1025 2237
3238 1025 2764
3234 1025 3234
3229 1025 3672
3224 1025 4095
3229 1628 0
3228 1628 483
3228 1627 1025
3226 1626 1626
3224 1625 2218
3221 1623 2744
3217 1621 3217
3213 1619 3663
3209 1616 4095
3207 2199 0
3206 2198 487
3205 2197 1025
3204 2196 1614
3202 2194 2194
3199 2191 2717
3196 2187 3196
3193 2183 3651
3189 2179 4095
3182 2696 0
3182 2695 492
3181 2694 1025
3180 2693 1599
3178 2691 2166
3176 2688 2688
3173 2685 3173
3170 2681 3638
3166 2676 4095
3155 3155 0
3155 3155 497
3154 3154 1025
3153 3153 1584
3152 3152 2137
3150 3150 2656
3147 3147 3147
3145 3145 3624
3141 3141 4095
3127 3615 0
3127 3614 502
3127 3614 1024
3126 3614 1568
3124 3613 2107
3123 3612 2623
3120 3611 3120
3118 3609 3609
3115 3608 4095
3099 4095 0
3099 4095 507
3098 4095 1024
3097 4095 1551
3096 4095 2075
3094 4095 2588
3093 4095 3093
3090 4095 3594
3088 4095 4095
3680 0 0
3680 0 480
3679 0 1026
3678 0 1636
3677 0 2235
3675 0 2762
3673 0 3232
3671 0 3671
3668 0 4095
3678 481 0
3678 481 481
3677 481 1026
3676 481 1634
3675 482 2231
3673 482 2758
3671 483 3229
3669 484 3669
3666 485 4095
3672 1025 0
3672 1025 483
3671 1025 1025
3670 1025 1627
3669 1025 2219
3668 1025 2745
3666 1025 3219
3663 1025 3663
3661 1025 4095
3663 1620 0
3663 1619 486
3662 1619 1025
3661 1618 1618
3660 1617 2202
3659 1615 2726
3657 1613 3203
3655 1611 3655
3653 1609 4095
3652 2184 0
3652 2184 489
3651 2183 1025
3650 2182 1606
3649 2179 2179
3648 2177 2702
3646 2174 3184
3644 2170 3644
3642 2166 4095
3639 2682 0
3638 2681 494
3638 2680 1025
3637 2679 1593
3637 2677 2154
3635 2674 2674
3634 2671 3162
3632 2668 3632
3630 2663 4095
3624 3145 0
3624 3145 498
3624 3144 1025
3623 3143 1578
3623 3142 2126
3622 3140 2644
3620 3138 3138
3619 3135 3619
3617 3132 4095
3610 3610 0
3609 3609 503
3609 3609 1024
3609 3609 1562
3608 3608 2097
3607 3607 2612
3606 3606 3112
3604 3604 3604
3603 3603 4095
3594 4095 0
3594 4095 508
3594 4095 1024
3593 4095 1546
3593 4095 2066
3592 4095 2578
3591 4095 3085
3589 4095 3589
3588 4095 4095
4095 0 0
4095 0 484
4095 0 1025
4095 0 1625
4095 0 2215
4095 0 2740
4095 0 3215
4095 0 3661
4095 0 4095
4095 484 0
4095 484 484
4095 485 1025
4095 485 1623
4095 486 2211
4095 486 2737
4095 486 3212
4095 487 3660
4095 488 4095
4095 1025 0
4095 1025 486
4095 1025 1025
4095 1025 1618
4095 1025 2201
4095 1025 2725
4095 1025 3203
4095 1025 3655
4095 1025 4095
4095 1610 0
4095 1610 489
4095 1610 1025
4095 1609 1609
4095 1608 2185
4095 1606 2708
4095 1605 3189
4095 1603 3647
4095 1600 4095
4095 2169 0
4095 2168 492
4095 2168 1025
4095 2166 1598
4095 2164 2164
4095 2162 2686
4095 2159 3171
4095 2155 3637
4095 2151 4095
4095 2666 0
4095 2666 496
4095 2665 1024
4095 2664 1585
4095 2662 2140
4095 2660 2660
4095 2657 3150
4095 2653 3626
4095 2649 4095
4095 3134 0
4095 3134 500
4095 3133 1024
4095 3132 1571
4095 3131 2114
4095 3129 2631
4095 3127 3127
4095 3124 3613
4095 3121 4095
4095 3604 0
4095 3604 505
4095 3604 1024
4095 3603 1557
4095 3602 2086
4095 3601 2600
4095 3600 3102
4095 3599 3599
4095 3598 4095
4095 4095 0
4095 4095 510
4095 4095 1024
4095 4095 1541
4095 4095 2056
4095 4095 2567
4095 4095 3076
4095 4095 3584
4095 4095 4095
