Examples/Masks limit - Blue.3dl
#25pt 3DLUT created by 3D LUT Creator Pro (c) Oleg Sharonov
#Copyright Oleg Sharonov
0 256 512 768 1023
0 0 0
0 525 884
0 529 1927
0 514 2960
0 494 3991
0 779 563
193 920 1075
0 1195 1963
0 1319 2971
0 1342 4001
0 1901 373
0 1895 1238
143 1990 2076
75 2083 3042
0 2139 4053
0 3012 156
0 3006 1142
27 3021 2101
57 3051 3082
34 3075 4090
0 4083 32
0 4082 1050
0 4084 2064
9 4088 3077
8 4092 4095
541 293 437
657 434 1062
701 448 1986
792 466 2991
849 463 4010
770 950 472
1024 1024 1024
956 1209 1965
838 1286 2980
860 1301 4011
857 1948 312
924 1940 1209
1058 2008 2068
1032 2088 3042
927 2130 4058
974 3023 138
966 3019 1125
1019 3029 2097
1046 3053 3080
1034 3076 4089
1016 4085 27
1016 4085 1046
1016 4086 2061
1028 4089 3077
1027 4093 4095
1608 282 401
1576 329 1224
1740 406 2080
1779 392 3038
1801 346 4049
1643 1105 379
1677 1148 1243
1845 1219 2073
1882 1248 3035
1823 1232 4052
1925 2012 250
1947 2015 1177
2048 2048 2048
2033 2095 3046
2018 2124 4062
1979 3045 99
1995 3042 1102
2033 3047 2086
2053 3063 3076
2050 3078 4089
2038 4090 17
2038 4089 1037
2042 4090 2056
2048 4092 3075
2049 4094 4095
2730 223 312
2710 244 1234
2764 265 2145
2868 279 3093
2897 250 4084
2775 1126 274
2753 1140 1212
2829 1174 2144
2910 1194 3090
2937 1189 4083
2902 2061 161
2917 2067 1150
2970 2083 2113
3014 2099 3079
3025 2110 4085
3037 3061 72
3038 3061 1078
3052 3065 2076
3071 3071 3071
3069 3079 4091
3067 4093 8
3067 4093 1030
3069 4093 2051
3071 4094 3073
3071 4095 4095
3874 146 203
3863 156 1178
3871 158 2143
3940 174 3116
3980 160 4095
3902 1105 178
3890 1112 1161
3897 1116 2132
3966 1136 3112
3999 1131 4095
3983 2071 105
3977 2074 1105
3996 2080 2104
4030 2088 3098
4052 2090 4095
4065 3072 38
4066 3073 1055
4072 3074 2068
4082 3076 3080
4088 3077 4095
4094 4095 1
4095 4095 1025
4095 4095 2048
4095 4095 3071
4095 4095 4095
