Examples/Masks - LAB Saturation.3dl
#25pt 3DLUT created by 3D LUT Creator Pro (c) Oleg Sharonov
#Copyright Oleg Sharonov
#IMAGEPROFILE sRGB IEC61966-2.1 v.2.10
#INPUTGAMMA sRGB IEC61966-2.1 v.2.10
#OUTPUTGAMMA sRGB IEC61966-2.1 v.2.10
0 43 86 128 171 214 256 299 341 384 427 469 512 555 597 640 682 725 768 810 853 896 938 981 1023 
0 0 0
0 0 295
0 0 391
0 0 533
0 0 695
0 0 861
0 0 1029
0 0 1218
0 0 1378
0 0 1542
0 0 1710
0 0 1880
0 0 2051
0 0 2224
0 0 2399
0 0 2562
0 0 2740
0 0 2906
0 0 3085
0 0 3254
0 0 3423
0 0 3593
0 0 3764
0 0 3936
0 0 4095
0 174 0
0 171 171
0 174 362
0 171 546
0 168 734
0 165 921
0 158 1116
0 145 1320
0 129 1518
0 113 1712
0 97 1898
0 97 2045
0 90 2208
0 90 2362
0 74 2542
0 74 2700
0 71 2861
0 71 3024
0 78 3175
0 78 3340
0 74 3507
0 71 3675
0 65 3844
0 78 4000
0 123 4095
0 343 0
0 345 165
0 341 341
0 343 520
0 343 703
0 341 898
0 339 1086
0 334 1291
0 330 1465
0 318 1689
0 304 1903
0 293 2080
0 278 2274
0 252 2486
0 250 2631
0 222 2833
0 217 2987
0 206 3149
0 201 3308
0 203 3457
0 198 3619
0 189 3784
0 180 3950
0 186 4095
0 291 4095
0 514 0
0 514 158
0 514 337
0 513 513
0 513 686
0 513 870
0 513 1051
0 512 1251
0 509 1444
0 505 1645
0 500 1830
0 492 2044
0 479 2259
0 475 2422
0 465 2610
0 452 2803
0 430 3025
0 394 3265
0 394 3401
0 358 3623
0 356 3767
0 354 3914
0 341 4084
0 372 4095
0 458 4095
0 683 0
0 685 152
0 685 334
0 684 510
0 683 684
0 683 855
0 684 1035
0 684 1219
0 684 1412
0 682 1596
0 680 1788
0 677 1972
0 670 2211
0 665 2383
0 657 2588
0 643 2824
0 634 3005
0 623 3200
0 603 3422
0 609 3535
0 578 3783
0 585 3903
0 537 4095
0 591 4095
0 641 4095
0 853 0
0 855 152
0 855 332
0 855 505
0 854 682
0 854 854
0 854 1026
0 855 1204
0 855 1385
0 855 1576
0 855 1771
0 852 1968
0 850 2162
0 848 2329
0 844 2524
0 835 2759
0 827 2973
0 824 3125
0 819 3299
0 794 3588
0 801 3689
0 784 3908
0 762 4095
0 788 4095
0 828 4095
0 1024 0
0 1027 145
0 1027 328
0 1027 503
0 1027 678
0 1025 852
0 1025 1025
0 1025 1197
0 1025 1373
0 1026 1554
0 1027 1743
0 1027 1937
0 1025 2115
0 1023 2316
0 1021 2496
0 1017 2721
0 1015 2880
0 1006 3127
0 1005 3264
0 995 3495
0 992 3661
0 984 3851
0 974 4054
0 978 4095
0 1007 4095
0 1195 0
0 1199 126
0 1197 324
0 1198 494
0 1197 676
0 1196 850
0 1196 1023
0 1195 1195
0 1195 1367
0 1196 1542
0 1197 1726
0 1197 1909
0 1198 2102
0 1197 2287
0 1196 2466
0 1194 2662
0 1192 2867
0 1188 3056
0 1183 3285
0 1178 3472
0 1177 3611
0 1168 3848
0 1163 4025
0 1162 4095
0 1183 4095
0 1366 0
0 1370 119
0 1368 320
0 1368 500
0 1369 667
0 1368 847
0 1368 1021
0 1367 1194
0 1366 1367
0 1365 1537
0 1366 1711
0 1368 1892
0 1368 2080
0 1368 2264
0 1368 2452
0 1368 2644
0 1366 2828
0 1364 3011
0 1361 3230
0 1358 3443
0 1355 3615
0 1350 3817
0 1343 4034
0 1342 4095
0 1357 4095
0 1536 0
0 1539 126
0 1540 306
0 1539 492
0 1540 665
0 1539 842
0 1539 1017
0 1538 1192
0 1537 1365
0 1537 1537
0 1536 1708
0 1537 1883
0 1538 2058
0 1539 2243
0 1539 2423
0 1540 2615
0 1538 2795
0 1538 2993
0 1537 3202
0 1535 3364
0 1532 3603
0 1530 3763
0 1527 3940
0 1523 4095
0 1531 4095
0 1707 0
0 1711 100
0 1711 299
0 1710 486
0 1711 660
0 1711 835
0 1711 1012
0 1711 1187
0 1709 1363
0 1708 1536
0 1708 1708
0 1707 1878
0 1708 2052
0 1709 2229
0 1710 2413
0 1710 2592
0 1710 2778
0 1710 2970
0 1710 3152
0 1709 3348
0 1707 3538
0 1705 3757
0 1703 3907
0 1699 4095
0 1704 4095
0 1878 0
0 1881 100
0 1882 287
0 1883 470
0 1880 663
0 1881 833
0 1882 1007
0 1881 1184
0 1881 1359
0 1880 1534
0 1879 1707
0 1878 1878
0 1878 2049
0 1878 2221
0 1879 2401
0 1880 2581
0 1881 2768
0 1882 2953
0 1882 3140
0 1881 3317
0 1881 3527
0 1879 3711
0 1878 3919
0 1875 4095
0 1876 4095
0 2048 0
0 2053 65
0 2054 262
0 2054 461
0 2052 656
0 2054 823
0 2051 1010
0 2052 1179
0 2052 1356
0 2051 1532
0 2051 1705
0 2049 1878
0 2049 2049
0 2048 2220
0 2048 2392
0 2050 2568
0 2051 2749
0 2051 2929
0 2052 3110
0 2053 3306
0 2053 3500
0 2052 3674
0 2051 3877
0 2050 4081
0 2048 4095
0 2219 0
0 2224 61
0 2223 273
0 2225 454
0 2225 635
0 2224 821
0 2223 1004
0 2224 1174
0 2222 1354
0 2221 1530
0 2221 1703
0 2221 1876
0 2221 2048
0 2220 2220
0 2219 2391
0 2220 2563
0 2220 2739
0 2221 2917
0 2222 3099
0 2222 3278
0 2224 3470
0 2224 3657
0 2224 3851
0 2223 4047
0 2219 4095
0 2389 0
0 2393 74
0 2397 214
0 2397 430
0 2395 634
0 2397 805
0 2396 988
0 2395 1170
0 2393 1352
0 2394 1523
0 2392 1700
0 2392 1874
0 2391 2047
0 2391 2219
0 2390 2390
0 2389 2561
0 2390 2734
0 2391 2908
0 2392 3089
0 2393 3267
0 2393 3445
0 2394 3633
0 2393 3810
0 2393 3994
0 2391 4095
0 2560 0
0 2564 65
0 2566 228
0 2565 451
0 2567 620
0 2566 809
0 2564 999
0 2564 1175
0 2567 1339
0 2565 1521
0 2565 1693
0 2563 1871
0 2562 2045
0 2563 2218
0 2562 2390
0 2561 2561
0 2560 2732
0 2561 2904
0 2561 3078
0 2562 3256
0 2563 3433
0 2565 3622
0 2565 3807
0 2565 3987
0 2561 4095
0 2731 0
0 2734 68
0 2736 238
0 2739 411
0 2739 602
0 2737 807
0 2737 983
0 2735 1172
0 2735 1344
0 2734 1521
0 2736 1690
0 2733 1870
0 2734 2042
0 2734 2215
0 2734 2388
0 2732 2560
0 2732 2732
0 2731 2902
0 2731 3073
0 2732 3248
0 2733 3426
0 2734 3606
0 2734 3783
0 2735 3967
0 2732 4095
0 2901 0
0 2904 68
0 2906 248
0 2907 423
0 2907 623
0 2908 798
0 2906 990
0 2907 1161
0 2906 1342
0 2906 1516
0 2905 1694
0 2906 1863
0 2906 2037
0 2904 2214
0 2904 2386
0 2903 2559
0 2903 2731
0 2902 2902
0 2902 3073
0 2901 3244
0 2902 3418
0 2903 3595
0 2905 3775
0 2905 3952
0 2903 4095
0 3072 0
0 3075 61
0 3079 158
0 3077 437
0 3080 595
0 3080 778
0 3077 986
0 3076 1166
0 3077 1337
0 3076 1517
0 3077 1688
0 3075 1865
0 3076 2036
0 3077 2208
0 3076 2383
0 3076 2557
0 3074 2730
0 3074 2902
0 3073 3073
0 3073 3245
0 3072 3414
0 3073 3587
0 3074 3765
0 3075 3943
0 3073 4095
0 3242 0
0 3246 55
0 3249 177
0 3252 351
0 3249 610
0 3247 807
0 3249 976
0 3251 1138
0 3251 1318
0 3247 1514
0 3250 1675
0 3247 1862
0 3250 2028
0 3247 2208
0 3246 2382
0 3246 2556
0 3245 2729
0 3245 2901
0 3244 3073
0 3244 3244
0 3243 3414
0 3242 3584
0 3243 3757
0 3244 3933
0 3243 4095
0 3413 0
0 3416 39
0 3419 165
0 3421 367
0 3423 557
0 3421 772
0 3421 963
0 3422 1134
0 3420 1324
0 3419 1504
0 3421 1671
0 3420 1851
0 3421 2023
0 3419 2202
0 3420 2374
0 3419 2550
0 3418 2725
0 3416 2899
0 3415 3072
0 3415 3244
0 3414 3415
0 3413 3585
0 3413 3755
0 3414 3929
0 3413 4095
0 3584 0
0 3587 42
0 3590 171
0 3591 379
0 3592 576
0 3595 731
0 3593 940
0 3594 1123
0 3590 1324
0 3594 1482
0 3588 1684
0 3590 1849
0 3589 2028
0 3589 2202
0 3587 2379
0 3588 2550
0 3588 2724
0 3586 2898
0 3587 3070
0 3587 3243
0 3585 3414
0 3585 3585
0 3584 3755
0 3584 3926
0 3584 4095
0 3754 0
0 3757 42
0 3760 174
0 3761 389
0 3762 580
0 3764 751
0 3761 965
0 3760 1151
0 3761 1320
0 3763 1483
0 3762 1667
0 3762 1841
0 3764 2011
0 3762 2192
0 3763 2365
0 3761 2545
0 3761 2718
0 3760 2894
0 3757 3069
0 3758 3241
0 3757 3413
0 3757 3585
0 3756 3756
0 3755 3927
0 3755 4095
0 3925 0
0 3928 39
0 3930 177
0 3935 293
0 3937 494
0 3932 770
0 3935 926
0 3933 1130
0 3933 1308
0 3934 1479
0 3931 1671
0 3935 1828
0 3930 2026
0 3932 2192
0 3931 2370
0 3931 2542
0 3929 2720
0 3930 2893
0 3928 3067
0 3929 3239
0 3928 3411
0 3928 3584
0 3928 3756
0 3926 3927
0 3925 4095
0 4095 0
0 4095 68
0 4095 206
0 4095 314
0 4095 516
0 4095 716
0 4095 956
0 4095 1104
0 4095 1301
0 4095 1476
0 4095 1680
0 4095 1836
0 4095 2016
0 4095 2191
0 4095 2358
0 4095 2538
0 4095 2711
0 4095 2890
0 4095 3063
0 4095 3238
0 4095 3410
0 4095 3583
0 4095 3754
0 4095 3926
0 4095 4095
207 0 0
197 0 197
183 0 362
171 0 537
119 0 782
60 0 973
75 0 1118
88 0 1269
103 0 1419
100 0 1584
94 0 1752
88 0 1921
75 0 2092
84 0 2254
69 0 2427
78 0 2591
84 0 2757
57 0 2934
60 0 3101
60 0 3270
60 0 3438
54 0 3609
44 0 3780
26 0 3952
149 0 4095
171 171 0
171 171 171
153 156 450
7 143 774
7 143 939
7 131 1112
7 109 1305
7 91 1485
7 78 1653
7 78 1783
7 72 1939
7 75 2078
7 66 2241
7 66 2396
7 63 2552
7 63 2712
7 60 2873
7 57 3035
7 54 3198
7 63 3353
7 60 3519
7 54 3687
7 50 3855
7 60 4013
7 128 4095
162 343 0
10 376 10
7 368 368
7 352 639
7 343 849
7 334 1036
7 327 1222
7 317 1410
7 311 1569
7 299 1754
7 278 1979
7 263 2166
7 237 2369
7 237 2501
7 212 2697
7 204 2849
7 195 3009
7 195 3155
7 187 3314
7 190 3464
7 172 3638
7 175 3791
7 166 3957
7 172 4088
7 289 4095
156 514 0
7 539 7
7 536 289
7 530 534
7 524 750
7 518 951
7 514 1151
7 509 1339
7 503 1537
7 496 1730
7 487 1925
7 479 2111
7 475 2262
7 455 2508
7 440 2695
7 420 2909
7 424 3026
7 390 3264
7 388 3403
7 352 3623
7 350 3767
7 348 3915
7 334 4081
7 373 4088
7 458 4095
149 686 0
7 702 7
7 702 263
7 700 490
7 697 700
7 693 897
7 690 1090
7 688 1289
7 684 1471
7 680 1671
7 676 1860
7 671 2062
7 663 2263
7 657 2443
7 646 2658
7 640 2825
7 632 3005
7 620 3200
7 600 3421
7 575 3649
7 576 3782
7 536 4034
7 538 4081
7 591 4088
7 644 4095
125 858 0
7 869 19
7 869 263
7 868 471
7 867 672
7 864 867
7 862 1056
7 860 1242
7 859 1434
7 857 1624
7 855 1817
7 852 1999
7 848 2200
7 844 2375
7 838 2580
7 834 2760
7 825 2973
7 812 3207
7 804 3388
7 793 3585
7 777 3797
7 782 3907
7 760 4081
7 785 4088
7 829 4095
115 1028 0
7 1039 23
7 1037 263
7 1037 462
7 1037 655
7 1035 848
7 1033 1035
7 1031 1218
7 1031 1404
7 1029 1588
7 1028 1775
7 1028 1979
7 1025 2168
7 1022 2351
7 1019 2537
7 1016 2722
7 1010 2931
7 1005 3119
7 998 3330
7 994 3495
7 978 3754
7 968 3952
7 955 4081
7 979 4088
7 1007 4095
103 1198 0
7 1208 44
7 1208 249
7 1207 455
7 1208 643
7 1205 836
7 1205 1021
7 1202 1204
7 1201 1383
7 1201 1567
7 1201 1751
7 1200 1939
7 1199 2124
7 1197 2310
7 1196 2499
7 1193 2701
7 1190 2907
7 1186 3110
7 1182 3277
7 1177 3470
7 1170 3690
7 1167 3846
7 1163 4015
7 1162 4088
7 1182 4095
91 1369 0
7 1377 35
7 1376 252
7 1376 455
7 1375 642
7 1375 826
7 1374 1012
7 1374 1194
7 1372 1373
7 1371 1551
7 1370 1730
7 1370 1913
7 1370 2095
7 1370 2282
7 1369 2477
7 1368 2674
7 1366 2864
7 1364 3054
7 1361 3231
7 1357 3436
7 1354 3615
7 1349 3808
7 1342 4031
7 1343 4088
7 1356 4095
91 1539 0
7 1546 35
7 1546 249
7 1547 437
7 1546 637
7 1546 821
7 1545 1003
7 1545 1185
7 1544 1365
7 1542 1543
7 1540 1718
7 1541 1898
7 1541 2080
7 1541 2262
7 1542 2455
7 1541 2639
7 1539 2824
7 1539 3027
7 1536 3198
7 1534 3405
7 1531 3596
7 1529 3757
7 1523 4010
7 1521 4088
7 1531 4095
81 1709 0
7 1716 32
7 1716 244
7 1716 445
7 1716 633
7 1717 812
7 1717 995
7 1716 1177
7 1714 1358
7 1714 1537
7 1712 1713
7 1711 1888
7 1711 2066
7 1712 2247
7 1712 2431
7 1712 2611
7 1712 2800
7 1712 2997
7 1710 3184
7 1709 3379
7 1707 3577
7 1705 3757
7 1702 3965
7 1699 4088
7 1704 4095
