Examples/Masks - Curves - Saturation Contrast.3dl
#25pt 3DLUT created by 3D LUT Creator Pro (c) Oleg Sharonov
#Copyright Oleg Sharonov
#IMAGEPROFILE 
#INPUTGAMMA 
#OUTPUTGAMMA 
0 256 512 768 1023
0 0 0
0 0 1008
0 0 2176
0 0 3297
0 0 4095
0 1015 0
3 1028 959
0 946 2314
0 896 3419
6 1004 4095
0 2378 0
0 2425 792
0 2378 2505
0 2396 3648
0 2553 4047
0 3378 0
0 3396 804
0 3358 2400
0 3361 3469
0 3426 4063
0 4095 0
16 4095 973
0 4077 2244
0 4076 3269
0 4095 4095
1035 0 0
1049 0 977
999 0 2239
970 0 3348
1061 0 4093
1053 1005 0
1068 1017 938
996 943 2361
939 872 3462
1070 999 4094
988 2417 0
1004 2456 785
890 2405 2539
475 2397 3664
915 2535 4051
971 3379 0
975 3394 805
838 3357 2392
425 3355 3460
741 3413 4066
1042 4094 0
1044 4095 974
992 4078 2231
900 4078 3257
1035 4095 4095
2225 0 0
2258 0 888
2230 0 2344
2256 0 3456
2415 0 4061
2303 945 0
2335 956 855
2290 877 2433
2301 625 3552
2473 859 4058
2370 2421 0
2389 2441 703
2325 2378 2512
2248 2304 3621
2379 2430 4044
2260 3344 0
2266 3354 736
2208 3327 2332
2113 3316 3413
2173 3356 4067
2168 4084 0
2167 4086 955
2136 4078 2183
2092 4081 3213
2115 4093 4093
3367 0 0
3392 0 788
3366 0 2494
3407 0 3644
3561 0 4053
3428 883 0
3453 886 742
3423 573 2560
3460 0 3731
3551 332 4057
3379 2389 0
3392 2396 590
3359 2311 2436
3341 2161 3558
3403 2274 4061
3269 3316 0
3274 3320 617
3245 3292 2244
3209 3256 3341
3227 3271 4077
3156 4087 0
3155 4088 942
3138 4086 2119
3116 4088 3150
3111 4094 4094
4095 0 0
4095 42 867
4038 0 2654
4042 0 3728
4095 3 4095
4095 999 6
4095 1010 884
4047 787 2604
4050 0 3673
4095 1007 4095
4062 2402 0
4067 2403 799
4048 2318 2417
4058 2170 3496
4089 2291 4089
4074 3296 0
4077 3295 778
4072 3262 2204
4078 3210 3272
4090 3213 4090
4095 4095 0
4095 4095 1016
4094 4094 2073
4094 4094 3087
4095 4095 4095
