Examples/Masks - Blue neutrals.3dl
#25pt 3DLUT created by 3D LUT Creator Pro (c) Oleg Sharonov
#Copyright Oleg Sharonov
0 128 256 384 512 640 768 896 1023
0 0 0
0 0 512
0 0 1024
0 0 1536
0 0 2048
0 0 2559
0 0 3071
0 0 3583
0 0 4095
0 512 0
0 512 512
0 512 1024
0 512 1536
0 512 2048
0 512 2559
0 512 3071
0 512 3583
0 512 4095
0 1024 0
0 1024 512
0 1024 1024
0 1024 1536
0 1024 2048
0 1024 2559
0 1024 3071
0 1024 3583
0 1024 4095
0 1536 0
0 1536 512
0 1536 1024
0 1536 1536
0 1536 2048
0 1536 2559
0 1536 3071
0 1536 3583
0 1536 4095
0 2048 0
0 2048 512
0 2048 1024
0 2048 1536
0 2048 2048
0 2048 2559
0 2048 3071
0 2048 3583
0 2048 4095
0 2559 0
0 2559 512
0 2559 1024
0 2559 1536
0 2559 2048
0 2559 2559
0 2559 3071
0 2559 3583
0 2559 4095
0 3071 0
0 3071 512
0 3071 1024
0 3071 1536
0 3071 2048
0 3071 2559
0 3071 3071
0 3071 3583
0 3071 4095
0 3583 0
0 3583 512
0 3583 1024
0 3583 1536
0 3583 2048
0 3583 2559
0 3583 3071
0 3583 3583
0 3583 4095
0 4095 0
0 4095 512
0 4095 1024
0 4095 1536
0 4095 2048
0 4095 2559
0 4095 3071
0 4095 3583
0 4095 4095
512 0 0
512 0 512
512 0 1024
512 0 1536
512 0 2048
512 0 2559
512 0 3071
512 0 3583
512 0 4095
512 512 0
5 276 517
512 512 1024
512 512 1536
512 512 2048
512 512 2559
512 512 3071
512 512 3583
512 512 4095
512 1024 0
512 1024 512
512 1024 1024
512 1024 1536
512 1024 2048
512 1024 2559
512 1024 3071
512 1024 3583
512 1024 4095
512 1536 0
512 1536 512
512 1536 1024
512 1536 1536
512 1536 2048
512 1536 2559
512 1536 3071
512 1536 3583
512 1536 4095
512 2048 0
512 2048 512
512 2048 1024
512 2048 1536
512 2048 2048
512 2048 2559
512 2048 3071
512 2048 3583
512 2048 4095
512 2559 0
512 2559 512
512 2559 1024
512 2559 1536
512 2559 2048
512 2559 2559
512 2559 3071
512 2559 3583
512 2559 4095
512 3071 0
512 3071 512
512 3071 1024
512 3071 1536
512 3071 2048
512 3071 2559
512 3071 3071
512 3071 3583
512 3071 4095
512 3583 0
512 3583 512
512 3583 1024
512 3583 1536
512 3583 2048
512 3583 2559
512 3583 3071
512 3583 3583
512 3583 4095
512 4095 0
512 4095 512
512 4095 1024
512 4095 1536
512 4095 2048
512 4095 2559
512 4095 3071
512 4095 3583
512 4095 4095
1024 0 0
1024 0 512
1024 0 1024
1024 0 1536
1024 0 2048
1024 0 2559
1024 0 3071
1024 0 3583
1024 0 4095
1024 512 0
1024 512 512
1024 512 1024
1024 512 1536
1024 512 2048
1024 512 2559
1024 512 3071
1024 512 3583
1024 512 4095
1024 1024 0
1024 1024 512
176 825 1031
1024 1024 1536
1024 1024 2048
1024 1024 2559
1024 1024 3071
1024 1024 3583
1024 1024 4095
1024 1536 0
1024 1536 512
1024 1536 1024
1024 1536 1536
1024 1536 2048
1024 1536 2559
1024 1536 3071
1024 1536 3583
1024 1536 4095
1024 2048 0
1024 2048 512
1024 2048 1024
1024 2048 1536
1024 2048 2048
1024 2048 2559
1024 2048 3071
1024 2048 3583
1024 2048 4095
1024 2559 0
1024 2559 512
1024 2559 1024
1024 2559 1536
1024 2559 2048
1024 2559 2559
1024 2559 3071
1024 2559 3583
1024 2559 4095
1024 3071 0
1024 3071 512
1024 3071 1024
1024 3071 1536
1024 3071 2048
1024 3071 2559
1024 3071 3071
1024 3071 3583
1024 3071 4095
1024 3583 0
1024 3583 512
1024 3583 1024
1024 3583 1536
1024 3583 2048
1024 3583 2559
1024 3583 3071
1024 3583 3583
1024 3583 4095
1024 4095 0
1024 4095 512
1024 4095 1024
1024 4095 1536
1024 4095 2048
1024 4095 2559
1024 4095 3071
1024 4095 3583
1024 4095 4095
1536 0 0
1536 0 512
1536 0 1024
1536 0 1536
1536 0 2048
1536 0 2559
1536 0 3071
1536 0 3583
1536 0 4095
1536 512 0
1536 512 512
1536 512 1024
1536 512 1536
1536 512 2048
1536 512 2559
1536 512 3071
1536 512 3583
1536 512 4095
1536 1024 0
1536 1024 512
1536 1024 1024
1536 1024 1536
1536 1024 2048
1536 1024 2559
1536 1024 3071
1536 1024 3583
1536 1024 4095
1536 1536 0
1536 1536 512
1536 1536 1024
829 1370 1542
1379 1499 2049
1536 1536 2559
1536 1536 3071
1536 1536 3583
1536 1536 4095
1536 2048 0
1536 2048 512
1536 2048 1024
1379 2018 1537
1379 2018 2049
1536 2048 2559
1536 2048 3071
1536 2048 3583
1536 2048 4095
1536 2559 0
1536 2559 512
1536 2559 1024
1536 2559 1536
1536 2559 2048
1536 2559 2559
1536 2559 3071
1536 2559 3583
1536 2559 4095
1536 3071 0
1536 3071 512
1536 3071 1024
1536 3071 1536
1536 3071 2048
1536 3071 2559
1536 3071 3071
1536 3071 3583
1536 3071 4095
1536 3583 0
1536 3583 512
1536 3583 1024
1536 3583 1536
1536 3583 2048
1536 3583 2559
1536 3583 3071
1536 3583 3583
1536 3583 4095
1536 4095 0
1536 4095 512
1536 4095 1024
1536 4095 1536
1536 4095 2048
1536 4095 2559
1536 4095 3071
1536 4095 3583
1536 4095 4095
2048 0 0
2048 0 512
2048 0 1024
2048 0 1536
2048 0 2048
2048 0 2559
2048 0 3071
2048 0 3583
2048 0 4095
2048 512 0
2048 512 512
2048 512 1024
2048 512 1536
2048 512 2048
2048 512 2559
2048 512 3071
2048 512 3583
2048 512 4095
2048 1024 0
2048 1024 512
2048 1024 1024
2048 1024 1536
2048 1024 2048
2048 1024 2559
2048 1024 3071
2048 1024 3583
2048 1024 4095
2048 1536 0
2048 1536 512
2048 1536 1024
1921 1499 1537
1922 1499 2049
2048 1536 2559
2048 1536 3071
2048 1536 3583
2048 1536 4095
2048 2048 0
2048 2048 512
2048 2048 1024
1922 2018 1537
1482 1915 2052
1831 1997 2561
2048 2048 3071
2048 2048 3583
2048 2048 4095
2048 2559 0
2048 2559 512
2048 2559 1024
2048 2559 1536
1831 2521 2049
1831 2521 2561
2048 2559 3071
2048 2559 3583
2048 2559 4095
2048 3071 0
2048 3071 512
2048 3071 1024
2048 3071 1536
2048 3071 2048
2048 3071 2559
2048 3071 3071
2048 3071 3583
2048 3071 4095
2048 3583 0
2048 3583 512
2048 3583 1024
2048 3583 1536
2048 3583 2048
2048 3583 2559
2048 3583 3071
2048 3583 3583
2048 3583 4095
2048 4095 0
2048 4095 512
2048 4095 1024
2048 4095 1536
2048 4095 2048
2048 4095 2559
2048 4095 3071
2048 4095 3583
2048 4095 4095
2559 0 0
2559 0 512
2559 0 1024
2559 0 1536
2559 0 2048
2559 0 2559
2559 0 3071
2559 0 3583
2559 0 4095
2559 512 0
2559 512 512
2559 512 1024
2559 512 1536
2559 512 2048
2559 512 2559
2559 512 3071
2559 512 3583
2559 512 4095
2559 1024 0
2559 1024 512
2559 1024 1024
2559 1024 1536
2559 1024 2048
2559 1024 2559
2559 1024 3071
2559 1024 3583
2559 1024 4095
2559 1536 0
2559 1536 512
2559 1536 1024
2559 1536 1536
2559 1536 2048
2559 1536 2559
2559 1536 3071
2559 1536 3583
2559 1536 4095
2559 2048 0
2559 2048 512
2559 2048 1024
2559 2048 1536
2396 1996 2049
2396 1996 2561
2559 2048 3071
2559 2048 3583
2559 2048 4095
2559 2559 0
2559 2559 512
2559 2559 1024
2559 2559 1536
2396 2521 2049
2135 2460 2563
2347 2509 3073
2532 2553 3583
2559 2559 4095
2559 3071 0
2559 3071 512
2559 3071 1024
2559 3071 1536
2559 3071 2048
2347 3038 2561
2347 3038 3073
2532 3067 3583
2559 3071 4095
2559 3583 0
2559 3583 512
2559 3583 1024
2559 3583 1536
2559 3583 2048
2532 3581 2560
2532 3581 3071
2532 3581 3583
2559 3583 4095
2559 4095 0
2559 4095 512
2559 4095 1024
2559 4095 1536
2559 4095 2048
2559 4095 2559
2559 4095 3071
2559 4095 3583
2559 4095 4095
3071 0 0
3071 0 512
3071 0 1024
3071 0 1536
3071 0 2048
3071 0 2559
3071 0 3071
3071 0 3583
3071 0 4095
3071 512 0
3071 512 512
3071 512 1024
3071 512 1536
3071 512 2048
3071 512 2559
3071 512 3071
3071 512 3583
3071 512 4095
3071 1024 0
3071 1024 512
3071 1024 1024
3071 1024 1536
3071 1024 2048
3071 1024 2559
3071 1024 3071
3071 1024 3583
3071 1024 4095
3071 1536 0
3071 1536 512
3071 1536 1024
3071 1536 1536
3071 1536 2048
3071 1536 2559
3071 1536 3071
3071 1536 3583
3071 1536 4095
3071 2048 0
3071 2048 512
3071 2048 1024
3071 2048 1536
3071 2048 2048
3071 2048 2559
3071 2048 3071
3071 2048 3583
3071 2048 4095
3071 2559 0
3071 2559 512
3071 2559 1024
3071 2559 1536
3071 2559 2048
2928 2509 2561
2929 2509 3073
3053 2553 3583
3071 2559 4095
3071 3071 0
3071 3071 512
3071 3071 1024
3071 3071 1536
3071 3071 2048
2929 3038 2561
2789 3005 3074
2904 3032 3584
3021 3059 4095
3071 3583 0
3071 3583 512
3071 3583 1024
3071 3583 1536
3071 3583 2048
3053 3581 2560
2904 3564 3072
2905 3564 3584
3021 3577 4095
3071 4095 0
3071 4095 512
3071 4095 1024
3071 4095 1536
3071 4095 2048
3071 4095 2559
3021 4095 3072
3021 4095 3583
3021 4095 4095
3583 0 0
3583 0 512
3583 0 1024
3583 0 1536
3583 0 2048
3583 0 2559
3583 0 3071
3583 0 3583
3583 0 4095
3583 512 0
3583 512 512
3583 512 1024
3583 512 1536
3583 512 2048
3583 512 2559
3583 512 3071
3583 512 3583
3583 512 4095
3583 1024 0
3583 1024 512
3583 1024 1024
3583 1024 1536
3583 1024 2048
3583 1024 2559
3583 1024 3071
3583 1024 3583
3583 1024 4095
3583 1536 0
3583 1536 512
3583 1536 1024
3583 1536 1536
3583 1536 2048
3583 1536 2559
3583 1536 3071
3583 1536 3583
3583 1536 4095
3583 2048 0
3583 2048 512
3583 2048 1024
3583 2048 1536
3583 2048 2048
3583 2048 2559
3583 2048 3071
3583 2048 3583
3583 2048 4095
3583 2559 0
3583 2559 512
3583 2559 1024
3583 2559 1536
3583 2559 2048
3574 2553 2559
3574 2553 3071
3574 2553 3583
3583 2559 4095
3583 3071 0
3583 3071 512
3583 3071 1024
3583 3071 1536
3583 3071 2048
3574 3067 2559
3498 3031 3072
3499 3032 3584
3558 3059 4095
3583 3583 0
3583 3583 512
3583 3583 1024
3583 3583 1536
3583 3583 2048
3574 3581 2559
3499 3563 3072
3442 3550 3584
3490 3561 4095
3583 4095 0
3583 4095 512
3583 4095 1024
3583 4095 1536
3583 4095 2048
3583 4095 2559
3558 4095 3071
3490 4095 3584
3490 4095 4095
4095 0 0
4095 0 512
4095 0 1024
4095 0 1536
4095 0 2048
4095 0 2559
4095 0 3071
4095 0 3583
4095 0 4095
4095 512 0
4095 512 512
4095 512 1024
4095 512 1536
4095 512 2048
4095 512 2559
4095 512 3071
4095 512 3583
4095 512 4095
4095 1024 0
4095 1024 512
4095 1024 1024
4095 1024 1536
4095 1024 2048
4095 1024 2559
4095 1024 3071
4095 1024 3583
4095 1024 4095
4095 1536 0
4095 1536 512
4095 1536 1024
4095 1536 1536
4095 1536 2048
4095 1536 2559
4095 1536 3071
4095 1536 3583
4095 1536 4095
4095 2048 0
4095 2048 512
4095 2048 1024
4095 2048 1536
4095 2048 2048
4095 2048 2559
4095 2048 3071
4095 2048 3583
4095 2048 4095
4095 2559 0
4095 2559 512
4095 2559 1024
4095 2559 1536
4095 2559 2048
4095 2559 2559
4095 2559 3071
4095 2559 3583
4095 2559 4095
4095 3071 0
4095 3071 512
4095 3071 1024
4095 3071 1536
4095 3071 2048
4095 3071 2559
4094 3059 3071
4095 3059 3583
4095 3059 4095
4095 3583 0
4095 3583 512
4095 3583 1024
4095 3583 1536
4095 3583 2048
4095 3583 2559
4095 3577 3071
4094 3561 3583
4094 3561 4095
4095 4095 0
4095 4095 512
4095 4095 1024
4095 4095 1536
4095 4095 2048
4095 4095 2559
4095 4095 3071
4094 4095 3583
4095 4095 4095
