Examples/Masked Alt - Double Camera Calibration 2.3dl
#25pt 3DLUT created by 3D LUT Creator Pro (c) Oleg Sharonov
#Copyright Oleg Sharonov
#INPUTGAMMA sRGB IEC61966-2.1 v.2.10
#IMAGEPROFILE sRGB IEC61966-2.1 v.2.10
#OUTPUTGAMMA sRGB IEC61966-2.1 v.2.10
0 43 86 128 171 214 256 299 341 384 427 469 512 555 597 640 682 725 768 810 853 896 938 981 1023 
0 0 0
0 42 165
0 97 302
0 180 475
0 273 620
0 351 740
0 420 849
0 490 967
0 565 1090
0 646 1224
0 730 1366
0 814 1506
0 899 1647
0 983 1788
0 1067 1926
0 1151 2068
0 1236 2208
0 1320 2347
0 1405 2487
0 1489 2628
0 1576 2725
0 1670 2733
0 1763 2734
0 1856 2735
0 1948 2740
19 142 19
0 186 161
0 230 349
0 291 494
0 356 642
0 414 765
0 478 890
0 546 1008
0 619 1138
0 697 1272
0 776 1414
0 855 1543
0 935 1675
0 1017 1824
0 1098 1959
0 1180 2094
0 1262 2229
0 1344 2367
0 1427 2504
0 1510 2642
0 1596 2753
0 1688 2742
0 1780 2748
0 1873 2756
0 1963 2750
48 304 48
16 334 71
0 363 326
0 403 503
0 446 665
0 499 802
0 557 933
0 622 1068
0 690 1203
0 759 1325
0 833 1464
0 907 1599
0 982 1720
0 1060 1861
0 1138 1990
0 1217 2135
0 1296 2264
0 1376 2398
0 1458 2552
0 1538 2684
0 1622 2773
0 1713 2779
0 1804 2777
0 1894 2772
0 1984 2766
87 461 87
58 485 58
10 512 233
0 540 492
0 573 680
0 616 842
0 665 986
0 722 1127
0 780 1255
0 844 1389
0 910 1524
0 979 1655
0 1049 1782
0 1121 1911
0 1195 2045
0 1270 2182
0 1345 2305
0 1423 2448
0 1500 2579
0 1580 2727
0 1660 2814
0 1750 2813
0 1838 2810
0 1927 2803
0 2016 2804
52 628 100
36 646 78
16 668 48
0 690 408
0 716 658
0 749 849
0 790 1015
0 837 1166
0 888 1311
0 944 1446
0 1004 1582
0 1066 1711
0 1132 1850
0 1199 1981
0 1267 2104
0 1338 2234
0 1410 2368
0 1483 2505
0 1557 2625
0 1633 2767
0 1711 2871
0 1798 2867
0 1885 2857
0 1972 2849
0 2058 2838
42 793 107
36 805 87
29 822 68
23 843 220
0 866 582
0 893 823
0 926 1018
0 965 1189
0 1009 1345
0 1059 1495
0 1111 1636
0 1168 1768
0 1227 1902
0 1288 2034
0 1353 2170
0 1420 2307
0 1487 2431
0 1556 2558
0 1627 2689
0 1699 2826
0 1773 2942
0 1857 2918
0 1941 2908
0 2025 2895
0 2110 2887
78 953 107
71 963 97
65 977 81
48 998 58
26 1019 433
0 1043 751
0 1070 989
0 1102 1186
0 1139 1359
0 1182 1519
0 1230 1674
0 1280 1814
0 1335 1957
0 1391 2097
0 1451 2228
0 1512 2362
0 1576 2493
0 1641 2626
0 1707 2750
0 1775 2879
0 1846 3008
0 1927 2984
0 2008 2968
0 2090 2951
0 2173 2941
126 1114 107
119 1123 97
107 1134 84
90 1152 68
68 1175 74
23 1195 625
0 1220 921
0 1247 1155
0 1278 1354
0 1315 1530
0 1356 1693
0 1402 1848
0 1451 1998
0 1502 2137
0 1558 2283
0 1615 2421
0 1674 2553
0 1734 2679
0 1797 2809
0 1863 2947
0 1928 3069
0 2007 3060
0 2084 3029
0 2164 3011
0 2243 2996
180 1275 107
171 1282 100
158 1292 90
142 1307 78
116 1328 61
71 1350 393
16 1371 808
0 1397 1089
0 1424 1321
0 1454 1520
0 1491 1699
0 1531 1865
0 1575 2024
0 1623 2176
0 1673 2320
0 1726 2465
0 1780 2598
0 1838 2741
0 1898 2878
0 1958 3007
0 2021 3140
0 2094 3128
0 2169 3096
0 2246 3077
0 2323 3059
228 1436 126
220 1442 119
209 1451 113
192 1464 103
168 1482 87
132 1504 68
71 1525 626
6 1548 986
0 1574 1257
0 1600 1487
0 1632 1688
0 1667 1868
0 1706 2038
0 1750 2201
0 1795 2354
0 1843 2500
0 1895 2645
0 1948 2787
0 2004 2926
0 2062 3062
0 2120 3190
0 2191 3208
0 2262 3171
0 2335 3146
0 2409 3120
271 1596 155
264 1602 152
255 1610 145
240 1622 132
220 1638 119
189 1658 100
142 1681 248
68 1701 830
0 1724 1160
0 1751 1424
0 1778 1653
0 1809 1855
0 1842 2036
0 1881 2210
0 1923 2373
0 1968 2526
0 2015 2677
0 2066 2828
0 2118 2971
0 2172 3113
0 2227 3246
0 2292 3278
0 2360 3243
0 2419 3230
0 2478 3216
314 1757 189
308 1763 186
299 1769 177
287 1780 168
269 1794 152
243 1812 136
209 1834 113
142 1856 572
58 1877 1021
0 1901 1332
0 1926 1592
0 1954 1819
0 1985 2021
0 2019 2206
0 2057 2379
0 2098 2545
0 2142 2704
0 2184 2866
0 2225 3018
0 2268 3167
0 2312 3323
0 2361 3381
0 2416 3367
0 2472 3355
0 2526 3337
358 1918 222
352 1923 220
345 1929 214
334 1939 203
318 1951 192
295 1968 174
267 1987 152
233 2010 132
152 2028 822
65 2047 1217
0 2069 1517
0 2093 1775
0 2117 2004
0 2143 2210
0 2172 2401
0 2203 2581
0 2237 2758
0 2273 2927
0 2309 3093
0 2347 3253
0 2385 3411
0 2427 3508
0 2478 3502
0 2529 3486
0 2580 3468
431 2062 287
427 2066 291
422 2071 293
412 2079 295
401 2089 295
386 2103 295
367 2119 291
343 2138 287
304 2158 538
233 2174 1107
155 2192 1459
61 2212 1743
0 2234 1993
0 2257 2220
0 2280 2426
0 2306 2620
0 2334 2805
0 2364 2983
0 2395 3155
0 2429 3331
0 2462 3497
0 2497 3626
0 2544 3631
0 2591 3619
0 2638 3599
509 2200 354
506 2203 365
501 2208 376
496 2214 384
486 2223 393
475 2235 399
461 2249 404
443 2265 408
423 2285 411
372 2300 937
316 2314 1381
260 2330 1703
186 2348 1975
84 2368 2218
0 2390 2444
0 2411 2651
0 2435 2849
0 2460 3038
0 2487 3224
0 2514 3399
0 2542 3574
0 2572 3750
0 2613 3765
0 2655 3749
0 2699 3733
590 2335 423
586 2338 440
583 2342 455
578 2347 470
571 2355 482
563 2365 494
552 2377 508
538 2392 521
523 2408 536
506 2427 552
448 2437 1272
404 2449 1652
362 2463 1952
312 2479 2213
245 2497 2451
152 2516 2673
29 2536 2884
0 2557 3087
0 2580 3280
0 2602 3468
0 2626 3652
0 2652 3841
0 2685 3892
0 2723 3883
0 2764 3875
671 2468 497
668 2470 516
665 2473 533
661 2478 552
655 2484 570
649 2493 590
641 2503 612
630 2516 636
618 2530 663
605 2546 692
570 2560 1072
528 2568 1583
496 2578 1922
465 2591 2205
431 2604 2457
389 2619 2690
336 2635 2909
264 2653 3119
161 2671 3321
19 2690 3517
0 2710 3709
0 2729 3897
0 2757 4004
0 2792 4010
0 2829 4001
753 2597 570
751 2599 592
749 2602 612
745 2606 633
740 2611 659
735 2618 688
727 2627 720
719 2638 755
710 2650 793
699 2664 834
687 2680 877
643 2686 1474
614 2693 1884
592 2701 2194
570 2712 2463
548 2723 2708
522 2735 2936
489 2749 3152
451 2763 3361
401 2778 3562
336 2793 3758
248 2809 3951
139 2829 4095
84 2860 4095
45 2893 4095
838 2724 647
835 2725 670
833 2728 692
830 2731 718
826 2735 751
820 2741 788
815 2749 830
807 2758 876
799 2768 926
790 2780 979
781 2793 1035
766 2807 1154
724 2807 1828
706 2812 2182
692 2819 2471
680 2827 2728
667 2835 2965
653 2845 3189
635 2855 3403
614 2866 3610
587 2878 3811
556 2890 4006
888 2894 4095
920 2920 4095
924 2949 4095
923 2847 724
921 2849 748
919 2850 772
915 2853 806
912 2857 845
907 2862 891
901 2868 944
894 2875 1001
887 2884 1062
880 2894 1127
871 2905 1196
862 2917 1267
833 2921 1718
812 2922 2163
803 2925 2480
798 2930 2752
793 2935 2999
789 2941 3230
784 2948 3449
777 2955 3661
768 2963 3866
757 2971 4066
1251 2963 4095
1345 2981 4095
1339 3006 4095
1009 2968 803
1007 2969 828
1004 2970 856
1001 2973 895
997 2976 943
993 2980 998
987 2985 1060
981 2990 1129
974 2997 1202
967 3005 1279
959 3014 1360
952 3024 1444
944 3034 1532
916 3030 2125
908 3030 2489
907 3032 2780
909 3034 3037
912 3037 3276
915 3040 3501
917 3044 3717
919 3049 3925
942 3052 4095
1519 3033 4095
1653 3043 4095
1667 3063 4095
1096 3085 884
1094 3086 911
1092 3087 944
1088 3089 988
1084 3092 1044
1079 3095 1109
1073 3098 1181
1067 3103 1260
1061 3108 1346
1053 3114 1435
1047 3121 1529
1040 3129 1625
1034 3137 1725
1021 3141 1992
1009 3134 2496
1011 3132 2813
1017 3132 3083
1025 3132 3329
1035 3132 3559
1045 3133 3779
1055 3134 3991
1324 3123 4095
1743 3104 4095
1914 3106 4095
1935 3116 4095
1184 3200 967
1182 3201 997
1179 3202 1033
1176 3203 1084
1171 3205 1148
1166 3207 1222
1160 3209 1306
1154 3213 1396
1147 3217 1493
1140 3221 1595
1134 3226 1701
1128 3231 1810
1123 3237 1923
1118 3244 2038
1108 3238 2483
1111 3231 2853
1121 3228 3138
1134 3225 3391
1149 3222 3626
1164 3220 3849
1181 3218 4064
1623 3193 4095
1968 3173 4095
2139 3160 4095
2172 3160 4095
1273 3312 1052
1271 3312 1086
1268 3313 1127
1264 3313 1184
1258 3315 1256
1252 3316 1340
1246 3318 1434
1240 3320 1536
1233 3322 1645
1227 3325 1759
1220 3328 1878
1215 3331 2000
1211 3335 2125
1209 3339 2252
1207 3342 2383
1210 3329 2894
1223 3322 3203
1240 3316 3465
1258 3311 3704
1279 3306 3929
1392 3295 4095
1895 3256 4095
2198 3225 4095
2337 3213 4095
2380 3212 4095
1362 3420 1142
1360 3420 1177
1356 3421 1223
1352 3421 1287
1346 3422 1368
1340 3422 1462
1333 3423 1567
1325 3424 1681
1319 3425 1802
1312 3426 1928
1307 3427 2059
1303 3429 2193
1301 3430 2330
1300 3431 2470
1301 3432 2613
1306 3426 2912
1323 3414 3280
1343 3405 3552
1366 3397 3795
1393 3387 4024
1763 3348 4095
2165 3307 4095
2415 3280 4095
2515 3272 4095
2560 3271 4095
180 0 0
152 23 228
90 81 412
45 171 571
0 271 709
0 356 804
0 427 888
0 499 990
0 575 1118
0 655 1253
0 738 1380
0 822 1520
0 905 1659
0 989 1800
0 1073 1937
0 1157 2075
0 1241 2217
0 1325 2357
0 1409 2496
0 1493 2637
0 1580 2730
0 1674 2741
0 1767 2741
0 1858 2739
0 1951 2746
209 123 36
171 171 171
110 222 384
52 289 557
0 358 708
0 420 821
0 485 926
0 554 1041
0 629 1162
0 706 1300
0 783 1428
0 862 1567
0 942 1699
0 1023 1835
0 1103 1970
0 1185 2104
0 1267 2239
0 1349 2376
0 1431 2513
0 1513 2646
0 1600 2762
0 1691 2750
0 1783 2752
0 1876 2760
0 1966 2754
225 289 65
195 324 84
132 358 334
74 403 536
16 451 707
0 505 849
0 565 975
0 629 1091
0 696 1216
0 766 1346
0 838 1476
0 913 1610
0 989 1744
0 1065 1871
0 1143 2015
0 1221 2141
0 1301 2274
0 1380 2407
0 1461 2556
0 1542 2692
0 1625 2782
0 1717 2787
0 1807 2784
0 1898 2779
0 1988 2780
245 451 103
212 478 74
161 506 240
107 537 500
42 577 702
0 623 872
0 671 1011
0 727 1143
0 786 1273
0 849 1407
0 914 1533
0 983 1662
0 1054 1800
0 1126 1930
0 1199 2054
0 1274 2191
0 1351 2331
0 1426 2456
0 1504 2583
0 1583 2731
0 1663 2818
0 1753 2821
0 1842 2818
0 1930 2807
0 2019 2808
195 624 110
174 642 90
149 664 61
119 687 412
58 717 665
0 754 868
0 794 1031
0 841 1179
0 893 1323
0 949 1463
0 1008 1592
0 1071 1729
0 1135 1855
0 1202 1990
0 1271 2113
0 1341 2242
0 1413 2372
0 1486 2509
0 1561 2650
0 1636 2775
0 1713 2874
0 1801 2870
0 1887 2864
0 1974 2852
0 2060 2841
183 788 113
168 802 97
149 819 78
119 842 225
68 866 587
0 896 831
0 928 1027
0 968 1198
0 1013 1357
0 1061 1500
0 1114 1641
0 1171 1782
0 1231 1915
0 1293 2049
0 1356 2178
0 1423 2311
0 1490 2435
0 1559 2561
0 1629 2697
0 1701 2830
0 1776 2946
0 1859 2921
0 1944 2911
0 2028 2898
0 2113 2893
186 951 116
174 962 103
152 977 87
123 997 68
71 1020 436
3 1045 758
0 1073 996
0 1105 1194
0 1143 1368
0 1185 1529
0 1233 1679
0 1283 1825
0 1337 1964
0 1394 2103
0 1453 2231
0 1515 2369
0 1578 2496
0 1643 2633
0 1710 2757
0 1778 2885
0 1848 3011
0 1929 2987
0 2011 2973
0 2092 2956
0 2175 2946
198 1114 113
183 1122 103
161 1134 94
126 1153 78
84 1177 74
32 1197 630
0 1222 926
0 1249 1161
0 1281 1360
0 1317 1535
0 1359 1699
0 1405 1856
0 1454 2005
0 1505 2147
0 1560 2287
0 1617 2424
0 1676 2556
0 1736 2682
0 1800 2816
0 1865 2949
0 1930 3076
0 2009 3062
0 2087 3042
0 2167 3023
0 2245 2999
203 1275 113
189 1283 107
171 1294 97
155 1309 84
129 1329 68
84 1351 396
26 1372 812
0 1398 1093
0 1426 1326
0 1457 1526
0 1493 1704
0 1533 1871
0 1577 2031
0 1624 2180
0 1675 2329
0 1727 2468
0 1782 2605
0 1840 2743
0 1899 2881
0 1960 3009
0 2023 3143
0 2096 3133
0 2172 3112
0 2249 3088
0 2324 3062
235 1437 132
230 1443 126
220 1452 119
203 1465 110
177 1483 94
145 1506 74
81 1526 628
16 1549 989
0 1574 1261
0 1603 1491
0 1633 1693
0 1668 1873
0 1708 2042
0 1751 2205
0 1797 2360
0 1845 2505
0 1896 2648
0 1950 2790
0 2006 2932
0 2063 3065
0 2123 3206
0 2192 3210
0 2264 3177
0 2337 3151
0 2411 3127
280 1597 165
273 1603 158
264 1611 152
250 1623 139
228 1639 126
201 1659 107
155 1682 248
78 1702 832
0 1725 1163
0 1752 1428
0 1779 1657
0 1810 1859
0 1844 2041
0 1883 2214
0 1925 2377
0 1970 2535
0 2017 2686
0 2067 2831
0 2119 2976
0 2173 3115
0 2228 3248
0 2294 3281
0 2361 3253
0 2420 3232
0 2479 3219
