Examples/Masks limit - Orange.3dl
#25pt 3DLUT created by 3D LUT Creator Pro (c) Oleg Sharonov
#Copyright Oleg Sharonov
0 128 256 384 512 640 768 896 1023
0 0 0
23 10 486
92 50 921
208 118 1305
370 216 1638
579 343 1920
672 402 2329
711 428 2799
750 455 3269
296 314 0
299 435 312
352 539 672
466 621 1034
633 715 1361
696 775 1802
727 816 2278
760 852 2752
796 885 3224
908 513 0
838 652 82
831 839 541
812 1003 883
772 1104 1239
795 1176 1712
821 1233 2189
849 1281 2667
879 1323 3142
1094 959 0
1048 1036 150
1004 1170 579
1001 1325 985
986 1464 1331
977 1570 1736
934 1641 2088
961 1703 2562
988 1756 3038
1290 1390 0
1255 1441 186
1174 1556 421
1186 1667 1039
1182 1806 1416
1171 1932 1764
1169 2037 2177
1151 2118 2560
1114 2179 2922
1499 1811 0
1472 1848 207
1403 1938 444
1341 2052 814
1377 2155 1444
1377 2284 1837
1368 2402 2185
1366 2505 2588
1367 2593 3007
1721 2224 0
1699 2253 219
1638 2326 458
1560 2432 734
1575 2521 1365
1584 2635 1851
1585 2758 2248
1579 2872 2596
1566 2974 2989
1958 2630 0
1939 2653 226
1884 2714 466
1813 2806 734
1731 2920 1035
1804 2992 1851
1805 3110 2255
1808 3229 2653
1725 3338 2986
2209 3027 0
2193 3047 229
2145 3100 469
2077 3181 730
2000 3284 1020
1997 3372 1587
2040 3461 2279
1973 3574 2645
1887 3688 3026
504 67 0
530 89 415
609 123 820
719 191 1189
871 292 1514
1055 414 1803
1105 435 2280
1152 457 2754
1197 481 3226
550 376 191
512 512 512
785 623 668
935 705 967
1044 773 1262
1094 811 1739
1142 847 2222
1188 880 2701
1231 911 3177
1014 577 0
997 676 351
1086 858 644
1164 1040 916
1194 1143 1270
1184 1202 1645
1229 1257 2129
1270 1304 2612
1310 1344 3092
1395 901 0
1333 999 83
1317 1137 652
1335 1321 1012
1364 1476 1332
1381 1589 1719
1373 1664 2092
1372 1720 2503
1411 1773 2983
1632 1322 0
1590 1385 138
1500 1521 376
1526 1636 1082
1544 1796 1414
1560 1934 1748
1575 2047 2156
1574 2132 2538
1540 2193 2886
1862 1740 0
1830 1784 169
1746 1892 380
1724 2002 891
1740 2126 1451
1752 2270 1821
1762 2399 2160
1773 2510 2559
1782 2602 2971
2096 2152 0
2071 2185 188
1998 2271 403
1914 2393 666
1947 2482 1367
1957 2608 1842
1968 2743 2225
1975 2866 2566
1973 2975 2956
2340 2556 0
2319 2583 200
2257 2654 418
2177 2759 671
2093 2885 971
2176 2956 1832
2183 3084 2235
2194 3213 2624
2114 3330 2953
2596 2953 0
2578 2975 206
2524 3035 427
2447 3128 673
2366 3242 954
2383 3328 1593
2415 3426 2267
2348 3550 2621
2256 3673 2996
998 332 0
1009 323 227
1089 391 683
1245 444 987
1376 469 1269
1463 473 1743
1531 485 2221
1590 501 2698
1644 520 3173
1014 576 0
997 677 351
1112 831 646
1329 863 927
1449 865 1293
1495 860 1678
1565 889 2162
1623 917 2643
1676 945 3122
1092 783 494
1073 858 690
1024 1024 1024
1365 1152 1091
1537 1237 1377
1624 1291 1763
1673 1329 2179
1696 1352 2590
1727 1379 3033
1523 994 203
1518 1050 499
1473 1199 907
1527 1382 1199
1666 1532 1439
1754 1639 1762
1802 1714 2143
1827 1768 2545
1821 1801 2923
1865 1338 0
1825 1406 99
1802 1500 733
1783 1652 1202
1835 1819 1515
1908 1962 1808
1958 2079 2180
1992 2164 2553
2008 2229 2945
2149 1722 0
2116 1772 135
2026 1892 324
2048 1979 1069
2042 2124 1557
2085 2278 1878
2132 2413 2193
2166 2530 2577
2194 2624 2967
2414 2115 0
2387 2153 158
2310 2250 352
2265 2357 804
2284 2459 1451
2292 2597 1904
2322 2742 2257
2355 2873 2581
2377 2987 2962
2677 2509 0
2654 2539 174
2588 2618 372
2495 2736 610
2505 2826 1232
2521 2933 1868
2536 3070 2271
2560 3207 2639
2494 3332 2960
2945 2899 0
2925 2924 183
2868 2991 384
2780 3094 616
2697 3219 888
2753 3290 1673
2764 3401 2313
2705 3535 2641
2611 3666 3005
1487 705 0
1492 664 102
1516 660 577
1637 659 1006
1778 620 1372
1879 599 1793
1943 551 2165
2019 559 2639
2085 573 3113
1502 823 0
1495 863 42
1513 944 650
1642 990 1033
1809 989 1371
1922 989 1773
1995 973 2162
2047 969 2582
2113 991 3061
1537 979 209
1531 1038 500
1509 1161 909
1617 1278 1212
1833 1343 1461
1987 1376 1792
2080 1399 2180
2137 1416 2588
2158 1418 2974
1620 1237 695
1615 1261 898
1585 1373 1173
1536 1536 1536
1841 1647 1649
2043 1736 1899
2169 1801 2243
2251 1851 2637
2307 1891 3053
1980 1488 516
1992 1505 728
1973 1598 1044
1930 1746 1443
1999 1903 1737
2168 2034 1961
2295 2139 2255
2379 2220 2608
2435 2285 2997
2348 1789 0
2330 1829 238
2314 1901 815
2277 2020 1313
2260 2171 1737
2340 2323 2025
2447 2457 2295
2523 2574 2647
2587 2664 2999
2663 2140 0
2638 2180 134
2567 2280 311
2574 2347 1124
2559 2472 1624
2560 2620 2052
2625 2767 2358
2699 2899 2653
2755 3017 3012
2958 2506 0
2935 2539 150
2871 2624 331
2813 2726 732
2830 2807 1468
2824 2933 1975
2843 3077 2376
2890 3220 2710
2855 3350 3014
3248 2879 0
3228 2906 161
3170 2979 345
3083 3089 565
3075 3170 1210
3088 3270 1820
3083 3396 2367
3038 3536 2719
2946 3674 3062
1996 804 0
1994 771 151
2016 707 427
2042 761 1070
2158 750 1470
2286 717 1840
2383 704 2269
2463 675 2671
2516 637 3053
1999 1029 0
1998 1020 99
2010 1004 386
2026 1099 1109
2166 1110 1466
2309 1100 1823
2413 1103 2247
2500 1089 2647
2548 1060 3021
2025 1190 0
2022 1216 80
2007 1295 733
2026 1390 1219
2161 1454 1551
2334 1481 1861
2459 1506 2248
2560 1512 2633
2629 1517 3037
2057 1410 520
2054 1441 731
2045 1526 1044
2023 1648 1447
2126 1760 1752
2341 1834 1987
2514 1886 2288
2635 1923 2648
2720 1953 3043
2145 1703 851
2144 1709 1071
2127 1778 1332
2094 1899 1660
2048 2048 2048
2333 2149 2185
2551 2239 2416
2704 2312 2728
2813 2370 3092
2463 1967 754
2480 1965 960
2474 2024 1226
2452 2133 1565
2412 2277 1966
2490 2419 2263
2676 2539 2478
2829 2643 2749
2943 2729 3073
2841 2243 323
2844 2258 597
2830 2315 974
2803 2411 1401
2762 2540 1855
2750 2687 2262
2851 2829 2535
2984 2956 2787
3082 3072 3113
3180 2565 0
3160 2597 133
3124 2665 474
3117 2732 1168
3086 2839 1709
3069 2971 2156
3081 3118 2553
3164 3260 2844
3186 3390 3119
3500 2907 0
3481 2935 144
3427 3009 312
3372 3103 675
3384 3167 1502
3369 3282 2027
3360 3417 2490
3334 3561 2856
3250 3703 3173
2504 902 0
2502 875 184
2513 816 452
2533 789 875
2578 849 1509
2681 844 1926
2799 815 2299
2895 801 2722
2977 793 3157
2503 1173 0
2503 1158 140
2507 1122 391
2528 1153 936
2574 1211 1513
2689 1220 1909
2819 1206 2275
2920 1205 2693
3006 1204 3122
2519 1379 0
2518 1386 114
2513 1396 342
2520 1484 1093
2555 1558 1602
2691 1592 1947
2841 1603 2286
2955 1619 2687
3053 1627 3094
2549 1589 0
2546 1614 235
2538 1675 818
2520 1768 1324
2538 1867 1761
2677 1939 2069
2857 1984 2356
2993 2024 2723
3115 2045 3087
2574 1858 744
2573 1873 956
2569 1932 1223
2559 2027 1565
2537 2148 1970
2636 2257 2278
2851 2335 2506
3038 2397 2786
3182 2445 3116
2671 2163 1016
2673 2160 1246
2662 2205 1498
2639 2295 1803
2604 2418 2161
2559 2559 2559
2835 2656 2710
3061 2746 2929
3236 2823 3215
2976 2430 944
2989 2421 1163
2980 2461 1428
2968 2542 1729
2946 2658 2081
2908 2799 2484
2991 2933 2782
3189 3047 2990
3361 3150 3244
3339 2700 668
3353 2697 883
3347 2738 1177
3329 2815 1539
3301 2922 1945
3258 3056 2383
3251 3201 2780
3367 3335 3042
3475 3457 3280
3702 2989 0
3687 3017 132
3679 3054 770
3662 3122 1281
3635 3217 1769
3598 3336 2255
3583 3473 2679
3584 3618 3055
3515 3758 3337
3011 1001 0
3010 979 206
3013 925 474
3032 872 810
3046 921 1451
3109 943 1954
3204 941 2376
3317 915 2753
3399 901 3172
3009 1302 0
3008 1286 170
3007 1246 418
3028 1211 747
3043 1286 1447
3108 1319 1942
3213 1328 2353
3334 1313 2724
3422 1308 3140
3018 1545 0
3018 1543 142
3016 1533 368
3019 1563 858
3039 1639 1511
3100 1690 1986
3218 1715 2366
3354 1718 2719
3459 1727 3123
3041 1768 0
3039 1780 129
3036 1803 336
3021 1884 1146
3032 1963 1659
3076 2041 2107
3214 2089 2438
3373 2115 2756
3498 2143 3135
3070 2014 321
3068 2034 597
3063 2081 977
3052 2158 1408
3032 2258 1868
3050 2360 2288
3193 2437 2582
3381 2492 2853
3528 2542 3193
3104 2306 923
3101 2312 1151
3089 2356 1419
3082 2432 1723
3071 2533 2081
3049 2654 2488
3148 2761 2797
3365 2842 3019
3562 2910 3281
3199 2618 1191
3202 2609 1427
3196 2639 1673
3178 2708 1960
3151 2809 2293
3115 2934 2666
3071 3071 3071
3342 3165 3228
3576 3256 3436
3501 2883 1129
3515 2869 1349
3511 2895 1598
3492 2960 1900
3470 3056 2234
3448 3177 2596
3411 3316 2999
3499 3445 3297
3706 3555 3498
3831 3151 947
3850 3139 1149
3855 3165 1400
3850 3226 1713
3835 3316 2075
3805 3432 2474
3763 3567 2905
3759 3711 3295
3738 3843 3553
3518 1103 0
3518 1085 223
3517 1035 491
3531 982 815
3549 939 1189
3556 1041 1967
3638 1043 2398
3729 1042 2823
3755 1008 3212
3515 1424 0
3515 1409 191
3514 1368 440
3526 1327 756
3546 1299 1132
3554 1414 1946
3639 1428 2378
3737 1435 2795
3767 1410 3181
3520 1696 0
3520 1689 164
3519 1669 392
3519 1653 698
3538 1708 1328
3553 1781 1965
3636 1814 2396
3744 1833 2793
3784 1821 3167
3537 1937 0
3536 1941 147
3534 1947 356
3527 1979 795
3528 2060 1522
3551 2130 2046
3623 2187 2471
3746 2224 2834
3806 2231 3182
3562 2181 0
3561 2194 140
3557 2226 502
3548 2289 1189
3532 2369 1736
3544 2455 2197
3595 2538 2614
3737 2595 2930
3833 2628 3239
3589 2452 650
3588 2464 874
3585 2502 1172
3578 2566 1539
3565 2652 1952
3544 2757 2397
3562 2862 2807
3710 2943 3090
3862 3002 3351
3638 2753 1098
3637 2753 1328
3628 2784 1584
3610 2847 1891
3595 2935 2228
3584 3042 2595
3561 3162 3003
3660 3269 3312
3880 3352 3527
3729 3068 1377
3733 3055 1616
3729 3074 1858
3716 3128 2130
3694 3213 2441
3664 3321 2792
3627 3447 3175
3583 3583 3583
3852 3676 3741
3949 3335 1311
3963 3318 1533
3970 3334 1774
3971 3384 2058
3968 3464 2388
3962 3568 2743
3953 3691 3109
3920 3829 3513
3926 3957 3810
4025 1209 0
4024 1193 234
4024 1149 503
4031 1097 820
4048 1050 1180
4062 1079 1762
4076 1151 2433
4095 1133 2852
4095 1119 3287
4021 1543 0
4021 1529 207
4021 1490 457
4026 1446 765
4044 1410 1121
4059 1463 1759
4071 1536 2420
4095 1524 2828
4095 1517 3260
4024 1837 0
4024 1829 182
4023 1803 412
4021 1778 708
4039 1760 1057
4054 1847 1809
4058 1922 2447
4095 1921 2830
4095 1923 3249
4036 2098 0
4035 2097 163
4034 2091 374
4031 2091 655
4027 2148 1306
4048 2215 1917
4062 2285 2476
4095 2312 2872
4095 2327 3269
4056 2348 0
4055 2355 151
4053 2368 348
4048 2401 748
4033 2481 1552
4038 2555 2087
4062 2631 2567
4095 2687 2966
4095 2720 3330
4082 2608 0
4081 2620 146
4078 2652 787
4071 2704 1298
4060 2777 1790
4042 2865 2284
4056 2956 2722
4095 3041 3119
4095 3093 3440
4095 2894 909
4095 2901 1127
4095 2931 1387
4095 2984 1706
4092 3060 2074
4078 3154 2480
4056 3261 2919
4074 3369 3321
4095 3445 3605
4095 3202 1270
4095 3198 1503
4095 3220 1753
4095 3270 2042
4095 3345 2376
4095 3441 2736
4095 3550 3108
4073 3672 3516
4095 3778 3825
4095 3525 1544
4095 3511 1787
4095 3523 2029
4095 3563 2295
4095 3631 2595
4095 3723 2929
4095 3834 3294
4095 3959 3684
4095 4095 4095
