Examples/Masked Alt - Double Camera Calibration 2.3dl
#25pt 3DLUT created by 3D LUT Creator Pro (c) Oleg Sharonov
#Copyright Oleg Sharonov
#INPUTGAMMA sRGB IEC61966-2.1 v.2.10
#IMAGEPROFILE sRGB IEC61966-2.1 v.2.10
#OUTPUTGAMMA sRGB IEC61966-2.1 v.2.10
0 128 256 384 512 640 768 896 1023
0 0 0
0 180 475
0 420 849
0 646 1224
0 899 1647
0 1151 2068
0 1405 2487
0 1670 2733
0 1948 2740
87 461 87
0 540 492
0 665 986
0 844 1389
0 1049 1782
0 1270 2182
0 1500 2579
0 1750 2813
0 2016 2804
78 953 107
48 998 58
0 1070 989
0 1182 1519
0 1335 1957
0 1512 2362
0 1707 2750
0 1927 2984
0 2173 2941
228 1436 126
192 1464 103
71 1525 626
0 1600 1487
0 1706 2038
0 1843 2500
0 2004 2926
0 2191 3208
0 2409 3120
358 1918 222
334 1939 203
267 1987 152
65 2047 1217
0 2117 2004
0 2203 2581
0 2309 3093
0 2427 3508
0 2580 3468
590 2335 423
578 2347 470
552 2377 508
506 2427 552
362 2463 1952
152 2516 2673
0 2580 3280
0 2652 3841
0 2764 3875
838 2724 647
830 2731 718
815 2749 830
790 2780 979
724 2807 1828
680 2827 2728
635 2855 3403
556 2890 4006
924 2949 4095
1096 3085 884
1088 3089 988
1073 3098 1181
1053 3114 1435
1034 3137 1725
1011 3132 2813
1035 3132 3559
1324 3123 4095
1935 3116 4095
1362 3420 1142
1352 3421 1287
1333 3423 1567
1312 3426 1928
1301 3430 2330
1306 3426 2912
1366 3397 3795
2165 3307 4095
2560 3271 4095
532 0 0
471 110 591
201 427 1019
0 679 1423
0 926 1749
0 1175 2126
0 1423 2523
0 1685 2760
0 1961 2762
590 409 132
512 512 512
324 670 1067
0 863 1542
0 1068 1873
0 1288 2231
0 1516 2625
0 1762 2838
0 2028 2823
590 928 126
546 980 78
412 1065 1004
58 1193 1582
0 1346 2011
0 1524 2397
0 1719 2789
0 1938 3015
0 2182 2960
594 1424 139
558 1455 116
452 1521 629
195 1604 1502
0 1714 2066
0 1851 2522
0 2011 2940
0 2197 3222
0 2417 3139
590 1914 240
558 1934 225
478 1983 189
260 2046 1232
0 2120 2021
0 2207 2601
0 2311 3103
0 2432 3531
0 2586 3490
657 2340 416
636 2352 474
584 2383 517
518 2435 566
377 2471 1957
180 2524 2678
0 2588 3286
0 2659 3837
0 2772 3874
842 2734 624
833 2742 713
817 2760 829
793 2791 982
726 2818 1826
681 2838 2726
635 2867 3400
554 2902 4003
916 2962 4095
1096 3099 856
1088 3102 973
1073 3112 1171
1052 3128 1431
1031 3150 1725
1008 3146 2807
1030 3147 3552
1291 3139 4095
1928 3132 4095
1361 3435 1110
1350 3436 1263
1330 3438 1550
1310 3441 1916
1297 3445 2323
1302 3442 2903
1359 3413 3784
2149 3324 4095
2568 3286 4095
1041 0 0
1035 0 614
896 369 1119
692 686 1564
358 953 2015
0 1210 2456
0 1458 2750
0 1720 2908
0 1995 2854
1197 129 201
1115 370 535
957 619 1121
765 852 1601
465 1082 2060
0 1315 2517
0 1546 2837
0 1794 2980
0 2059 2911
1180 845 161
1139 912 113
1024 1024 1024
862 1173 1612
614 1347 2114
0 1540 2588
0 1741 2964
0 1962 3139
0 2208 3033
1176 1377 161
1148 1412 142
1070 1488 624
935 1583 1515
735 1710 2113
334 1861 2635
0 2029 3089
0 2216 3324
0 2430 3208
1170 1879 262
1147 1901 255
1090 1954 238
957 2024 1249
789 2106 2041
509 2207 2652
0 2321 3200
0 2440 3607
0 2596 3540
1103 2334 420
1051 2349 468
1014 2381 527
952 2435 590
816 2476 1960
656 2533 2681
376 2602 3291
0 2678 3852
0 2793 3898
1078 2750 609
1067 2757 687
1041 2776 820
1001 2808 987
917 2838 1820
836 2861 2718
746 2893 3393
614 2930 3996
940 2989 4095
1195 3126 815
1185 3130 928
1164 3139 1146
1136 3156 1420
1101 3179 1727
1056 3177 2793
1050 3180 3535
1247 3176 4095
1921 3168 4095
1394 3470 1036
1382 3471 1198
1359 3473 1506
1334 3476 1890
1313 3481 2310
1304 3478 2887
1343 3452 3763
2136 3365 4095
2568 3325 4095
1559 0 0
1561 0 572
1542 0 1213
1355 612 1669
1159 942 2115
911 1220 2562
492 1483 3014
0 1759 3246
0 2047 3116
1677 113 103
1677 116 490
1574 431 1182
1399 786 1678
1208 1063 2140
967 1317 2593
579 1564 3046
0 1827 3287
0 2107 3166
1783 650 206
1739 752 161
1621 921 1047
1471 1115 1656
1295 1320 2166
1070 1531 2642
733 1748 3105
55 1985 3375
0 2248 3259
1764 1283 198
1736 1326 177
1663 1419 605
1536 1536 1536
1383 1680 2144
1184 1845 2670
896 2026 3160
406 2221 3500
0 2436 3436
1755 1824 282
1735 1848 269
1686 1907 287
1584 1986 1257
1443 2079 2054
1239 2191 2670
918 2316 3223
521 2446 3689
0 2614 3674
1759 2308 404
1741 2324 398
1694 2360 513
1611 2420 601
1436 2475 1946
1110 2551 2680
943 2623 3289
695 2701 3850
449 2820 3929
1731 2748 578
1710 2758 577
1650 2781 776
1531 2822 975
1201 2872 1803
1100 2899 2699
1015 2933 3372
907 2973 3975
1106 3033 4095
1574 3159 790
1536 3166 802
1399 3183 1087
1262 3206 1394
1226 3229 1723
1174 3231 2763
1156 3235 3502
1194 3240 4095
1950 3228 4095
1428 3531 1018
1425 3533 1057
1399 3535 1420
1371 3539 1838
1348 3543 2282
1338 3542 2854
1367 3519 3721
2087 3440 4095
2587 3391 4095
2080 0 0
2088 0 499
2067 0 1186
2001 322 1768
1814 855 2221
1622 1194 2666
1399 1482 3112
1181 1771 3340
1017 2073 3255
2171 90 52
2173 97 363
2153 84 1188
2028 585 1756
1847 983 2229
1658 1286 2684
1437 1558 3134
1217 1835 3373
1050 2128 3285
2344 358 203
2348 367 209
2233 692 1065
2078 987 1705
1911 1251 2229
1729 1496 2710
1517 1734 3174
1295 1985 3447
1122 2260 3353
2363 1113 235
2335 1170 220
2263 1294 563
2131 1446 1559
1984 1621 2182
1817 1808 2712
1616 1998 3206
1375 2197 3559
1071 2425 3515
2335 1754 291
2316 1782 278
2269 1849 310
2174 1941 1243
2048 2048 2048
1895 2170 2667
1698 2303 3221
1417 2446 3703
1007 2631 3720
2339 2287 377
2325 2303 370
2287 2342 467
2223 2406 597
2097 2468 1900
1944 2545 2630
1734 2633 3251
1377 2732 3829
980 2864 3945
2356 2752 525
2343 2762 522
2306 2786 673
2238 2826 920
2117 2872 1722
1940 2916 2626
1682 2972 3314
1132 3041 3944
1247 3102 4095
2349 3172 718
2334 3179 719
2290 3194 929
2204 3218 1293
2069 3253 1666
1834 3277 2685
1411 3312 3444
1211 3330 4087
1983 3311 4095
2269 3560 945
2250 3564 947
2186 3574 1230
2062 3587 1715
1861 3606 2207
1483 3630 2794
1355 3618 3657
1998 3550 4095
2615 3486 4095
2596 0 0
2612 0 381
2587 0 1147
2572 0 1788
2459 616 2320
2273 1099 2771
2083 1444 3217
1911 1761 3446
1786 2080 3350
2674 61 23
2678 74 142
2664 58 1126
2642 32 1805
2482 785 2316
2299 1197 2778
2110 1518 3230
1937 1821 3473
1809 2131 3375
2817 339 129
2821 349 132
2807 354 1031
2698 710 1752
2528 1105 2294
2354 1417 2785
2170 1692 3253
1992 1963 3527
1850 2240 3450
2967 823 264
2937 918 252
2866 1106 449
2729 1323 1549
2580 1545 2186
2422 1762 2726
2250 1971 3225
2066 2180 3597
1904 2411 3571
2904 1678 287
2886 1712 273
2840 1789 240
2751 1898 1183
2630 2021 2008
2493 2158 2637
2333 2302 3197
2143 2451 3689
1956 2633 3727
2893 2276 330
2880 2294 322
2848 2336 302
2790 2404 562
2685 2475 1823
2559 2559 2559
2405 2654 3183
2209 2754 3760
1982 2888 3912
2919 2774 443
2908 2785 440
2881 2811 433
2828 2851 824
2738 2900 1613
2611 2950 2521
2451 3007 3208
2239 3072 3828
1955 3162 4095
2954 3214 619
2943 3220 619
2917 3236 625
2858 3260 1141
2771 3294 1571
2630 3321 2552
2448 3353 3300
2202 3389 3955
2278 3408 4095
2969 3611 838
2957 3615 839
2926 3625 880
2853 3637 1507
2744 3654 2059
2590 3674 2638
2366 3682 3504
2194 3681 4095
2677 3612 4095
3117 0 0
3134 0 145
3123 0 1088
3098 0 1758
3078 0 2385
2918 883 2871
2732 1343 3322
2569 1719 3546
2444 2063 3455
3182 23 6
3187 39 10
3178 29 1052
3161 0 1761
3123 183 2395
2937 1004 2870
2753 1433 3313
2588 1786 3555
2460 2113 3476
3303 322 97
3306 334 100
3300 349 905
3278 351 1723
3151 864 2317
2972 1315 2806
2795 1649 3269
2631 1943 3571
2499 2231 3527
3491 680 243
3493 687 245
3499 706 255
3330 1161 1470
3174 1465 2140
3018 1725 2695
2857 1959 3206
2694 2182 3600
2556 2418 3610
3471 1588 271
3450 1631 257
3403 1729 217
3317 1864 1049
3200 2009 1923
3071 2164 2567
2928 2320 3137
2769 2476 3646
2623 2659 3724
3428 2285 250
3416 2304 240
3385 2350 209
3333 2424 451
3242 2504 1699
3132 2596 2452
3002 2697 3084
2847 2802 3665
2688 2933 3865
3445 2825 314
3435 2835 308
3413 2861 295
3370 2904 637
3299 2956 1456
3196 3010 2379
3071 3071 3071
2916 3138 3695
2737 3224 4034
3492 3287 471
3484 3293 471
3464 3310 470
3423 3334 889
3358 3367 1431
3255 3397 2384
3124 3431 3131
2960 3468 3786
2871 3507 4095
3547 3698 687
3539 3702 689
3518 3711 694
3472 3725 1193
3397 3740 1859
3293 3759 2456
3145 3770 3308
2959 3786 3970
3195 3742 4095
3637 0 0
3645 0 0
3653 0 978
3639 0 1651
3630 0 2312
3567 488 2887
3367 1263 3316
3201 1698 3572
3071 2061 3529
3696 58 0
3700 78 0
3698 87 906
3690 90 1603
3673 81 2298
3575 758 2853
3380 1372 3294
3215 1771 3572
3084 2115 3541
3799 428 55
3802 440 58
3803 460 685
3793 475 1464
3771 481 2249
3589 1203 2758
3407 1623 3231
3246 1947 3565
3116 2246 3571
3944 821 183
3946 828 186
3952 849 192
3941 871 1220
3769 1352 2044
3607 1701 2614
3448 1972 3138
3295 2211 3559
3165 2452 3623
4087 1303 322
4033 1450 282
3957 1640 212
3868 1837 677
3757 2018 1776
3634 2195 2449
3501 2366 3034
3358 2531 3562
3229 2714 3699
3923 2325 126
3913 2346 107
3889 2396 58
3851 2475 6
3777 2564 1509
3678 2664 2296
3564 2771 2943
3433 2881 3534
3301 3008 3802
3935 2912 52
3931 2922 45
3916 2948 16
3881 2993 55
3822 3047 1223
3738 3103 2190
3635 3168 2896
3511 3236 3527
3372 3318 3932
3989 3399 183
3983 3405 183
3966 3420 180
3937 3447 302
3886 3478 1212
3808 3510 2169
3708 3545 2924
3583 3583 3583
3433 3629 4092
4060 3825 443
4054 3829 445
4038 3838 452
4010 3853 587
3954 3867 1578
3878 3884 2271
3771 3897 3075
3638 3913 3736
3637 3906 4095
4067 386 0
4070 399 0
4069 419 802
4065 443 1448
4051 462 2164
4033 486 2822
3870 1219 3303
3694 1745 3577
3577 2120 3584
4095 509 0
4095 521 3
4095 540 726
4093 564 1401
4078 584 2140
4058 607 2811
3868 1359 3273
3698 1827 3569
3584 2179 3590
4095 818 110
4095 823 113
4095 812 492
4095 867 1273
4095 889 2069
4095 880 2770
3857 1665 3191
3704 2025 3543
3599 2325 3603
4095 1259 372
4095 1264 372
4095 1293 396
4095 1320 1105
4095 1351 1966
4010 1735 2546
3846 2067 3068
3718 2317 3507
3628 2550 3629
4095 1744 644
4095 1748 644
4095 1769 662
4095 1838 866
4084 2106 1604
3955 2321 2332
3845 2502 2929
3745 2664 3470
3674 2831 3672
4095 2452 174
4095 2479 136
4095 2542 52
4071 2634 0
4006 2734 1271
3934 2834 2135
3863 2936 2801
3794 3036 3395
3740 3145 3736
4058 3119 0
4053 3129 0
4040 3155 0
4019 3197 0
3993 3248 916
3953 3298 1989
3910 3352 2716
3867 3408 3350
3831 3469 3827
4055 3631 0
4054 3635 0
4050 3648 0
4043 3670 0
4032 3695 907
4012 3718 1936
3990 3741 2708
3968 3765 3367
3948 3789 3945
4095 4061 116
4095 4063 119
4095 4069 119
4095 4079 126
4095 4088 1199
4095 4093 2067
4095 4095 2830
4095 4095 3483
4095 4095 4095
