Examples/MaskToImage - Cyan-Orange Toning.3dl
#25pt 3DLUT created by 3D LUT Creator Pro (c) Oleg Sharonov
#Copyright Oleg Sharonov
#IMAGEPROFILE sRGB IEC61966-2.1 v.2.10
#INPUTGAMMA sRGB IEC61966-2.1 v.2.10
#OUTPUTGAMMA sRGB IEC61966-2.1 v.2.10
0 256 512 768 1023
0 0 0
0 0 1131
0 0 2262
0 0 3188
0 0 4095
8 983 8
0 890 1201
0 833 2307
0 865 3207
34 944 4095
14 1971 14
4 1884 1277
0 1779 2404
0 1826 3254
179 1897 4095
30 3031 30
4 2987 1268
0 2900 2450
0 2942 3272
241 3000 4095
0 4095 0
0 4075 1242
0 4034 2453
0 4065 3271
0 4095 4095
1142 0 0
930 0 1099
565 0 2328
564 0 3224
698 102 4095
1135 961 0
812 965 1195
569 855 2363
567 884 3239
716 972 4095
860 2011 18
755 1942 1264
581 1805 2440
591 1844 3279
788 1915 4095
766 3061 54
722 3021 1259
483 2922 2471
510 2957 3288
848 3012 4095
742 4095 92
669 4093 1249
389 4047 2468
389 4074 3282
839 4095 4095
2286 0 0
2299 0 716
1860 4 2196
1309 22 3325
1422 333 4095
2345 878 0
2148 965 928
1759 967 2276
1316 950 3332
1437 1067 4095
2270 1923 0
2072 1979 1029
1625 1927 2386
1373 1906 3344
1494 1978 4095
1861 3085 115
1766 3078 1194
1534 3010 2424
1362 3007 3337
1576 3056 4095
1660 4095 287
1609 4095 1258
1310 4087 2491
1336 4095 3318
1701 4095 4095
3201 0 0
3224 0 684
3238 0 1697
2980 34 3147
2781 471 4095
3221 925 0
3191 959 789
3192 996 1809
2961 980 3168
2777 1144 4095
3255 1945 0
3222 1966 761
3045 1962 2121
2917 1944 3221
2799 2020 4095
3193 3012 0
3151 3028 916
2997 3028 2188
2874 3022 3245
2823 3072 4095
3024 4095 186
3010 4095 1113
2943 4095 2236
2747 4095 3309
2885 4095 4095
4095 0 0
4095 84 782
4095 290 1646
4095 302 2965
4095 0 4095
4095 1012 6
4095 1033 780
4095 1101 1633
4095 1093 2958
4095 990 4095
4095 2028 30
4095 2043 784
4095 2090 1600
4095 2070 2934
4095 1985 4095
4095 3061 48
4095 3072 823
4095 3109 1629
4095 3115 2870
4095 3041 4095
4095 4095 0
4095 4095 934
4095 4095 1878
4095 4095 2989
4095 4095 4095
