Examples/Masks - LAB Saturation.3dl
#25pt 3DLUT created by 3D LUT Creator Pro (c) Oleg Sharonov
#Copyright Oleg Sharonov
#IMAGEPROFILE sRGB IEC61966-2.1 v.2.10
#INPUTGAMMA sRGB IEC61966-2.1 v.2.10
#OUTPUTGAMMA sRGB IEC61966-2.1 v.2.10
0 256 512 768 1023
0 0 0
0 0 1029
0 0 2051
0 0 3085
0 0 4095
0 1024 0
0 1025 1025
0 1025 2115
0 1005 3264
0 1007 4095
0 2048 0
0 2051 1010
0 2049 2049
0 2052 3110
0 2048 4095
0 3072 0
0 3077 986
0 3076 2036
0 3073 3073
0 3073 4095
0 4095 0
0 4095 956
0 4095 2016
0 4095 3063
0 4095 4095
1027 0 0
1031 0 1032
1023 0 2074
998 0 3125
1019 0 4095
1023 1024 0
1024 1024 1024
256 943 2763
256 884 3802
939 1004 4095
993 2052 0
256 2113 627
256 2092 2102
256 2065 3327
968 2047 4095
921 3080 0
256 3111 683
256 3111 1944
256 3099 3105
936 3074 4095
919 4095 0
360 4095 767
452 4095 1950
655 4095 3046
508 4095 4095
2049 0 0
2050 0 1024
2056 0 2057
2056 0 3105
2047 0 4095
2053 1020 0
2331 694 880
2286 512 2330
2089 512 3576
2041 1002 4095
2047 2048 0
2018 2068 512
2048 2048 2048
1840 2003 3546
2034 2044 4095
2035 3074 0
1863 3107 512
1292 3165 1612
1024 3144 3159
2027 3073 4095
2024 4095 0
1952 4095 859
1938 4095 1969
1968 4095 3050
1909 4095 4095
3072 0 0
3075 0 1023
3073 0 2048
3077 0 3078
3072 0 4095
3078 1016 0
3187 768 947
3174 768 2070
3151 768 3164
3082 990 4095
3072 2047 0
3139 2016 768
3227 1954 1982
3218 1908 3241
3076 2040 4095
3071 3071 0
3060 3078 768
3054 3088 1766
3071 3071 3071
3069 3070 4095
3067 4095 0
3047 4095 911
3045 4095 1995
3045 4095 3048
3040 4095 4095
4095 0 0
4095 0 1024
4095 0 2048
4095 0 3071
4095 0 4095
4095 1024 0
4095 1024 1024
4095 1024 2047
4095 1024 3071
4095 1024 4095
4095 2047 0
4095 2047 1024
4095 2047 2047
4095 2047 3071
4095 2047 4095
4095 3071 0
4095 3071 1024
4095 3071 2047
4095 3071 3071
4095 3071 4095
4095 4095 0
4095 4095 1024
4095 4095 2047
4095 4095 3071
4095 4095 4095
