Examples/Masks - Curves - Saturation Contrast 2.3dl
#25pt 3DLUT created by 3D LUT Creator Pro (c) Oleg Sharonov
#Copyright Oleg Sharonov
#IMAGEPROFILE sRGB IEC61966-2.1 v.2.10
#INPUTGAMMA sRGB IEC61966-2.1 v.2.10
#OUTPUTGAMMA sRGB IEC61966-2.1 v.2.10
0 128 256 384 512 640 768 896 1023
0 0 0
3 3 488
6 6 971
3 3 1484
3 3 2013
3 3 2550
0 0 3083
0 0 3596
0 0 4095
10 434 10
13 439 439
10 416 931
6 377 1471
6 341 2014
6 306 2557
0 271 3092
0 238 3605
29 228 4095
13 899 13
16 915 330
16 913 833
13 869 1429
10 828 2004
13 795 2565
10 766 3108
16 746 3617
68 739 4095
10 1428 10
13 1450 201
16 1472 685
16 1443 1347
16 1402 1972
19 1367 2562
16 1344 3117
26 1332 3625
100 1333 4095
3 1995 3
6 2016 65
13 2047 526
19 2042 1237
26 2011 1915
23 1979 2542
6 1958 3116
3 1956 3624
74 1968 4095
0 2574 0
3 2590 55
13 2617 512
19 2621 1217
23 2605 1896
6 2584 2525
0 2572 3096
0 2572 3607
0 2578 4093
0 3109 0
0 3120 142
6 3137 616
16 3141 1276
10 3132 1919
0 3120 2524
0 3112 3086
0 3112 3598
0 3116 4090
0 3603 0
0 3610 245
16 3620 732
26 3621 1350
16 3616 1956
0 3608 2536
0 3603 3084
0 3603 3596
0 3605 4093
0 4095 0
16 4095 360
45 4095 852
55 4095 1428
48 4095 1996
19 4095 2548
0 4094 3081
0 4094 3592
0 4095 4095
470 6 6
468 6 462
448 6 955
412 6 1483
376 3 2018
339 3 2557
302 0 3091
269 0 3603
257 26 4095
437 428 13
434 425 425
417 408 924
381 369 1474
347 334 2021
314 299 2566
282 267 3101
257 240 3612
262 243 4095
339 910 16
345 922 330
339 917 833
308 871 1436
278 827 2014
252 793 2575
230 765 3117
220 747 3625
252 744 4095
217 1447 13
222 1467 201
228 1485 687
212 1453 1355
192 1408 1983
177 1371 2573
161 1346 3127
161 1336 3633
225 1337 4095
94 2015 6
97 2035 65
103 2064 527
100 2056 1243
97 2021 1924
87 1986 2552
61 1964 3125
78 1963 3630
183 1974 4095
87 2590 3
94 2605 65
110 2630 521
123 2632 1227
132 2614 1905
126 2591 2532
100 2577 3103
94 2577 3612
168 2582 4095
168 3119 0
177 3129 155
198 3146 625
209 3148 1284
212 3139 1925
192 3125 2530
142 3116 3090
119 3116 3601
168 3118 4093
264 3609 0
276 3616 257
295 3625 740
306 3625 1356
306 3620 1960
289 3611 2539
255 3606 3087
245 3605 3598
287 3607 4094
372 4095 16
383 4095 372
399 4095 859
408 4095 1432
409 4095 1999
401 4095 2551
386 4095 3083
391 4095 3593
431 4095 4095
970 6 6
981 6 398
980 10 896
953 6 1456
923 6 2011
894 6 2560
869 6 3097
850 6 3609
841 48 4095
969 367 10
979 370 370
978 363 871
946 336 1451
912 304 2015
883 276 2570
859 248 3108
842 228 3617
838 245 4095
932 871 13
944 881 291
947 883 792
914 849 1416
878 811 2010
849 779 2580
827 752 3124
815 737 3631
820 740 4095
852 1438 13
863 1454 180
873 1471 662
853 1445 1341
824 1403 1981
798 1368 2578
779 1343 3135
773 1334 3640
789 1338 4095
758 2023 10
766 2041 55
777 2067 514
772 2059 1237
755 2026 1925
736 1990 2558
727 1970 3131
740 1970 3635
778 1981 4095
754 2600 6
761 2614 81
773 2636 537
779 2637 1238
778 2618 1913
774 2596 2538
768 2581 3107
774 2580 3615
802 2585 4095
805 3125 0
811 3135 171
821 3150 639
827 3151 1293
827 3141 1931
823 3128 2534
812 3118 3093
813 3117 3603
833 3120 4094
868 3612 0
873 3618 271
883 3627 752
888 3627 1364
888 3621 1965
883 3613 2542
875 3607 3088
877 3606 3599
896 3607 4095
935 4095 26
940 4095 383
948 4095 869
953 4095 1438
953 4095 2002
951 4095 2552
947 4095 3083
952 4095 3594
972 4095 4095
1495 3 3
1510 6 322
1524 6 812
1510 10 1408
1485 10 1989
1462 10 2555
1445 6 3099
1436 6 3611
1434 55 4095
1506 297 6
1521 299 299
1535 299 791
1516 282 1401
1488 260 1993
1462 238 2563
1443 212 3109
1434 198 3619
1435 230 4095
1505 809 10
1520 817 235
1535 823 721
1515 805 1368
1482 777 1986
1453 751 2573
1432 727 3124
1426 714 3632
1430 723 4095
1471 1398 13
1484 1410 142
1502 1426 612
1489 1412 1302
1460 1382 1959
1431 1352 2571
1411 1330 3134
1406 1322 3640
1415 1329 4095
1415 2005 13
1426 2020 32
1442 2042 482
1440 2040 1211
1423 2014 1912
1405 1987 2552
1394 1972 3126
1399 1972 3631
1418 1984 4095
1408 2594 6
1415 2606 97
1428 2624 554
1432 2626 1246
1426 2611 1915
1417 2593 2537
1410 2580 3105
1412 2579 3613
1427 2584 4095
1427 3122 0
1433 3130 183
1442 3143 654
1446 3145 1302
1444 3136 1935
1437 3125 2534
1430 3116 3092
1430 3115 3602
1441 3117 4094
1459 3610 0
1463 3615 282
1471 3622 765
1474 3622 1372
1472 3617 1968
1468 3610 2542
1462 3605 3087
1462 3605 3597
1472 3605 4095
1494 4095 23
1497 4095 393
1502 4095 881
1505 4095 1446
1505 4095 2005
1502 4095 2552
1499 4095 3082
1501 4095 3593
1512 4095 4095
2040 0 0
2055 3 248
2076 6 723
2074 10 1346
2058 13 1955
2041 10 2541
2029 0 3095
2027 0 3607
2032 16 4095
2055 228 3
2070 230 230
2091 230 704
2086 222 1339
2067 209 1957
2047 189 2547
2033 155 3104
2031 129 3615
2037 168 4095
2071 747 6
2086 752 177
2107 758 644
2102 751 1307
2079 733 1949
2055 712 2554
2038 689 3117
2036 676 3626
2043 688 4095
2069 1349 10
2083 1358 97
2104 1372 551
2101 1367 1250
2080 1349 1923
2054 1326 2551
2037 1306 3125
2035 1299 3633
2044 1315 4095
2046 1977 13
2058 1989 36
2076 2007 486
2078 2010 1207
2063 1996 1901
2044 1979 2539
2031 1968 3114
2030 1969 3621
2039 1980 4095
2028 2579 0
2036 2588 113
2049 2603 575
2052 2605 1253
2045 2596 1912
2034 2583 2530
2024 2573 3097
2024 2572 3607
2031 2577 4094
2025 3112 0
2030 3119 186
2039 3130 670
2042 3131 1311
2038 3125 1936
2031 3116 2531
2023 3110 3087
2021 3109 3598
2025 3110 4093
2033 3604 0
2037 3608 287
2043 3614 779
2044 3614 1380
2042 3611 1971
2036 3605 2540
2030 3602 3083
2029 3601 3595
2032 3602 4094
2042 4095 6
2045 4095 398
2049 4095 894
2049 4095 1454
2048 4095 2008
2045 4095 2552
2041 4095 3079
2041 4095 3590
2045 4095 4095
2591 0 0
2604 0 171
2626 6 635
2632 13 1283
2623 10 1917
2611 0 2522
2603 0 3089
2607 0 3602
2616 0 4089
2606 155 0
2620 158 158
2642 165 619
2646 165 1276
2635 152 1918
2620 119 2528
2611 58 3096
2614 3 3608
2623 19 4093
2629 688 3
2642 693 116
2664 697 569
2668 695 1248
2654 683 1909
2636 663 2533
2624 633 3107
2626 614 3618
2636 625 4095
2641 1305 6
2654 1312 48
2676 1323 490
2681 1324 1197
2668 1313 1886
2648 1294 2530
2631 1286 3112
2628 1291 3620
2633 1312 4095
2626 1962 0
2636 1970 58
2652 1984 513
2655 1989 1214
2644 1983 1894
2628 1972 2526
2616 1962 3101
2614 1963 3611
2618 1973 4094
2602 2565 0
2609 2573 116
2620 2584 596
2623 2588 1263
2617 2582 1912
2607 2573 2523
2598 2564 3089
2596 2563 3601
2598 2567 4091
2587 3103 0
2592 3108 180
2600 3116 687
2602 3118 1320
2598 3114 1938
2591 3108 2527
2584 3102 3081
2581 3101 3594
2581 3102 4092
2581 3598 0
2584 3601 284
2589 3606 794
2589 3606 1390
2586 3604 1973
2581 3600 2538
2575 3598 3078
2572 3597 3591
2572 3598 4094
2574 4094 0
2575 4095 403
2578 4095 909
2578 4095 1463
2576 4095 2012
2573 4095 2550
2569 4094 3076
2567 4094 3588
2567 4095 4095
3128 0 0
3140 0 87
3161 0 552
3168 10 1226
3164 0 1884
3154 0 2509
3148 0 3087
3154 0 3602
3166 0 4086
3142 74 0
3154 84 84
3174 97 541
3181 103 1220
3175 87 1885
3163 29 2514
3157 0 3093
3162 0 3607
3173 0 4089
3164 630 0
3176 635 52
3196 644 500
3203 645 1196
3195 635 1877
3180 609 2518
3171 562 3103
3170 553 3613
3174 593 4093
3174 1286 0
3185 1293 23
3202 1306 478
3206 1313 1189
3194 1312 1880
3177 1305 2522
3164 1294 3102
3161 1295 3612
3164 1314 4094
3152 1960 0
3160 1967 78
3173 1979 548
3177 1983 1233
3169 1979 1898
3156 1970 2522
3147 1961 3093
3145 1960 3605
3147 1968 4092
3129 2561 0
3135 2566 113
3145 2575 624
3147 2578 1280
3142 2574 1917
3134 2567 2522
3127 2559 3084
3125 2556 3597
3126 2558 4091
3113 3098 0
3117 3102 171
3123 3108 709
3124 3110 1336
3121 3107 1944
3115 3101 2526
3109 3096 3077
3107 3094 3591
3106 3093 4092
3101 3595 0
3104 3597 284
3107 3601 815
3107 3601 1403
3105 3600 1979
3101 3597 2538
3096 3595 3075
3093 3594 3589
3091 3594 4094
3088 4093 0
3089 4094 414
3090 4095 929
3090 4095 1476
3088 4095 2018
3086 4094 2551
3083 4094 3073
3080 4094 3586
3079 4095 4095
3627 0 0
3637 0 13
3654 10 482
3661 32 1182
3655 19 1864
3644 0 2508
3637 0 3096
3638 0 3609
3642 0 4090
3638 0 0
3648 19 19
3664 55 478
3671 74 1178
3664 58 1866
3651 0 2514
3640 0 3101
3640 0 3612
3644 0 4092
3652 602 0
3661 613 32
3676 632 484
3680 647 1189
3669 651 1881
3654 639 2524
3642 610 3105
3641 606 3615
3644 658 4095
3647 1313 6
3655 1320 94
3667 1333 543
3670 1340 1228
3661 1340 1899
3647 1333 2528
3637 1321 3102
3636 1322 3612
3638 1346 4095
3632 1973 0
3638 1978 132
3647 1988 606
3649 1992 1268
3643 1989 1916
3634 1981 2528
3627 1971 3094
3626 1969 3605
3627 1979 4094
3616 2565 0
3620 2570 155
3627 2577 671
3629 2579 1311
3625 2575 1934
3619 2568 2528
3615 2559 3085
3614 2556 3597
3615 2558 4093
3605 3099 0
3608 3102 206
3613 3106 750
3613 3107 1362
3611 3104 1958
3607 3099 2531
3604 3094 3077
3603 3090 3591
3603 3089 4093
3599 3595 0
3600 3597 320
3603 3599 852
3603 3599 1427
3601 3598 1991
3599 3596 2541
3596 3593 3074
3595 3592 3588
3594 3591 4094
3591 4094 0
3591 4095 445
3592 4095 961
3592 4095 1497
3591 4095 2029
3589 4095 2554
3588 4095 3073
3587 4095 3585
3586 4095 4095
4095 0 0
4095 36 61
4095 103 512
4095 149 1205
4095 142 1886
4095 58 2524
4091 0 3104
4092 0 3614
4095 3 4095
4095 71 36
4095 107 107
4095 177 538
4095 222 1219
4095 230 1896
4095 180 2531
4095 61 3108
4094 52 3617
4095 255 4095
4095 674 81
4095 687 180
4095 713 587
4095 730 1250
4095 736 1913
4095 727 2539
4095 706 3111
4095 720 3618
4095 798 4095
4095 1353 90
4095 1360 233
4095 1373 640
4095 1382 1284
4095 1384 1930
4095 1378 2542
4095 1368 3107
4095 1375 3615
4095 1414 4095
4095 1991 55
4095 1997 252
4095 2006 691
4095 2010 1319
4095 2008 1944
4095 2001 2541
4095 1992 3099
4095 1993 3608
4095 2010 4095
4094 2572 0
4095 2576 260
4095 2582 744
4095 2583 1355
4095 2580 1958
4095 2574 2539
4093 2566 3088
4094 2563 3599
4095 2567 4095
4092 3099 0
4094 3102 293
4095 3105 811
4095 3106 1400
4095 3103 1979
4094 3099 2540
4093 3093 3079
4094 3089 3592
4094 3089 4094
4094 3595 0
4095 3596 388
4095 3598 904
4095 3597 1460
4095 3596 2010
4095 3594 2549
4094 3592 3075
4095 3590 3587
4095 3590 4095
4095 4095 0
4095 4095 488
4095 4095 997
4095 4095 1520
4095 4095 2041
4095 4095 2558
4095 4095 3072
4095 4095 3583
4095 4095 4095
