Examples/Masks - Blue & Orange.3dl
#25pt 3DLUT created by 3D LUT Creator Pro (c) Oleg Sharonov
#Copyright Oleg Sharonov
#IMAGEPROFILE sRGB IEC61966-2.1 v.2.10
#INPUTGAMMA sRGB IEC61966-2.1 v.2.10
#OUTPUTGAMMA sRGB IEC61966-2.1 v.2.10
0 128 256 384 512 640 768 896 1023
0 0 0
36 58 74
132 203 250
276 377 446
420 553 641
566 728 836
714 904 1030
865 1078 1223
1019 1252 1415
320 431 505
341 458 535
393 520 604
472 616 712
575 737 845
690 874 997
816 1022 1161
952 1176 1332
1094 1335 1506
700 886 1011
712 899 1026
739 932 1061
786 986 1122
852 1063 1206
935 1157 1311
1033 1268 1432
1145 1390 1567
1269 1522 1711
1098 1339 1510
1105 1347 1519
1124 1368 1541
1156 1403 1580
1204 1453 1636
1266 1519 1708
1343 1600 1795
1434 1693 1896
1537 1796 2008
1526 1786 1997
1532 1791 2003
1546 1805 2018
1570 1829 2044
1607 1866 2083
1656 1914 2135
1718 1974 2200
1793 2045 2277
1879 2127 2366
1983 2226 2472
1988 2230 2477
1998 2240 2488
2018 2259 2508
2048 2286 2537
2087 2323 2577
2137 2370 2628
2197 2426 2689
2267 2492 2760
2449 2663 2947
2453 2666 2950
2462 2674 2959
2477 2689 2975
2500 2711 2999
2531 2740 3032
2571 2778 3073
2619 2824 3123
2675 2878 3183
2944 3099 3359
2948 3101 3360
2956 3108 3365
2971 3120 3373
2993 3138 3385
3023 3162 3402
3061 3193 3424
3107 3231 3451
3162 3277 3483
3466 3537 3672
3468 3539 3673
3475 3545 3678
3487 3555 3685
3504 3570 3696
3528 3591 3712
3558 3617 3731
3595 3650 3756
3639 3689 3785
476 15 19
145 222 273
230 326 388
343 461 538
471 614 709
606 775 888
746 940 1071
892 1109 1257
1042 1277 1443
413 508 446
401 530 615
446 584 676
518 671 772
613 783 896
723 912 1040
845 1054 1197
976 1204 1362
1116 1359 1532
733 924 1053
744 937 1067
770 967 1101
815 1020 1159
879 1093 1240
960 1185 1341
1056 1293 1460
1166 1413 1591
1288 1542 1732
1119 1362 1536
1127 1370 1545
1145 1390 1567
1177 1425 1604
1223 1474 1659
1285 1539 1729
1361 1618 1815
1451 1710 1915
1553 1813 2026
1543 1802 2014
1548 1807 2020
1562 1821 2035
1586 1845 2061
1623 1881 2100
1672 1929 2151
1733 1988 2216
1807 2059 2292
1893 2140 2380
1996 2238 2485
2000 2242 2489
2011 2252 2501
2031 2270 2521
2060 2298 2550
2099 2334 2590
2149 2381 2640
2209 2437 2701
2279 2502 2772
2460 2672 2957
2463 2676 2961
2472 2684 2970
2487 2698 2986
2510 2720 3009
2541 2750 3042
2580 2787 3083
2628 2833 3133
2684 2887 3192
2954 3107 3364
2957 3109 3366
2966 3116 3370
2980 3128 3379
3003 3145 3391
3032 3170 3408
3070 3201 3429
3116 3239 3456
3171 3284 3488
3474 3543 3677
3476 3546 3678
3483 3551 3682
3494 3561 3690
3511 3577 3701
3535 3597 3716
3565 3624 3736
3602 3656 3761
3646 3695 3790
962 40 47
657 257 533
403 532 618
482 626 723
582 745 855
696 881 1005
822 1028 1168
956 1182 1337
1098 1339 1511
1024 512 0
979 527 536
562 723 829
622 793 908
702 889 1014
801 1003 1141
912 1131 1282
1036 1270 1435
1169 1416 1595
861 1016 871
869 1024 1005
843 1053 1196
885 1101 1248
944 1168 1323
1020 1253 1417
1112 1354 1527
1217 1467 1651
1335 1591 1786
1173 1420 1599
1180 1428 1607
1197 1446 1628
1228 1479 1663
1273 1526 1715
1332 1589 1783
1406 1665 1866
1494 1754 1962
1595 1853 2070
1583 1842 2058
1589 1847 2064
1602 1861 2078
1627 1885 2104
1662 1920 2141
1710 1966 2192
1770 2024 2254
1842 2093 2329
1926 2172 2414
2028 2268 2518
2033 2272 2522
2043 2282 2533
2063 2300 2553
2091 2327 2582
2130 2363 2621
2179 2409 2670
2237 2464 2730
2306 2528 2800
2485 2696 2984
2488 2700 2987
2497 2708 2996
2512 2722 3012
2535 2744 3035
2565 2773 3067
2604 2810 3108
2652 2855 3158
2707 2909 3216
2978 3126 3377
2982 3129 3379
2990 3135 3384
3005 3147 3392
3026 3165 3404
3056 3189 3421
3093 3220 3443
3139 3257 3469
3192 3302 3501
3493 3560 3689
3495 3562 3691
3502 3568 3695
3513 3578 3702
3530 3593 3713
3554 3614 3729
3584 3640 3748
3621 3672 3772
3664 3711 3801
1448 65 74
1257 214 609
793 621 916
663 842 963
740 933 1063
834 1041 1183
942 1165 1319
1063 1300 1467
1193 1442 1623
1536 512 0
1460 545 556
990 782 1036
771 970 1103
838 1047 1189
924 1144 1296
1022 1255 1419
1135 1379 1555
1259 1512 1700
1536 1024 0
1536 1024 512
1484 1038 1052
998 1229 1389
1051 1287 1454
1121 1364 1538
1206 1455 1638
1304 1560 1752
1416 1675 1877
1329 1521 1289
1334 1526 1419
1347 1539 1558
1315 1570 1763
1357 1614 1811
1414 1672 1874
1484 1744 1951
1568 1827 2042
1665 1922 2144
1654 1911 2133
1659 1916 2138
1672 1929 2152
1696 1952 2176
1730 1985 2212
1776 2030 2260
1834 2085 2320
1904 2152 2392
1986 2228 2475
2085 2321 2575
2089 2325 2579
2100 2335 2590
2118 2352 2609
2146 2378 2637
2184 2413 2675
2231 2458 2723
2288 2511 2782
2356 2574 2850
2530 2739 3030
2533 2742 3033
2541 2750 3042
2556 2764 3058
2578 2785 3081
2608 2814 3112
2646 2850 3152
2692 2895 3201
2748 2947 3256
3021 3161 3402
3025 3163 3403
3033 3170 3408
3047 3182 3416
3068 3199 3428
3097 3223 3445
3134 3253 3466
3178 3290 3493
3231 3335 3525
3527 3590 3711
3529 3592 3713
3535 3597 3717
3547 3607 3724
3564 3622 3735
3587 3643 3750
3616 3669 3770
3653 3701 3794
3696 3739 3823
1935 89 102
1801 200 637
1469 491 1096
908 1048 1239
931 1152 1305
1008 1239 1401
1100 1341 1513
1207 1456 1639
1325 1580 1774
2047 512 0
1944 566 579
1611 754 1126
1049 1124 1354
1011 1244 1406
1084 1323 1493
1171 1418 1597
1272 1526 1715
1386 1644 1843
2047 1024 0
2047 1024 512
1964 1054 1069
1386 1297 1562
1197 1445 1627
1259 1512 1699
1336 1593 1788
1428 1686 1889
1532 1791 2003
2047 1536 0
2047 1536 512
2047 1536 1024
1970 1556 1582
1476 1736 1943
1529 1788 2000
1595 1854 2071
1674 1931 2154
1766 2019 2250
1827 2019 1694
1831 2023 1822
1840 2032 1957
1854 2048 2106
1828 2079 2314
1872 2121 2359
1928 2173 2415
1995 2236 2484
2072 2309 2563
2167 2398 2658
2171 2401 2662
2181 2411 2673
2199 2428 2691
2226 2453 2718
2262 2486 2755
2307 2529 2801
2362 2581 2857
2427 2641 2924
2595 2801 3098
2598 2804 3101
2606 2812 3110
2621 2826 3125
2642 2846 3148
2671 2874 3178
2707 2909 3217
2755 2953 3260
2821 3003 3293
3084 3212 3438
3087 3215 3439
3095 3221 3444
3109 3233 3452
3129 3250 3464
3157 3273 3480
3193 3303 3502
3236 3339 3528
3288 3383 3559
3577 3633 3744
3579 3636 3745
3585 3641 3749
3596 3651 3757
3613 3666 3768
3636 3686 3783
3665 3711 3802
3701 3743 3826
3743 3781 3854
2422 114 129
2322 200 657
2070 423 1168
1638 840 1517
1144 1389 1565
1209 1458 1642
1289 1543 1734
1383 1641 1839
1489 1749 1957
2526 531 35
2430 588 603
2179 743 1165
1747 1036 1568
1213 1463 1645
1274 1528 1717
1351 1608 1804
1441 1700 1904
1545 1804 2016
2559 1024 0
2559 1024 512
2447 1072 1089
2014 1274 1645
1400 1618 1834
1430 1688 1892
1500 1759 1968
1583 1842 2058
1679 1935 2159
2559 1536 0
2559 1536 512
2559 1536 1024
2472 1564 1583
1840 1806 2092
1677 1933 2156
1738 1993 2221
1811 2063 2296
1896 2144 2384
2559 2048 0
2559 2048 512
2559 2048 1024
2559 2048 1536
2431 2080 2132
1996 2238 2485
2048 2287 2538
2111 2346 2602
2185 2414 2676
2344 2513 2093
2347 2516 2221
2354 2522 2353
2367 2534 2491
2378 2552 2660
2364 2582 2859
2407 2623 2903
2460 2672 2957
2521 2730 3021
2681 2884 3189
2684 2887 3192
2692 2894 3200
2705 2907 3215
2726 2927 3236
2757 2954 3261
2801 2987 3283
2855 3028 3311
2917 3077 3344
3167 3281 3486
3170 3284 3488
3178 3290 3492
3191 3301 3500
3211 3318 3512
3237 3340 3529
3272 3369 3550
3314 3405 3575
3363 3448 3606
3644 3693 3788
3646 3695 3789
3652 3700 3793
3663 3710 3801
3679 3724 3811
3701 3744 3826
3730 3769 3845
3765 3800 3869
3807 3837 3897
2911 138 155
2832 208 676
2635 387 1205
2291 715 1648
1795 1232 1886
1433 1692 1895
1503 1762 1972
1586 1845 2061
1682 1938 2162
2993 561 82
2917 611 628
2720 742 1189
2378 985 1667
1884 1371 1939
1491 1750 1958
1558 1817 2031
1639 1897 2117
1732 1987 2214
3071 1024 0
3071 1024 512
2931 1091 1110
2591 1267 1685
2101 1553 2051
1628 1886 2106
1691 1948 2172
1766 2020 2250
1854 2103 2340
3071 1536 0
3071 1536 512
3071 1536 1024
2955 1580 1601
2464 1787 2165
1852 2101 2338
1908 2155 2395
1975 2218 2464
2054 2292 2544
3071 2048 0
3071 2048 512
3071 2048 1024
3071 2048 1536
2985 2074 2097
2335 2311 2621
2194 2423 2686
2253 2478 2745
2321 2542 2815
3071 2559 0
3071 2559 512
3071 2559 1024
3071 2559 1536
3071 2559 2048
2911 2598 2677
2529 2738 3029
2578 2785 3080
2636 2840 3141
2865 3006 2482
2868 3008 2608
2875 3014 2736
2887 3023 2867
2905 3037 3002
2920 3055 3177
2925 3084 3348
2975 3123 3376
3033 3171 3408
3270 3368 3548
3273 3370 3550
3280 3376 3554
3292 3387 3562
3311 3403 3574
3337 3425 3590
3370 3453 3610
3410 3488 3636
3457 3529 3666
3728 3768 3844
3731 3770 3846
3737 3775 3850
3747 3784 3857
3763 3798 3867
3784 3817 3882
3812 3842 3900
3846 3872 3923
3886 3908 3951
3400 162 181
3337 220 695
3177 368 1228
2898 637 1718
2490 1054 2080
1956 1651 2215
1738 1993 2221
1811 2063 2297
1896 2144 2384
3467 591 121
3406 633 653
3246 746 1208
2968 953 1722
2562 1276 2107
2030 1742 2266
1787 2039 2271
1858 2108 2345
1941 2187 2430
3583 1024 0
3568 1032 526
3418 1112 1132
3142 1267 1711
2740 1513 2162
2212 1874 2382
1905 2152 2393
1973 2216 2461
2052 2290 2541
3583 1536 0
3583 1536 512
3583 1536 1024
3439 1597 1619
3041 1782 2203
2518 2058 2545
2100 2336 2591
2162 2393 2653
2233 2460 2726
3583 2048 0
3583 2048 512
3583 2048 1024
3583 2048 1536
3466 2089 2113
2944 2295 2687
2362 2580 2857
2415 2630 2912
2478 2690 2976
3583 2559 0
3583 2559 512
3583 2559 1024
3583 2559 1536
3583 2559 2048
3498 2584 2611
2842 2814 3157
2715 2917 3225
2776 2969 3270
3583 3071 0
3583 3071 512
3583 3071 1024
3583 3071 1536
3583 3071 2048
3583 3071 2559
3416 3113 3187
3114 3237 3455
3168 3282 3487
3438 3499 2741
3440 3501 2867
3445 3505 2995
3454 3513 3125
3467 3525 3259
3486 3541 3395
3503 3559 3573
3524 3587 3709
3569 3627 3739
3830 3858 3913
3832 3860 3914
3838 3865 3918
3848 3874 3925
3863 3888 3935
3884 3906 3949
3911 3930 3968
3944 3959 3990
3983 3994 4017
3891 186 207
3838 235 715
3706 360 1248
3474 586 1761
3133 934 2192
2681 1426 2469
2122 2087 2515
2052 2291 2542
2128 2361 2619
3947 619 157
3895 656 678
3764 755 1226
3532 933 1756
3193 1210 2205
2742 1604 2500
2186 2138 2561
2094 2330 2584
2168 2399 2659
4079 1033 18
4032 1060 570
3907 1133 1155
3677 1272 1731
3341 1488 2227
2894 1800 2569
2342 2227 2674
2196 2425 2688
2266 2491 2759
4095 1536 0
4095 1536 512
4095 1536 1024
3925 1616 1640
3592 1783 2229
3151 2027 2662
2606 2367 2848
2365 2583 2860
2430 2644 2926
4095 2048 0
4095 2048 512
4095 2048 1024
4095 2048 1536
3949 2105 2131
3512 2293 2723
2971 2560 3053
2594 2800 3097
2652 2855 3158
4095 2559 0
4095 2559 512
4095 2559 1024
4095 2559 1536
4095 2559 2048
3979 2598 2625
3444 2802 3195
2901 3065 3335
2962 3113 3368
4095 3071 0
4095 3071 512
4095 3071 1024
4095 3071 1536
4095 3071 2048
4095 3071 2559
4005 3098 3118
3413 3316 3555
3321 3411 3580
4095 3583 0
4095 3583 512
4095 3583 1024
4095 3583 1536
4095 3583 2048
4095 3583 2559
4088 3584 3082
3936 3626 3660
3699 3741 3824
3984 3995 3020
3985 3997 3146
3990 4001 3274
3997 4007 3404
4008 4017 3536
4023 4031 3671
4042 4048 3813
4064 4067 3986
4095 4095 4095
