Examples/Masks - Contrast colors.3dl
#25pt 3DLUT created by 3D LUT Creator Pro (c) Oleg Sharonov
#Copyright Oleg Sharonov
0 128 256 384 512 640 768 896 1023
0 0 0
0 0 508
0 0 1003
0 0 1491
0 0 2018
0 0 2585
0 0 3122
0 0 3626
0 0 4095
0 475 0
0 471 471
0 464 949
0 452 1450
0 437 2007
0 420 2592
0 402 3130
0 384 3631
0 366 4095
0 883 0
0 882 420
0 876 876
0 867 1390
0 853 1988
0 836 2604
0 817 3145
0 797 3640
0 776 4095
0 1333 0
0 1333 370
0 1331 804
0 1326 1326
0 1319 1968
0 1308 2619
0 1297 3164
0 1284 3651
0 1270 4095
0 1943 0
0 1946 322
0 1947 732
0 1947 1263
0 1945 1945
0 1942 2634
0 1941 3184
0 1939 3664
0 1937 4095
0 2641 0
0 2644 274
0 2646 663
0 2648 1201
0 2648 1923
0 2649 2649
0 2652 3204
0 2655 3676
0 2659 4095
0 3221 0
0 3223 228
0 3224 596
0 3224 1142
0 3224 1903
0 3223 2665
0 3225 3225
0 3227 3689
0 3231 4095
0 3675 0
0 3676 262
0 3676 652
0 3674 1201
0 3671 1929
0 3666 2645
0 3663 3189
0 3659 3659
0 3655 4095
0 4095 0
0 4095 374
0 4095 819
0 4095 1354
0 4095 1985
0 4095 2606
0 4095 3133
0 4095 3622
0 4095 4095
501 0 0
497 0 497
487 0 986
471 0 1477
451 0 2015
431 0 2588
412 0 3125
392 0 3628
373 0 4095
465 465 0
512 512 512
464 464 950
445 445 1441
431 431 2005
416 416 2594
399 399 3132
381 381 3632
364 364 4095
417 877 0
429 896 429
426 892 892
406 862 1386
396 848 1988
385 832 2607
372 814 3147
358 794 3641
344 773 4095
368 1331 0
368 1331 368
365 1329 801
361 1325 1325
354 1317 1969
345 1307 2622
335 1296 3166
325 1283 3653
313 1270 4095
320 1945 0
320 1947 320
318 1948 730
315 1948 1263
309 1947 1947
301 1944 2637
294 1943 3186
285 1941 3665
276 1939 4095
273 2644 0
273 2647 273
272 2649 662
268 2651 1202
263 2651 1926
256 2652 2652
250 2655 3206
243 2658 3678
236 2662 4095
228 3223 0
228 3225 228
226 3226 596
223 3227 1144
218 3226 1907
212 3226 2668
206 3227 3227
200 3230 3691
195 3233 4095
263 3676 0
264 3677 264
266 3676 656
267 3675 1206
269 3671 1934
273 3667 2647
280 3663 3189
290 3660 3660
302 3656 4095
375 4095 0
376 4095 376
377 4095 823
379 4095 1357
381 4095 1987
385 4095 2607
391 4095 3133
399 4095 3622
409 4095 4095
963 0 0
959 0 470
947 0 947
930 0 1448
908 0 2007
883 0 2593
858 0 3130
831 0 3631
805 0 4095
924 447 0
935 454 454
928 450 928
901 431 1422
883 419 2000
863 405 2600
841 390 3137
817 374 3635
793 357 4095
862 862 0
883 883 420
1024 1024 1024
916 916 1437
849 849 1990
821 821 2611
804 804 3151
785 785 3644
765 765 4095
795 1323 0
795 1324 361
882 1405 882
878 1402 1402
794 1326 1973
766 1301 2625
753 1291 3170
739 1279 3655
723 1266 4095
726 1945 0
726 1947 316
744 1955 744
741 1955 1277
734 1954 1954
704 1945 2640
694 1943 3189
683 1942 3667
671 1940 4095
658 2647 0
659 2650 269
658 2652 658
654 2654 1200
648 2654 1927
641 2655 2655
633 2658 3208
624 2661 3679
615 2665 4095
593 3225 0
593 3227 225
593 3228 593
590 3229 1143
584 3228 1909
578 3228 2672
571 3229 3229
564 3232 3692
569 3231 4095
659 3674 0
661 3675 269
664 3675 664
668 3673 1215
673 3669 1938
681 3665 2647
692 3662 3187
707 3658 3658
724 3654 4095
825 4095 0
826 4095 380
829 4095 829
832 4095 1364
837 4095 1990
844 4095 2606
853 4095 3131
866 4095 3621
881 4095 4095
1431 0 0
1429 0 438
1423 0 903
1413 0 1413
1398 0 1997
1381 0 2600
1362 0 3139
1343 0 3636
1322 0 4095
1408 423 0
1407 421 421
1402 417 880
1394 410 1394
1382 401 1991
1367 388 2606
1350 375 3145
1332 361 3639
1314 346 4095
1364 839 0
1364 838 390
1428 907 907
1425 903 1425
1359 830 1984
1334 802 2616
1321 787 3157
1307 770 3647
1291 751 4095
1309 1309 0
1310 1310 350
1397 1397 872
1536 1536 1536
1429 1429 2010
1343 1343 2614
1291 1291 3170
1269 1269 3658
1257 1257 4095
1251 1942 0
1253 1945 307
1271 1953 734
1408 2002 1408
1405 2001 2001
1303 1966 2625
1244 1946 3187
1223 1940 3668
1214 1939 4095
1192 2650 0
1194 2653 263
1195 2655 649
1268 2635 1268
1265 2636 1953
1261 2636 2636
1194 2656 3205
1173 2664 3680
1166 2668 4095
1135 3227 0
1138 3229 219
1139 3230 586
1155 3224 1155
1152 3223 1914
1148 3223 2669
1144 3224 3224
1126 3232 3692
1147 3225 4095
1215 3670 0
1219 3671 277
1223 3671 677
1228 3669 1228
1233 3666 1944
1241 3662 2644
1253 3658 3182
1267 3655 3655
1284 3651 4095
1366 4095 0
1368 4095 386
1370 4095 840
1374 4095 1374
1379 4095 1995
1386 4095 2603
1395 4095 3127
1406 4095 3618
1419 4095 4095
1990 0 0
1991 0 406
1990 0 858
1988 0 1375
1985 0 1985
1980 0 2608
1975 0 3148
1970 0 3641
1964 0 4095
1985 395 0
1986 394 394
1986 391 841
1984 386 1361
1981 377 1981
1977 367 2613
1973 355 3154
1968 343 3644
1964 330 4095
1973 808 0
1975 808 369
1980 819 819
1979 814 1344
1977 805 1977
1968 777 2622
1965 763 3164
1962 748 3651
1958 732 4095
1957 1290 0
1959 1291 335
1966 1306 772
2008 1424 1424
2007 1421 2007
1975 1330 2617
1957 1275 3174
1951 1254 3660
1949 1243 4095
1937 1937 0
1940 1940 295
1949 1949 718
2000 2000 1401
2048 2048 2048
2011 2011 2588
1975 1975 3153
1953 1953 3657
1939 1939 4095
1917 2652 0
1921 2655 252
1923 2658 635
1951 2637 1260
2006 2593 2006
2005 2593 2593
1964 2627 3164
1940 2650 3666
1924 2667 4095
1899 3228 0
1903 3230 209
1905 3232 574
1912 3225 1146
1954 3177 1954
1953 3176 2636
1956 3174 3174
1936 3199 3669
1928 3211 4095
1939 3664 0
1942 3664 288
1945 3664 695
1948 3662 1245
1965 3648 1965
1967 3645 2627
1971 3642 3159
1976 3639 3639
1973 3643 4095
1993 4095 0
1994 4095 396
1996 4095 856
1998 4095 1389
2001 4095 2001
2004 4095 2598
2006 4095 3119
2011 4095 3612
2015 4095 4095
2606 0 0
2608 0 375
2610 0 813
2612 0 1336
2614 0 1971
2616 0 2616
2620 0 3159
2625 0 3647
2630 0 4095
2611 367 0
2613 366 366
2615 363 800
2617 359 1326
2618 352 1969
2621 343 2621
2624 333 3163
2629 322 3650
2635 310 4095
2619 774 0
2621 774 346
2623 771 771
2625 766 1301
2626 757 1962
2628 747 2628
2632 735 3172
2636 722 3656
2641 707 4095
2630 1266 0
2633 1267 316
2635 1267 728
2620 1323 1323
2620 1319 1972
2622 1314 2622
2639 1256 3180
2646 1235 3663
2651 1225 4095
2643 1931 0
2645 1934 279
2647 1936 675
2629 1961 1288
2589 2010 2010
2590 2009 2590
2621 1972 3156
2642 1949 3659
2658 1934 4095
2655 2655 0
2658 2658 239
2661 2661 618
2640 2640 1249
2594 2594 2004
2559 2559 2559
2586 2586 3107
2621 2621 3638
2645 2645 4095
2670 3231 0
2673 3233 198
2675 3233 564
2670 3224 1145
2634 3173 1956
2587 3108 2587
2586 3107 3107
2618 3149 3635
2635 3171 4095
2634 3656 0
2636 3656 303
2637 3656 720
2636 3654 1269
2623 3641 1972
2600 3619 2600
2599 3618 3123
2597 3616 3616
2608 3625 4095
2597 4095 0
2597 4095 410
2597 4095 877
2597 4095 1408
2594 4095 2008
2585 4095 2585
2583 4095 3103
2581 4095 3602
2579 4095 4095
3159 0 0
3161 0 344
3162 0 769
3164 0 1298
3165 0 1959
3167 0 2626
3171 0 3171
3175 0 3654
3181 0 4095
3164 338 0
3165 338 338
3167 336 759
3168 332 1291
3169 325 1958
3171 317 2630
3175 309 3175
3179 299 3657
3185 289 4095
3173 738 0
3175 738 321
3176 736 736
3177 731 1271
3178 724 1952
3179 714 2637
3183 704 3183
3187 692 3662
3192 679 4095
3186 1240 0
3188 1242 295
3189 1242 699
3185 1252 1252
3185 1247 1947
3186 1241 2643
3189 1235 3189
3197 1214 3669
3202 1205 4095
3201 1925 0
3203 1928 262
3204 1930 652
3199 1935 1213
3159 1970 1970
3159 1969 2623
3160 1968 3160
3189 1945 3662
3209 1930 4095
3217 2661 0
3219 2664 225
3220 2666 599
3214 2663 1169
3169 2631 1960
3108 2587 2587
3109 2587 3109
3157 2624 3640
3189 2649 4095
3217 3217 0
3218 3218 224
3218 3218 603
3210 3210 1181
3164 3164 1965
3105 3105 2584
3071 3071 3071
3094 3094 3598
3128 3128 4095
3165 3647 0
3166 3648 325
3166 3647 753
3164 3646 1299
3147 3634 1981
3119 3615 2595
3086 3593 3086
3086 3593 3593
3106 3606 4095
3113 4095 0
3114 4095 429
3113 4095 904
3112 4095 1433
3108 4095 2016
3098 4095 2580
3087 4095 3087
3085 4095 3592
3083 4095 4095
3655 0 0
3656 0 315
3657 0 727
3658 0 1261
3658 0 1947
3658 0 2636
3659 0 3184
3662 0 3662
3665 0 4095
3658 310 0
3660 310 310
3660 308 719
3661 304 1256
3660 298 1947
3661 291 2640
3662 284 3187
3665 275 3665
3668 267 4095
3664 701 0
3665 702 296
3666 700 700
3666 696 1240
3665 689 1944
3665 681 2647
3667 672 3194
3669 662 3669
3672 651 4095
3671 1213 0
3672 1215 274
3673 1215 668
3673 1214 1214
3672 1209 1936
3672 1204 2655
3673 1198 3204
3675 1192 3675
3677 1184 4095
3679 1918 0
3680 1922 244
3681 1924 626
3681 1925 1177
3665 1942 1942
3664 1941 2648
3665 1941 3193
3666 1941 3666
3680 1926 4095
3688 2667 0
3689 2671 209
3690 2673 577
3690 2674 1136
3673 2657 1931
3641 2624 2624
3641 2625 3159
3640 2625 3640
3657 2645 4095
3671 3201 0
3672 3202 255
3672 3202 651
3670 3200 1208
3654 3177 1955
3628 3138 2610
3597 3093 3093
3597 3092 3597
3616 3121 4095
3638 3638 0
3638 3638 352
3638 3638 793
3637 3637 1335
3626 3626 1992
3610 3610 2590
3592 3592 3084
3583 3583 3583
3588 3588 4095
3604 4095 0
3604 4095 451
3603 4095 939
3602 4095 1464
3600 4095 2026
3595 4095 2573
3590 4095 3081
3585 4095 3585
3584 4095 4095
4095 0 0
4095 0 287
4095 0 685
4095 0 1226
4095 0 1936
4095 0 2647
4095 0 3197
4095 0 3670
4095 0 4095
4095 282 0
4095 282 282
4095 281 680
4095 278 1222
4095 272 1937
4095 266 2651
4095 258 3200
4095 251 3673
4095 243 4095
4095 664 0
4095 664 271
4095 664 664
4095 660 1209
4095 654 1935
4095 646 2657
4095 638 3206
4095 629 3677
4095 619 4095
4095 1185 0
4095 1187 252
4095 1188 636
4095 1187 1187
4095 1183 1928
4095 1178 2664
4095 1173 3215
4095 1168 3682
4095 1161 4095
4095 1912 0
4095 1915 224
4095 1918 598
4095 1919 1155
4095 1922 1922
4095 1921 2669
4095 1921 3220
4095 1921 3684
4095 1921 4095
4095 2670 0
4095 2673 206
4095 2674 579
4095 2674 1145
4095 2668 1923
4095 2642 2642
4095 2640 3177
4095 2637 3650
4095 2635 4095
4095 3183 0
4095 3183 291
4095 3183 704
4095 3181 1257
4095 3174 1959
4095 3148 2618
4095 3118 3118
4095 3116 3613
4095 3113 4095
4095 3627 0
4095 3627 383
4095 3627 838
4095 3626 1376
4095 3622 1998
4095 3612 2593
4095 3600 3097
4095 3588 3588
4095 3587 4095
4095 4095 0
4095 4095 479
4095 4095 977
4095 4095 1498
4095 4095 2037
4095 4095 2566
4095 4095 3075
4095 4095 3584
4095 4095 4095
