Examples/Masks - Blue neutrals.3dl
#25pt 3DLUT created by 3D LUT Creator Pro (c) Oleg Sharonov
#Copyright Oleg Sharonov
0 256 512 768 1023
0 0 0
0 0 1024
0 0 2048
0 0 3071
0 0 4095
0 1024 0
0 1024 1024
0 1024 2048
0 1024 3071
0 1024 4095
0 2048 0
0 2048 1024
0 2048 2048
0 2048 3071
0 2048 4095
0 3071 0
0 3071 1024
0 3071 2048
0 3071 3071
0 3071 4095
0 4095 0
0 4095 1024
0 4095 2048
0 4095 3071
0 4095 4095
1024 0 0
1024 0 1024
1024 0 2048
1024 0 3071
1024 0 4095
1024 1024 0
176 825 1031
1024 1024 2048
1024 1024 3071
1024 1024 4095
1024 2048 0
1024 2048 1024
1024 2048 2048
1024 2048 3071
1024 2048 4095
1024 3071 0
1024 3071 1024
1024 3071 2048
1024 3071 3071
1024 3071 4095
1024 4095 0
1024 4095 1024
1024 4095 2048
1024 4095 3071
1024 4095 4095
2048 0 0
2048 0 1024
2048 0 2048
2048 0 3071
2048 0 4095
2048 1024 0
2048 1024 1024
2048 1024 2048
2048 1024 3071
2048 1024 4095
2048 2048 0
2048 2048 1024
1482 1915 2052
2048 2048 3071
2048 2048 4095
2048 3071 0
2048 3071 1024
2048 3071 2048
2048 3071 3071
2048 3071 4095
2048 4095 0
2048 4095 1024
2048 4095 2048
2048 4095 3071
2048 4095 4095
3071 0 0
3071 0 1024
3071 0 2048
3071 0 3071
3071 0 4095
3071 1024 0
3071 1024 1024
3071 1024 2048
3071 1024 3071
3071 1024 4095
3071 2048 0
3071 2048 1024
3071 2048 2048
3071 2048 3071
3071 2048 4095
3071 3071 0
3071 3071 1024
3071 3071 2048
2789 3005 3074
3021 3059 4095
3071 4095 0
3071 4095 1024
3071 4095 2048
3021 4095 3072
3021 4095 4095
4095 0 0
4095 0 1024
4095 0 2048
4095 0 3071
4095 0 4095
4095 1024 0
4095 1024 1024
4095 1024 2048
4095 1024 3071
4095 1024 4095
4095 2048 0
4095 2048 1024
4095 2048 2048
4095 2048 3071
4095 2048 4095
4095 3071 0
4095 3071 1024
4095 3071 2048
4094 3059 3071
4095 3059 4095
4095 4095 0
4095 4095 1024
4095 4095 2048
4095 4095 3071
4095 4095 4095
