Examples/Masks - Blue & Orange.3dl
#25pt 3DLUT created by 3D LUT Creator Pro (c) Oleg Sharonov
#Copyright Oleg Sharonov
#IMAGEPROFILE sRGB IEC61966-2.1 v.2.10
#INPUTGAMMA sRGB IEC61966-2.1 v.2.10
#OUTPUTGAMMA sRGB IEC61966-2.1 v.2.10
0 43 86 128 171 214 256 299 341 384 427 469 512 555 597 640 682 725 768 810 853 896 938 981 1023 
0 0 0
10 13 16
19 32 39
36 58 74
61 97 123
90 142 186
132 203 250
177 262 316
225 318 381
276 377 446
324 436 510
372 494 577
420 553 641
470 612 706
518 670 771
566 728 836
616 788 902
665 845 965
714 904 1030
765 962 1095
815 1020 1159
865 1078 1223
916 1136 1287
967 1194 1351
1019 1252 1415
84 129 168
90 142 186
103 161 203
119 186 233
145 220 269
174 257 312
209 299 358
248 345 409
287 393 462
328 442 518
370 493 575
416 547 634
460 600 693
505 654 753
551 709 814
596 764 875
644 819 937
691 876 999
739 932 1061
788 988 1124
836 1044 1186
885 1101 1249
935 1158 1312
986 1214 1374
1036 1271 1436
192 278 336
201 287 345
209 299 358
225 316 377
243 339 403
267 369 436
293 401 471
324 436 510
356 477 556
391 518 603
430 563 652
467 610 703
508 658 758
550 708 813
592 758 869
635 810 926
680 862 984
725 914 1043
771 968 1102
817 1023 1162
864 1077 1222
912 1131 1282
961 1186 1343
1010 1242 1403
1060 1297 1464
320 431 505
324 437 513
332 445 521
341 458 535
354 475 553
372 494 577
393 520 604
417 550 636
445 582 673
472 616 712
505 655 754
538 695 798
575 737 845
611 781 894
650 827 945
690 874 997
732 923 1052
773 972 1106
816 1022 1161
861 1073 1218
906 1124 1274
952 1176 1332
999 1229 1390
1046 1282 1448
1094 1335 1506
445 583 674
449 588 680
455 594 687
462 603 696
472 616 712
488 633 730
503 652 751
522 675 777
545 702 807
569 730 838
596 763 874
625 797 912
656 834 953
689 872 996
724 913 1041
759 955 1088
798 1000 1137
836 1044 1186
877 1091 1238
918 1138 1290
961 1186 1343
1004 1235 1396
1049 1285 1451
1094 1335 1506
1141 1386 1562
572 735 843
576 739 848
579 744 852
586 751 861
594 761 872
605 774 886
618 790 904
635 809 926
653 831 949
673 855 977
696 882 1006
722 912 1039
749 944 1074
778 977 1112
809 1013 1152
842 1051 1194
877 1091 1238
912 1131 1282
949 1174 1329
988 1217 1377
1028 1262 1426
1069 1307 1476
1111 1353 1526
1155 1401 1578
1199 1449 1630
700 886 1011
703 890 1015
706 894 1019
712 899 1026
719 908 1035
727 919 1047
739 932 1061
752 948 1079
769 966 1099
786 986 1122
807 1010 1148
828 1035 1176
852 1063 1206
877 1092 1239
905 1124 1274
935 1157 1311
967 1193 1350
999 1230 1390
1033 1268 1432
1070 1308 1476
1107 1348 1521
1145 1390 1567
1185 1433 1614
1227 1477 1662
1269 1522 1711
831 1038 1179
833 1041 1182
835 1044 1186
840 1049 1192
846 1056 1199
854 1065 1209
864 1076 1221
875 1090 1236
888 1105 1253
904 1123 1273
921 1142 1295
942 1164 1319
963 1188 1345
986 1214 1374
1011 1243 1405
1038 1272 1437
1066 1304 1472
1096 1337 1508
1128 1372 1546
1161 1407 1585
1196 1445 1627
1232 1484 1669
1270 1523 1712
1309 1564 1756
1349 1606 1802
963 1188 1345
965 1190 1348
967 1194 1351
971 1198 1355
976 1204 1362
983 1212 1371
992 1221 1382
1002 1233 1394
1014 1246 1409
1028 1262 1426
1043 1279 1444
1061 1298 1465
1080 1319 1489
1101 1342 1514
1124 1367 1541
1148 1393 1570
1174 1421 1601
1202 1451 1633
1231 1482 1667
1262 1515 1703
1295 1549 1740
1329 1585 1779
1364 1621 1818
1400 1659 1859
1439 1697 1901
1098 1339 1510
1100 1341 1512
1102 1343 1515
1105 1347 1519
1110 1352 1525
1117 1359 1533
1124 1368 1541
1133 1377 1552
1144 1389 1565
1156 1403 1580
1170 1417 1596
1186 1434 1615
1204 1453 1636
1223 1474 1658
1244 1496 1682
1266 1519 1708
1290 1545 1735
1316 1571 1764
1343 1600 1795
1372 1629 1827
1402 1660 1861
1434 1693 1896
1467 1726 1932
1501 1761 1970
1537 1796 2008
1238 1489 1674
1239 1490 1676
1241 1493 1678
1244 1496 1682
1248 1500 1687
1254 1506 1693
1261 1514 1701
1269 1522 1711
1279 1533 1722
1290 1545 1735
1303 1558 1750
1317 1573 1766
1333 1589 1784
1351 1607 1803
1370 1627 1825
1390 1649 1848
1413 1671 1873
1437 1696 1899
1462 1721 1927
1489 1748 1956
1517 1776 1987
1547 1806 2019
1578 1837 2052
1610 1869 2087
1644 1902 2122
1380 1638 1836
1381 1639 1838
1383 1641 1840
1386 1643 1842
1390 1647 1847
1395 1653 1853
1401 1659 1860
1409 1667 1868
1417 1676 1878
1428 1687 1890
1440 1699 1903
1453 1712 1917
1468 1727 1933
1484 1743 1951
1502 1761 1970
1521 1780 1991
1541 1801 2013
1564 1823 2037
1588 1846 2062
1612 1871 2089
1639 1897 2117
1667 1924 2146
1696 1952 2177
1726 1982 2209
1758 2012 2242
1526 1786 1997
1528 1787 1998
1529 1788 2000
1532 1791 2003
1535 1795 2007
1540 1799 2011
1546 1805 2018
1553 1812 2025
1561 1820 2034
1570 1829 2044
1581 1840 2056
1594 1852 2069
1607 1866 2083
1622 1881 2099
1639 1897 2117
1656 1914 2135
1676 1933 2156
1696 1953 2177
1718 1974 2200
1742 1997 2225
1767 2020 2250
1793 2045 2277
1820 2072 2306
1849 2099 2335
1879 2127 2366
1676 1933 2156
1677 1934 2157
1679 1935 2159
1681 1938 2161
1684 1941 2165
1689 1946 2169
1694 1950 2175
1701 1957 2182
1708 1964 2190
1717 1973 2199
1727 1983 2210
1738 1993 2221
1751 2005 2234
1765 2019 2249
1780 2033 2264
1797 2049 2281
1815 2067 2300
1834 2085 2320
1854 2104 2341
1876 2125 2363
1899 2147 2387
1924 2170 2412
1950 2194 2438
1976 2219 2465
2005 2246 2494
1829 2080 2314
1829 2080 2315
1831 2082 2317
1833 2084 2319
1836 2087 2322
1840 2091 2326
1845 2095 2331
1851 2101 2337
1858 2108 2345
1866 2116 2353
1876 2125 2363
1886 2134 2373
1898 2146 2385
1911 2158 2399
1925 2171 2413
1941 2186 2429
1957 2201 2446
1975 2218 2464
1994 2236 2483
2015 2255 2504
2036 2275 2526
2059 2297 2549
2083 2319 2573
2108 2342 2598
2134 2367 2625
1983 2226 2472
1984 2227 2473
1985 2228 2474
1988 2230 2477
1990 2232 2479
1994 2236 2483
1998 2240 2488
2004 2245 2493
2011 2251 2500
2018 2259 2508
2027 2267 2516
2037 2276 2526
2048 2286 2537
2059 2297 2549
2072 2310 2563
2087 2323 2577
2102 2337 2593
2119 2353 2610
2137 2370 2628
2156 2387 2647
2176 2406 2667
2197 2426 2689
2219 2447 2712
2243 2469 2735
2267 2492 2760
2139 2372 2630
2140 2372 2631
2141 2374 2632
2143 2375 2634
2146 2378 2637
2149 2381 2640
2153 2385 2644
2158 2390 2649
2164 2395 2656
2171 2402 2663
2179 2409 2671
2188 2418 2680
2198 2427 2690
2210 2438 2702
2222 2449 2714
2235 2461 2727
2249 2475 2742
2265 2489 2757
2281 2505 2774
2299 2521 2792
2317 2539 2811
2337 2557 2831
2358 2576 2853
2379 2597 2875
2402 2618 2898
2294 2517 2788
2295 2518 2789
2296 2519 2790
2298 2520 2792
2301 2523 2794
2304 2526 2798
2308 2529 2801
2312 2534 2806
2318 2539 2812
2324 2545 2818
2332 2552 2826
2340 2560 2835
2349 2568 2844
2360 2578 2855
2371 2589 2866
2383 2600 2879
2397 2613 2892
2411 2626 2907
2426 2640 2923
2442 2656 2939
2460 2672 2957
2478 2689 2976
2497 2708 2996
2517 2727 3017
2539 2747 3039
2449 2663 2947
2450 2664 2948
2451 2664 2949
2453 2666 2950
2455 2668 2953
2458 2671 2956
2462 2674 2959
2466 2679 2964
2471 2683 2969
2477 2689 2975
2484 2695 2982
2492 2703 2990
2500 2711 2999
2510 2720 3009
2520 2730 3020
2531 2740 3032
2543 2752 3044
2557 2764 3058
2571 2778 3073
2586 2792 3089
2602 2808 3105
2619 2824 3123
2637 2841 3142
2656 2859 3162
2675 2878 3183
2603 2809 3107
2604 2809 3107
2605 2811 3108
2606 2812 3110
2608 2814 3112
2611 2816 3115
2614 2820 3118
2618 2823 3123
2623 2828 3128
2628 2833 3133
2635 2839 3140
2642 2846 3147
2650 2854 3156
2658 2862 3165
2668 2871 3175
2679 2881 3186
2690 2892 3198
2702 2904 3211
2715 2917 3225
2729 2930 3240
2744 2945 3255
2764 2960 3265
2786 2976 3275
2807 2992 3286
2830 3010 3298
2758 2955 3261
2759 2955 3262
2760 2956 3262
2762 2957 3263
2764 2959 3264
2767 2962 3266
2771 2965 3268
2776 2968 3270
2781 2972 3273
2788 2977 3276
2795 2983 3280
2803 2989 3284
2813 2996 3289
2823 3004 3294
2834 3012 3300
2846 3021 3306
2859 3032 3313
2873 3042 3320
2888 3054 3328
2904 3067 3337
2921 3080 3346
2939 3094 3356
2957 3109 3366
2977 3125 3377
2998 3142 3388
2944 3099 3359
2945 3099 3359
2946 3100 3360
2948 3101 3360
2950 3103 3362
2952 3105 3363
2956 3108 3365
2960 3111 3367
2965 3115 3370
2971 3120 3373
2977 3125 3377
2985 3131 3381
2993 3138 3385
3002 3145 3391
3012 3153 3396
3023 3162 3402
3035 3172 3409
3048 3182 3416
3061 3193 3424
3075 3205 3432
3091 3218 3441
3107 3231 3451
3125 3246 3461
3143 3261 3472
3162 3277 3483
3123 3244 3460
3123 3245 3460
3124 3245 3461
3126 3246 3462
3128 3248 3463
3130 3250 3464
3133 3253 3466
3137 3256 3468
3142 3260 3471
3147 3264 3474
3153 3269 3478
3160 3275 3482
3167 3281 3486
3175 3288 3491
3185 3296 3497
3195 3304 3503
3205 3313 3509
3217 3323 3516
3230 3334 3524
3243 3345 3532
3257 3357 3541
3272 3370 3550
3288 3383 3560
3305 3398 3570
3322 3413 3581
3296 3390 3564
3297 3391 3565
3297 3391 3565
3299 3392 3566
3300 3394 3567
3303 3396 3569
3306 3398 3570
3309 3401 3573
3313 3405 3575
3318 3409 3578
3324 3414 3582
3330 3419 3586
3337 3425 3590
3344 3432 3595
3353 3439 3600
3362 3447 3606
3372 3456 3612
3383 3465 3619
3395 3475 3626
3407 3486 3634
3420 3497 3642
3434 3509 3651
3449 3522 3661
3465 3536 3671
3481 3550 3682
3466 3537 3672
3467 3537 3672
3467 3538 3673
3468 3539 3673
3470 3540 3674
3472 3542 3676
3475 3545 3678
3478 3548 3680
3482 3551 3682
3487 3555 3685
3492 3559 3688
3498 3564 3692
3504 3570 3696
3511 3576 3701
3519 3583 3706
3528 3591 3712
3537 3599 3718
3547 3608 3724
3558 3617 3731
3570 3628 3739
3582 3638 3747
3595 3650 3756
3609 3662 3765
3624 3675 3775
3639 3689 3785
157 3 4
32 52 68
45 68 87
61 97 123
84 132 171
116 183 230
155 233 284
201 287 345
245 343 408
291 398 468
339 455 532
384 510 594
433 568 656
481 625 721
527 681 783
577 740 849
625 797 912
673 854 975
722 912 1039
771 970 1103
821 1027 1167
871 1085 1231
921 1142 1295
973 1200 1358
1024 1257 1421
122 169 160
116 180 228
126 195 243
145 220 269
168 250 302
195 282 341
230 322 384
267 367 433
304 412 485
343 460 537
384 509 592
427 560 650
470 613 707
514 666 766
559 720 826
605 774 886
652 829 948
698 884 1009
746 940 1070
794 996 1132
842 1052 1194
891 1107 1256
941 1164 1318
991 1220 1380
1042 1277 1442
214 306 365
220 312 372
230 326 388
245 341 406
262 363 430
284 388 458
310 420 493
337 454 530
370 492 573
404 533 619
440 577 667
478 623 719
518 670 771
559 719 825
601 769 880
644 819 937
687 871 994
732 924 1052
777 977 1111
823 1030 1170
871 1084 1230
918 1138 1290
967 1193 1350
1015 1247 1410
1065 1303 1471
334 449 525
339 455 532
345 462 540
354 475 553
369 490 571
386 512 595
406 536 623
430 563 652
455 595 688
485 630 726
516 667 767
548 706 811
584 748 858
620 792 907
658 837 957
697 883 1008
738 931 1061
780 979 1114
823 1030 1170
867 1080 1225
912 1131 1282
957 1183 1339
1004 1235 1396
1051 1287 1454
1099 1340 1512
457 596 689
461 601 695
465 606 701
472 616 712
484 629 725
497 645 744
513 664 765
532 687 789
553 713 819
578 742 851
604 773 885
632 807 923
664 843 964
696 882 1006
731 922 1051
766 964 1097
804 1007 1145
843 1052 1195
883 1098 1246
924 1145 1297
966 1193 1350
1010 1241 1403
1054 1290 1457
1099 1340 1512
1145 1391 1567
582 745 855
584 749 859
588 754 864
594 761 872
603 771 883
614 785 899
627 800 915
643 819 936
661 840 960
681 864 986
704 891 1017
729 920 1049
756 951 1083
785 985 1120
815 1020 1160
848 1058 1201
883 1098 1245
918 1138 1289
955 1180 1336
994 1223 1383
1033 1267 1432
1074 1312 1481
1116 1359 1532
1160 1406 1583
1204 1453 1636
708 895 1021
711 898 1024
713 902 1028
719 908 1035
725 917 1044
735 927 1057
746 940 1071
759 955 1088
775 974 1108
793 994 1131
812 1017 1156
834 1042 1184
859 1070 1214
884 1099 1247
912 1131 1282
941 1164 1318
972 1199 1357
1004 1235 1396
1039 1274 1439
1074 1313 1482
1111 1353 1526
1150 1395 1572
1189 1438 1619
1231 1482 1667
1273 1526 1715
837 1045 1187
839 1048 1190
842 1051 1194
846 1056 1199
852 1063 1207
860 1072 1216
870 1083 1229
881 1097 1244
894 1111 1260
910 1129 1280
927 1149 1301
947 1171 1325
968 1195 1352
991 1220 1380
1016 1248 1411
1043 1278 1443
1071 1310 1478
1101 1342 1514
1133 1376 1552
1166 1413 1591
1200 1450 1632
1237 1488 1674
1274 1528 1717
1313 1568 1761
1353 1610 1806
969 1195 1352
970 1197 1354
973 1200 1358
977 1205 1363
982 1210 1369
988 1218 1377
997 1228 1388
1007 1239 1400
1019 1252 1415
1033 1267 1432
1049 1284 1451
1066 1304 1472
1085 1325 1495
1106 1347 1520
1128 1372 1546
1153 1398 1576
1179 1426 1606
1207 1456 1639
1236 1487 1673
1266 1520 1708
1299 1553 1745
1333 1589 1783
1368 1625 1823
1404 1663 1863
1443 1701 1906
1103 1345 1517
1105 1346 1519
1107 1349 1521
1110 1352 1525
1115 1358 1531
1121 1364 1538
1129 1372 1547
1138 1383 1558
1149 1394 1571
1161 1407 1585
1175 1422 1602
1191 1439 1620
1208 1458 1641
1227 1478 1663
1248 1500 1687
1270 1524 1712
1294 1549 1740
1320 1576 1769
1347 1604 1800
1375 1633 1831
1406 1665 1865
1438 1697 1900
1471 1730 1937
1505 1765 1974
1541 1801 2013
1242 1493 1679
1243 1495 1681
1245 1497 1683
1249 1500 1687
1252 1505 1692
1258 1511 1698
1265 1518 1706
1273 1527 1716
1283 1537 1727
1294 1549 1740
1307 1562 1754
1321 1577 1770
1337 1593 1788
1355 1612 1808
1374 1631 1829
1394 1653 1852
1417 1675 1877
1441 1699 1903
1466 1725 1931
1493 1752 1960
1521 1780 1991
1551 1810 2023
1582 1841 2056
1614 1872 2091
1648 1906 2126
