Examples/Masked Alt - Double Camera Calibration.3dl
#25pt 3DLUT created by 3D LUT Creator Pro (c) Oleg Sharonov
#Copyright Oleg Sharonov
#IMAGEPROFILE sRGB IEC61966-2.1 v.2.10
#INPUTGAMMA sRGB IEC61966-2.1 v.2.10
#OUTPUTGAMMA sRGB IEC61966-2.1 v.2.10
0 128 256 384 512 640 768 896 1023
0 0 0
0 230 494
0 547 994
0 861 1495
0 1131 2025
0 1371 2551
0 1570 3047
0 1719 3488
1 1843 3849
0 516 0
0 527 570
0 706 1055
0 940 1562
0 1181 2085
0 1405 2606
0 1594 3096
0 1738 3531
0 1859 3879
0 1012 0
0 989 638
0 1043 1157
0 1174 1676
0 1343 2202
0 1518 2723
0 1675 3208
0 1799 3635
0 1905 3952
0 1490 0
0 1480 653
0 1494 1219
0 1555 1770
0 1652 2317
0 1766 2850
0 1876 3340
0 1966 3761
0 2045 4042
0 1952 0
0 1955 643
0 1970 1236
0 2004 1821
0 2060 2399
0 2127 2955
0 2194 3455
0 2261 3860
3 2331 4095
0 2424 0
0 2430 635
0 2447 1234
0 2475 1828
0 2516 2411
0 2568 2964
0 2624 3455
0 2677 3860
0 2733 4095
0 2911 0
0 2916 635
0 2929 1234
0 2952 1828
0 2984 2411
0 3026 2964
0 3071 3455
0 3115 3860
3 3161 4095
0 3398 0
0 3402 636
0 3413 1234
0 3431 1828
0 3458 2411
0 3492 2964
0 3530 3455
0 3567 3860
0 3606 4095
0 3885 0
0 3888 636
0 3897 1234
0 3913 1828
0 3936 2411
0 3964 2964
0 3997 3455
0 4028 3860
0 4061 4095
486 0 6
391 29 593
0 428 1107
0 795 1566
0 1086 2075
0 1336 2590
0 1540 3077
0 1693 3512
0 1819 3867
523 468 0
391 529 597
0 663 1140
0 903 1617
0 1150 2126
0 1378 2638
0 1571 3122
0 1716 3552
0 1839 3895
530 985 0
387 1021 604
0 1060 1186
0 1168 1704
0 1331 2227
0 1504 2744
0 1661 3226
0 1785 3650
0 1892 3964
516 1479 0
382 1498 611
0 1516 1215
0 1560 1778
0 1650 2327
0 1762 2860
0 1870 3349
0 1959 3769
0 2038 4048
494 1950 0
377 1959 618
0 1976 1225
0 2007 1818
0 2061 2399
0 2127 2956
0 2195 3453
0 2262 3858
0 2331 4095
485 2425 0
376 2431 620
0 2447 1226
0 2476 1823
0 2517 2408
0 2568 2962
0 2624 3453
0 2678 3858
0 2734 4095
485 2912 0
376 2917 620
0 2930 1226
0 2952 1823
0 2985 2408
0 3026 2962
0 3072 3453
0 3115 3858
0 3162 4095
485 3398 0
376 3403 620
0 3413 1226
0 3432 1823
0 3459 2408
0 3493 2962
0 3531 3453
0 3567 3858
3 3606 4095
485 3885 0
376 3889 620
0 3898 1226
0 3913 1823
0 3936 2408
0 3965 2962
0 3997 3453
0 4028 3858
3 4061 4095
974 3 21
962 12 539
819 136 1170
233 485 1778
0 945 2207
0 1239 2686
0 1461 3154
0 1623 3575
0 1757 3913
1000 446 0
999 446 525
815 572 1174
256 742 1782
0 1052 2236
0 1303 2721
0 1506 3190
0 1658 3609
0 1785 3936
1020 957 0
981 992 540
810 1047 1182
308 1137 1789
0 1292 2294
0 1466 2799
0 1623 3273
0 1748 3690
0 1855 3994
1013 1462 0
959 1486 556
803 1518 1193
372 1573 1799
0 1646 2354
0 1750 2886
0 1854 3373
0 1942 3792
0 2018 4066
988 1945 0
937 1955 574
796 1976 1204
441 2012 1810
0 2062 2398
0 2127 2955
0 2197 3448
0 2264 3854
0 2333 4095
980 2427 0
931 2433 578
794 2449 1207
451 2478 1811
0 2519 2400
0 2570 2955
0 2626 3448
0 2679 3854
3 2736 4095
979 2913 0
931 2918 578
794 2931 1207
451 2953 1811
0 2986 2400
0 3028 2955
0 3073 3448
0 3117 3854
0 3163 4095
979 3400 0
931 3404 578
794 3414 1207
451 3433 1811
0 3460 2400
0 3494 2955
0 3532 3448
0 3568 3854
0 3607 4095
979 3886 0
931 3890 578
794 3899 1207
451 3914 1811
0 3937 2400
0 3966 2955
0 3998 3448
0 4029 3854
0 4062 4095
1470 21 39
1458 46 514
1418 98 1115
1244 331 1750
859 671 2351
122 1026 2853
0 1324 3274
0 1513 3670
0 1661 3981
1484 443 0
1536 269 377
1437 461 1123
1241 666 1753
867 873 2354
139 1142 2865
0 1395 3295
0 1565 3692
0 1702 3998
1502 947 0
1512 952 408
1418 1010 1135
1234 1104 1763
888 1225 2362
183 1387 2891
0 1560 3345
0 1690 3748
0 1800 4038
1502 1452 0
1482 1473 448
1395 1506 1152
1226 1560 1776
915 1636 2374
244 1730 2923
0 1832 3406
0 1916 3819
0 1991 4087
1478 1945 0
1448 1954 491
1370 1975 1171
1218 2012 1790
941 2065 2385
293 2131 2944
0 2201 3438
0 2268 3846
0 2337 4095
1477 2430 0
1448 2436 492
1370 2452 1171
1218 2481 1789
941 2522 2384
293 2573 2944
0 2629 3438
0 2682 3846
0 2738 4095
1477 2915 0
1448 2921 492
1370 2933 1171
1218 2956 1789
941 2989 2385
293 3030 2944
0 3075 3438
0 3119 3846
0 3165 4095
1477 3402 0
1448 3406 492
1370 3416 1171
1218 3435 1789
941 3462 2385
293 3496 2944
0 3534 3438
0 3570 3846
0 3609 4095
1477 3888 0
1448 3892 492
1370 3900 1171
1218 3916 1789
941 3939 2384
293 3968 2944
0 3999 3438
0 4030 3846
0 4064 4095
1977 68 57
1964 103 443
1940 173 1080
1863 269 1702
1682 560 2325
1388 868 2900
912 1094 3411
386 1349 3787
0 1537 4062
1989 460 0
2014 276 285
1978 325 1057
1871 555 1713
1680 812 2328
1393 1030 2903
934 1218 3413
411 1431 3793
0 1598 4069
1997 955 0
2019 927 201
1968 975 1066
1854 1074 1726
1674 1200 2339
1404 1339 2910
993 1474 3417
482 1616 3811
0 1736 4083
1999 1458 0
1991 1467 267
1937 1500 1092
1832 1555 1744
1665 1631 2353
1421 1722 2921
1078 1815 3423
584 1897 3833
0 1984 4095
1986 1952 0
1966 1960 320
1914 1981 1112
1816 2018 1755
1660 2071 2361
1428 2137 2926
1097 2207 3423
584 2273 3833
0 2342 4095
1986 2435 0
1966 2441 320
1914 2457 1112
1816 2486 1755
1660 2527 2361
1428 2578 2926
1098 2633 3424
584 2687 3833
0 2743 4095
1986 2920 0
1966 2925 320
1914 2938 1112
1816 2960 1755
1660 2993 2361
1428 3034 2926
1098 3079 3424
584 3123 3833
3 3169 4095
1986 3405 0
1966 3409 320
1914 3420 1113
1816 3438 1755
1660 3465 2361
1428 3499 2926
1098 3537 3424
584 3573 3833
3 3612 4095
1986 3891 0
1966 3894 322
1914 3903 1113
1817 3919 1755
1660 3941 2361
1428 3970 2926
1097 4002 3424
584 4033 3833
0 4067 4095
2514 151 69
2503 189 228
2479 271 1028
2430 385 1664
2331 525 2285
2166 810 2875
1953 1068 3389
1716 1252 3815
1407 1412 4095
2523 497 0
2529 392 105
2501 450 1000
2444 543 1664
2334 734 2295
2163 1003 2878
1955 1202 3392
1725 1360 3815
1432 1502 4095
2528 980 0
2534 961 0
2517 957 966
2439 1066 1676
2320 1198 2307
2158 1339 2887
1963 1475 3397
1753 1592 3814
1505 1702 4095
2530 1478 0
2519 1488 0
2483 1516 1009
2410 1572 1700
2299 1648 2325
2151 1734 2899
1970 1824 3402
1769 1908 3814
1513 1993 4095
2527 1961 0
2513 1970 0
2475 1991 1019
2405 2028 1703
2298 2080 2325
2151 2146 2899
1970 2216 3402
1769 2282 3814
1514 2350 4095
2528 2443 0
2513 2449 0
2475 2465 1019
2405 2493 1703
2298 2534 2325
2151 2585 2899
1970 2640 3402
1769 2693 3814
1514 2749 4095
2528 2925 0
2513 2931 0
2475 2944 1019
2405 2966 1703
2298 2999 2325
2151 3040 2899
1970 3085 3402
1769 3128 3814
1513 3174 4095
2528 3410 0
2513 3414 0
2475 3425 1019
2405 3443 1703
2298 3470 2325
2151 3504 2899
1970 3542 3402
1769 3578 3814
1514 3617 4095
2528 3895 0
2513 3898 0
2475 3907 1019
2406 3923 1703
2299 3945 2325
2151 3974 2899
1970 4006 3402
1770 4037 3814
1513 4070 4095
3113 275 61
3103 313 143
3080 400 901
3040 528 1611
2971 685 2246
2867 862 2839
2736 1085 3361
2601 1281 3785
2452 1439 4095
3120 568 0
3116 534 70
3091 599 877
3047 704 1606
2974 843 2251
2867 1007 2845
2735 1235 3363
2603 1394 3786
2456 1529 4095
3126 1030 0
3121 1031 0
3102 1020 834
3050 1107 1608
2966 1251 2265
2856 1390 2857
2732 1513 3368
2605 1616 3786
2456 1720 4095
3129 1506 0
3118 1517 0
3089 1546 859
3037 1596 1621
2959 1666 2271
2855 1751 2858
2732 1841 3369
2605 1923 3786
2456 2008 4095
3129 1976 0
3118 1985 0
3089 2005 859
3037 2042 1622
2959 2094 2271
2855 2159 2858
2732 2228 3369
2605 2294 3786
2456 2362 4095
3129 2454 0
3118 2460 0
3089 2476 859
3038 2504 1622
2959 2544 2271
2855 2595 2858
2732 2650 3369
2605 2703 3786
2456 2759 4095
3129 2934 0
3118 2940 0
3089 2952 859
3037 2974 1622
2959 3007 2271
2855 3048 2858
2732 3093 3369
2605 3136 3786
2456 3183 4095
3129 3417 0
3118 3421 0
3089 3432 859
3037 3450 1621
2959 3477 2271
2855 3511 2858
2732 3548 3369
2604 3585 3786
2456 3623 4095
3129 3901 0
3118 3904 0
3089 3913 859
3037 3929 1621
2959 3952 2271
2855 3980 2858
2732 4012 3369
2605 4043 3786
2456 4076 4095
3792 445 26
3784 483 47
3764 571 569
3728 706 1496
3671 876 2186
3593 1062 2797
3504 1217 3320
3413 1349 3744
3310 1476 4095
3797 692 0
3789 712 17
3769 782 548
3730 895 1493
3672 1037 2188
3594 1180 2798
3504 1318 3320
3413 1440 3744
3310 1558 4095
3801 1095 0
3793 1112 0
3771 1154 535
3731 1223 1492
3672 1318 2188
3594 1429 2798
3504 1542 3320
3413 1643 3744
3310 1745 4095
3801 1535 0
3792 1546 0
3770 1575 535
3731 1624 1492
3672 1693 2188
3594 1776 2798
3504 1864 3320
3413 1945 3744
3310 2029 4095
3801 1997 0
3792 2006 0
3770 2026 535
3731 2063 1492
3672 2114 2189
3594 2178 2798
3504 2247 3320
3413 2311 3744
3310 2379 4095
3801 2470 0
3792 2476 0
3771 2492 535
3731 2520 1492
3672 2560 2188
3594 2610 2798
3504 2665 3320
3413 2717 3744
3310 2773 4095
3801 2947 0
3793 2952 0
3770 2965 535
3731 2987 1492
3672 3019 2189
3594 3060 2798
3504 3105 3320
3413 3148 3744
3310 3194 4095
3801 3428 0
3793 3432 0
3771 3442 535
3731 3461 1492
3672 3487 2188
3594 3521 2798
3504 3559 3320
3413 3595 3744
3310 3633 4095
3801 3910 0
3793 3913 0
3771 3922 535
3731 3938 1493
3672 3960 2188
3594 3989 2798
3504 4020 3320
3412 4051 3744
3310 4085 4095
4095 602 0
4095 634 0
4095 709 0
4095 823 1306
4095 965 2078
4095 1119 2718
4095 1265 3256
4095 1392 3690
4095 1515 4095
4095 799 0
4095 823 0
4095 881 0
4095 974 1305
4095 1094 2078
4095 1230 2718
4095 1363 3256
4095 1479 3690
4095 1594 4095
4095 1150 0
4095 1166 0
4095 1206 0
4095 1272 1306
4095 1363 2078
4095 1469 2718
4095 1578 3256
4095 1677 3690
4095 1777 4095
4095 1572 0
4095 1583 0
4095 1611 0
4095 1658 1305
4095 1725 2077
4095 1807 2718
4095 1893 3256
4095 1972 3690
4095 2055 4095
4095 2024 0
4095 2032 0
4095 2053 0
4095 2088 1306
4095 2139 2077
4095 2202 2718
4095 2270 3256
4095 2334 3690
4095 2400 4095
4095 2490 0
4095 2497 3
4095 2512 0
4095 2540 1306
4095 2579 2077
4095 2629 2717
4095 2684 3256
4095 2736 3690
4095 2790 4095
4095 2964 0
4095 2969 0
4095 2981 3
4095 3003 1305
4095 3035 2077
4095 3076 2718
4095 3120 3256
4095 3163 3690
4095 3209 4095
4095 3441 0
4095 3445 0
4095 3456 3
4095 3474 1306
4095 3500 2078
4095 3534 2718
4095 3571 3256
4095 3607 3690
4095 3646 4095
4095 3921 0
4095 3925 0
4095 3933 3
4095 3949 1306
4095 3971 2077
4095 4000 2717
4095 4032 3257
4095 4062 3691
4095 4095 4095
