Examples/Masks - Grey & Orange.3dl
#25pt 3DLUT created by 3D LUT Creator Pro (c) Oleg Sharonov
#Copyright Oleg Sharonov
0 128 256 384 512 640 768 896 1023
0 0 0
55 55 55
192 192 192
363 363 363
535 535 535
706 706 706
877 877 877
1049 1049 1049
1220 1220 1220
416 416 416
442 442 442
503 503 503
596 596 596
714 714 714
849 849 849
994 994 994
1145 1145 1145
1302 1302 1302
861 861 861
874 874 874
905 905 905
959 959 959
1033 1033 1033
1127 1127 1127
1236 1236 1236
1357 1357 1357
1488 1488 1488
1306 1306 1306
1314 1314 1314
1334 1334 1334
1369 1369 1369
1419 1419 1419
1485 1485 1485
1565 1565 1565
1658 1658 1658
1762 1762 1762
1751 1751 1751
1757 1757 1757
1771 1771 1771
1796 1796 1796
1832 1832 1832
1881 1881 1881
1941 1941 1941
2013 2013 2013
2096 2096 2096
2196 2196 2196
2201 2201 2201
2211 2211 2211
2230 2230 2230
2258 2258 2258
2295 2295 2295
2343 2343 2343
2400 2400 2400
2467 2467 2467
2642 2642 2642
2645 2645 2645
2653 2653 2653
2668 2668 2668
2690 2690 2690
2720 2720 2720
2759 2759 2759
2805 2805 2805
2861 2861 2861
3087 3087 3087
3089 3089 3089
3096 3096 3096
3108 3108 3108
3127 3127 3127
3152 3152 3152
3183 3183 3183
3222 3222 3222
3268 3268 3268
3532 3532 3532
3534 3534 3534
3540 3540 3540
3550 3550 3550
3565 3565 3565
3586 3586 3586
3613 3613 3613
3646 3646 3646
3686 3686 3686
447 30 30
212 212 212
312 312 312
445 445 445
594 594 594
751 751 751
914 914 914
1079 1079 1079
1245 1245 1245
495 495 370
512 512 512
565 565 565
650 650 650
759 759 759
886 886 886
1025 1025 1025
1173 1173 1173
1325 1325 1325
898 898 898
910 910 910
940 940 940
992 992 992
1064 1064 1064
1154 1154 1154
1260 1260 1260
1379 1379 1379
1508 1508 1508
1329 1329 1329
1337 1337 1337
1357 1357 1357
1391 1391 1391
1440 1440 1440
1505 1505 1505
1584 1584 1584
1675 1675 1675
1779 1779 1779
1768 1768 1768
1773 1773 1773
1787 1787 1787
1811 1811 1811
1847 1847 1847
1895 1895 1895
1956 1956 1956
2027 2027 2027
2110 2110 2110
2209 2209 2209
2213 2213 2213
2223 2223 2223
2242 2242 2242
2270 2270 2270
2307 2307 2307
2354 2354 2354
2411 2411 2411
2478 2478 2478
2651 2651 2651
2655 2655 2655
2663 2663 2663
2678 2678 2678
2700 2700 2700
2730 2730 2730
2768 2768 2768
2814 2814 2814
2869 2869 2869
3095 3095 3095
3097 3097 3097
3104 3104 3104
3116 3116 3116
3135 3135 3135
3159 3159 3159
3191 3191 3191
3230 3230 3230
3276 3276 3276
3539 3539 3539
3541 3541 3541
3547 3547 3547
3557 3557 3557
3572 3572 3572
3593 3593 3593
3620 3620 3620
3653 3653 3653
3692 3692 3692
914 79 79
455 455 455
514 514 514
606 606 606
723 723 723
855 855 855
999 999 999
1150 1150 1150
1306 1306 1306
1024 512 0
956 539 539
700 700 700
770 770 770
863 863 863
975 975 975
1101 1101 1101
1238 1238 1238
1383 1383 1383
995 995 745
1003 1003 878
1024 1024 1024
1071 1071 1071
1137 1137 1137
1221 1221 1221
1321 1321 1321
1434 1434 1434
1557 1557 1557
1386 1386 1386
1394 1394 1394
1412 1412 1412
1445 1445 1445
1492 1492 1492
1554 1554 1554
1630 1630 1630
1719 1719 1719
1819 1819 1819
1808 1808 1808
1814 1814 1814
1827 1827 1827
1851 1851 1851
1886 1886 1886
1933 1933 1933
1991 1991 1991
2062 2062 2062
2142 2142 2142
2240 2240 2240
2244 2244 2244
2254 2254 2254
2272 2272 2272
2300 2300 2300
2336 2336 2336
2383 2383 2383
2439 2439 2439
2505 2505 2505
2676 2676 2676
2679 2679 2679
2687 2687 2687
2702 2702 2702
2724 2724 2724
2753 2753 2753
2791 2791 2791
2837 2837 2837
2891 2891 2891
3115 3115 3115
3117 3117 3117
3124 3124 3124
3136 3136 3136
3154 3154 3154
3179 3179 3179
3210 3210 3210
3249 3249 3249
3294 3294 3294
3555 3555 3555
3558 3558 3558
3563 3563 3563
3574 3574 3574
3589 3589 3589
3609 3609 3609
3636 3636 3636
3669 3669 3669
3708 3708 3708
1382 128 128
1048 425 632
753 753 753
818 818 818
906 906 906
1013 1013 1013
1134 1134 1134
1267 1267 1267
1408 1408 1408
1536 512 0
1411 575 575
888 888 888
942 942 942
1018 1018 1018
1114 1114 1114
1223 1223 1223
1346 1346 1346
1478 1478 1478
1536 1024 0
1536 1024 512
1466 1048 1048
1197 1197 1197
1255 1255 1255
1331 1331 1331
1421 1421 1421
1525 1525 1525
1640 1640 1640
1495 1495 1121
1500 1500 1251
1513 1513 1388
1536 1536 1536
1580 1580 1580
1638 1638 1638
1709 1709 1709
1793 1793 1793
1888 1888 1888
1878 1878 1878
1883 1883 1883
1896 1896 1896
1919 1919 1919
1952 1952 1952
1997 1997 1997
2054 2054 2054
2121 2121 2121
2199 2199 2199
2294 2294 2294
2298 2298 2298
2308 2308 2308
2325 2325 2325
2352 2352 2352
2387 2387 2387
2433 2433 2433
2487 2487 2487
2551 2551 2551
2719 2719 2719
2722 2722 2722
2730 2730 2730
2745 2745 2745
2766 2766 2766
2795 2795 2795
2832 2832 2832
2877 2877 2877
2931 2931 2931
3150 3150 3150
3153 3153 3153
3160 3160 3160
3171 3171 3171
3189 3189 3189
3213 3213 3213
3244 3244 3244
3282 3282 3282
3327 3327 3327
3585 3585 3585
3588 3588 3588
3593 3593 3593
3603 3603 3603
3618 3618 3618
3639 3639 3639
3665 3665 3665
3697 3697 3697
3736 3736 3736
1849 178 178
1613 398 702
1035 979 1007
1054 1054 1054
1122 1122 1122
1207 1207 1207
1308 1308 1308
1422 1422 1422
1546 1546 1546
2047 512 0
1870 617 617
1304 983 1090
1150 1150 1150
1212 1212 1212
1290 1290 1290
1384 1384 1384
1491 1491 1491
1609 1609 1609
2047 1024 0
2047 1024 512
1915 1079 1079
1361 1361 1361
1412 1412 1412
1478 1478 1478
1558 1558 1558
1652 1652 1652
1757 1757 1757
2047 1536 0
2047 1536 512
2047 1536 1024
1976 1559 1559
1701 1701 1701
1754 1754 1754
1820 1820 1820
1898 1898 1898
1987 1987 1987
1995 1995 1496
1998 1998 1624
2007 2007 1758
2024 2024 1899
2048 2048 2048
2090 2090 2090
2143 2143 2143
2207 2207 2207
2282 2282 2282
2372 2372 2372
2375 2375 2375
2385 2385 2385
2402 2402 2402
2428 2428 2428
2462 2462 2462
2505 2505 2505
2558 2558 2558
2620 2620 2620
2782 2782 2782
2785 2785 2785
2793 2793 2793
2807 2807 2807
2828 2828 2828
2856 2856 2856
2892 2892 2892
2936 2936 2936
2988 2988 2988
3203 3203 3203
3205 3205 3205
3212 3212 3212
3223 3223 3223
3241 3241 3241
3264 3264 3264
3295 3295 3295
3332 3332 3332
3376 3376 3376
3630 3630 3630
3632 3632 3632
3637 3637 3637
3647 3647 3647
3662 3662 3662
3682 3682 3682
3708 3708 3708
3740 3740 3740
3778 3778 3778
2316 227 227
2138 399 747
1695 846 1185
1302 1302 1302
1355 1355 1355
1425 1425 1425
1509 1509 1509
1606 1606 1606
1714 1714 1714
2501 550 62
2332 661 661
1895 967 1199
1379 1379 1379
1429 1429 1429
1494 1494 1494
1573 1573 1573
1666 1666 1666
1770 1770 1770
2559 1024 0
2559 1024 512
2369 1116 1116
1644 1506 1552
1597 1597 1597
1654 1654 1654
1725 1725 1725
1808 1808 1808
1902 1902 1902
2559 1536 0
2559 1536 512
2559 1536 1024
2423 1587 1587
1852 1852 1852
1900 1900 1900
1960 1960 1960
2031 2031 2031
2113 2113 2113
2559 2048 0
2559 2048 512
2559 2048 1024
2559 2048 1536
2488 2070 2070
2209 2209 2209
2259 2259 2259
2319 2319 2319
2389 2389 2389
2495 2495 1871
2497 2497 1999
2504 2504 2130
2517 2517 2267
2535 2535 2410
2559 2559 2559
2601 2601 2601
2651 2651 2651
2710 2710 2710
2866 2866 2866
2869 2869 2869
2877 2877 2877
2890 2890 2890
2910 2910 2910
2937 2937 2937
2972 2972 2972
3014 3014 3014
3065 3065 3065
3273 3273 3273
3275 3275 3275
3282 3282 3282
3293 3293 3293
3310 3310 3310
3333 3333 3333
3363 3363 3363
3399 3399 3399
3442 3442 3442
3689 3689 3689
3692 3692 3692
3697 3697 3697
3707 3707 3707
3721 3721 3721
3741 3741 3741
3766 3766 3766
3798 3798 3798
3835 3835 3835
2783 277 277
2642 416 787
2289 774 1279
1677 1433 1555
1600 1600 1600
1658 1658 1658
1728 1728 1728
1811 1811 1811
1905 1905 1905
2932 610 146
2796 707 707
2446 968 1263
1840 1451 1607
1661 1661 1661
1715 1715 1715
1783 1783 1783
1863 1863 1863
1954 1954 1954
3071 1024 0
3071 1024 512
2826 1156 1156
2233 1500 1684
1803 1803 1803
1853 1853 1853
1914 1914 1914
1988 1988 1988
2072 2072 2072
3071 1536 0
3071 1536 512
3071 1536 1024
2873 1620 1620
2044 2020 2028
2070 2070 2070
2124 2124 2124
2189 2189 2189
2264 2264 2264
3071 2048 0
3071 2048 512
3071 2048 1024
3071 2048 1536
2932 2097 2097
2352 2352 2352
2398 2398 2398
2453 2453 2453
2519 2519 2519
3071 2559 0
3071 2559 512
3071 2559 1024
3071 2559 1536
3071 2559 2048
2999 2581 2581
2718 2718 2718
2766 2766 2766
2822 2822 2822
2995 2995 2246
2997 2997 2373
3002 3002 2503
3012 3012 2638
3026 3026 2777
3046 3046 2921
3071 3071 3071
3112 3112 3112
3160 3160 3160
3361 3361 3361
3363 3363 3363
3369 3369 3369
3380 3380 3380
3397 3397 3397
3419 3419 3419
3447 3447 3447
3483 3483 3483
3524 3524 3524
3765 3765 3765
3767 3767 3767
3772 3772 3772
3782 3782 3782
3796 3796 3796
3815 3815 3815
3840 3840 3840
3870 3870 3870
3907 3907 3907
3250 326 326
3135 442 826
2844 739 1341
2338 1280 1734
1852 1852 1852
1900 1900 1900
1960 1960 1960
2032 2032 2032
2113 2113 2113
3373 669 218
3261 755 755
2973 980 1312
2469 1393 1752
1903 1903 1903
1949 1949 1949
2007 2007 2007
2077 2077 2077
2157 2157 2157
3583 1024 0
3556 1039 536
3287 1198 1198
2791 1506 1763
2070 1995 2025
2068 2068 2068
2122 2122 2122
2187 2187 2187
2262 2262 2262
3583 1536 0
3583 1536 512
3583 1536 1024
3327 1657 1657
2622 2020 2170
2260 2260 2260
2308 2308 2308
2367 2367 2367
2435 2435 2435
3583 2048 0
3583 2048 512
3583 2048 1024
3583 2048 1536
3381 2127 2127
2515 2515 2515
2557 2557 2557
2609 2609 2609
2669 2669 2669
3583 2559 0
3583 2559 512
3583 2559 1024
3583 2559 1536
3583 2559 2048
3442 2607 2607
2855 2855 2855
2900 2900 2900
2953 2953 2953
3583 3071 0
3583 3071 512
3583 3071 1024
3583 3071 1536
3583 3071 2048
3583 3071 2559
3511 3093 3093
3228 3228 3228
3274 3274 3274
3495 3495 2622
3496 3496 2748
3501 3501 2877
3509 3509 3010
3521 3521 3146
3537 3537 3287
3558 3558 3433
3583 3583 3583
3623 3623 3623
3856 3856 3856
3858 3858 3858
3863 3863 3863
3872 3872 3872
3886 3886 3886
3905 3905 3905
3929 3929 3929
3958 3958 3958
3993 3993 3993
3717 375 375
3620 474 867
3376 726 1388
2947 1182 1844
2319 1885 2102
2149 2149 2149
2201 2201 2201
2263 2263 2263
2335 2335 2335
3821 726 284
3726 802 802
3483 1000 1355
3057 1359 1844
2431 1916 2137
2192 2192 2192
2242 2242 2242
2302 2302 2302
2373 2373 2373
4066 1042 33
3979 1095 615
3748 1242 1242
3327 1520 1821
2709 1954 2205
2294 2294 2294
2342 2342 2342
2399 2399 2399
2466 2466 2466
4095 1536 0
4095 1536 512
4095 1536 1024
3784 1696 1696
3176 2029 2259
2465 2465 2465
2508 2508 2508
2561 2561 2561
2623 2623 2623
4095 2048 0
4095 2048 512
4095 2048 1024
4095 2048 1536
3832 2161 2161
3043 2535 2662
2734 2734 2734
2782 2782 2782
2837 2837 2837
4095 2559 0
4095 2559 512
4095 2559 1024
4095 2559 1536
4095 2559 2048
3889 2636 2636
3010 3010 3010
3052 3052 3052
3101 3101 3101
4095 3071 0
4095 3071 512
4095 3071 1024
4095 3071 1536
4095 3071 2048
4095 3071 2559
3953 3118 3118
3361 3361 3361
3405 3405 3405
4095 3583 0
4095 3583 512
4095 3583 1024
4095 3583 1536
4095 3583 2048
4095 3583 2559
4095 3583 3071
4022 3605 3605
3738 3738 3738
3995 3995 2997
3996 3996 3123
4000 4000 3252
4006 4006 3383
4016 4016 3518
4030 4030 3656
4048 4048 3798
4069 4069 3944
4095 4095 4095
