Examples/Masks fit - Orange.3dl
#25pt 3DLUT created by 3D LUT Creator Pro (c) Oleg Sharonov
#Copyright Oleg Sharonov
0 128 256 384 512 640 768 896 1023
0 0 0
67 29 436
283 152 707
655 372 807
1129 658 797
1604 950 787
2078 1244 778
2553 1538 769
3027 1834 760
62 470 0
91 489 451
291 534 733
660 666 826
1132 876 820
1609 1121 808
2084 1383 796
2559 1655 786
3034 1934 776
248 884 0
267 905 375
348 947 822
658 1007 1007
1179 1146 813
1649 1340 801
2119 1565 794
2591 1809 785
3063 2066 776
570 1235 0
583 1257 310
601 1317 758
787 1370 1102
1203 1448 1173
1643 1593 1176
2181 1782 775
2646 1997 771
3113 2229 765
1040 1518 0
1046 1542 240
1113 1581 452
1106 1692 1072
1370 1768 1315
1779 1872 1351
2181 2027 1404
2663 2211 1215
3181 2422 746
1563 1779 0
1566 1802 187
1604 1849 361
1654 1934 645
1699 2061 1303
1961 2167 1530
2361 2288 1542
2757 2450 1574
3176 2638 1567
2088 2044 0
2089 2065 152
2105 2112 296
2165 2184 423
2156 2318 1114
2290 2441 1535
2554 2566 1745
2947 2700 1741
3302 2866 1763
2613 2311 0
2614 2330 126
2618 2375 248
2661 2442 359
2721 2540 456
2674 2707 1509
2880 2828 1768
3147 2967 1964
3309 3113 1968
3138 2578 0
3138 2596 107
3141 2637 211
3164 2702 308
3215 2791 395
3228 2927 988
3229 3092 1817
3292 3226 2018
3316 3380 2216
511 7 0
521 41 467
634 154 767
903 360 880
1305 644 868
1743 939 845
2194 1234 826
2652 1530 810
3114 1825 797
514 504 11
512 512 512
581 540 934
812 649 1133
1248 873 962
1701 1124 882
2156 1386 857
2617 1659 836
3081 1937 819
587 957 0
579 976 490
613 995 957
807 1031 1255
1210 1146 1252
1746 1350 880
2197 1572 857
2656 1814 838
3118 2070 821
789 1336 0
799 1348 362
787 1400 897
904 1434 1286
1236 1485 1439
1689 1608 1421
2209 1789 1143
2709 2007 825
3167 2237 812
1132 1646 0
1142 1660 293
1190 1686 579
1139 1793 1255
1391 1833 1508
1805 1908 1558
2209 2047 1609
2697 2222 1432
3221 2431 908
1615 1890 0
1622 1907 223
1659 1940 425
1671 2027 919
1715 2135 1463
1981 2216 1685
2384 2320 1707
2781 2470 1741
3207 2650 1711
2129 2133 0
2133 2150 175
2148 2191 341
2213 2249 480
2183 2384 1255
2306 2496 1668
2572 2606 1873
2966 2728 1876
3330 2886 1898
2646 2384 0
2648 2401 143
2657 2440 279
2697 2502 402
2762 2589 516
2700 2758 1603
2894 2872 1879
3162 3000 2071
3335 3138 2083
3165 2641 0
3167 2656 119
3172 2694 234
3192 2755 341
3247 2837 434
3247 2974 1147
3237 3137 1920
3313 3263 2114
3341 3410 2313
1020 48 0
1019 98 426
1052 171 874
1200 352 1100
1535 680 918
1924 970 885
2343 1260 863
2778 1551 843
3223 1844 826
1024 513 0
1022 520 504
1035 551 977
1143 650 1297
1432 851 1323
1893 1153 933
2315 1411 900
2752 1679 874
3200 1954 852
1032 994 61
1027 1015 522
1024 1024 1024
1093 1050 1445
1318 1146 1664
1715 1332 1641
2194 1574 1462
2689 1839 1121
3165 2104 865
1117 1435 38
1107 1454 510
1092 1484 1006
1133 1502 1463
1336 1534 1752
1728 1635 1791
2221 1809 1645
2714 2024 1398
3227 2270 856
1335 1785 0
1348 1788 345
1312 1845 916
1309 1899 1410
1450 1927 1767
1803 1972 1897
2227 2088 1924
2721 2251 1777
3214 2452 1536
1702 2055 0
1715 2061 273
1759 2070 511
1687 2184 1233
1709 2266 1717
1977 2306 1947
2385 2380 1992
2785 2513 2032
3232 2681 1966
2191 2268 0
2199 2279 207
2226 2304 396
2224 2380 828
2204 2498 1489
2301 2594 1899
2571 2678 2100
2970 2781 2118
3353 2927 2144
2696 2496 0
2701 2509 164
2716 2539 318
2743 2594 455
2739 2705 1103
2725 2844 1774
2894 2948 2081
3164 3059 2267
3359 3185 2292
3207 2735 0
3210 2749 134
3219 2780 262
3231 2837 380
3287 2909 480
3259 3055 1414
3231 3215 2110
3332 3326 2290
3364 3462 2488
1527 125 0
1524 178 402
1528 260 848
1597 396 1218
1792 653 1336
2095 975 1312
2520 1329 882
2928 1611 864
3354 1895 847
1533 533 0
1529 566 439
1531 595 952
1573 680 1359
1732 855 1561
2033 1125 1548
2461 1441 1239
2906 1736 901
3333 2004 877
1536 1022 10
1536 1024 512
1534 1031 1018
1548 1063 1486
1662 1159 1799
1941 1341 1869
2368 1598 1708
2826 1865 1447
3314 2150 893
1555 1467 159
1546 1501 561
1539 1525 1033
1536 1536 1536
1606 1561 1955
1832 1653 2173
2227 1826 2167
2693 2046 2051
3163 2284 1898
1666 1884 151
1641 1922 562
1625 1955 1028
1607 1993 1519
1652 2011 1970
1865 2040 2248
2259 2135 2293
2741 2295 2189
3219 2492 2041
1883 2230 0
1887 2237 391
1864 2282 936
1832 2344 1447
1832 2400 1920
1992 2425 2256
2363 2466 2367
2769 2577 2414
3251 2731 2306
2277 2458 0
2293 2459 252
2337 2456 470
2235 2584 1258
2221 2670 1764
2270 2748 2196
2548 2788 2408
2954 2862 2449
3351 2991 2483
2765 2653 0
2773 2660 192
2799 2676 368
2793 2739 744
2735 2865 1510
2746 2973 2011
2873 3065 2360
3148 3151 2543
3379 3258 2585
3264 2868 0
3268 2878 153
3284 2900 297
3305 2944 426
3264 3057 1107
3266 3176 1735
3266 3313 2284
3346 3421 2541
3385 3543 2740
2032 242 0
2027 297 373
2028 434 658
2044 514 1221
2154 721 1492
2391 1033 1523
2682 1333 1553
3065 1653 1351
3503 1981 857
2041 587 0
2036 628 418
2031 719 755
2039 752 1361
2125 906 1665
2336 1162 1745
2629 1452 1761
3024 1757 1561
3474 2075 1036
2046 1031 0
2044 1053 446
2042 1063 982
2043 1102 1468
2092 1192 1853
2261 1366 2037
2553 1616 2060
2965 1898 1882
3404 2174 1627
2049 1514 90
2048 1529 528
2047 1536 1024
2046 1542 1531
2062 1576 1995
2181 1671 2299
2462 1847 2376
2883 2086 2254
3327 2330 2093
2083 1923 309
2070 1970 640
2059 2009 1068
2051 2036 1545
2048 2048 2048
2120 2073 2464
2350 2163 2677
2749 2330 2670
3207 2537 2576
2224 2308 321
2187 2368 656
2162 2415 1078
2143 2459 1543
2122 2502 2031
2170 2521 2477
2394 2548 2744
2794 2639 2786
3270 2790 2700
2450 2651 164
2430 2680 553
2414 2717 1001
2390 2772 1475
2355 2843 1965
2356 2903 2429
2532 2925 2747
2918 2964 2843
3321 3072 2887
2854 2858 0
2869 2855 233
2877 2875 600
2820 2968 1270
2767 3067 1813
2760 3157 2278
2828 3232 2680
3111 3275 2880
3395 3355 2941
3336 3041 0
3345 3045 179
3369 3055 342
3373 3103 675
3288 3234 1541
3270 3343 2067
3288 3454 2522
3356 3552 2844
3404 3652 3055
2535 401 0
2530 456 341
2526 598 605
2533 779 884
2579 881 1489
2722 1132 1709
2980 1429 1718
3278 1718 1736
3617 2008 1720
2545 678 0
2541 723 391
2531 836 688
2540 917 1156
2570 1017 1661
2691 1234 1896
2941 1533 1900
3238 1817 1908
3585 2101 1863
2555 1067 0
2551 1099 429
2541 1176 744
2546 1183 1382
2557 1262 1849
2651 1420 2133
2876 1674 2189
3174 1948 2192
3543 2224 2104
2559 1537 0
2558 1544 482
2557 1550 1003
2554 1569 1505
2554 1612 1981
2609 1706 2352
2789 1881 2521
3078 2121 2553
3484 2384 2415
2564 1987 237
2562 2016 592
2560 2037 1041
2559 2047 1536
2558 2054 2043
2575 2089 2504
2700 2186 2800
2986 2359 2872
3405 2587 2765
2616 2358 517
2599 2420 768
2584 2474 1138
2572 2517 1579
2563 2547 2057
2559 2559 2559
2635 2586 2972
2871 2675 3177
3275 2838 3165
2794 2710 532
2746 2789 794
2709 2855 1167
2682 2912 1594
2660 2964 2056
2637 3011 2543
2688 3030 2985
2923 3057 3241
3331 3147 3276
3054 3022 424
3005 3086 720
2976 3137 1105
2950 3193 1537
2919 3262 1998
2879 3342 2479
2881 3405 2936
3072 3426 3239
3409 3466 3339
3428 3255 0
3441 3252 215
3417 3298 829
3393 3359 1343
3357 3443 1841
3306 3550 2341
3302 3644 2787
3358 3724 3172
3420 3791 3412
3035 603 0
3030 659 306
3020 807 544
3025 1025 683
3040 1124 1320
3124 1309 1719
3291 1553 1925
3564 1833 1921
3838 2110 1933
3048 809 0
3043 856 360
3030 981 637
3031 1170 794
3046 1211 1505
3112 1387 1890
3266 1636 2081
3533 1920 2072
3812 2193 2077
3060 1136 0
3056 1174 404
3044 1269 708
3040 1347 1129
3052 1393 1725
3093 1527 2126
3226 1753 2328
3485 2038 2320
3778 2306 2322
3068 1557 0
3065 1584 437
3057 1642 751
3057 1633 1426
3058 1684 1912
3074 1775 2346
3175 1937 2612
3413 2191 2649
3715 2451 2648
3071 2043 43
3071 2047 515
3071 2048 1023
3070 2056 1525
3066 2078 2021
3066 2124 2492
3126 2222 2852
3316 2398 3006
3614 2636 3023
3086 2443 423
3080 2485 704
3075 2520 1100
3072 2546 1555
3071 2559 2048
3070 2566 2555
3087 2602 3013
3219 2701 3299
3512 2875 3363
3156 2771 790
3135 2848 954
3115 2918 1253
3099 2978 1645
3085 3025 2091
3075 3059 2569
3071 3071 3071
3149 3098 3481
3394 3189 3674
3375 3088 798
3318 3186 977
3272 3270 1285
3233 3344 1676
3202 3411 2109
3177 3469 2570
3152 3520 3054
3207 3539 3492
3452 3566 3736
3651 3374 723
3591 3458 936
3545 3533 1251
3514 3601 1636
3485 3673 2062
3449 3754 2516
3405 3841 2991
3407 3907 3443
3468 3945 3772
3533 853 0
3528 909 270
3515 1056 480
3517 1249 619
3530 1469 705
3543 1524 1692
3674 1737 1950
3859 1975 2144
3964 2235 2137
3548 984 0
3543 1033 326
3530 1164 579
3524 1364 721
3533 1584 802
3549 1590 1827
3662 1804 2093
3838 2045 2275
3950 2307 2268
3563 1244 0
3558 1286 375
3546 1394 661
3529 1561 820
3544 1614 1426
3557 1695 2033
3642 1899 2323
3806 2145 2489
3931 2407 2485
3575 1609 0
3571 1643 415
3561 1722 721
3550 1795 1102
3555 1804 1779
3564 1892 2251
3614 2043 2604
3758 2275 2778
3904 2537 2781
3582 2056 0
3579 2075 441
3576 2099 872
3575 2103 1456
3570 2132 1965
3569 2192 2431
3589 2289 2845
3698 2457 3095
3865 2701 3131
3585 2525 206
3584 2543 574
3583 2555 1035
3583 2559 1536
3582 2566 2041
3577 2589 2535
3578 2638 3003
3642 2739 3352
3806 2914 3499
3616 2880 661
3606 2936 858
3596 2986 1191
3589 3026 1608
3584 3056 2068
3583 3071 2560
3582 3077 3067
3600 3115 3522
3738 3217 3799
3701 3166 1115
3677 3253 1202
3653 3339 1423
3632 3416 1754
3613 3482 2155
3598 3534 2603
3587 3570 3081
3583 3583 3583
3664 3611 3988
3886 3467 1084
3842 3566 1207
3799 3670 1443
3766 3759 1782
3739 3839 2186
3715 3912 2623
3693 3975 3082
3667 4029 3566
3684 4054 4011
4028 1147 0
4024 1197 233
4013 1322 425
4008 1492 562
4020 1688 653
4039 1820 1214
4063 1946 1992
4095 2162 2188
4095 2393 2367
4045 1204 0
4041 1255 289
4028 1392 514
4015 1584 651
4023 1787 734
4043 1880 1408
4060 1998 2127
4095 2219 2310
4095 2453 2482
4063 1394 0
4058 1439 342
4046 1557 605
4024 1741 749
4026 1943 812
4049 1958 1708
4051 2074 2341
4095 2304 2508
4095 2538 2670
4078 1697 0
4074 1736 388
4063 1831 678
4044 1976 837
4042 2009 1474
4058 2073 2051
4066 2195 2547
4095 2414 2778
4095 2650 2932
4089 2092 0
4085 2122 424
4077 2188 728
4068 2251 1083
4068 2236 1832
4067 2298 2326
4075 2401 2766
4095 2562 3087
4095 2789 3250
4095 2561 0
4092 2571 443
4093 2572 992
4091 2581 1499
4088 2602 1997
4081 2639 2488
4081 2703 2944
4095 2806 3345
4095 2973 3588
4095 2984 448
4095 3017 709
4095 3044 1094
4095 3063 1552
4095 3071 2048
4094 3077 2554
4089 3100 3048
4089 3151 3513
4095 3252 3858
4095 3293 966
4095 3365 1073
4095 3431 1329
4095 3487 1691
4095 3532 2118
4095 3565 2581
4095 3582 3072
4093 3589 3578
4095 3628 4033
4095 3564 1440
4095 3640 1506
4095 3740 1648
4095 3835 1907
4095 3918 2256
4095 3988 2665
4095 4044 3115
4095 4081 3593
4095 4095 4095
