Examples/Masks - Channels - Anti green.3dl
#25pt 3DLUT created by 3D LUT Creator Pro (c) Oleg Sharonov
#Copyright Oleg Sharonov
0 256 512 768 1023
0 0 0
0 0 845
0 0 1691
0 0 2536
0 0 3382
203 1283 1402
102 1059 1136
0 803 1606
0 828 2484
0 836 3345
556 2520 2736
542 2440 2660
293 2113 2251
97 1885 2722
0 1614 3229
907 3756 4070
901 3709 4025
865 3548 3856
486 3166 3367
194 2946 3794
1259 4095 4095
1254 4095 4095
1236 4095 4095
1099 4095 4005
678 4095 4095
1024 0 0
1024 0 1024
888 0 1776
863 0 2588
854 0 3418
1006 1243 1258
1024 1024 1024
971 845 1691
845 845 2536
845 845 3382
919 2527 2717
940 2444 2636
1011 2107 2225
1043 1879 2705
815 1630 3259
1107 3764 4066
1101 3718 4020
1082 3562 3872
1038 3170 3364
1050 2946 3791
1404 4095 4095
1398 4095 4095
1383 4095 4095
1333 4095 4023
1194 4095 4095
2047 0 0
2047 0 1024
2047 0 2047
1837 0 2755
1767 0 3534
2047 1024 0
2047 1024 1024
2047 1024 2047
1912 907 2721
1752 876 3504
2014 2445 2473
2022 2358 2381
2048 2048 2048
2055 1887 2680
1909 1691 3382
1945 3740 3966
1954 3691 3917
1981 3527 3754
2037 3139 3275
2060 2934 3756
1832 4095 4095
1842 4095 4095
1871 4095 4095
1924 4095 4095
2021 4095 4095
3071 0 0
3071 0 1024
3071 0 2047
3071 0 3071
2880 0 3754
3071 1024 0
3071 1024 1024
3071 1024 2047
3071 1024 3071
2922 934 3736
3070 2089 341
3071 2058 1083
3071 2047 2047
3071 2047 3071
2994 1831 3662
3022 3648 3688
3027 3597 3634
3043 3427 3453
3071 3071 3071
3079 2944 3760
2960 4095 4095
2965 4095 4095
2981 4095 4095
3010 4095 4095
3061 4095 4095
4095 0 0
4095 0 1024
4095 0 2047
4095 0 3071
4095 0 4095
4095 1024 0
4095 1024 1024
4095 1024 2047
4095 1024 3071
4095 1024 4095
4095 2048 0
4095 2047 1024
4095 2047 2047
4095 2047 3071
4095 2047 4095
4087 3223 1137
4089 3189 1688
4094 3101 2178
4095 3071 3071
4095 3071 4095
4031 4095 4095
4034 4095 4095
4045 4095 4095
4064 4095 4095
4095 4095 4095
