Examples/Masks - LAB Saturation.3dl
#25pt 3DLUT created by 3D LUT Creator Pro (c) Oleg Sharonov
#Copyright Oleg Sharonov
#IMAGEPROFILE sRGB IEC61966-2.1 v.2.10
#INPUTGAMMA sRGB IEC61966-2.1 v.2.10
#OUTPUTGAMMA sRGB IEC61966-2.1 v.2.10
0 128 256 384 512 640 768 896 1023
0 0 0
0 0 533
0 0 1029
0 0 1542
0 0 2051
0 0 2562
0 0 3085
0 0 3593
0 0 4095
0 514 0
0 513 513
0 513 1051
0 505 1645
0 479 2259
0 452 2803
0 394 3401
0 354 3914
0 458 4095
0 1024 0
0 1027 503
0 1025 1025
0 1026 1554
0 1025 2115
0 1017 2721
0 1005 3264
0 984 3851
0 1007 4095
0 1536 0
0 1539 492
0 1539 1017
0 1537 1537
0 1538 2058
0 1540 2615
0 1537 3202
0 1530 3763
0 1531 4095
0 2048 0
0 2054 461
0 2051 1010
0 2051 1532
0 2049 2049
0 2050 2568
0 2052 3110
0 2052 3674
0 2048 4095
0 2560 0
0 2565 451
0 2564 999
0 2565 1521
0 2562 2045
0 2561 2561
0 2561 3078
0 2565 3622
0 2561 4095
0 3072 0
0 3077 437
0 3077 986
0 3076 1517
0 3076 2036
0 3076 2557
0 3073 3073
0 3073 3587
0 3073 4095
0 3584 0
0 3591 379
0 3593 940
0 3594 1482
0 3589 2028
0 3588 2550
0 3587 3070
0 3585 3585
0 3584 4095
0 4095 0
0 4095 314
0 4095 956
0 4095 1476
0 4095 2016
0 4095 2538
0 4095 3063
0 4095 3583
0 4095 4095
529 0 0
517 0 520
514 0 1064
501 0 1565
476 0 2097
444 0 2620
369 0 3157
364 0 3653
506 0 4095
512 512 0
512 512 512
140 467 1441
64 434 2011
64 406 2486
64 356 3018
64 319 3496
64 303 3948
214 460 4095
498 1026 0
64 1073 240
64 1058 1065
64 1038 1722
64 1021 2309
64 1002 2873
64 984 3407
64 946 4031
177 1005 4095
457 1541 0
64 1568 254
64 1566 948
64 1558 1563
64 1550 2142
64 1543 2705
64 1535 3273
64 1523 3872
252 1530 4095
394 2055 0
64 2071 265
64 2072 919
64 2069 1503
64 2063 2067
64 2060 2617
64 2058 3182
64 2053 3737
333 2047 4095
382 2565 0
64 2579 242
64 2581 898
64 2578 1478
64 2577 2031
64 2572 2574
64 2569 3109
64 2569 3659
356 2561 4095
366 3077 0
64 3089 194
64 3091 886
64 3089 1459
64 3087 2011
64 3084 2552
64 3082 3084
64 3080 3612
303 3074 4095
359 3588 0
64 3598 197
64 3602 862
64 3602 1436
64 3598 1999
64 3597 2533
64 3596 3066
64 3592 3593
70 3589 4095
409 4095 0
64 4095 254
64 4095 870
64 4095 1421
64 4095 1984
64 4095 2528
64 4095 3052
64 4095 3582
64 4095 4095
1027 0 0
1027 0 512
1031 0 1032
1030 0 1558
1023 0 2074
1006 0 2627
998 0 3125
978 0 3648
1019 0 4095
1028 510 0
1242 317 407
1232 174 1270
1064 128 2061
823 128 2645
568 128 3146
423 128 3570
445 147 3967
950 462 4095
1023 1024 0
998 1042 128
1024 1024 1024
884 991 1891
256 943 2763
256 918 3270
256 884 3802
256 920 3967
939 1004 4095
1013 1538 0
852 1570 128
535 1608 706
391 1594 1605
256 1564 2354
256 1539 2975
256 1519 3504
256 1503 3967
954 1530 4095
993 2052 0
773 2079 128
256 2113 627
256 2108 1408
256 2092 2102
256 2077 2728
256 2065 3327
256 2053 3887
968 2047 4095
955 2567 0
692 2588 128
256 2609 665
256 2609 1355
256 2603 1993
256 2594 2601
256 2585 3181
256 2579 3757
961 2561 4095
921 3080 0
647 3096 128
256 3111 683
256 3114 1334
256 3111 1944
256 3106 2533
256 3099 3105
256 3093 3661
936 3074 4095
893 3592 0
625 3604 128
256 3617 674
256 3618 1335
256 3618 1919
256 3615 2496
256 3611 3058
256 3607 3611
824 3591 4095
919 4095 0
746 4095 128
360 4095 767
725 4095 1441
452 4095 1950
691 4095 2514
655 4095 3046
398 4095 3578
508 4095 4095
1537 0 0
1541 0 510
1540 0 1025
1544 0 1546
1541 0 2062
1540 0 2587
1533 0 3119
1525 0 3633
1534 0 4095
1544 504 0
1722 192 397
1704 192 1064
1671 192 1694
1614 192 2282
1552 192 2848
1489 192 3371
1430 192 3887
1510 458 4095
1537 1023 0
1641 977 192
1733 913 943
1722 861 1749
1614 784 2559
1336 657 3371
1183 739 3711
1337 884 3903
1503 1001 4095
1535 1536 0
1518 1547 192
1516 1556 684
1536 1536 1536
1452 1510 2343
1166 1476 3154
775 1454 3711
1249 1482 3903
1502 1527 4095
1528 2050 0
1461 2067 192
1251 2109 384
1217 2114 1286
1166 2100 2108
744 2083 2916
576 2057 3591
1056 2038 3903
1507 2045 4095
1516 2563 0
1427 2579 192
1110 2619 384
576 2649 1066
576 2642 1889
576 2623 2636
576 2603 3301
576 2586 3903
1508 2560 4095
1492 3078 0
1390 3091 192
988 3126 384
576 3145 1082
576 3142 1816
576 3134 2491
576 3122 3132
576 3110 3738
1498 3073 4095
1472 3590 0
1342 3604 192
941 3629 384
576 3644 1103
576 3644 1789
576 3641 2422
576 3634 3039
576 3625 3633
1477 3587 4095
1484 4095 0
1405 4095 192
1386 4095 871
1365 4095 1429
1400 4095 1988
1361 4095 2510
1365 4095 3046
1292 4095 3577
1322 4095 4095
2049 0 0
2055 0 509
2050 0 1024
2054 0 1539
2056 0 2057
2054 0 2573
2056 0 3105
2051 0 3630
2047 0 4095
2058 497 0
2165 256 425
2151 256 1014
2142 256 1581
2126 256 2139
2108 256 2694
2080 256 3227
2053 256 3761
2043 456 4095
2053 1020 0
2180 921 256
2331 694 880
2345 520 1623
2286 512 2330
2201 512 2998
2089 512 3576
2028 834 3839
2041 1002 4095
2048 1535 0
2082 1526 256
2185 1484 658
2214 1459 1474
2203 1426 2221
2132 1384 2971
1999 1368 3583
1991 1457 3839
2039 1527 4095
2047 2048 0
2037 2054 256
2018 2068 512
2039 2064 1282
2048 2048 2048
1993 2027 2796
1840 2003 3546
1919 2016 3839
2034 2044 4095
2043 2561 0
2009 2571 256
1924 2593 512
1775 2626 960
1816 2615 1852
1783 2603 2609
1626 2589 3357
1770 2564 3839
2034 2559 4095
2035 3074 0
1989 3084 256
1863 3107 512
1512 3151 768
1292 3165 1612
1310 3156 2409
1024 3144 3159
1024 3122 3838
2027 3073 4095
2024 3587 0
1966 3597 256
1812 3618 512
1380 3655 768
1024 3670 1564
1024 3667 2304
1024 3658 2998
1024 3644 3656
2002 3587 4095
2024 4095 0
1984 4095 256
1952 4095 859
1969 4095 1454
1938 4095 1969
1971 4095 2522
1968 4095 3050
1932 4095 3576
1909 4095 4095
2561 0 0
2567 0 507
2563 0 1023
2562 0 1536
2565 0 2051
2567 0 2568
2567 0 3086
2567 0 3607
2560 0 4095
2568 495 0
2631 320 450
2622 320 1006
2619 320 1545
2616 320 2082
2607 320 2615
2601 320 3152
2589 320 3681
2564 458 4095
2564 1020 0
2675 890 320
2765 640 902
2750 640 1533
2734 640 2140
2706 640 2731
2670 640 3307
2613 764 3775
2564 996 4095
2562 1534 0
2608 1511 320
2760 1400 640
2784 1370 1434
2792 1329 2121
2773 1272 2809
2718 1188 3455
2598 1426 3775
2561 1522 4095
2560 2047 0
2572 2045 320
2612 2034 640
2671 2012 1294
2688 1994 2002
2679 1973 2691
2633 1947 3381
2565 1992 3775
2558 2042 4095
2559 2560 0
2553 2563 320
2541 2571 640
2526 2583 974
2556 2572 1862
2559 2559 2559
2524 2544 3249
2501 2540 3775
2555 2558 4095
2556 3072 0
2539 3078 320
2497 3091 640
2413 3113 960
2373 3124 1679
2394 3115 2415
2372 3105 3109
2313 3092 3775
2551 3071 4095
2551 3585 0
2525 3591 320
2466 3605 640
2342 3628 960
2056 3664 1280
2120 3658 2248
2120 3650 2961
2026 3643 3653
2542 3585 4095
2551 4095 0
2530 4095 320
2497 4095 840
2502 4095 1439
2510 4095 1989
2506 4095 2515
2505 4095 3046
2512 4095 3577
2510 4095 4095
3072 0 0
3079 0 505
3075 0 1023
3073 0 1536
3073 0 2048
3075 0 2562
3077 0 3078
3078 0 3594
3072 0 4095
3079 492 0
3111 384 472
3108 384 1008
3104 384 1534
3103 384 2057
3101 384 2580
3099 384 3103
3094 384 3624
3078 467 4095
3078 1016 0
3152 890 384
3187 768 947
3180 768 1515
3174 768 2070
3166 768 2621
3151 768 3164
3135 768 3702
3082 990 4095
3073 1534 0
3114 1505 384
3236 1365 768
3282 1248 1426
3288 1152 2054
3267 1152 2668
3235 1152 3265
3148 1395 3711
3079 1520 4095
3072 2047 0
3089 2040 384
3139 2016 768
3213 1971 1331
3227 1954 1982
3231 1934 2611
3218 1908 3241
3137 1970 3711
3076 2040 4095
3072 2559 0
3076 2559 384
3089 2557 768
3126 2547 1152
3150 2537 1892
3159 2526 2530
3152 2512 3160
3111 2517 3711
3073 2556 4095
3071 3071 0
3068 3073 384
3060 3078 768
3051 3085 1152
3054 3088 1766
3071 3080 2437
3071 3071 3071
3050 3061 3701
3069 3070 4095
3069 3584 0
3061 3587 384
3041 3593 768
3004 3605 1152
2938 3623 1536
2955 3619 2327
2965 3613 2976
2951 3606 3609
3065 3584 4095
3067 4095 0
3059 4095 384
3047 4095 911
3049 4095 1473
3045 4095 1995
3050 4095 2528
3045 4095 3048
3047 4095 3575
3040 4095 4095
3584 0 0
3588 0 507
3586 0 1023
3584 0 1535
3584 0 2048
3585 0 2560
3585 0 3073
3586 0 3587
3583 0 4095
3588 497 0
3602 448 491
3600 448 1014
3598 448 1533
3597 448 2049
3596 448 2565
3596 448 3081
3595 448 3597
3588 484 4095
3588 1017 0
3623 928 448
3633 896 987
3629 896 1521
3627 896 2049
3625 896 2575
3622 896 3099
3617 896 3623
3592 1001 4095
3586 1533 0
3606 1515 448
3647 1445 924
3647 1448 1495
3647 1450 2038
3647 1441 2577
3647 1409 3118
3645 1401 3647
3590 1525 4095
3584 2047 0
3596 2040 448
3628 2019 896
3647 1998 1453
3647 1999 2016
3647 1995 2563
3647 1986 3109
3645 1978 3647
3589 2041 4095
3584 2559 0
3589 2557 448
3603 2552 896
3637 2537 1344
3647 2527 1956
3647 2525 2533
3647 2519 3094
3646 2511 3647
3587 2556 4095
3583 3071 0
3584 3071 448
3588 3071 896
3598 3070 1344
3615 3065 1883
3624 3060 2483
3628 3055 3057
3624 3049 3627
3585 3070 4095
3583 3583 0
3582 3584 448
3579 3586 896
3574 3589 1344
3569 3593 1792
3577 3591 2428
3583 3588 3011
3583 3583 3583
3583 3583 4095
3583 4095 0
3580 4095 448
3574 4095 929
3575 4095 1493
3574 4095 2011
3575 4095 2532
3574 4095 3051
3572 4095 3573
3568 4095 4095
4095 0 0
4095 0 512
4095 0 1024
4095 0 1536
4095 0 2048
4095 0 2559
4095 0 3071
4095 0 3583
4095 0 4095
4095 512 0
4095 512 512
4095 512 1024
4095 512 1536
4095 512 2048
4095 512 2559
4095 512 3071
4095 512 3583
4095 512 4095
4095 1024 0
4095 1024 512
4095 1024 1024
4095 1024 1536
4095 1024 2047
4095 1024 2559
4095 1024 3071
4095 1024 3583
4095 1024 4095
4095 1536 0
4095 1536 512
4095 1536 1024
4095 1536 1536
4095 1536 2047
4095 1536 2559
4095 1536 3071
4095 1536 3583
4095 1536 4095
4095 2047 0
4095 2047 512
4095 2047 1024
4095 2047 1536
4095 2047 2047
4095 2047 2559
4095 2047 3071
4095 2047 3583
4095 2047 4095
4095 2559 0
4095 2559 512
4095 2559 1024
4095 2559 1536
4095 2559 2047
4095 2559 2559
4095 2559 3071
4095 2559 3583
4095 2559 4095
4095 3071 0
4095 3071 512
4095 3071 1024
4095 3071 1536
4095 3071 2047
4095 3071 2559
4095 3071 3071
4095 3071 3583
4095 3071 4095
4095 3583 0
4095 3583 512
4095 3583 1024
4095 3583 1536
4095 3583 2047
4095 3583 2559
4095 3583 3071
4095 3583 3583
4095 3583 4095
4095 4095 0
4095 4095 512
4095 4095 1024
4095 4095 1536
4095 4095 2047
4095 4095 2559
4095 4095 3071
4095 4095 3583
4095 4095 4095
