Examples/Masks - 2D - Desaturate.3dl
#25pt 3DLUT created by 3D LUT Creator Pro (c) Oleg Sharonov
#Copyright Oleg Sharonov
#IMAGEPROFILE sRGB IEC61966-2.1 v.2.10
#INPUTGAMMA sRGB IEC61966-2.1 v.2.10
#OUTPUTGAMMA sRGB IEC61966-2.1 v.2.10
0 128 256 384 512 640 768 896 1023
0 0 0
0 134 426
0 268 847
0 405 1274
0 539 1698
0 674 2120
0 811 2545
0 944 2968
0 1080 3394
0 313 98
0 396 448
0 510 813
0 642 1225
0 777 1667
0 919 2118
0 1054 2576
0 1179 2991
0 1307 3407
0 626 199
0 693 548
0 789 890
0 889 1242
0 989 1593
0 1107 1973
0 1233 2400
0 1361 2831
0 1491 3267
0 943 298
0 1011 665
0 1066 966
0 1160 1310
0 1249 1652
0 1344 1997
0 1434 2339
0 1537 2691
0 1654 3102
0 1254 399
0 1330 775
0 1351 1061
0 1430 1379
0 1515 1717
0 1595 2051
0 1683 2386
0 1763 2720
0 1848 3058
0 1565 496
0 1642 866
0 1653 1168
0 1698 1447
0 1771 1772
0 1849 2102
0 1923 2426
0 1995 2752
0 2072 3080
0 1878 598
0 1946 959
0 1961 1274
0 1970 1535
0 2034 1835
0 2100 2152
0 2169 2471
0 2232 2785
0 2298 3107
0 2188 695
0 2246 1046
0 2265 1369
0 2268 1641
0 2291 1892
0 2354 2206
0 2411 2514
0 2467 2820
3 2527 3133
2 2502 799
2 2549 1135
0 2573 1463
0 2562 1734
0 2557 1983
0 2603 2256
0 2653 2556
3 2702 2854
3 2751 3156
267 0 0
320 128 407
322 260 820
325 403 1267
333 546 1718
350 690 2170
368 832 2613
384 970 3048
397 1108 3483
306 301 94
512 512 512
463 512 950
440 580 1373
428 672 1799
426 783 2232
430 898 2668
435 1018 3108
422 1296 3416
317 594 189
466 907 516
470 940 966
453 955 1369
445 1018 1774
444 1104 2187
449 1198 2604
455 1302 3026
447 1503 3293
311 942 298
440 1264 576
452 1296 981
459 1350 1408
457 1375 1796
459 1427 2173
465 1499 2559
472 1586 2965
470 1712 3194
311 1297 413
424 1615 659
442 1645 1046
452 1691 1433
461 1750 1843
467 1778 2218
477 1829 2585
485 1884 2946
487 1934 3129
317 1655 525
417 1956 745
436 1980 1120
452 2011 1478
462 2070 1865
474 2130 2259
485 2159 2619
498 2201 2977
505 2175 3145
328 1983 631
414 2298 840
433 2312 1205
451 2336 1549
462 2378 1901
475 2435 2279
490 2494 2659
502 2519 3007
513 2429 3176
335 2310 735
411 2636 933
431 2641 1288
453 2661 1629
467 2681 1956
481 2738 2314
496 2788 2675
510 2839 3041
523 2685 3209
345 2635 841
392 2706 1153
419 2703 1461
447 2717 1750
467 2732 2024
485 2771 2299
505 2834 2615
523 2887 2924
536 2941 3241
532 0 0
627 131 416
670 263 831
702 395 1242
717 526 1659
733 671 2111
758 817 2565
783 962 3021
805 1107 3481
608 312 97
916 474 490
933 516 956
894 583 1374
875 677 1797
870 789 2229
877 904 2660
889 1025 3098
872 1306 3403
628 620 197
930 910 518
1024 1024 1024
982 1003 1476
958 1034 1910
947 1094 2340
947 1170 2768
936 1315 3104
927 1529 3371
652 930 294
886 1257 571
982 1444 1010
987 1466 1486
969 1459 1914
962 1492 2336
965 1546 2752
961 1634 3071
961 1774 3310
667 1239 394
856 1608 653
953 1834 1041
967 1860 1484
976 1898 1943
974 1901 2357
980 1930 2755
982 1960 3053
989 2031 3275
669 1598 507
839 1954 740
934 2204 1092
954 2234 1515
968 2273 1944
981 2317 2386
991 2324 2783
1001 2299 3073
1016 2292 3261
676 1965 625
830 2303 837
921 2566 1158
944 2596 1565
965 2627 1967
979 2675 2390
998 2721 2814
1012 2645 3105
1036 2574 3297
684 2331 742
828 2652 934
891 2762 1280
923 2796 1647
954 2830 2004
976 2880 2373
1000 2935 2752
1024 2990 3138
1051 2852 3326
701 2709 862
788 2745 1159
860 2837 1462
902 2871 1775
943 2908 2077
976 2950 2378
1011 3022 2702
1042 3081 3029
1071 3144 3366
796 0 0
939 137 433
995 269 850
1056 405 1274
1105 539 1697
1158 673 2116
1191 809 2540
1229 950 2986
1264 1096 3447
895 351 110
1276 478 501
1318 534 945
1344 599 1399
1329 690 1815
1333 800 2237
1341 917 2670
1361 1039 3107
1347 1323 3414
944 656 209
1311 876 539
1462 985 1000
1473 1010 1484
1441 1045 1922
1428 1110 2356
1428 1190 2789
1417 1343 3134
1414 1571 3416
971 973 308
1318 1283 585
1469 1452 1016
1536 1536 1536
1502 1511 1999
1485 1528 2448
1467 1575 2842
1462 1673 3181
1464 1831 3435
1001 1300 413
1290 1631 662
1431 1844 1048
1502 1976 1520
1508 1992 2009
1495 1980 2455
1483 1988 2846
1484 2031 3176
1497 2122 3420
1028 1622 514
1271 1961 743
1400 2218 1101
1477 2386 1535
1490 2409 2000
1502 2440 2474
1498 2405 2865
1506 2394 3183
1528 2416 3415
1051 1940 617
1262 2319 842
1384 2588 1169
1443 2711 1579
1467 2744 2011
1488 2786 2449
1507 2828 2893
1525 2769 3218
1558 2721 3441
1066 2316 737
1259 2675 941
1337 2801 1296
1407 2937 1663
1443 2981 2052
1480 3029 2440
1507 3087 2843
1539 3144 3251
1578 3028 3470
1083 2704 860
1196 2788 1173
1287 2901 1486
1371 3035 1805
1420 3088 2136
1475 3147 2468
1517 3213 2804
1559 3280 3154
1599 3345 3508
1065 0 0
1219 143 454
1327 275 869
1399 414 1303
1476 552 1739
1547 688 2165
1620 828 2599
1688 965 3032
1737 1101 3464
1165 377 118
1611 489 517
1690 558 953
1727 636 1402
1767 714 1855
1781 825 2281
1810 938 2705
1841 1058 3133
1834 1348 3439
1256 684 217
1667 882 567
1873 981 1007
1899 1020 1473
1921 1065 1948
1911 1131 2383
1918 1212 2813
1904 1375 3170
1905 1617 3469
1297 1025 325
1691 1266 619
1890 1417 1030
1993 1502 1516
2003 1521 2010
1984 1543 2464
1962 1603 2871
1953 1717 3229
1963 1900 3512
1332 1357 431
1708 1669 681
1900 1867 1063
2000 1985 1528
2048 2048 2048
2019 2023 2514
2000 2033 2935
1993 2088 3296
2007 2203 3567
1367 1691 537
1688 2013 764
1867 2247 1116
1968 2403 1548
2017 2490 2032
2025 2506 2523
2012 2478 2946
2014 2484 3308
2038 2529 3575
1406 2030 646
1688 2363 858
1851 2615 1183
1922 2742 1600
1981 2861 2044
2004 2892 2502
2021 2927 2967
2032 2883 3330
2067 2861 3589
1445 2365 753
1695 2702 952
1791 2845 1317
1874 2991 1694
1946 3134 2092
1985 3182 2508
2017 3234 2929
2047 3286 3359
2094 3199 3623
1478 2704 860
1615 2831 1189
1728 2972 1518
1824 3119 1850
1911 3271 2189
1971 3339 2549
2025 3402 2906
2070 3475 3283
2116 3544 3658
1329 0 0
1490 149 473
1655 281 890
1744 424 1334
1834 564 1776
1923 705 2217
2016 846 2658
2084 988 3101
2115 1127 3544
1428 401 126
1930 506 536
2039 585 976
2105 669 1418
2159 757 1870
2217 849 2328
2255 969 2763
2305 1093 3200
2261 1392 3525
1571 737 234
2005 898 596
2259 990 1024
2312 1042 1482
2345 1099 1950
2379 1158 2422
2392 1247 2864
2385 1420 3232
2390 1676 3545
1615 1063 337
2052 1270 651
2291 1418 1058
2432 1499 1523
2454 1528 2003
2474 1564 2489
2452 1637 2911
2448 1765 3283
2464 1970 3591
1664 1418 450
2082 1674 724
2313 1848 1097
2446 1960 1542
2511 2017 2031
2521 2036 2526
2498 2062 2964
2490 2138 3348
2511 2286 3657
1708 1768 562
2102 2069 791
2325 2285 1140
2454 2428 1565
2518 2503 2043
2559 2559 2559
2533 2534 3020
2525 2551 3421
2546 2624 3730
1753 2117 673
2100 2430 886
2304 2666 1209
2399 2783 1626
2473 2891 2067
2527 2991 2544
2540 3012 3031
2541 2980 3435
2574 2991 3749
1803 2467 786
2111 2785 982
2238 2910 1349
2342 3047 1729
2426 3191 2131
2494 3330 2560
2528 3373 3006
2555 3416 3459
2599 3356 3772
1851 2821 899
2027 2914 1223
2167 3042 1553
2279 3207 1899
2378 3367 2248
2464 3531 2620
2522 3596 3009
2574 3665 3406
2621 3729 3804
1595 0 0
1754 154 488
1980 293 926
2090 433 1364
2200 577 1815
2308 721 2267
2387 866 2723
2429 1012 3176
2484 1155 3628
1690 416 131
2240 524 554
2376 614 1003
2480 704 1440
2551 801 1897
2627 903 2359
2703 1000 2820
2700 1129 3268
2632 1440 3621
1867 785 249
2335 927 625
2633 1013 1050
2709 1075 1507
2761 1139 1967
2811 1208 2437
2864 1277 2909
2824 1466 3303
2763 1739 3648
1938 1110 352
2404 1303 686
2677 1435 1093
2803 1506 1545
2856 1558 2008
2894 1618 2482
2935 1673 2956
2928 1820 3356
2883 2048 3695
1994 1477 469
2442 1693 762
2714 1853 1135
2834 1945 1579
2932 2011 2042
2962 2051 2518
2991 2094 3000
2983 2194 3410
2988 2371 3750
2050 1841 585
2478 2095 840
2737 2287 1189
2854 2383 1615
2950 2466 2065
3022 2530 2547
3037 2554 3040
3027 2598 3469
3050 2712 3818
2106 2208 702
2513 2498 916
2757 2719 1238
2870 2829 1657
2960 2927 2093
3029 3012 2561
3071 3071 3071
3055 3052 3528
3076 3091 3894
2163 2573 820
2522 2869 1016
2672 2995 1391
2799 3128 1774
2905 3259 2175
2988 3382 2599
3046 3494 3061
3064 3520 3540
3096 3492 3913
2198 2941 938
2420 3032 1267
2588 3164 1607
2731 3315 1956
2852 3468 2313
2948 3631 2688
3026 3784 3090
3074 3844 3515
3113 3897 3937
1858 0 0
2020 159 503
2287 303 958
2441 443 1395
2569 591 1859
2656 737 2316
2707 885 2782
2779 1034 3247
2854 1181 3709
1948 434 137
2547 546 574
2710 645 1032
2852 739 1476
2942 843 1932
3033 948 2394
3046 1056 2863
3084 1160 3328
3006 1483 3708
2153 835 264
2658 960 652
2855 1044 1090
2976 1131 1538
3078 1222 1982
3156 1318 2441
3192 1416 2907
3215 1511 3369
3144 1800 3744
2262 1181 375
2749 1347 723
2931 1449 1156
3097 1537 1592
3192 1619 2043
3264 1702 2494
3329 1790 2959
3332 1873 3421
3268 2124 3794
2326 1537 487
2806 1725 797
2992 1840 1213
3147 1950 1644
3287 2037 2085
3356 2107 2540
3412 2181 3007
3435 2250 3473
3380 2458 3850
2391 1916 610
2850 2132 883
3033 2243 1286
3191 2356 1696
3325 2464 2130
3433 2540 2576
3478 2594 3046
3519 2647 3518
3477 2801 3908
2455 2293 729
2893 2541 966
3070 2659 1359
3221 2779 1760
3350 2891 2174
3455 2985 2605
3534 3053 3071
3558 3084 3557
3558 3172 3970
2472 2678 852
2912 2955 1050
3103 3076 1431
3255 3204 1821
3377 3330 2223
3472 3438 2639
3545 3528 3089
3583 3583 3583
3589 3585 4031
2491 3059 974
2715 3151 1310
2922 3285 1666
3107 3436 2022
3276 3594 2387
3421 3739 2760
3513 3874 3155
3572 3996 3586
3598 4031 4044
2125 0 0
2283 162 513
2579 312 987
2788 455 1432
2901 603 1897
2953 753 2365
3028 903 2839
3122 1055 3314
3226 1207 3789
2209 452 143
2545 582 612
2778 712 1068
2990 840 1508
3143 969 1945
3159 1107 2402
3209 1249 2870
3288 1389 3330
3381 1522 3791
2437 877 278
2707 984 717
2952 1097 1150
3134 1218 1589
3308 1340 2021
3352 1467 2464
3378 1603 2926
3441 1733 3378
3527 1853 3830
2590 1252 398
2844 1360 819
3068 1484 1244
3280 1602 1669
3427 1717 2103
3548 1837 2535
3538 1963 2989
3583 2082 3437
3660 2194 3884
2656 1593 505
2941 1717 915
3162 1855 1328
3361 1989 1748
3544 2105 2168
3668 2216 2604
3694 2329 3051
3715 2436 3499
3783 2537 3940
2731 1987 632
3004 2088 1023
3234 2215 1418
3436 2364 1824
3609 2498 2239
3762 2605 2656
3854 2706 3102
3840 2799 3551
3894 2887 3996
2736 2384 759
3002 2478 1134
3246 2609 1518
3474 2752 1910
3662 2887 2306
3811 3015 2714
3935 3105 3137
3959 3182 3591
3988 3249 4043
2755 2778 884
3002 2877 1248
3227 3012 1620
3436 3158 2000
3626 3297 2381
3802 3425 2769
3962 3532 3178
4050 3597 3609
4062 3641 4080
2786 3175 1011
3019 3273 1359
3236 3408 1720
3435 3557 2085
3618 3705 2453
3788 3844 2828
3934 3964 3218
4045 4056 3631
4095 4095 4095
