Examples/Masks - Lighten shadows.3dl
#25pt 3DLUT created by 3D LUT Creator Pro (c) Oleg Sharonov
#Copyright Oleg Sharonov
0 256 512 768 1023
0 0 0
0 0 1025
0 0 2342
0 0 3316
0 0 4095
0 1026 0
0 1026 1026
0 1026 2303
0 1025 3289
0 1026 4095
0 2246 0
0 2244 1025
0 2239 2239
0 2231 3236
0 2221 4095
0 3186 0
0 3185 1025
0 3182 2171
0 3177 3177
0 3170 4095
0 4095 0
0 4095 1024
0 4095 2101
0 4095 3116
0 4095 4095
1026 0 0
1025 0 1025
1026 0 2326
1026 0 3305
1025 0 4095
1026 1026 0
1026 1026 1026
1026 1026 2294
1025 1025 3281
1025 1025 4095
1025 2240 0
1025 2238 1025
1026 2234 2234
1025 2226 3231
1025 2215 4095
1025 3182 0
1025 3181 1025
1025 3178 2167
1025 3173 3173
1025 3167 4095
1024 4095 0
1024 4095 1024
1024 4095 2098
1024 4095 3113
1024 4095 4095
2304 0 0
2301 0 1026
2293 0 2293
2281 0 3280
2265 0 4095
2278 1026 0
2276 1026 1026
2269 1026 2269
2259 1026 3261
2247 1026 4095
2223 2223 0
2222 2222 1025
2217 2217 2217
2210 2210 3217
2201 2201 4095
2160 3172 0
2159 3171 1025
2155 3168 2155
2150 3163 3163
2143 3157 4095
2093 4095 0
2092 4095 1024
2090 4095 2090
2085 4095 3105
2080 4095 4095
3264 0 0
3262 0 1025
3257 0 2254
3249 0 3249
3238 0 4095
3247 1025 0
3245 1025 1025
3241 1025 2237
3234 1025 3234
3224 1025 4095
3207 2199 0
3205 2197 1025
3202 2194 2194
3196 2187 3196
3189 2179 4095
3155 3155 0
3154 3154 1025
3152 3152 2137
3147 3147 3147
3141 3141 4095
3099 4095 0
3098 4095 1024
3096 4095 2075
3093 4095 3093
3088 4095 4095
4095 0 0
4095 0 1025
4095 0 2215
4095 0 3215
4095 0 4095
4095 1025 0
4095 1025 1025
4095 1025 2201
4095 1025 3203
4095 1025 4095
4095 2169 0
4095 2168 1025
4095 2164 2164
4095 2159 3171
4095 2151 4095
4095 3134 0
4095 3133 1024
4095 3131 2114
4095 3127 3127
4095 3121 4095
4095 4095 0
4095 4095 1024
4095 4095 2056
4095 4095 3076
4095 4095 4095
