Examples/Masks - Blue & Orange.3dl
#25pt 3DLUT created by 3D LUT Creator Pro (c) Oleg Sharonov
#Copyright Oleg Sharonov
#IMAGEPROFILE sRGB IEC61966-2.1 v.2.10
#INPUTGAMMA sRGB IEC61966-2.1 v.2.10
#OUTPUTGAMMA sRGB IEC61966-2.1 v.2.10
0 256 512 768 1023
0 0 0
132 203 250
420 553 641
714 904 1030
1019 1252 1415
700 886 1011
739 932 1061
852 1063 1206
1033 1268 1432
1269 1522 1711
1526 1786 1997
1546 1805 2018
1607 1866 2083
1718 1974 2200
1879 2127 2366
2449 2663 2947
2462 2674 2959
2500 2711 2999
2571 2778 3073
2675 2878 3183
3466 3537 3672
3475 3545 3678
3504 3570 3696
3558 3617 3731
3639 3689 3785
962 40 47
403 532 618
582 745 855
822 1028 1168
1098 1339 1511
861 1016 871
843 1053 1196
944 1168 1323
1112 1354 1527
1335 1591 1786
1583 1842 2058
1602 1861 2078
1662 1920 2141
1770 2024 2254
1926 2172 2414
2485 2696 2984
2497 2708 2996
2535 2744 3035
2604 2810 3108
2707 2909 3216
3493 3560 3689
3502 3568 3695
3530 3593 3713
3584 3640 3748
3664 3711 3801
1935 89 102
1469 491 1096
931 1152 1305
1100 1341 1513
1325 1580 1774
2047 1024 0
1964 1054 1069
1197 1445 1627
1336 1593 1788
1532 1791 2003
1827 2019 1694
1840 2032 1957
1828 2079 2314
1928 2173 2415
2072 2309 2563
2595 2801 3098
2606 2812 3110
2642 2846 3148
2707 2909 3217
2821 3003 3293
3577 3633 3744
3585 3641 3749
3613 3666 3768
3665 3711 3802
3743 3781 3854
2911 138 155
2635 387 1205
1795 1232 1886
1503 1762 1972
1682 1938 2162
3071 1024 0
2931 1091 1110
2101 1553 2051
1691 1948 2172
1854 2103 2340
3071 2048 0
3071 2048 1024
2985 2074 2097
2194 2423 2686
2321 2542 2815
2865 3006 2482
2875 3014 2736
2905 3037 3002
2925 3084 3348
3033 3171 3408
3728 3768 3844
3737 3775 3850
3763 3798 3867
3812 3842 3900
3886 3908 3951
3891 186 207
3706 360 1248
3133 934 2192
2122 2087 2515
2128 2361 2619
4079 1033 18
3907 1133 1155
3341 1488 2227
2342 2227 2674
2266 2491 2759
4095 2048 0
4095 2048 1024
3949 2105 2131
2971 2560 3053
2652 2855 3158
4095 3071 0
4095 3071 1024
4095 3071 2048
4005 3098 3118
3321 3411 3580
3984 3995 3020
3990 4001 3274
4008 4017 3536
4042 4048 3813
4095 4095 4095
