Examples/Masks - Contrast colors.3dl
#25pt 3DLUT created by 3D LUT Creator Pro (c) Oleg Sharonov
#Copyright Oleg Sharonov
0 256 512 768 1023
0 0 0
0 0 1003
0 0 2018
0 0 3122
0 0 4095
0 883 0
0 876 876
0 853 1988
0 817 3145
0 776 4095
0 1943 0
0 1947 732
0 1945 1945
0 1941 3184
0 1937 4095
0 3221 0
0 3224 596
0 3224 1903
0 3225 3225
0 3231 4095
0 4095 0
0 4095 819
0 4095 1985
0 4095 3133
0 4095 4095
963 0 0
947 0 947
908 0 2007
858 0 3130
805 0 4095
862 862 0
1024 1024 1024
849 849 1990
804 804 3151
765 765 4095
726 1945 0
744 1955 744
734 1954 1954
694 1943 3189
671 1940 4095
593 3225 0
593 3228 593
584 3228 1909
571 3229 3229
569 3231 4095
825 4095 0
829 4095 829
837 4095 1990
853 4095 3131
881 4095 4095
1990 0 0
1990 0 858
1985 0 1985
1975 0 3148
1964 0 4095
1973 808 0
1980 819 819
1977 805 1977
1965 763 3164
1958 732 4095
1937 1937 0
1949 1949 718
2048 2048 2048
1975 1975 3153
1939 1939 4095
1899 3228 0
1905 3232 574
1954 3177 1954
1956 3174 3174
1928 3211 4095
1993 4095 0
1996 4095 856
2001 4095 2001
2006 4095 3119
2015 4095 4095
3159 0 0
3162 0 769
3165 0 1959
3171 0 3171
3181 0 4095
3173 738 0
3176 736 736
3178 724 1952
3183 704 3183
3192 679 4095
3201 1925 0
3204 1930 652
3159 1970 1970
3160 1968 3160
3209 1930 4095
3217 3217 0
3218 3218 603
3164 3164 1965
3071 3071 3071
3128 3128 4095
3113 4095 0
3113 4095 904
3108 4095 2016
3087 4095 3087
3083 4095 4095
4095 0 0
4095 0 685
4095 0 1936
4095 0 3197
4095 0 4095
4095 664 0
4095 664 664
4095 654 1935
4095 638 3206
4095 619 4095
4095 1912 0
4095 1918 598
4095 1922 1922
4095 1921 3220
4095 1921 4095
4095 3183 0
4095 3183 704
4095 3174 1959
4095 3118 3118
4095 3113 4095
4095 4095 0
4095 4095 977
4095 4095 2037
4095 4095 3075
4095 4095 4095
