Examples/Masks - Curves - Saturation Contrast 2.3dl
#25pt 3DLUT created by 3D LUT Creator Pro (c) Oleg Sharonov
#Copyright Oleg Sharonov
#IMAGEPROFILE sRGB IEC61966-2.1 v.2.10
#INPUTGAMMA sRGB IEC61966-2.1 v.2.10
#OUTPUTGAMMA sRGB IEC61966-2.1 v.2.10
0 256 512 768 1023
0 0 0
6 6 971
3 3 2013
0 0 3083
0 0 4095
13 899 13
16 913 833
10 828 2004
10 766 3108
68 739 4095
3 1995 3
13 2047 526
26 2011 1915
6 1958 3116
74 1968 4095
0 3109 0
6 3137 616
10 3132 1919
0 3112 3086
0 3116 4090
0 4095 0
45 4095 852
48 4095 1996
0 4094 3081
0 4095 4095
970 6 6
980 10 896
923 6 2011
869 6 3097
841 48 4095
932 871 13
947 883 792
878 811 2010
827 752 3124
820 740 4095
758 2023 10
777 2067 514
755 2026 1925
727 1970 3131
778 1981 4095
805 3125 0
821 3150 639
827 3141 1931
812 3118 3093
833 3120 4094
935 4095 26
948 4095 869
953 4095 2002
947 4095 3083
972 4095 4095
2040 0 0
2076 6 723
2058 13 1955
2029 0 3095
2032 16 4095
2071 747 6
2107 758 644
2079 733 1949
2038 689 3117
2043 688 4095
2046 1977 13
2076 2007 486
2063 1996 1901
2031 1968 3114
2039 1980 4095
2025 3112 0
2039 3130 670
2038 3125 1936
2023 3110 3087
2025 3110 4093
2042 4095 6
2049 4095 894
2048 4095 2008
2041 4095 3079
2045 4095 4095
3128 0 0
3161 0 552
3164 0 1884
3148 0 3087
3166 0 4086
3164 630 0
3196 644 500
3195 635 1877
3171 562 3103
3174 593 4093
3152 1960 0
3173 1979 548
3169 1979 1898
3147 1961 3093
3147 1968 4092
3113 3098 0
3123 3108 709
3121 3107 1944
3109 3096 3077
3106 3093 4092
3088 4093 0
3090 4095 929
3088 4095 2018
3083 4094 3073
3079 4095 4095
4095 0 0
4095 103 512
4095 142 1886
4091 0 3104
4095 3 4095
4095 674 81
4095 713 587
4095 736 1913
4095 706 3111
4095 798 4095
4095 1991 55
4095 2006 691
4095 2008 1944
4095 1992 3099
4095 2010 4095
4092 3099 0
4095 3105 811
4095 3103 1979
4093 3093 3079
4094 3089 4094
4095 4095 0
4095 4095 997
4095 4095 2041
4095 4095 3072
4095 4095 4095
