Examples/Masks limit - Blue.3dl
#25pt 3DLUT created by 3D LUT Creator Pro (c) Oleg Sharonov
#Copyright Oleg Sharonov
0 128 256 384 512 640 768 896 1023
0 0 0
0 269 416
0 525 884
0 532 1408
0 529 1927
0 523 2444
0 514 2960
0 504 3476
0 494 3991
0 276 454
90 420 557
0 681 930
0 824 1421
0 889 1930
0 920 2443
0 935 2958
0 942 3473
0 944 3988
0 779 563
0 773 840
193 920 1075
93 1079 1487
0 1195 1963
0 1271 2463
0 1319 2971
0 1341 3484
0 1342 4001
0 1327 514
0 1305 904
101 1353 1208
191 1452 1577
120 1546 2027
35 1621 2504
0 1674 3006
0 1707 3515
0 1726 4027
0 1901 373
0 1885 826
0 1895 1238
128 1937 1630
143 1990 2076
101 2041 2554
75 2083 3042
0 2116 3544
0 2139 4053
0 2462 254
0 2452 736
0 2453 1198
0 2467 1647
90 2494 2100
97 2523 2577
73 2550 3071
55 2573 3570
34 2591 4073
0 3012 156
0 3007 654
0 3006 1142
0 3010 1623
27 3021 2101
56 3036 2586
57 3051 3082
44 3064 3584
34 3075 4090
0 3552 82
0 3550 588
0 3549 1089
0 3551 1588
0 3554 2085
25 3561 2581
28 3567 3083
27 3573 3588
21 3579 4095
0 4083 32
0 4083 541
0 4082 1050
0 4083 1557
0 4084 2064
0 4086 2570
9 4088 3077
9 4090 3586
8 4092 4095
2 275 452
90 420 557
167 467 957
259 497 1446
317 507 1950
356 507 2460
384 502 2971
404 495 3484
419 487 3998
196 421 497
512 512 512
444 712 930
352 813 1424
300 863 1935
343 900 2446
374 919 2959
396 929 3474
413 933 3989
242 852 506
367 840 819
568 952 1061
532 1096 1479
393 1197 1967
345 1263 2468
373 1310 2974
399 1329 3487
420 1331 4004
339 1360 480
309 1347 870
504 1375 1206
594 1463 1572
555 1554 2024
503 1624 2505
403 1670 3009
422 1702 3517
437 1720 4029
415 1916 357
401 1903 809
395 1913 1223
574 1942 1627
587 1994 2074
559 2044 2552
544 2085 3041
467 2115 3545
458 2137 4054
459 2469 245
452 2460 727
448 2461 1189
458 2474 1642
561 2496 2100
570 2524 2577
552 2551 3071
540 2574 3569
524 2591 4074
484 3015 152
481 3011 649
479 3009 1137
479 3014 1619
519 3023 2100
546 3036 2586
549 3051 3081
539 3064 3584
532 3075 4089
499 3554 80
498 3552 585
498 3551 1087
497 3552 1586
498 3556 2083
526 3561 2581
530 3567 3083
531 3574 3588
526 3579 4095
508 4084 30
507 4083 540
507 4083 1049
507 4083 1556
507 4084 2063
508 4086 2570
518 4088 3077
518 4090 3586
518 4092 4095
541 293 437
505 352 730
657 434 1062
688 443 1500
701 448 1986
752 461 2486
792 466 2991
824 466 3500
849 463 4010
544 599 449
588 662 780
765 757 1058
799 817 1485
739 843 1978
732 867 2480
776 891 2985
811 905 3493
842 906 4006
770 950 472
825 959 811
1024 1024 1024
992 1128 1479
956 1209 1965
912 1263 2467
838 1286 2980
827 1296 3495
860 1301 4011
746 1424 400
817 1411 834
964 1429 1189
1050 1495 1557
1036 1569 2017
994 1628 2509
944 1668 3013
866 1687 3525
891 1704 4035
857 1948 312
838 1941 767
924 1940 1209
1029 1964 1623
1058 2008 2068
1043 2052 2549
1032 2088 3042
995 2115 3548
927 2130 4058
929 2485 220
919 2479 703
913 2481 1169
988 2486 1636
1048 2504 2094
1055 2530 2574
1043 2555 3069
1037 2575 3569
1023 2591 4075
974 3023 138
969 3020 636
966 3019 1125
966 3023 1610
1019 3029 2097
1042 3040 2584
1046 3053 3080
1039 3066 3584
1034 3076 4089
1001 3557 73
999 3556 578
998 3555 1081
998 3557 1580
999 3560 2079
1029 3563 2580
1035 3569 3082
1036 3575 3587
1032 3580 4095
1016 4085 27
1016 4085 537
1016 4085 1046
1015 4085 1554
1016 4086 2061
1021 4087 2569
1028 4089 3077
1028 4091 3586
1027 4093 4095
1075 290 419
1040 327 798
1098 376 1162
1203 422 1570
1219 424 2031
1215 418 2513
1234 422 3014
1269 429 3519
1309 412 4029
1067 666 433
1025 694 812
1133 763 1186
1239 817 1571
1263 843 2025
1266 857 2507
1217 856 3011
1262 863 3517
1305 855 4027
1109 1053 408
1148 1073 841
1265 1117 1200
1369 1174 1559
1386 1222 2014
1373 1253 2506
1347 1267 3011
1290 1262 3522
1328 1268 4033
1344 1480 378
1354 1480 807
1424 1498 1186
1536 1536 1536
1520 1589 2016
1504 1633 2511
1487 1664 3015
1469 1684 3525
1447 1693 4038
1385 1979 278
1394 1974 747
1438 1977 1193
1510 1995 1614
1547 2027 2058
1541 2062 2545
1526 2092 3045
1508 2114 3551
1490 2129 4060
1417 2505 188
1407 2502 673
1444 2499 1157
1498 2504 1626
1540 2519 2088
1550 2539 2570
1544 2560 3067
1541 2577 3568
1529 2591 4077
1472 3034 119
1467 3032 618
1464 3032 1110
1496 3032 1604
1525 3037 2092
1545 3046 2580
1548 3058 3078
1543 3068 3583
1541 3077 4089
1507 3563 63
1505 3561 569
1503 3561 1072
1503 3562 1573
1523 3563 2076
1536 3567 2577
1542 3572 3080
1542 3576 3587
1540 3581 4095
1526 4087 23
1526 4087 533
1526 4087 1042
1526 4087 1550
1526 4088 2058
1533 4089 2567
1537 4090 3076
1538 4092 3585
1538 4093 4095
1608 282 401
1579 308 821
1576 329 1224
1682 385 1638
1740 406 2080
1750 405 2553
1779 392 3038
1762 360 3541
1801 346 4049
1599 696 413
1566 716 834
1559 738 1232
1699 808 1646
1752 834 2081
1776 837 2551
1809 834 3035
1775 810 3540
1799 801 4048
1643 1105 379
1613 1117 810
1677 1148 1243
1783 1189 1645
1845 1219 2073
1863 1237 2547
1882 1248 3035
1869 1247 3541
1823 1232 4052
1791 1540 320
1792 1546 780
1830 1560 1219
1907 1584 1628
1961 1612 2061
1967 1639 2542
1963 1660 3041
1955 1673 3546
1945 1679 4056
1925 2012 250
1925 2011 722
1947 2015 1177
1992 2028 1615
2048 2048 2048
2040 2073 2543
2033 2095 3046
2026 2112 3552
2018 2124 4062
1964 2521 171
1964 2519 661
1977 2519 1144
2003 2524 1617
2036 2535 2084
2053 2550 2565
2050 2566 3064
2044 2579 3570
2037 2590 4079
1979 3045 99
1978 3043 600
1995 3042 1102
2013 3043 1596
2033 3047 2086
2050 3054 2576
2053 3063 3076
2051 3071 3582
2050 3078 4089
2017 3568 51
2015 3567 558
2014 3568 1063
2024 3567 1569
2036 3568 2072
2045 3571 2574
2050 3575 3078
2051 3578 3586
2050 3582 4095
2038 4090 17
2038 4089 528
2038 4089 1037
2038 4090 1547
2042 4090 2056
2045 4091 2566
2048 4092 3075
2049 4093 3585
2049 4094 4095
2149 267 376
2127 285 820
2123 298 1250
2139 304 1676
2250 346 2124
2302 348 2586
2317 333 3071
2340 317 3564
2354 297 4065
2155 698 372
2131 713 819
2125 725 1249
2147 739 1678
2264 785 2126
2313 793 2586
2331 787 3070
2354 780 3563
2368 767 4064
2208 1124 327
2186 1133 784
2179 1144 1224
2251 1175 1680
2332 1203 2119
2370 1216 2582
2385 1221 3068
2404 1222 3562
2411 1218 4065
2285 1570 260
2269 1575 729
2302 1587 1205
2359 1605 1662
2417 1624 2107
2447 1640 2575
2456 1652 3065
2468 1660 3562
2465 1663 4069
2413 2044 211
2409 2045 696
2421 2050 1171
2449 2059 1637
2491 2071 2093
2516 2085 2566
2519 2099 3063
2518 2110 3567
2515 2117 4075
2488 2539 147
2487 2538 641
2494 2539 1128
2510 2543 1608
2534 2550 2083
2559 2559 2559
2556 2571 3064
2553 2581 3571
2550 2588 4080
2517 3053 88
2517 3052 591
2521 3052 1090
2530 3053 1587
2541 3057 2081
2555 3061 2574
2561 3067 3073
2560 3074 3581
2558 3079 4090
2535 3573 41
2535 3572 550
2538 3572 1057
2543 3572 1563
2549 3573 2068
2555 3575 2571
2560 3578 3076
2561 3581 3585
2560 3583 4095
2551 4092 12
2551 4092 523
2551 4092 1033
2554 4092 1544
2556 4092 2054
2558 4092 2564
2559 4093 3074
2560 4094 3584
2560 4094 4095
2730 223 312
2715 235 779
2710 244 1234
2717 249 1686
2764 265 2145
2830 282 2614
2868 279 3093
2881 265 3586
2897 250 4084
2735 678 309
2719 688 777
2712 697 1233
2719 703 1686
2777 727 2148
2838 743 2615
2874 745 3093
2888 737 3585
2905 727 4084
2775 1126 274
2760 1133 748
2753 1140 1212
2758 1146 1670
2829 1174 2144
2880 1189 2610
2910 1194 3090
2922 1192 3584
2937 1189 4083
2836 1584 221
2823 1588 703
2818 1593 1177
2856 1607 1660
2901 1622 2131
2942 1634 2600
2963 1641 3085
2971 1645 3582
2982 1646 4084
2902 2061 161
2898 2063 654
2917 2067 1150
2940 2074 1636
2970 2083 2113
3001 2091 2589
3014 2099 3079
3019 2105 3581
3025 2110 4085
2993 2555 121
2991 2555 620
2996 2556 1115
3005 2559 1606
3021 2564 2094
3041 2570 2580
3052 2576 3074
3053 2582 3579
3053 2586 4088
3037 3061 72
3036 3061 576
3038 3061 1078
3044 3062 1578
3052 3065 2076
3062 3068 2573
3071 3071 3071
3070 3075 3580
3069 3079 4091
3056 3577 32
3056 3576 541
3057 3576 1049
3059 3577 1556
3062 3578 2063
3066 3579 2569
3070 3580 3075
3072 3582 3584
3071 3584 4094
3067 4093 8
3067 4093 519
3067 4093 1030
3068 4093 1541
3069 4093 2051
3070 4094 2562
3071 4094 3073
3071 4094 3584
3071 4095 4095
3305 183 255
3294 191 735
3290 197 1208
3293 201 1678
3305 201 2148
3368 222 2626
3400 222 3110
3427 217 3599
3437 204 4095
3310 654 251
3298 661 733
3293 667 1207
3296 671 1677
3306 673 2147
3372 696 2627
3404 700 3110
3430 697 3599
3442 688 4095
3340 1118 224
3329 1123 710
3324 1128 1189
3326 1132 1662
3335 1135 2137
3402 1159 2623
3432 1164 3107
3454 1164 3598
3464 1159 4095
3388 1588 182
3379 1591 673
3375 1594 1158
3376 1597 1639
3414 1610 2131
3448 1620 2614
3474 1626 3100
3491 1628 3594
3499 1628 4095
3442 2069 133
3436 2070 630
3433 2072 1123
3452 2078 1621
3476 2084 2114
3498 2090 2602
3519 2095 3092
3529 2099 3590
3533 2100 4095
3502 2564 91
3501 2564 595
3505 2566 1097
3513 2568 1597
3525 2571 2093
3540 2574 2588
3553 2578 3084
3559 2581 3587
3561 2583 4094
3549 3068 54
3549 3068 561
3550 3069 1067
3553 3070 1571
3559 3071 2074
3565 3073 2576
3573 3075 3078
3577 3077 3584
3577 3079 4094
3572 3580 23
3572 3580 533
3573 3580 1042
3574 3580 1550
3576 3581 2058
3578 3582 2566
3581 3582 3074
3583 3583 3583
3583 3584 4094
3581 4094 4
3581 4094 515
3581 4094 1027
3582 4094 1538
3582 4094 2049
3582 4095 2560
3583 4095 3072
3583 4095 3583
3583 4095 4095
3874 146 203
3866 152 693
3863 156 1178
3864 158 1661
3871 158 2143
3883 156 2626
3940 174 3116
3959 169 3609
3980 160 4095
3878 629 200
3870 634 691
3866 638 1177
3867 640 1659
3874 641 2142
3885 641 2625
3944 660 3116
3962 657 3609
3983 651 4095
3902 1105 178
3894 1109 672
3890 1112 1161
3891 1115 1647
3897 1116 2132
3922 1124 2623
3966 1136 3112
3981 1135 3607
3999 1131 4095
3939 1584 145
3933 1587 642
3930 1589 1136
3931 1591 1626
3935 1592 2116
3968 1603 2615
3996 1609 3106
4011 1610 3603
4024 1609 4095
3983 2071 105
3979 2072 607
3977 2074 1105
3977 2075 1602
3996 2080 2104
4014 2085 2602
4030 2088 3098
4043 2090 3597
4052 2090 4095
4025 2567 67
4022 2568 572
4021 2568 1076
4031 2570 1582
4040 2572 2086
4051 2575 2587
4061 2577 3089
4069 2578 3591
4074 2579 4095
4065 3072 38
4065 3072 546
4066 3073 1055
4068 3073 1562
4072 3074 2068
4076 3075 2574
4082 3076 3080
4086 3077 3587
4088 3077 4095
4087 3582 14
4086 3582 525
4087 3582 1035
4088 3582 1545
4089 3583 2055
4090 3583 2564
4092 3583 3074
4093 3584 3584
4094 3584 4095
4094 4095 1
4094 4095 513
4095 4095 1025
4095 4095 1536
4095 4095 2048
4095 4095 2560
4095 4095 3071
4095 4095 3583
4095 4095 4095
