Examples/Masks - Blue neutrals 2.3dl
#25pt 3DLUT created by 3D LUT Creator Pro (c) Oleg Sharonov
#Copyright Oleg Sharonov
0 128 256 384 512 640 768 896 1023
0 0 0
0 0 512
0 0 1024
0 0 1536
0 0 2048
0 0 2559
0 0 3071
0 0 3583
0 0 4095
0 512 0
0 512 512
0 512 1024
0 512 1536
0 512 2048
0 512 2559
0 512 3071
0 512 3583
0 512 4095
0 1024 0
0 1024 512
0 1024 1024
0 1024 1536
0 1024 2048
0 1024 2559
0 1024 3071
0 1024 3583
0 1024 4095
0 1536 0
0 1536 512
0 1536 1024
0 1536 1536
0 1536 2048
0 1536 2559
0 1536 3071
0 1536 3583
0 1536 4095
0 2048 0
0 2048 512
0 2048 1024
0 2048 1536
0 2048 2048
0 2048 2559
0 2048 3071
0 2048 3583
0 2048 4095
0 2559 0
0 2559 512
0 2559 1024
0 2559 1536
0 2559 2048
0 2559 2559
0 2559 3071
0 2559 3583
0 2559 4095
0 3071 0
0 3071 512
0 3071 1024
0 3071 1536
0 3071 2048
0 3071 2559
0 3071 3071
0 3071 3583
0 3071 4095
0 3583 0
0 3583 512
0 3583 1024
0 3583 1536
0 3583 2048
0 3583 2559
0 3583 3071
0 3583 3583
0 3583 4095
0 4095 0
0 4095 512
0 4095 1024
0 4095 1536
0 4095 2048
0 4095 2559
0 4095 3071
0 4095 3583
0 4095 4095
512 0 0
512 0 512
512 0 1024
512 0 1536
512 0 2048
512 0 2559
512 0 3071
512 0 3583
512 0 4095
512 512 0
363 545 647
512 512 1024
512 512 1536
512 512 2048
512 512 2559
512 512 3071
512 512 3583
512 512 4095
512 1024 0
512 1024 512
512 1024 1024
512 1024 1536
512 1024 2048
512 1024 2559
512 1024 3071
512 1024 3583
512 1024 4095
512 1536 0
512 1536 512
512 1536 1024
512 1536 1536
512 1536 2048
512 1536 2559
512 1536 3071
512 1536 3583
512 1536 4095
512 2048 0
512 2048 512
512 2048 1024
512 2048 1536
512 2048 2048
512 2048 2559
512 2048 3071
512 2048 3583
512 2048 4095
512 2559 0
512 2559 512
512 2559 1024
512 2559 1536
512 2559 2048
512 2559 2559
512 2559 3071
512 2559 3583
512 2559 4095
512 3071 0
512 3071 512
512 3071 1024
512 3071 1536
512 3071 2048
512 3071 2559
512 3071 3071
512 3071 3583
512 3071 4095
512 3583 0
512 3583 512
512 3583 1024
512 3583 1536
512 3583 2048
512 3583 2559
512 3583 3071
512 3583 3583
512 3583 4095
512 4095 0
512 4095 512
512 4095 1024
512 4095 1536
512 4095 2048
512 4095 2559
512 4095 3071
512 4095 3583
512 4095 4095
1024 0 0
1024 0 512
1024 0 1024
1024 0 1536
1024 0 2048
1024 0 2559
1024 0 3071
1024 0 3583
1024 0 4095
1024 512 0
1024 512 512
1024 512 1024
1024 512 1536
1024 512 2048
1024 512 2559
1024 512 3071
1024 512 3583
1024 512 4095
1024 1024 0
1024 1024 512
948 1209 1292
1024 1024 1536
1024 1024 2048
1024 1024 2559
1024 1024 3071
1024 1024 3583
1024 1024 4095
1024 1536 0
1024 1536 512
1024 1536 1024
1024 1536 1536
1024 1536 2048
1024 1536 2559
1024 1536 3071
1024 1536 3583
1024 1536 4095
1024 2048 0
1024 2048 512
1024 2048 1024
1024 2048 1536
1024 2048 2048
1024 2048 2559
1024 2048 3071
1024 2048 3583
1024 2048 4095
1024 2559 0
1024 2559 512
1024 2559 1024
1024 2559 1536
1024 2559 2048
1024 2559 2559
1024 2559 3071
1024 2559 3583
1024 2559 4095
1024 3071 0
1024 3071 512
1024 3071 1024
1024 3071 1536
1024 3071 2048
1024 3071 2559
1024 3071 3071
1024 3071 3583
1024 3071 4095
1024 3583 0
1024 3583 512
1024 3583 1024
1024 3583 1536
1024 3583 2048
1024 3583 2559
1024 3583 3071
1024 3583 3583
1024 3583 4095
1024 4095 0
1024 4095 512
1024 4095 1024
1024 4095 1536
1024 4095 2048
1024 4095 2559
1024 4095 3071
1024 4095 3583
1024 4095 4095
1536 0 0
1536 0 512
1536 0 1024
1536 0 1536
1536 0 2048
1536 0 2559
1536 0 3071
1536 0 3583
1536 0 4095
1536 512 0
1536 512 512
1536 512 1024
1536 512 1536
1536 512 2048
1536 512 2559
1536 512 3071
1536 512 3583
1536 512 4095
1536 1024 0
1536 1024 512
1536 1024 1024
1536 1024 1536
1536 1024 2048
1536 1024 2559
1536 1024 3071
1536 1024 3583
1536 1024 4095
1536 1536 0
1536 1536 512
1536 1536 1024
1637 1841 1906
1558 1604 2140
1536 1536 2559
1536 1536 3071
1536 1536 3583
1536 1536 4095
1536 2048 0
1536 2048 512
1536 2048 1024
1558 2129 1618
1559 2129 2140
1536 2048 2559
1536 2048 3071
1536 2048 3583
1536 2048 4095
1536 2559 0
1536 2559 512
1536 2559 1024
1536 2559 1536
1536 2559 2048
1536 2559 2559
1536 2559 3071
1536 2559 3583
1536 2559 4095
1536 3071 0
1536 3071 512
1536 3071 1024
1536 3071 1536
1536 3071 2048
1536 3071 2559
1536 3071 3071
1536 3071 3583
1536 3071 4095
1536 3583 0
1536 3583 512
1536 3583 1024
1536 3583 1536
1536 3583 2048
1536 3583 2559
1536 3583 3071
1536 3583 3583
1536 3583 4095
1536 4095 0
1536 4095 512
1536 4095 1024
1536 4095 1536
1536 4095 2048
1536 4095 2559
1536 4095 3071
1536 4095 3583
1536 4095 4095
2048 0 0
2048 0 512
2048 0 1024
2048 0 1536
2048 0 2048
2048 0 2559
2048 0 3071
2048 0 3583
2048 0 4095
2048 512 0
2048 512 512
2048 512 1024
2048 512 1536
2048 512 2048
2048 512 2559
2048 512 3071
2048 512 3583
2048 512 4095
2048 1024 0
2048 1024 512
2048 1024 1024
2048 1024 1536
2048 1024 2048
2048 1024 2559
2048 1024 3071
2048 1024 3583
2048 1024 4095
2048 1536 0
2048 1536 512
2048 1536 1024
2095 1603 1618
2095 1604 2140
2048 1536 2559
2048 1536 3071
2048 1536 3583
2048 1536 4095
2048 2048 0
2048 2048 512
2048 2048 1024
2095 2129 1618
2264 2415 2464
2131 2189 2707
2048 2048 3071
2048 2048 3583
2048 2048 4095
2048 2559 0
2048 2559 512
2048 2559 1024
2048 2559 1536
2131 2694 2207
2131 2694 2707
2048 2559 3071
2048 2559 3583
2048 2559 4095
2048 3071 0
2048 3071 512
2048 3071 1024
2048 3071 1536
2048 3071 2048
2048 3071 2559
2048 3071 3071
2048 3071 3583
2048 3071 4095
2048 3583 0
2048 3583 512
2048 3583 1024
2048 3583 1536
2048 3583 2048
2048 3583 2559
2048 3583 3071
2048 3583 3583
2048 3583 4095
2048 4095 0
2048 4095 512
2048 4095 1024
2048 4095 1536
2048 4095 2048
2048 4095 2559
2048 4095 3071
2048 4095 3583
2048 4095 4095
2559 0 0
2559 0 512
2559 0 1024
2559 0 1536
2559 0 2048
2559 0 2559
2559 0 3071
2559 0 3583
2559 0 4095
2559 512 0
2559 512 512
2559 512 1024
2559 512 1536
2559 512 2048
2559 512 2559
2559 512 3071
2559 512 3583
2559 512 4095
2559 1024 0
2559 1024 512
2559 1024 1024
2559 1024 1536
2559 1024 2048
2559 1024 2559
2559 1024 3071
2559 1024 3583
2559 1024 4095
2559 1536 0
2559 1536 512
2559 1536 1024
2559 1536 1536
2559 1536 2048
2559 1536 2559
2559 1536 3071
2559 1536 3583
2559 1536 4095
2559 2048 0
2559 2048 512
2559 2048 1024
2559 2048 1536
2652 2189 2207
2653 2189 2707
2559 2048 3071
2559 2048 3583
2559 2048 4095
2559 2559 0
2559 2559 512
2559 2559 1024
2559 2559 1536
2652 2694 2207
2802 2909 2943
2682 2735 3216
2575 2582 3593
2559 2559 4095
2559 3071 0
2559 3071 512
2559 3071 1024
2559 3071 1536
2559 3071 2048
2682 3205 2752
2682 3205 3216
2575 3088 3593
2559 3071 4095
2559 3583 0
2559 3583 512
2559 3583 1024
2559 3583 1536
2559 3583 2048
2575 3592 2584
2575 3592 3090
2575 3592 3593
2559 3583 4095
2559 4095 0
2559 4095 512
2559 4095 1024
2559 4095 1536
2559 4095 2048
2559 4095 2559
2559 4095 3071
2559 4095 3583
2559 4095 4095
3071 0 0
3071 0 512
3071 0 1024
3071 0 1536
3071 0 2048
3071 0 2559
3071 0 3071
3071 0 3583
3071 0 4095
3071 512 0
3071 512 512
3071 512 1024
3071 512 1536
3071 512 2048
3071 512 2559
3071 512 3071
3071 512 3583
3071 512 4095
3071 1024 0
3071 1024 512
3071 1024 1024
3071 1024 1536
3071 1024 2048
3071 1024 2559
3071 1024 3071
3071 1024 3583
3071 1024 4095
3071 1536 0
3071 1536 512
3071 1536 1024
3071 1536 1536
3071 1536 2048
3071 1536 2559
3071 1536 3071
3071 1536 3583
3071 1536 4095
3071 2048 0
3071 2048 512
3071 2048 1024
3071 2048 1536
3071 2048 2048
3071 2048 2559
3071 2048 3071
3071 2048 3583
3071 2048 4095
3071 2559 0
3071 2559 512
3071 2559 1024
3071 2559 1536
3071 2559 2048
3170 2735 2752
3170 2735 3216
3084 2582 3593
3071 2559 4095
3071 3071 0
3071 3071 512
3071 3071 1024
3071 3071 1536
3071 3071 2048
3170 3205 2752
3268 3337 3358
3188 3229 3673
3107 3119 4095
3071 3583 0
3071 3583 512
3071 3583 1024
3071 3583 1536
3071 3583 2048
3084 3592 2584
3188 3666 3242
3188 3666 3673
3107 3608 4095
3071 4095 0
3071 4095 512
3071 4095 1024
3071 4095 1536
3071 4095 2048
3071 4095 2559
3107 4095 3123
3107 4095 3610
3107 4095 4095
3583 0 0
3583 0 512
3583 0 1024
3583 0 1536
3583 0 2048
3583 0 2559
3583 0 3071
3583 0 3583
3583 0 4095
3583 512 0
3583 512 512
3583 512 1024
3583 512 1536
3583 512 2048
3583 512 2559
3583 512 3071
3583 512 3583
3583 512 4095
3583 1024 0
3583 1024 512
3583 1024 1024
3583 1024 1536
3583 1024 2048
3583 1024 2559
3583 1024 3071
3583 1024 3583
3583 1024 4095
3583 1536 0
3583 1536 512
3583 1536 1024
3583 1536 1536
3583 1536 2048
3583 1536 2559
3583 1536 3071
3583 1536 3583
3583 1536 4095
3583 2048 0
3583 2048 512
3583 2048 1024
3583 2048 1536
3583 2048 2048
3583 2048 2559
3583 2048 3071
3583 2048 3583
3583 2048 4095
3583 2559 0
3583 2559 512
3583 2559 1024
3583 2559 1536
3583 2559 2048
3590 2582 2584
3590 2582 3090
3590 2582 3593
3583 2559 4095
3583 3071 0
3583 3071 512
3583 3071 1024
3583 3071 1536
3583 3071 2048
3590 3088 2584
3646 3228 3241
3646 3229 3673
3602 3119 4095
3583 3583 0
3583 3583 512
3583 3583 1024
3583 3583 1536
3583 3583 2048
3590 3592 2584
3646 3666 3241
3690 3723 3734
3654 3676 4095
3583 4095 0
3583 4095 512
3583 4095 1024
3583 4095 1536
3583 4095 2048
3583 4095 2559
3602 4095 3123
3654 4095 3683
3654 4095 4095
4095 0 0
4095 0 512
4095 0 1024
4095 0 1536
4095 0 2048
4095 0 2559
4095 0 3071
4095 0 3583
4095 0 4095
4095 512 0
4095 512 512
4095 512 1024
4095 512 1536
4095 512 2048
4095 512 2559
4095 512 3071
4095 512 3583
4095 512 4095
4095 1024 0
4095 1024 512
4095 1024 1024
4095 1024 1536
4095 1024 2048
4095 1024 2559
4095 1024 3071
4095 1024 3583
4095 1024 4095
4095 1536 0
4095 1536 512
4095 1536 1024
4095 1536 1536
4095 1536 2048
4095 1536 2559
4095 1536 3071
4095 1536 3583
4095 1536 4095
4095 2048 0
4095 2048 512
4095 2048 1024
4095 2048 1536
4095 2048 2048
4095 2048 2559
4095 2048 3071
4095 2048 3583
4095 2048 4095
4095 2559 0
4095 2559 512
4095 2559 1024
4095 2559 1536
4095 2559 2048
4095 2559 2559
4095 2559 3071
4095 2559 3583
4095 2559 4095
4095 3071 0
4095 3071 512
4095 3071 1024
4095 3071 1536
4095 3071 2048
4095 3071 2559
4095 3119 3122
4095 3119 3610
4095 3119 4095
4095 3583 0
4095 3583 512
4095 3583 1024
4095 3583 1536
4095 3583 2048
4095 3583 2559
4095 3608 3122
4095 3676 3683
4095 3676 4095
4095 4095 0
4095 4095 512
4095 4095 1024
4095 4095 1536
4095 4095 2048
4095 4095 2559
4095 4095 3122
4095 4095 3683
4095 4095 4095
