Examples/Masks - Contrast colors.3dl
#25pt 3DLUT created by 3D LUT Creator Pro (c) Oleg Sharonov
#Copyright Oleg Sharonov
0 43 86 128 171 214 256 299 341 384 427 469 512 555 597 640 682 725 768 810 853 896 938 981 1023 
0 0 0
0 0 170
0 0 340
0 0 508
0 0 675
0 0 840
0 0 1003
0 0 1165
0 0 1327
0 0 1491
0 0 1660
0 0 1836
0 0 2018
0 0 2205
0 0 2395
0 0 2585
0 0 2772
0 0 2949
0 0 3122
0 0 3293
0 0 3461
0 0 3626
0 0 3788
0 0 3946
0 0 4095
0 167 0
0 167 167
0 167 334
0 166 500
0 165 664
0 164 828
0 162 990
0 160 1151
0 158 1313
0 155 1480
0 153 1652
0 150 1831
0 147 2015
0 144 2205
0 141 2396
0 138 2587
0 135 2773
0 132 2951
0 130 3124
0 127 3295
0 124 3462
0 121 3627
0 118 3789
0 115 3947
0 112 4095
0 327 0
0 326 163
0 326 326
0 324 488
0 323 650
0 320 812
0 317 972
0 314 1133
0 310 1297
0 306 1467
0 302 1643
0 298 1824
0 294 2012
0 289 2204
0 284 2397
0 280 2589
0 275 2776
0 270 2954
0 266 3126
0 261 3297
0 256 3464
0 252 3628
0 247 3790
0 242 3948
0 237 4095
0 475 0
0 474 156
0 473 313
0 471 471
0 469 630
0 467 789
0 464 949
0 460 1111
0 456 1277
0 452 1450
0 447 1630
0 442 1816
0 437 2007
0 431 2202
0 426 2398
0 420 2592
0 414 2780
0 408 2957
0 402 3130
0 396 3300
0 390 3467
0 384 3631
0 378 3791
0 372 3949
0 366 4095
0 614 0
0 613 149
0 612 300
0 611 454
0 609 609
0 607 766
0 604 925
0 600 1087
0 596 1255
0 592 1431
0 587 1615
0 582 1806
0 577 2001
0 571 2200
0 565 2399
0 558 2595
0 552 2785
0 546 2962
0 539 3134
0 533 3303
0 526 3470
0 519 3633
0 512 3793
0 506 3950
0 499 4095
0 749 0
0 748 142
0 748 288
0 747 436
0 745 588
0 743 743
0 740 901
0 737 1063
0 734 1231
0 730 1411
0 725 1599
0 720 1795
0 715 1995
0 709 2198
0 703 2401
0 697 2600
0 690 2791
0 684 2968
0 677 3139
0 670 3308
0 663 3474
0 656 3636
0 649 3796
0 642 3951
0 635 4095
0 883 0
0 883 136
0 883 276
0 882 420
0 880 568
0 879 720
0 876 876
0 874 1038
0 870 1208
0 867 1390
0 863 1583
0 858 1783
0 853 1988
0 848 2196
0 842 2403
0 836 2604
0 830 2796
0 824 2974
0 817 3145
0 811 3313
0 804 3478
0 797 3640
0 790 3798
0 783 3953
0 776 4095
0 1021 0
0 1021 129
0 1020 263
0 1019 403
0 1018 547
0 1017 697
0 1015 852
0 1013 1013
0 1010 1183
0 1007 1369
0 1003 1566
0 999 1771
0 994 1982
0 990 2194
0 985 2405
0 979 2609
0 973 2803
0 968 2981
0 962 3151
0 955 3318
0 949 3483
0 943 3644
0 936 3801
0 929 3954
0 923 4095
0 1167 0
0 1167 122
0 1167 252
0 1167 386
0 1166 527
0 1165 674
0 1164 828
0 1162 988
0 1159 1159
0 1157 1348
0 1154 1549
0 1150 1759
0 1147 1975
0 1143 2192
0 1138 2407
0 1134 2615
0 1129 2810
0 1124 2987
0 1119 3157
0 1114 3324
0 1108 3488
0 1103 3647
0 1097 3803
0 1091 3956
0 1085 4095
0 1333 0
0 1333 116
0 1333 240
0 1333 370
0 1333 507
0 1332 652
0 1331 804
0 1330 963
0 1328 1136
0 1326 1326
0 1324 1532
0 1321 1746
0 1319 1968
0 1315 2190
0 1312 2409
0 1308 2619
0 1305 2816
0 1301 2995
0 1297 3164
0 1293 3330
0 1288 3493
0 1284 3651
0 1279 3806
0 1275 3957
0 1270 4095
0 1518 0
0 1519 109
0 1519 228
0 1519 354
0 1519 488
0 1519 630
0 1519 780
0 1518 938
0 1517 1112
0 1516 1305
0 1514 1514
0 1512 1734
0 1510 1960
0 1508 2187
0 1506 2410
0 1503 2624
0 1500 2823
0 1498 3002
0 1495 3171
0 1492 3336
0 1489 3498
0 1486 3656
0 1483 3809
0 1480 3959
0 1476 4095
0 1723 0
0 1723 102
0 1724 216
0 1724 338
0 1725 468
0 1725 607
0 1725 756
0 1725 914
0 1724 1088
0 1724 1284
0 1723 1497
0 1721 1721
0 1720 1953
0 1719 2185
0 1717 2412
0 1716 2629
0 1714 2830
0 1712 3009
0 1711 3177
0 1709 3342
0 1707 3503
0 1705 3659
0 1704 3812
0 1702 3960
0 1700 4095
0 1943 0
0 1944 95
0 1945 204
0 1946 322
0 1946 449
0 1946 585
0 1947 732
0 1947 889
0 1947 1064
0 1947 1263
0 1946 1480
0 1946 1709
0 1945 1945
0 1944 2182
0 1944 2414
0 1942 2634
0 1942 2837
0 1941 3015
0 1941 3184
0 1940 3348
0 1940 3508
0 1939 3664
0 1938 3815
0 1938 3961
0 1937 4095
0 2175 0
0 2176 88
0 2176 192
0 2177 306
0 2178 430
0 2179 564
0 2179 708
0 2180 865
0 2180 1041
0 2180 1242
0 2180 1463
0 2180 1696
0 2180 1937
0 2179 2179
0 2179 2415
0 2179 2639
0 2179 2844
0 2179 3022
0 2179 3191
0 2180 3354
0 2180 3513
0 2180 3668
0 2180 3818
0 2181 3963
0 2181 4095
0 2410 0
0 2411 81
0 2412 180
0 2413 290
0 2414 410
0 2415 542
0 2415 686
0 2416 841
0 2416 1018
0 2417 1221
0 2417 1446
0 2417 1684
0 2417 1930
0 2417 2177
0 2417 2417
0 2417 2644
0 2418 2850
0 2418 3030
0 2419 3197
0 2420 3360
0 2420 3518
0 2422 3672
0 2422 3820
0 2423 3964
0 2424 4095
0 2641 0
0 2642 74
0 2643 168
0 2644 274
0 2645 391
0 2645 521
0 2646 663
0 2647 818
0 2647 995
0 2648 1201
0 2648 1429
0 2648 1672
0 2648 1923
0 2648 2175
0 2649 2419
0 2649 2649
0 2650 2857
0 2651 3037
0 2652 3204
0 2653 3367
0 2654 3524
0 2655 3676
0 2656 3823
0 2658 3965
0 2659 4095
0 2857 0
0 2858 67
0 2859 157
0 2859 258
0 2860 373
0 2861 500
0 2861 640
0 2862 794
0 2862 972
0 2863 1181
0 2863 1413
0 2863 1661
0 2863 1916
0 2863 2173
0 2863 2421
0 2864 2654
0 2864 2864
0 2865 3044
0 2866 3211
0 2867 3373
0 2868 3529
0 2870 3680
0 2871 3826
0 2872 3967
0 2874 4095
0 3046 0
0 3047 60
0 3048 145
0 3048 243
0 3049 355
0 3049 479
0 3050 617
0 3050 771
0 3050 950
0 3050 1161
0 3050 1397
0 3050 1649
0 3050 1910
0 3050 2171
0 3050 2423
0 3050 2660
0 3050 2871
0 3051 3051
0 3052 3218
0 3053 3379
0 3054 3534
0 3055 3685
0 3056 3829
0 3057 3969
0 3058 4095
0 3221 0
0 3222 54
0 3222 134
0 3223 228
0 3223 336
0 3224 459
0 3224 596
0 3224 749
0 3225 928
0 3224 1142
0 3224 1381
0 3224 1638
0 3224 1903
0 3224 2169
0 3223 2425
0 3223 2665
0 3224 2878
0 3224 3058
0 3225 3225
0 3226 3386
0 3227 3540
0 3227 3689
0 3228 3833
0 3230 3970
0 3231 4095
0 3389 0
0 3390 47
0 3390 123
0 3391 213
0 3391 319
0 3392 438
0 3392 574
0 3392 726
0 3392 906
0 3392 1123
0 3392 1366
0 3391 1626
0 3391 1897
0 3391 2167
0 3391 2428
0 3390 2671
0 3390 2885
0 3388 3063
0 3386 3226
0 3384 3384
0 3383 3537
0 3381 3685
0 3379 3828
0 3377 3966
0 3375 4095
0 3539 0
0 3540 51
0 3540 130
0 3540 224
0 3540 333
0 3541 456
0 3540 595
0 3540 750
0 3539 932
0 3538 1149
0 3537 1390
0 3535 1646
0 3534 1910
0 3532 2173
0 3531 2424
0 3529 2658
0 3527 2866
0 3526 3043
0 3525 3208
0 3523 3367
0 3522 3522
0 3520 3672
0 3518 3818
0 3517 3961
0 3515 4095
0 3675 0
0 3676 66
0 3676 158
0 3676 262
0 3676 379
0 3676 508
0 3676 652
0 3676 809
0 3675 990
0 3674 1201
0 3673 1433
0 3672 1678
0 3671 1929
0 3669 2179
0 3668 2420
0 3666 2645
0 3665 2848
0 3664 3024
0 3663 3189
0 3662 3350
0 3661 3506
0 3659 3659
0 3658 3809
0 3657 3956
0 3655 4095
0 3813 0
0 3813 81
0 3813 185
0 3814 299
0 3814 425
0 3814 560
0 3813 708
0 3813 868
0 3813 1047
0 3812 1252
0 3811 1475
0 3810 1709
0 3809 1948
0 3808 2186
0 3807 2416
0 3806 2632
0 3805 2830
0 3804 3004
0 3803 3170
0 3803 3332
0 3802 3491
0 3801 3647
0 3800 3800
0 3799 3950
0 3798 4095
0 3954 0
0 3954 97
0 3955 212
0 3955 337
0 3955 470
0 3955 612
0 3955 764
0 3955 926
0 3954 1104
0 3954 1303
0 3953 1517
0 3952 1740
0 3952 1967
0 3951 2192
0 3950 2411
0 3949 2619
0 3949 2811
0 3948 2985
0 3948 3151
0 3947 3315
0 3947 3476
0 3946 3634
0 3946 3791
0 3945 3945
0 3945 4095
0 4095 0
0 4095 113
0 4095 240
0 4095 374
0 4095 515
0 4095 663
0 4095 819
0 4095 984
0 4095 1160
0 4095 1354
0 4095 1558
0 4095 1770
0 4095 1985
0 4095 2198
0 4095 2407
0 4095 2606
0 4095 2793
0 4095 2966
0 4095 3133
0 4095 3298
0 4095 3461
0 4095 3622
0 4095 3782
0 4095 3940
0 4095 4095
170 0 0
169 0 169
169 0 338
168 0 506
167 0 672
166 0 836
165 0 999
163 0 1161
160 0 1323
158 0 1488
155 0 1658
152 0 1835
149 0 2017
146 0 2206
143 0 2395
140 0 2586
136 0 2772
134 0 2950
131 0 3122
128 0 3293
125 0 3461
122 0 3626
119 0 3788
116 0 3947
113 0 4095
166 166 0
171 171 171
167 167 335
165 165 498
164 164 661
163 163 824
161 161 986
159 159 1147
157 157 1310
155 155 1477
152 152 1650
149 149 1830
147 147 2015
144 144 2204
141 141 2396
138 138 2587
135 135 2775
132 132 2952
129 129 3125
126 126 3295
123 123 3463
121 121 3628
118 118 3789
115 115 3947
112 112 4095
162 325 0
165 331 165
165 330 330
161 323 487
160 321 647
158 318 808
157 316 969
155 313 1130
153 309 1294
151 305 1464
149 301 1641
146 297 1824
144 293 2012
141 288 2204
138 284 2398
136 279 2590
133 274 2777
130 270 2955
127 265 3127
125 260 3297
122 256 3465
119 251 3629
116 246 3791
114 242 3948
111 237 4095
156 472 0
156 474 156
156 473 313
155 471 471
154 467 628
153 465 787
151 462 947
150 458 1109
148 455 1275
147 450 1448
145 446 1628
142 441 1815
140 435 2007
138 430 2203
135 424 2399
133 419 2593
130 413 2781
127 407 2958
125 401 3131
122 396 3300
120 390 3467
117 384 3631
114 378 3792
112 372 3949
109 366 4095
149 612 0
149 611 149
148 610 299
148 609 452
147 607 607
146 605 764
145 602 923
144 599 1085
143 595 1253
141 591 1429
140 586 1614
138 581 1805
136 575 2002
133 570 2201
131 564 2400
129 558 2597
126 551 2785
124 545 2963
122 538 3135
119 532 3304
117 525 3470
114 518 3633
112 512 3793
109 505 3950
106 498 4095
142 747 0
142 747 142
142 746 287
141 745 435
141 743 587
140 741 741
139 739 899
138 736 1061
137 732 1230
136 728 1409
134 724 1599
132 719 1794
131 713 1995
129 708 2199
126 702 2401
124 696 2600
122 689 2791
120 683 2968
118 676 3140
115 669 3309
113 663 3474
111 656 3637
108 649 3796
106 641 3951
103 634 4095
135 882 0
135 882 135
135 881 275
135 880 419
134 879 566
134 877 719
133 875 875
132 872 1036
131 869 1206
130 866 1389
128 862 1582
127 857 1782
125 852 1989
123 847 2197
121 841 2404
119 835 2605
117 829 2797
115 823 2974
113 817 3146
111 810 3314
109 803 3478
107 796 3640
104 789 3798
102 782 3953
100 775 4095
129 1020 0
129 1020 129
128 1019 263
128 1019 402
128 1017 547
127 1016 696
127 1014 851
126 1012 1012
125 1009 1183
124 1006 1368
122 1002 1565
121 998 1771
119 994 1982
117 989 2195
116 984 2405
114 978 2610
112 973 2804
110 967 2981
108 961 3152
106 955 3319
104 949 3483
102 942 3644
100 936 3801
98 929 3954
96 922 4095
122 1167 0
122 1167 122
122 1167 251
122 1166 386
121 1166 527
121 1164 674
120 1163 827
120 1161 987
119 1159 1159
117 1156 1347
116 1153 1549
115 1150 1759
113 1146 1975
111 1142 2193
110 1138 2407
108 1133 2615
106 1128 2810
104 1124 2988
103 1119 3158
101 1113 3325
99 1108 3488
97 1102 3648
95 1097 3804
93 1091 3956
91 1085 4095
115 1333 0
115 1333 115
115 1333 239
115 1333 370
115 1333 507
114 1332 651
114 1331 803
113 1330 963
112 1328 1135
111 1326 1326
110 1324 1531
108 1321 1747
107 1318 1968
105 1315 2190
103 1312 2409
102 1308 2620
100 1305 2817
98 1301 2995
97 1297 3165
95 1293 3331
93 1289 3493
91 1284 3652
90 1280 3807
88 1275 3958
86 1271 4095
109 1519 0
109 1519 109
108 1520 227
108 1520 353
108 1520 487
108 1519 629
107 1519 779
106 1518 938
105 1517 1111
104 1516 1305
103 1514 1514
102 1513 1734
100 1511 1961
99 1508 2188
97 1506 2411
95 1503 2625
94 1501 2824
92 1498 3002
90 1496 3172
89 1492 3337
87 1490 3498
85 1487 3656
84 1484 3810
82 1480 3959
80 1477 4095
