Examples/Masks - Desaturate Highlights.3dl
#25pt 3DLUT created by 3D LUT Creator Pro (c) Oleg Sharonov
#Copyright Oleg Sharonov
#IMAGEPROFILE sRGB IEC61966-2.1 v.2.10
#INPUTGAMMA sRGB IEC61966-2.1 v.2.10
#OUTPUTGAMMA sRGB IEC61966-2.1 v.2.10
0 256 512 768 1023
0 0 0
0 0 1024
0 0 2048
0 0 3071
0 0 4095
0 1024 0
0 1024 1024
0 1024 2048
0 1024 3071
0 1024 4095
0 2048 0
0 2048 1024
0 2048 2048
0 2048 3071
0 2048 4095
229 2831 156
287 2867 1083
426 2951 2049
623 3072 3006
885 3237 3928
1099 2917 795
1221 3025 1408
1509 3286 2161
1868 3613 2950
2278 3979 3723
1024 0 0
1024 0 1024
1024 0 2048
1024 0 3071
1024 0 4095
1024 1024 0
1024 1024 1024
1024 1024 2048
1024 1024 3071
1024 1024 4095
1024 2048 0
1024 2048 1024
1024 2048 2048
1024 2048 3071
1024 2048 4095
1139 2803 189
1195 2844 1099
1326 2941 2054
1503 3075 3002
1732 3255 3916
1644 2902 841
1761 3011 1437
2035 3275 2176
2375 3608 2954
2760 3982 3719
2048 0 0
2048 0 1024
2048 0 2048
2048 0 3071
2048 0 4095
2048 1024 0
2048 1024 1024
2048 1024 2048
2048 1024 3071
2048 1024 4095
2048 2048 0
2048 2048 1024
2048 2048 2048
2048 2048 3071
2050 2050 4094
2026 2738 300
2085 2791 1156
2223 2918 2075
2399 3091 2995
2615 3308 3884
2210 2868 982
2320 2977 1530
2582 3247 2226
2909 3597 2970
3279 3995 3710
3071 0 0
3071 0 1024
3071 0 2048
3071 0 3071
3071 0 4095
3071 1024 0
3071 1024 1024
3071 1024 2048
3071 1024 3071
3071 1024 4095
3056 2041 19
3054 2043 1036
3060 2064 2052
3092 2128 3051
3169 2259 4015
2805 2681 512
2868 2746 1279
3015 2909 2130
3200 3131 2998
3420 3404 3845
2721 2844 1236
2821 2951 1704
3066 3225 2325
3384 3595 3010
3749 4029 3706
4095 0 0
4095 0 1024
4095 0 2048
4095 0 3071
4093 57 4086
4095 1024 0
4095 1024 1024
4093 1027 2048
4071 1104 3064
4084 1260 4044
3800 2036 299
3822 2071 1184
3877 2169 2110
3956 2324 3037
4065 2545 3939
3414 2678 848
3475 2751 1495
3626 2944 2244
3825 3215 3031
4061 3553 3816
3107 2856 1611
3195 2958 1972
3420 3231 2487
3729 3621 3088
4095 4095 3721
