Examples/Masks - Channels - Pastel greens.3dl
#25pt 3DLUT created by 3D LUT Creator Pro (c) Oleg Sharonov
#Copyright Oleg Sharonov
0 128 256 384 512 640 768 896 1023
0 0 0
312 240 512
684 564 1025
1056 887 1536
1428 1210 2048
1801 1533 2559
2174 1857 3071
2546 2180 3583
2919 2503 4095
0 513 267
222 512 512
646 663 1023
1033 951 1536
1412 1256 2047
1789 1568 2560
2164 1884 3071
2539 2203 3583
2912 2522 4095
0 1024 610
0 1024 609
536 1023 1023
971 1097 1535
1371 1365 2048
1758 1653 2559
2140 1952 3071
2519 2259 3583
2896 2570 4095
0 1536 951
0 1536 951
248 1536 1024
848 1536 1536
1291 1537 2047
1700 1792 2560
2095 2067 3071
2482 2355 3583
2865 2652 4095
0 2048 1293
0 2048 1293
0 2048 1292
612 2048 1536
1160 2047 2047
1609 2048 2559
2025 2227 3071
2426 2492 3583
2819 2770 4095
0 2559 1635
0 2559 1635
0 2559 1634
0 2559 1633
944 2559 2048
1472 2559 2559
1925 2559 3071
2347 2664 3583
2754 2922 4095
0 3071 1977
0 3071 1977
0 3071 1976
0 3071 1975
532 3071 2048
1268 3071 2559
1784 3071 3071
2240 3071 3583
2667 3105 4095
0 3583 2319
0 3583 2319
0 3583 2318
0 3583 2318
0 3583 2317
940 3583 2559
1586 3583 3071
2096 3583 3583
2554 3583 4095
0 4095 2661
0 4095 2661
0 4095 2660
3 4095 2660
0 4095 2659
45 4095 2658
1297 4095 3071
1903 4095 3583
2408 4095 4095
512 0 0
560 376 512
827 636 1023
1150 933 1535
1496 1243 2048
1852 1558 2559
2214 1876 3071
2579 2196 3583
2947 2517 4095
512 512 215
512 512 512
797 726 1024
1129 995 1536
1480 1288 2048
1841 1593 2560
2205 1904 3071
2572 2218 3583
2940 2536 4095
512 1024 752
512 1024 752
711 1023 1023
1073 1134 1536
1441 1393 2047
1810 1676 2559
2181 1971 3071
2552 2274 3583
2924 2583 4095
512 1536 1045
512 1536 1045
525 1536 1044
965 1536 1536
1367 1562 2048
1755 1813 2559
2137 2085 3071
2517 2370 3583
2894 2665 4095
512 2048 1360
512 2048 1360
512 2048 1360
770 2048 1536
1245 2048 2048
1667 2048 2559
2069 2242 3071
2462 2505 3583
2848 2782 4095
512 2559 1686
512 2559 1686
512 2559 1686
512 2560 1685
1049 2559 2048
1537 2559 2559
1972 2559 3071
2384 2677 3583
2785 2933 4095
512 3071 2018
512 3071 2018
512 3071 2017
512 3071 2016
709 3071 2048
1344 3071 2559
1835 3071 3071
2279 3071 3583
2699 3115 4095
512 3583 2352
512 3583 2352
512 3583 2352
512 3583 2351
512 3583 2350
1046 3583 2559
1645 3583 3071
2138 3583 3583
2587 3583 4095
514 4095 2689
514 4095 2689
509 4095 2688
510 4095 2688
512 4095 2687
513 4095 2687
1373 4095 3071
1950 4095 3583
2443 4095 4095
1024 0 0
1024 0 512
1104 792 1024
1355 1042 1535
1651 1323 2047
1975 1620 2559
2313 1926 3071
2662 2236 3583
3016 2551 4095
1024 512 0
1024 512 512
1082 864 1023
1338 1096 1535
1638 1365 2048
1964 1653 2559
2304 1952 3071
2654 2259 3583
3010 2570 4095
1024 1024 429
1024 1024 726
1024 1024 1024
1293 1222 1536
1603 1464 2047
1936 1732 2559
2282 2018 3071
2635 2313 3583
2994 2616 4095
1023 1536 1249
1023 1536 1249
1023 1536 1248
1208 1536 1536
1538 1624 2048
1885 1865 2559
2241 2128 3071
2601 2407 3583
2965 2697 4095
1024 2048 1516
1024 2048 1516
1024 2048 1515
1064 2047 1535
1434 2048 2048
1805 2048 2559
2177 2282 3071
2549 2540 3583
2921 2812 4095
1024 2559 1809
1024 2559 1809
1024 2559 1808
1024 2559 1808
1274 2560 2048
1688 2559 2559
2085 2559 3071
2475 2709 3583
2859 2962 4095
1024 3071 2117
1024 3071 2117
1024 3071 2117
1024 3071 2116
1024 3071 2115
1519 3071 2559
1959 3071 3071
2374 3071 3583
2776 3141 4095
1024 3583 2435
1024 3583 2435
1024 3583 2434
1024 3583 2434
1024 3583 2433
1271 3583 2559
1786 3583 3071
2241 3583 3583
2669 3583 4095
1024 4095 2759
1024 4095 2759
1025 4095 2759
1023 4095 2758
1023 4095 2757
1024 4095 2756
1545 4095 3071
2066 4095 3583
2531 4095 4095
1536 0 0
1536 0 512
1536 351 1092
1649 1209 1536
1892 1453 2048
2172 1723 2559
2477 2010 3071
2800 2307 3583
3135 2610 4095
1536 512 0
1536 512 512
1536 704 1107
1636 1254 1536
1881 1490 2048
2162 1754 2559
2469 2035 3071
2793 2328 3583
3129 2629 4095
1536 1024 0
1536 1024 512
1536 1083 1144
1601 1363 1536
1851 1580 2048
2138 1828 2559
2449 2098 3071
2775 2381 3583
3114 2674 4095
1536 1536 643
1536 1536 941
1536 1536 1238
1536 1536 1536
1797 1727 2048
2093 1952 2559
2411 2203 3071
2744 2471 3583
3086 2752 4095
1536 2048 1589
1536 2048 1637
1536 2048 1685
1536 2047 1752
1712 2048 2048
2023 2122 2559
2353 2351 3071
2695 2600 3583
3045 2865 4095
1536 2559 2005
1536 2559 2005
1536 2559 2005
1536 2560 2004
1586 2559 2048
1923 2559 2559
2271 2559 3071
2626 2764 3583
2986 3011 4095
1536 3071 2281
1536 3071 2281
1536 3071 2280
1536 3071 2280
1536 3071 2279
1781 3071 2559
2158 3071 3071
2533 3071 3583
2908 3187 4095
1536 3583 2573
1536 3583 2573
1536 3583 2573
1536 3583 2573
1536 3583 2572
1583 3583 2571
2007 3583 3071
2412 3583 3583
2807 3583 4095
1536 4095 2878
1536 4095 2878
1536 4095 2878
1535 4095 2877
1536 4095 2876
1536 4095 2876
1801 4095 3071
2254 4095 3583
2678 4095 4095
2048 0 0
2048 0 512
2048 0 1024
2048 741 1590
2194 1625 2047
2432 1866 2559
2701 2129 3071
2993 2408 3583
3303 2698 4095
2048 512 0
2048 512 512
2048 512 1024
2048 1005 1606
2185 1658 2048
2423 1893 2559
2694 2153 3071
2987 2428 3583
3298 2715 4095
2048 1024 0
2048 1024 512
2048 1024 1024
2048 1298 1646
2160 1737 2048
2402 1962 2560
2675 2211 3071
2971 2478 3583
3284 2758 4095
2048 1536 98
2048 1536 583
2047 1537 1068
2048 1621 1713
2116 1869 2048
2364 2076 2559
2642 2310 3071
2942 2564 3583
3258 2834 4095
2047 2047 857
2047 2047 1155
2048 2048 1453
2048 2048 1804
2048 2048 2048
2304 2234 2559
2590 2449 3071
2898 2687 3583
3219 2942 4095
2048 2559 1774
2048 2559 1884
2048 2559 1994
2048 2559 2104
2048 2559 2260
2220 2559 2559
2518 2626 3071
2835 2845 3583
3165 3083 4095
2048 3071 2503
2048 3071 2503
2048 3071 2502
2048 3071 2502
2048 3071 2501
2103 3071 2559
2420 3071 3071
2751 3071 3583
3093 3255 4095
2048 3583 2766
2048 3583 2766
2048 3583 2766
2048 3583 2765
2048 3583 2764
2048 3583 2764
2290 3583 3071
2642 3583 3583
3000 3583 4095
2047 4095 3046
2047 4095 3046
2048 4095 3046
2048 4095 3045
2048 4095 3045
2047 4095 3044
2120 4095 3071
2502 4095 3583
2882 4095 4095
2559 0 0
2559 0 512
2559 0 1024
2559 346 1645
2559 1148 2054
2739 2042 2559
2973 2280 3071
3235 2538 3583
3518 2811 4095
2559 512 0
2559 512 512
2559 512 1024
2559 757 1650
2559 1357 2069
2732 2066 2559
2967 2302 3071
3229 2557 3583
3513 2827 4095
2559 1024 0
2559 1024 512
2559 1024 1024
2559 1178 1662
2559 1591 2106
2714 2127 2559
2951 2355 3071
3214 2604 3583
3500 2869 4095
2559 1536 0
2559 1536 512
2559 1536 1024
2559 1610 1683
2560 1855 2169
2681 2231 2559
2921 2447 3071
3188 2685 3583
3476 2940 4095
2559 2048 299
2559 2048 747
2559 2048 1194
2559 2052 1713
2559 2147 2258
2631 2377 2559
2876 2577 3071
3148 2801 3583
3440 3044 4095
2559 2559 1072
2559 2559 1369
2559 2559 1667
2559 2559 1965
2559 2559 2369
2559 2559 2559
2813 2743 3071
3092 2951 3583
3391 3179 4095
2559 3071 1970
2559 3071 2118
2559 3071 2266
2559 3071 2413
2559 3071 2561
2559 3071 2768
2729 3071 3071
3018 3132 3583
3325 3344 4095
2559 3583 3005
2559 3583 3005
2559 3583 3004
2559 3583 3004
2560 3583 3003
2559 3583 3003
2619 3583 3071
2922 3583 3583
3240 3583 4095
2560 4095 3259
2560 4095 3259
2560 4095 3259
2559 4095 3258
2559 4095 3258
2560 4095 3257
2559 4095 3256
2800 4095 3583
3135 4095 4095
3071 0 0
3071 0 512
3071 0 1024
3071 0 1536
3071 718 2198
3077 1564 2559
3284 2459 3071
3516 2695 3583
3772 2949 4095
3071 512 0
3071 512 512
3071 512 1024
3071 512 1536
3071 1060 2204
3073 1735 2559
3278 2478 3071
3511 2712 3583
3767 2965 4095
3071 1024 0
3071 1024 512
3071 1024 1024
3071 1024 1536
3071 1414 2221
3071 1928 2559
3264 2527 3071
3498 2756 3583
3755 3004 4095
3071 1536 0
3071 1536 512
3071 1536 1024
3071 1536 1536
3071 1783 2249
3071 2148 2605
3238 2611 3071
3474 2832 3583
3734 3072 4095
3071 2048 0
3071 2048 512
3071 2048 1024
3071 2048 1536
3071 2167 2290
3071 2395 2686
3199 2731 3071
3439 2941 3583
3701 3170 4095
3071 2559 504
3071 2559 927
3071 2559 1350
3071 2559 1772
3071 2564 2342
3071 2668 2791
3144 2886 3071
3389 3082 3583
3656 3298 4095
3071 3071 1286
3071 3071 1584
3071 3071 1881
3071 3071 2179
3071 3071 2477
3071 3071 2917
3071 3071 3071
3323 3253 3583
3597 3456 4095
3071 3583 2173
3071 3583 2346
3071 3583 2518
3071 3583 2691
3071 3583 2864
3071 3583 3061
3071 3583 3278
3238 3583 3583
3521 3639 4095
3071 4095 3181
3071 4095 3229
3071 4095 3276
3071 4095 3324
3071 4095 3372
3071 4095 3419
3072 4095 3507
3133 4095 3583
3426 4095 4095
3583 0 0
3583 0 512
3583 0 1024
3583 0 1536
3583 344 2175
3583 1106 2711
3613 1986 3071
3829 2875 3583
4059 3111 4095
3583 512 0
3583 512 512
3583 512 1024
3583 512 1536
3583 783 2177
3583 1397 2718
3609 2129 3071
3824 2891 3583
4055 3125 4095
3583 1024 0
3583 1024 512
3583 1024 1024
3583 1024 1536
3583 1226 2183
3583 1701 2736
3600 2291 3071
3812 2931 3583
4044 3161 4095
3583 1536 0
3583 1536 512
3583 1536 1024
3583 1536 1536
3583 1675 2193
3583 2021 2766
3583 2478 3071
3791 3001 3583
4025 3225 4095
3583 2048 0
3583 2048 512
3583 2048 1024
3583 2048 1536
3583 2130 2208
3583 2357 2810
3583 2690 3105
3760 3102 3583
3995 3317 4095
3583 2559 0
3583 2559 512
3583 2559 1024
3583 2559 1536
3583 2590 2227
3583 2709 2867
3583 2927 3201
3716 3234 3583
3954 3439 4095
3583 3071 712
3583 3071 1117
3583 3071 1522
3583 3071 1926
3583 3071 2331
3583 3074 2937
3583 3186 3318
3657 3396 3583
3901 3588 4095
3583 3583 1500
3583 3583 1798
3583 3583 2096
3583 3583 2393
3583 3583 2691
3583 3583 3019
3583 3583 3455
3583 3583 3583
3833 3763 4095
3583 4095 2379
3583 4095 2570
3583 4095 2760
3583 4095 2951
3583 4095 3141
3583 4095 3332
3583 4095 3608
3583 4095 3788
3749 4095 4095
4095 0 0
4095 0 512
4095 0 1024
4095 0 1536
4095 0 2048
4095 707 2758
4095 1505 3200
4095 2411 3583
4095 3292 4095
4095 512 0
4095 512 512
4095 512 1024
4095 512 1536
4095 512 2048
4095 1090 2761
4095 1757 3207
4095 2533 3583
4095 3305 4095
4095 1024 0
4095 1024 512
4095 1024 1024
4095 1024 1536
4095 1024 2048
4095 1479 2770
4095 2022 3224
4095 2672 3583
4095 3339 4095
4095 1536 0
4095 1536 512
4095 1536 1024
4095 1536 1536
4095 1536 2048
4095 1877 2785
4095 2303 3254
4095 2833 3583
4095 3398 4095
4095 2048 0
4095 2048 512
4095 2048 1024
4095 2048 1536
4095 2048 2048
4095 2283 2807
4095 2600 3298
4095 3017 3583
4095 3485 4095
4095 2559 0
4095 2559 512
4095 2559 1024
4095 2559 1536
4095 2559 2048
4095 2698 2836
4095 2914 3355
4095 3224 3607
4095 3599 4095
4095 3071 196
4095 3071 681
4095 3071 1167
4095 3071 1652
4095 3075 2137
4095 3121 2871
4095 3242 3427
4095 3453 3715
4095 3740 4095
4095 3583 921
4095 3583 1313
4095 3583 1704
4095 3583 2095
4095 3583 2487
4095 3583 2914
4095 3584 3511
4095 3702 3841
4095 3906 4095
4095 4095 1713
4095 4095 2011
4095 4095 2308
4095 4095 2606
4095 4095 2904
4095 4095 3202
4095 4095 3607
4095 4095 3985
4095 4095 4095
