Examples/Masks - Lighten shadows.3dl
#25pt 3DLUT created by 3D LUT Creator Pro (c) Oleg Sharonov
#Copyright Oleg Sharonov
0 43 86 128 171 214 256 299 341 384 427 469 512 555 597 640 682 725 768 810 853 896 938 981 1023 
0 0 0
0 0 148
0 0 295
0 0 458
0 0 634
0 0 820
0 0 1025
0 0 1244
0 0 1464
0 0 1696
0 0 1921
0 0 2140
0 0 2342
0 0 2532
0 0 2708
0 0 2873
0 0 3029
0 0 3175
0 0 3316
0 0 3453
0 0 3585
0 0 3715
0 0 3843
0 0 3969
0 0 4095
0 144 0
0 144 144
0 144 296
0 144 460
0 144 636
0 144 823
0 145 1026
0 145 1244
0 145 1465
0 146 1695
0 146 1920
0 146 2139
0 146 2341
0 147 2531
0 147 2707
0 147 2872
0 148 3026
0 148 3174
0 148 3315
0 149 3452
0 149 3584
0 149 3714
0 149 3842
0 150 3969
0 150 4095
0 296 0
0 297 145
0 296 296
0 297 459
0 298 634
0 298 825
0 298 1028
0 299 1240
0 299 1466
0 300 1694
0 300 1919
0 300 2133
0 301 2338
0 301 2528
0 302 2704
0 302 2869
0 303 3024
0 303 3170
0 304 3312
0 304 3449
0 305 3582
0 305 3713
0 306 3841
0 306 3968
0 307 4095
0 462 0
0 462 146
0 462 299
0 462 462
0 462 637
0 463 824
0 463 1025
0 463 1240
0 464 1463
0 464 1688
0 464 1914
0 465 2127
0 465 2330
0 466 2519
0 466 2696
0 467 2861
0 467 3018
0 468 3166
0 468 3308
0 469 3446
0 470 3579
0 470 3711
0 471 3840
0 471 3968
0 472 4095
0 638 0
0 639 147
0 638 300
0 638 464
0 638 638
0 640 827
0 639 1026
0 640 1238
0 640 1460
0 640 1683
0 641 1907
0 640 2120
0 641 2322
0 641 2511
0 642 2688
0 642 2854
0 643 3011
0 643 3159
0 643 3302
0 645 3441
0 645 3576
0 646 3708
0 646 3838
0 646 3967
0 647 4095
0 827 0
0 827 148
0 827 302
0 827 466
0 827 641
0 826 826
0 827 1026
0 827 1237
0 827 1455
0 828 1678
0 827 1899
0 828 2112
0 828 2313
0 829 2502
0 829 2679
0 829 2845
0 829 3003
0 829 3152
0 830 3296
0 830 3436
0 830 3571
0 831 3705
0 831 3836
0 831 3966
0 831 4095
0 1026 0
0 1026 148
0 1026 304
0 1026 468
0 1026 643
0 1026 828
0 1026 1026
0 1026 1235
0 1026 1453
0 1026 1673
0 1026 1893
0 1026 2103
0 1026 2303
0 1026 2492
0 1026 2669
0 1026 2835
0 1026 2993
0 1026 3144
0 1025 3289
0 1026 3429
0 1026 3566
0 1025 3701
0 1025 3833
0 1026 3965
0 1026 4095
0 1234 0
0 1234 149
0 1234 305
0 1234 470
0 1234 644
0 1234 829
0 1234 1026
0 1234 1234
0 1233 1449
0 1233 1668
0 1232 1884
0 1233 2094
0 1232 2294
0 1232 2482
0 1232 2658
0 1232 2825
0 1231 2983
0 1231 3135
0 1231 3281
0 1230 3422
0 1230 3561
0 1229 3697
0 1229 3831
0 1229 3963
0 1228 4095
0 1446 0
0 1446 150
0 1446 307
0 1446 472
0 1446 645
0 1446 830
0 1446 1026
0 1445 1231
0 1445 1445
0 1445 1662
0 1444 1877
0 1444 2085
0 1443 2283
0 1443 2471
0 1442 2647
0 1442 2814
0 1441 2973
0 1440 3125
0 1439 3272
0 1439 3415
0 1438 3555
0 1437 3692
0 1436 3828
0 1436 3962
0 1435 4095
0 1658 0
0 1658 151
0 1658 309
0 1658 474
0 1658 647
0 1658 831
0 1658 1026
0 1657 1230
0 1657 1441
0 1656 1656
0 1655 1869
0 1654 2075
0 1654 2273
0 1653 2459
0 1652 2636
0 1652 2803
0 1651 2962
0 1650 3116
0 1649 3264
0 1648 3408
0 1646 3549
0 1645 3688
0 1644 3824
0 1643 3960
0 1642 4095
0 1865 0
0 1865 152
0 1865 310
0 1865 476
0 1864 649
0 1864 833
0 1864 1026
0 1863 1228
0 1863 1437
0 1862 1650
0 1861 1861
0 1860 2065
0 1859 2262
0 1858 2447
0 1857 2623
0 1856 2791
0 1855 2951
0 1854 3105
0 1853 3255
0 1851 3400
0 1850 3542
0 1849 3683
0 1847 3821
0 1845 3958
0 1844 4095
0 2061 0
0 2061 153
0 2061 312
0 2061 477
0 2060 651
0 2060 834
0 2060 1026
0 2059 1226
0 2058 1434
0 2058 1644
0 2057 1853
0 2056 2056
0 2055 2250
0 2054 2436
0 2053 2611
0 2051 2779
0 2050 2940
0 2049 3095
0 2047 3245
0 2046 3392
0 2044 3536
0 2042 3678
0 2041 3818
0 2039 3957
0 2037 4095
0 2246 0
0 2246 154
0 2246 314
0 2246 479
0 2245 653
0 2245 835
0 2244 1025
0 2244 1225
0 2243 1430
0 2242 1638
0 2241 1845
0 2240 2046
0 2239 2239
0 2238 2424
0 2237 2599
0 2235 2767
0 2234 2928
0 2233 3084
0 2231 3236
0 2230 3384
0 2228 3529
0 2226 3673
0 2224 3814
0 2223 3955
0 2221 4095
0 2419 0
0 2420 155
0 2419 315
0 2419 481
0 2419 655
0 2418 836
0 2418 1025
0 2417 1223
0 2417 1426
0 2416 1632
0 2415 1837
0 2414 2036
0 2413 2228
0 2411 2411
0 2410 2587
0 2409 2755
0 2408 2917
0 2406 3073
0 2405 3226
0 2403 3376
0 2401 3522
0 2399 3667
0 2398 3811
0 2396 3953
0 2394 4095
0 2583 0
0 2583 156
0 2583 317
0 2583 483
0 2582 657
0 2582 837
0 2582 1025
0 2581 1221
0 2580 1422
0 2580 1626
0 2579 1829
0 2578 2026
0 2577 2217
0 2576 2399
0 2574 2574
0 2573 2743
0 2572 2905
0 2570 3063
0 2569 3217
0 2567 3367
0 2566 3516
0 2564 3662
0 2562 3807
0 2560 3951
0 2558 4095
0 2740 0
0 2740 157
0 2739 318
0 2739 485
0 2739 658
0 2739 838
0 2738 1025
0 2738 1219
0 2737 1418
0 2736 1620
0 2735 1820
0 2735 2016
0 2734 2205
0 2733 2387
0 2731 2562
0 2730 2730
0 2729 2893
0 2728 3052
0 2726 3207
0 2725 3359
0 2723 3509
0 2722 3657
0 2720 3804
0 2718 3950
0 2716 4095
0 2891 0
0 2891 158
0 2891 320
0 2891 487
0 2890 660
0 2890 839
0 2890 1025
0 2889 1217
0 2889 1414
0 2888 1614
0 2887 1812
0 2886 2006
0 2886 2194
0 2885 2375
0 2884 2549
0 2883 2718
0 2881 2881
0 2880 3041
0 2879 3197
0 2878 3350
0 2876 3502
0 2875 3651
0 2873 3800
0 2872 3948
1 2870 4095
0 3039 0
0 3039 159
0 3039 322
0 3039 489
0 3039 662
0 3038 840
0 3038 1025
0 3037 1216
0 3037 1411
0 3036 1608
0 3036 1804
0 3035 1996
0 3034 2182
0 3034 2363
0 3033 2537
0 3032 2705
0 3031 2869
0 3030 3030
0 3028 3187
0 3027 3342
0 3026 3494
0 3025 3646
0 3023 3796
0 3022 3946
0 3021 4095
0 3186 0
0 3186 160
0 3186 323
0 3186 491
0 3185 664
0 3185 841
0 3185 1025
0 3184 1214
0 3184 1407
0 3184 1602
0 3183 1795
0 3182 1986
0 3182 2171
0 3181 2350
0 3180 2524
0 3179 2693
0 3179 2857
0 3178 3018
0 3177 3177
0 3176 3333
0 3175 3487
0 3174 3640
0 3172 3793
0 3171 3944
0 3170 4095
0 3333 0
0 3332 161
0 3332 325
0 3332 493
0 3332 665
0 3332 842
0 3332 1025
0 3331 1212
0 3331 1403
0 3331 1595
0 3330 1787
0 3330 1975
0 3329 2159
0 3329 2338
0 3328 2511
0 3327 2680
0 3327 2845
0 3326 3007
0 3325 3167
0 3324 3324
0 3323 3480
0 3322 3635
0 3321 3789
0 3320 3942
0 3319 4095
0 3480 0
0 3480 162
0 3480 327
0 3480 495
0 3480 667
0 3480 843
0 3479 1025
0 3479 1210
0 3479 1399
0 3479 1589
0 3478 1779
0 3478 1965
0 3477 2148
0 3477 2326
0 3476 2499
0 3476 2668
0 3475 2833
0 3475 2996
0 3474 3157
0 3473 3315
0 3473 3473
0 3472 3629
0 3471 3785
0 3470 3940
0 3470 4095
0 3630 0
0 3630 163
0 3630 328
0 3629 497
0 3629 669
0 3629 845
0 3629 1025
0 3629 1208
0 3629 1395
0 3628 1583
0 3628 1770
0 3628 1955
0 3628 2136
0 3627 2313
0 3627 2486
0 3626 2655
0 3626 2821
0 3626 2985
0 3625 3146
0 3625 3307
0 3624 3465
0 3624 3624
0 3623 3781
0 3622 3938
1 3622 4095
0 3782 0
0 3782 164
0 3781 330
0 3781 499
0 3781 671
0 3781 846
0 3781 1025
0 3781 1207
0 3781 1391
0 3781 1577
0 3781 1762
0 3780 1945
0 3780 2125
0 3780 2301
0 3780 2473
0 3780 2642
0 3779 2809
0 3779 2973
0 3779 3136
0 3778 3298
0 3778 3458
0 3778 3618
0 3777 3777
0 3777 3936
0 3776 4095
0 3937 0
0 3937 165
0 3936 332
0 3936 501
0 3936 672
0 3936 847
0 3936 1024
0 3936 1205
0 3936 1387
0 3936 1571
0 3936 1754
0 3936 1935
0 3936 2113
0 3936 2288
0 3936 2460
0 3936 2630
0 3935 2797
0 3935 2962
0 3935 3126
0 3935 3289
0 3935 3451
0 3935 3612
0 3934 3773
0 3934 3934
0 3934 4095
0 4095 0
0 4095 166
0 4095 333
0 4095 503
0 4095 674
0 4095 848
0 4095 1024
0 4095 1203
0 4095 1383
0 4095 1565
0 4095 1745
0 4095 1925
0 4095 2101
0 4095 2276
0 4095 2447
0 4095 2617
0 4095 2784
0 4095 2951
0 4095 3116
1 4095 3280
0 4095 3443
0 4095 3607
0 4095 3770
1 4095 3932
0 4095 4095
141 0 0
143 0 143
141 0 292
141 0 456
144 0 631
144 0 827
145 0 1023
145 0 1241
145 0 1470
145 0 1694
146 0 1925
146 0 2138
146 0 2341
147 0 2534
147 0 2707
147 0 2874
148 0 3028
148 0 3174
148 0 3315
148 0 3452
149 0 3584
149 0 3714
149 0 3842
150 0 3969
150 0 4095
144 144 0
144 144 144
144 144 296
144 144 459
144 144 634
145 145 821
145 145 1025
145 145 1242
145 145 1470
146 146 1694
146 146 1919
146 146 2137
146 146 2340
147 147 2530
147 147 2706
147 147 2871
148 148 3027
148 148 3174
148 148 3315
149 149 3451
149 149 3584
149 149 3714
149 149 3842
150 150 3969
150 150 4095
145 297 0
145 296 145
145 297 297
145 298 462
145 298 637
145 298 824
145 298 1027
146 299 1240
146 299 1465
146 300 1693
146 300 1918
147 300 2135
147 301 2337
147 301 2527
147 302 2703
148 302 2868
148 303 3023
148 303 3171
148 304 3313
149 304 3449
149 305 3583
149 305 3713
150 306 3842
150 306 3968
150 307 4095
146 462 0
146 462 146
146 462 299
146 462 462
146 462 637
146 463 826
146 464 1027
146 463 1239
146 464 1463
147 464 1690
147 465 1913
147 465 2126
147 465 2331
148 466 2521
148 466 2697
148 467 2862
148 467 3018
149 468 3165
149 469 3308
149 469 3445
149 470 3579
150 470 3710
150 471 3840
150 471 3968
151 472 4095
147 638 0
147 638 147
147 638 301
147 638 464
147 639 639
147 640 826
147 640 1026
147 639 1238
147 640 1459
147 641 1684
148 641 1906
148 640 2119
148 642 2323
148 642 2512
148 642 2689
149 643 2854
149 643 3010
149 644 3160
149 644 3303
150 645 3441
150 644 3575
150 645 3707
150 645 3838
151 646 3967
149 646 4095
148 827 0
148 827 148
148 826 302
148 827 466
148 827 640
148 827 827
148 827 1026
148 827 1236
148 828 1456
148 827 1678
148 828 1900
149 828 2112
149 828 2313
149 828 2502
149 829 2678
149 828 2845
150 829 3002
150 829 3152
150 830 3296
150 830 3435
150 830 3571
151 831 3704
151 831 3836
151 831 3966
151 831 4095
148 1026 0
149 1026 149
149 1026 304
149 1026 468
149 1026 642
149 1026 828
149 1026 1026
149 1026 1235
149 1026 1452
149 1026 1674
149 1026 1892
149 1026 2103
150 1026 2304
150 1026 2492
150 1026 2669
150 1026 2835
150 1026 2993
150 1026 3143
151 1026 3289
151 1025 3429
151 1025 3566
151 1025 3701
152 1025 3833
152 1025 3965
152 1025 4095
149 1234 0
149 1234 149
149 1234 305
150 1234 470
150 1234 645
150 1233 829
150 1233 1026
150 1233 1233
150 1233 1448
150 1233 1667
150 1232 1884
150 1233 2094
150 1232 2293
151 1232 2481
151 1231 2658
151 1231 2825
151 1231 2983
151 1231 3134
151 1230 3280
152 1230 3423
152 1230 3561
152 1229 3697
152 1229 3831
152 1229 3963
153 1228 4095
150 1447 0
150 1446 150
150 1447 307
150 1446 472
151 1446 646
151 1446 830
151 1445 1026
151 1445 1231
151 1445 1445
151 1444 1662
151 1444 1877
151 1444 2085
151 1443 2283
151 1442 2470
152 1442 2647
152 1441 2814
152 1441 2973
152 1440 3125
152 1439 3272
152 1439 3415
153 1438 3555
153 1437 3692
153 1436 3828
153 1435 3962
153 1435 4095
151 1659 0
151 1659 151
151 1658 309
151 1658 474
151 1658 648
152 1658 831
152 1657 1026
152 1657 1230
152 1656 1441
152 1656 1656
152 1655 1869
152 1655 2075
152 1654 2272
152 1653 2459
152 1652 2635
153 1651 2802
153 1651 2962
153 1650 3115
153 1649 3264
153 1647 3408
153 1646 3549
153 1645 3688
154 1644 3825
154 1643 3960
154 1642 4095
152 1865 0
152 1865 152
152 1865 310
152 1865 476
152 1864 650
152 1864 833
153 1864 1026
153 1863 1228
153 1862 1437
153 1861 1650
153 1861 1861
153 1860 2066
153 1859 2261
153 1858 2447
153 1857 2623
153 1856 2791
154 1855 2951
154 1854 3105
154 1853 3254
154 1851 3400
154 1850 3542
154 1848 3683
154 1847 3821
155 1845 3959
155 1844 4095
