Examples/MaskToImage - Blue-Orange Toning.3dl
#25pt 3DLUT created by 3D LUT Creator Pro (c) Oleg Sharonov
#Copyright Oleg Sharonov
#IMAGEPROFILE sRGB IEC61966-2.1 v.2.10
#INPUTGAMMA sRGB IEC61966-2.1 v.2.10
#OUTPUTGAMMA sRGB IEC61966-2.1 v.2.10
0 256 512 768 1023
0 0 0
0 0 1051
0 0 2069
0 0 3084
0 0 4095
90 784 90
11 625 1143
5 604 2119
16 609 3113
87 650 4095
51 1728 51
31 1616 1225
34 1540 2204
104 1520 3173
257 1548 4095
63 2837 63
76 2801 1167
127 2749 2190
236 2715 3178
418 2713 4095
0 4095 0
0 4092 1070
0 4091 2084
0 4092 3091
0 4095 4095
1103 0 0
716 11 1112
604 5 2119
609 16 3113
650 87 4095
1129 916 0
744 709 1163
618 618 2161
630 630 3140
698 698 4095
726 1757 60
677 1642 1253
652 1557 2232
688 1534 3194
809 1569 4095
678 2863 80
680 2825 1181
705 2766 2207
786 2728 3192
951 2725 4095
650 4095 87
645 4095 1090
648 4095 2098
680 4095 3101
801 4095 4095
2113 0 0
2136 0 900
1653 33 2165
1520 104 3173
1548 257 4095
2134 922 0
2152 930 907
1670 700 2190
1534 688 3194
1569 809 4095
2149 1920 4
2158 1927 931
1698 1652 2226
1570 1570 3235
1628 1628 4095
1636 2899 136
1623 2864 1199
1609 2805 2230
1615 2757 3220
1720 2760 4095
1548 4095 257
1550 4095 1144
1563 4095 2135
1608 4095 3128
1730 4095 4095
3110 0 0
3122 0 906
3143 5 1906
2789 224 3150
2713 418 4095
3120 928 0
3130 934 910
3148 947 1910
2801 806 3163
2725 951 4095
3138 1934 0
3145 1939 920
3157 1951 1919
2827 1668 3188
2760 1720 4095
3134 2980 52
3138 2985 946
3146 2993 1939
2836 2807 3182
2804 2804 4095
2863 4095 346
2863 4095 1128
2868 4095 2099
2805 4095 3130
2826 4095 4095
4095 0 0
4095 33 925
4095 132 1922
4095 196 3003
4095 0 4095
4095 947 27
4095 957 933
4095 983 1927
4095 962 3008
4095 819 4095
4095 1950 109
4095 1956 957
4095 1971 1940
4095 1920 3020
4095 1762 4095
4095 3001 199
4095 3005 991
4095 3015 1960
4095 2973 3033
4095 2855 4095
4095 4095 0
4095 4095 959
4095 4095 1964
4095 4095 3022
4095 4095 4095
