Examples/Masks - Blue neutrals 2.3dl
#25pt 3DLUT created by 3D LUT Creator Pro (c) Oleg Sharonov
#Copyright Oleg Sharonov
0 256 512 768 1023
0 0 0
0 0 1024
0 0 2048
0 0 3071
0 0 4095
0 1024 0
0 1024 1024
0 1024 2048
0 1024 3071
0 1024 4095
0 2048 0
0 2048 1024
0 2048 2048
0 2048 3071
0 2048 4095
0 3071 0
0 3071 1024
0 3071 2048
0 3071 3071
0 3071 4095
0 4095 0
0 4095 1024
0 4095 2048
0 4095 3071
0 4095 4095
1024 0 0
1024 0 1024
1024 0 2048
1024 0 3071
1024 0 4095
1024 1024 0
948 1209 1292
1024 1024 2048
1024 1024 3071
1024 1024 4095
1024 2048 0
1024 2048 1024
1024 2048 2048
1024 2048 3071
1024 2048 4095
1024 3071 0
1024 3071 1024
1024 3071 2048
1024 3071 3071
1024 3071 4095
1024 4095 0
1024 4095 1024
1024 4095 2048
1024 4095 3071
1024 4095 4095
2048 0 0
2048 0 1024
2048 0 2048
2048 0 3071
2048 0 4095
2048 1024 0
2048 1024 1024
2048 1024 2048
2048 1024 3071
2048 1024 4095
2048 2048 0
2048 2048 1024
2264 2415 2464
2048 2048 3071
2048 2048 4095
2048 3071 0
2048 3071 1024
2048 3071 2048
2048 3071 3071
2048 3071 4095
2048 4095 0
2048 4095 1024
2048 4095 2048
2048 4095 3071
2048 4095 4095
3071 0 0
3071 0 1024
3071 0 2048
3071 0 3071
3071 0 4095
3071 1024 0
3071 1024 1024
3071 1024 2048
3071 1024 3071
3071 1024 4095
3071 2048 0
3071 2048 1024
3071 2048 2048
3071 2048 3071
3071 2048 4095
3071 3071 0
3071 3071 1024
3071 3071 2048
3268 3337 3358
3107 3119 4095
3071 4095 0
3071 4095 1024
3071 4095 2048
3107 4095 3123
3107 4095 4095
4095 0 0
4095 0 1024
4095 0 2048
4095 0 3071
4095 0 4095
4095 1024 0
4095 1024 1024
4095 1024 2048
4095 1024 3071
4095 1024 4095
4095 2048 0
4095 2048 1024
4095 2048 2048
4095 2048 3071
4095 2048 4095
4095 3071 0
4095 3071 1024
4095 3071 2048
4095 3119 3122
4095 3119 4095
4095 4095 0
4095 4095 1024
4095 4095 2048
4095 4095 3122
4095 4095 4095
