Examples/Masks fit - Orange.3dl
#25pt 3DLUT created by 3D LUT Creator Pro (c) Oleg Sharonov
#Copyright Oleg Sharonov
0 256 512 768 1023
0 0 0
283 152 707
1129 658 797
2078 1244 778
3027 1834 760
248 884 0
348 947 822
1179 1146 813
2119 1565 794
3063 2066 776
1040 1518 0
1113 1581 452
1370 1768 1315
2181 2027 1404
3181 2422 746
2088 2044 0
2105 2112 296
2156 2318 1114
2554 2566 1745
3302 2866 1763
3138 2578 0
3141 2637 211
3215 2791 395
3229 3092 1817
3316 3380 2216
1020 48 0
1052 171 874
1535 680 918
2343 1260 863
3223 1844 826
1032 994 61
1024 1024 1024
1318 1146 1664
2194 1574 1462
3165 2104 865
1335 1785 0
1312 1845 916
1450 1927 1767
2227 2088 1924
3214 2452 1536
2191 2268 0
2226 2304 396
2204 2498 1489
2571 2678 2100
3353 2927 2144
3207 2735 0
3219 2780 262
3287 2909 480
3231 3215 2110
3364 3462 2488
2032 242 0
2028 434 658
2154 721 1492
2682 1333 1553
3503 1981 857
2046 1031 0
2042 1063 982
2092 1192 1853
2553 1616 2060
3404 2174 1627
2083 1923 309
2059 2009 1068
2048 2048 2048
2350 2163 2677
3207 2537 2576
2450 2651 164
2414 2717 1001
2355 2843 1965
2532 2925 2747
3321 3072 2887
3336 3041 0
3369 3055 342
3288 3234 1541
3288 3454 2522
3404 3652 3055
3035 603 0
3020 807 544
3040 1124 1320
3291 1553 1925
3838 2110 1933
3060 1136 0
3044 1269 708
3052 1393 1725
3226 1753 2328
3778 2306 2322
3071 2043 43
3071 2048 1023
3066 2078 2021
3126 2222 2852
3614 2636 3023
3156 2771 790
3115 2918 1253
3085 3025 2091
3071 3071 3071
3394 3189 3674
3651 3374 723
3545 3533 1251
3485 3673 2062
3405 3841 2991
3468 3945 3772
4028 1147 0
4013 1322 425
4020 1688 653
4063 1946 1992
4095 2393 2367
4063 1394 0
4046 1557 605
4026 1943 812
4051 2074 2341
4095 2538 2670
4089 2092 0
4077 2188 728
4068 2236 1832
4075 2401 2766
4095 2789 3250
4095 2984 448
4095 3044 1094
4095 3071 2048
4089 3100 3048
4095 3252 3858
4095 3564 1440
4095 3740 1648
4095 3918 2256
4095 4044 3115
4095 4095 4095
