Examples/Masked Alt - Double Camera Calibration.3dl
#25pt 3DLUT created by 3D LUT Creator Pro (c) Oleg Sharonov
#Copyright Oleg Sharonov
#IMAGEPROFILE sRGB IEC61966-2.1 v.2.10
#INPUTGAMMA sRGB IEC61966-2.1 v.2.10
#OUTPUTGAMMA sRGB IEC61966-2.1 v.2.10
0 43 86 128 171 214 256 299 341 384 427 469 512 555 597 640 682 725 768 810 853 896 938 981 1023 
0 0 0
0 55 165
0 129 330
0 230 494
0 336 661
0 443 830
0 547 994
0 653 1161
0 758 1329
0 861 1495
0 953 1671
0 1044 1848
0 1131 2025
0 1215 2203
0 1295 2378
0 1371 2551
0 1443 2721
0 1509 2887
0 1570 3047
0 1625 3200
0 1674 3346
0 1719 3488
0 1760 3627
0 1800 3762
1 1843 3849
0 177 0
0 177 201
0 235 358
0 310 516
0 398 679
0 490 842
0 588 1006
0 687 1171
0 788 1336
0 881 1508
0 972 1684
0 1060 1859
0 1145 2035
0 1228 2211
0 1308 2387
0 1383 2559
0 1454 2729
0 1519 2894
0 1580 3054
0 1634 3207
0 1683 3353
0 1728 3494
0 1768 3632
0 1808 3767
0 1851 3853
0 345 0
0 328 228
0 354 384
0 404 541
0 474 698
0 552 859
0 639 1020
0 727 1188
0 815 1359
0 903 1531
0 990 1705
0 1075 1880
0 1159 2056
0 1240 2231
0 1317 2406
0 1391 2578
0 1461 2747
0 1526 2911
0 1585 3070
0 1639 3222
0 1688 3368
0 1732 3508
0 1772 3646
1 1812 3780
0 1854 3863
0 516 0
0 493 245
0 499 412
0 527 570
0 575 730
0 635 890
0 706 1055
0 781 1221
0 859 1391
0 940 1562
0 1022 1736
0 1102 1911
0 1181 2085
0 1259 2261
0 1334 2435
0 1405 2606
0 1473 2774
0 1536 2938
0 1594 3096
0 1647 3247
0 1695 3392
0 1738 3531
0 1778 3668
2 1817 3800
0 1859 3879
0 685 0
0 663 255
0 658 433
0 670 600
0 698 762
0 743 926
0 798 1091
0 860 1259
0 927 1428
0 998 1599
0 1071 1773
0 1144 1947
0 1218 2121
0 1290 2296
0 1361 2470
0 1429 2641
0 1494 2809
0 1554 2972
0 1610 3129
0 1661 3279
0 1708 3422
0 1750 3561
0 1788 3696
0 1826 3827
2 1867 3900
0 849 0
0 832 260
0 824 447
0 827 623
0 843 792
0 872 959
0 912 1126
0 961 1294
0 1017 1466
0 1076 1638
0 1140 1811
0 1205 1987
0 1272 2161
0 1338 2337
0 1403 2509
0 1466 2681
0 1526 2848
0 1583 3010
0 1637 3167
0 1685 3316
0 1729 3459
0 1769 3596
0 1806 3730
0 1843 3859
0 1882 3924
0 1012 0
0 1000 261
0 991 455
0 989 638
0 996 813
0 1015 986
0 1043 1157
0 1080 1328
0 1125 1501
0 1174 1676
0 1228 1851
0 1285 2027
0 1343 2202
0 1402 2378
0 1460 2552
0 1518 2723
0 1573 2890
0 1626 3052
0 1675 3208
0 1720 3357
0 1762 3499
0 1799 3635
0 1834 3767
2 1869 3895
0 1905 3952
0 1173 0
0 1165 260
0 1157 457
0 1153 647
0 1155 829
0 1166 1007
0 1187 1183
0 1214 1359
0 1249 1534
0 1289 1711
0 1333 1888
0 1381 2066
0 1431 2243
0 1483 2420
0 1534 2594
0 1586 2766
0 1635 2934
0 1683 3096
0 1728 3252
0 1769 3401
0 1807 3541
0 1842 3676
0 1874 3808
0 1906 3934
0 1940 3981
0 1333 0
0 1327 258
0 1321 459
0 1317 652
0 1317 840
0 1324 1023
0 1338 1204
0 1358 1384
0 1384 1563
0 1416 1742
0 1453 1922
0 1492 2102
0 1535 2282
0 1579 2460
0 1624 2636
0 1669 2809
0 1712 2977
0 1755 3140
0 1795 3296
0 1832 3444
0 1866 3585
0 1897 3719
0 1926 3850
0 1955 3974
0 1986 4012
0 1490 0
0 1486 255
0 1483 457
0 1480 653
0 1479 845
0 1484 1033
0 1494 1219
0 1509 1403
0 1529 1586
0 1555 1770
0 1584 1953
0 1617 2136
0 1652 2317
0 1689 2498
0 1727 2676
0 1766 2850
0 1804 3020
0 1841 3184
0 1876 3340
0 1909 3488
0 1939 3628
0 1966 3761
0 1992 3892
3 2017 4014
0 2045 4042
0 1646 0
0 1644 251
0 1642 454
0 1641 651
0 1641 847
0 1644 1038
0 1652 1229
0 1663 1417
0 1680 1605
0 1700 1792
0 1724 1979
0 1750 2164
0 1779 2349
0 1811 2532
0 1843 2712
0 1875 2889
0 1908 3060
0 1940 3225
0 1970 3381
0 1998 3530
0 2024 3670
0 2048 3803
0 2070 3933
3 2092 4054
0 2116 4071
0 1800 0
0 1799 247
0 1799 449
0 1799 648
0 1800 845
0 1804 1040
0 1811 1234
0 1821 1426
0 1834 1618
0 1851 1809
0 1870 1999
0 1892 2188
0 1916 2376
0 1942 2562
0 1969 2745
0 1996 2923
0 2024 3097
0 2051 3263
0 2077 3420
0 2100 3570
0 2122 3710
0 2142 3843
0 2161 3972
0 2179 4092
0 2205 4095
0 1952 0
0 1953 243
0 1954 444
0 1955 643
0 1958 842
0 1963 1039
0 1970 1236
0 1979 1431
0 1990 1626
0 2004 1821
0 2021 2015
0 2040 2207
0 2060 2399
0 2081 2588
0 2104 2773
0 2127 2955
0 2150 3129
0 2172 3297
0 2194 3455
0 2218 3599
0 2240 3734
0 2261 3860
0 2283 3982
0 2305 4095
3 2331 4095
0 2102 0
0 2104 239
0 2106 438
0 2109 637
0 2113 836
0 2119 1035
0 2127 1234
0 2136 1432
0 2148 1631
0 2161 1828
0 2175 2024
0 2191 2219
0 2209 2411
0 2228 2600
0 2249 2785
0 2270 2964
0 2291 3137
0 2313 3301
0 2335 3455
0 2356 3599
0 2377 3734
0 2397 3860
0 2417 3983
0 2438 4095
0 2461 4095
0 2262 0
0 2263 238
0 2265 437
0 2269 635
0 2273 835
0 2279 1035
0 2287 1234
0 2295 1432
0 2305 1631
0 2317 1828
0 2331 2024
0 2346 2219
0 2362 2411
0 2379 2600
0 2398 2785
0 2418 2964
0 2438 3136
0 2458 3300
0 2478 3455
0 2498 3599
0 2517 3734
0 2535 3860
0 2554 3983
0 2573 4095
0 2596 4095
0 2424 0
0 2425 238
0 2427 437
0 2430 635
0 2435 835
0 2440 1034
0 2447 1234
0 2455 1432
0 2464 1630
0 2475 1828
0 2487 2024
0 2501 2219
0 2516 2411
0 2532 2600
0 2550 2785
0 2568 2964
0 2586 3136
0 2605 3300
0 2624 3455
0 2642 3599
0 2660 3734
0 2677 3860
0 2694 3982
0 2713 4095
0 2733 4095
0 2586 0
0 2587 238
0 2589 437
0 2592 635
0 2596 835
0 2601 1035
0 2607 1234
0 2615 1432
0 2623 1630
0 2633 1828
0 2645 2024
0 2658 2219
0 2671 2411
0 2686 2600
0 2702 2785
0 2719 2964
0 2736 3136
0 2754 3300
0 2771 3455
0 2788 3599
0 2805 3734
0 2821 3860
0 2837 3983
0 2854 4095
0 2874 4095
0 2749 0
0 2750 238
0 2751 437
0 2754 635
0 2757 835
0 2762 1034
0 2768 1234
0 2775 1432
0 2783 1631
0 2792 1828
0 2803 2024
0 2815 2219
0 2828 2411
0 2841 2600
0 2856 2785
0 2872 2964
0 2888 3137
0 2904 3300
0 2920 3455
0 2936 3599
0 2952 3734
0 2967 3860
0 2982 3983
0 2998 4095
3 3017 4095
0 2911 0
0 2912 238
0 2914 437
0 2916 635
0 2919 835
0 2924 1034
0 2929 1234
0 2935 1432
0 2943 1630
0 2952 1828
0 2961 2024
0 2972 2219
0 2984 2411
0 2997 2600
0 3011 2785
0 3026 2964
0 3041 3137
0 3056 3300
0 3071 3455
0 3086 3599
0 3100 3734
0 3115 3860
0 3129 3983
0 3144 4095
3 3161 4095
0 3073 0
0 3074 238
0 3076 437
0 3078 636
0 3081 835
0 3085 1035
0 3090 1234
0 3096 1432
0 3103 1631
0 3111 1828
0 3120 2024
0 3131 2219
0 3142 2411
0 3154 2600
0 3167 2785
0 3180 2964
0 3194 3136
0 3209 3300
0 3223 3455
0 3237 3599
0 3251 3734
0 3264 3860
0 3278 3983
0 3292 4095
0 3308 4095
0 3236 0
0 3237 238
0 3238 437
0 3240 636
0 3243 835
0 3247 1035
0 3251 1234
0 3257 1432
0 3263 1630
0 3271 1828
0 3280 2024
0 3289 2219
0 3300 2411
0 3311 2600
0 3323 2785
0 3336 2964
0 3350 3136
0 3363 3300
0 3376 3455
0 3389 3599
0 3402 3734
0 3415 3860
0 3428 3983
0 3441 4095
0 3456 4095
0 3398 0
0 3399 238
0 3400 437
0 3402 636
0 3405 835
0 3408 1035
0 3413 1234
0 3418 1432
0 3424 1631
0 3431 1828
0 3439 2024
0 3448 2219
0 3458 2411
0 3469 2600
0 3480 2785
0 3492 2964
0 3505 3136
0 3517 3300
0 3530 3455
0 3543 3599
0 3555 3734
0 3567 3860
0 3579 3982
0 3591 4095
0 3606 4095
0 3560 0
0 3561 238
0 3562 437
0 3564 636
0 3567 835
0 3570 1035
0 3574 1234
0 3579 1432
0 3585 1631
0 3592 1828
0 3599 2024
0 3607 2219
0 3617 2411
0 3627 2600
0 3638 2785
0 3649 2964
0 3661 3136
0 3673 3300
0 3685 3455
0 3697 3599
0 3708 3734
0 3719 3860
0 3731 3983
0 3743 4095
0 3756 4095
0 3723 0
0 3723 238
0 3725 437
0 3726 636
0 3729 835
0 3732 1035
0 3736 1234
0 3740 1432
0 3746 1631
0 3752 1828
0 3759 2024
0 3767 2219
0 3776 2411
0 3786 2600
0 3796 2785
0 3807 2964
0 3818 3136
0 3829 3300
0 3840 3455
0 3852 3599
0 3862 3734
0 3873 3860
0 3884 3983
0 3895 4095
0 3908 4095
0 3885 0
0 3886 238
0 3887 437
0 3888 636
0 3891 835
0 3893 1035
0 3897 1234
0 3901 1432
0 3907 1630
0 3913 1828
0 3920 2024
0 3927 2219
0 3936 2411
0 3945 2600
0 3954 2785
0 3964 2964
0 3975 3136
0 3986 3300
0 3997 3455
0 4007 3599
0 4017 3734
0 4028 3860
0 4038 3983
0 4049 4095
0 4061 4095
152 0 0
113 6 217
3 45 423
0 180 542
0 308 696
0 420 855
0 531 1015
0 640 1178
0 746 1341
0 849 1509
0 944 1683
0 1035 1859
0 1123 2035
0 1208 2211
0 1289 2386
0 1365 2558
0 1437 2728
0 1504 2893
0 1565 3052
0 1620 3205
0 1670 3351
0 1715 3492
0 1756 3630
0 1796 3765
0 1839 3852
177 145 0
110 180 214
3 214 417
0 287 558
0 377 710
0 475 866
0 573 1025
0 674 1186
0 776 1349
0 871 1521
0 962 1695
0 1052 1869
0 1139 2045
0 1222 2220
0 1302 2394
0 1378 2566
0 1448 2735
0 1515 2900
0 1575 3059
0 1630 3211
0 1679 3357
0 1724 3498
0 1765 3635
0 1805 3770
0 1848 3856
189 322 0
113 351 214
3 372 419
0 401 572
0 464 725
0 542 880
0 627 1039
0 715 1204
0 805 1373
0 894 1543
0 982 1715
0 1068 1890
0 1152 2065
0 1233 2239
0 1312 2412
0 1386 2584
0 1456 2753
0 1521 2917
0 1581 3075
0 1635 3227
0 1684 3372
0 1728 3512
0 1769 3649
0 1809 3783
0 1851 3866
194 498 0
110 520 215
4 535 419
0 538 591
0 574 749
0 631 909
0 700 1071
0 774 1235
0 853 1403
0 934 1574
0 1015 1746
0 1096 1919
0 1176 2093
0 1254 2267
0 1329 2441
0 1401 2612
0 1469 2779
0 1532 2943
0 1590 3100
0 1643 3251
0 1691 3396
0 1735 3534
0 1775 3671
0 1814 3804
0 1856 3882
193 671 0
112 687 218
7 697 420
0 690 608
0 707 775
0 744 939
0 795 1103
0 856 1269
0 923 1438
0 994 1608
0 1066 1780
0 1140 1954
0 1214 2129
0 1286 2303
0 1357 2475
0 1425 2646
0 1490 2813
0 1551 2976
0 1607 3132
0 1658 3283
0 1704 3426
0 1747 3564
0 1786 3699
0 1824 3830
0 1864 3902
191 839 0
108 851 217
10 860 421
0 847 620
0 853 797
0 876 967
0 913 1135
0 960 1303
0 1014 1473
0 1074 1645
0 1137 1819
0 1202 1992
0 1269 2167
0 1334 2342
0 1400 2515
0 1463 2685
0 1523 2852
0 1580 3014
0 1634 3170
0 1683 3320
0 1727 3462
0 1767 3599
0 1804 3733
0 1841 3862
0 1879 3926
186 1005 0
110 1014 218
13 1021 423
0 1009 628
0 1008 814
0 1021 990
0 1046 1163
0 1082 1335
0 1125 1507
0 1174 1682
0 1227 1856
0 1283 2032
0 1341 2207
0 1400 2382
0 1458 2556
0 1516 2727
0 1571 2894
0 1624 3056
0 1673 3211
0 1718 3360
0 1760 3502
0 1797 3637
0 1832 3770
0 1867 3898
0 1904 3954
184 1168 0
109 1176 220
16 1181 424
0 1171 633
0 1168 825
0 1174 1008
0 1191 1186
0 1217 1362
0 1250 1538
0 1289 1715
0 1333 1892
0 1380 2069
0 1430 2246
0 1481 2423
0 1533 2597
0 1584 2769
0 1634 2937
0 1681 3099
0 1726 3254
0 1767 3403
0 1806 3544
0 1840 3678
0 1872 3810
0 1904 3936
0 1938 3983
179 1329 0
108 1335 221
20 1339 425
0 1331 636
0 1328 833
0 1331 1021
0 1343 1205
0 1361 1385
0 1387 1566
0 1417 1745
0 1453 1925
0 1493 2105
0 1534 2284
0 1578 2462
0 1623 2638
0 1667 2811
0 1712 2980
0 1754 3142
0 1794 3298
0 1831 3446
0 1865 3586
0 1896 3720
0 1925 3851
2 1954 3976
3 1985 4013
174 1487 0
107 1493 222
23 1496 426
0 1491 638
0 1488 837
0 1490 1030
0 1498 1218
0 1512 1404
0 1531 1587
0 1556 1771
0 1584 1954
0 1617 2137
0 1652 2319
0 1689 2499
0 1726 2677
0 1765 2852
0 1803 3022
0 1840 3185
0 1875 3341
0 1908 3489
0 1938 3629
0 1965 3762
0 1991 3893
0 2016 4016
0 2044 4043
170 1644 0
106 1648 224
26 1651 427
0 1649 638
0 1647 839
0 1649 1035
0 1655 1227
0 1667 1416
0 1682 1605
0 1701 1793
0 1724 1979
0 1751 2165
0 1780 2350
0 1811 2533
0 1843 2713
0 1875 2889
0 1908 3061
0 1940 3225
0 1970 3382
0 1998 3531
0 2024 3671
0 2047 3804
0 2070 3933
3 2092 4055
0 2116 4072
