Examples/Masks - Channels - Anti green.3dl
#25pt 3DLUT created by 3D LUT Creator Pro (c) Oleg Sharonov
#Copyright Oleg Sharonov
0 43 86 128 171 214 256 299 341 384 427 469 512 555 597 640 682 725 768 810 853 896 938 981 1023 
0 0 0
0 0 141
0 0 282
0 0 423
0 0 564
0 0 705
0 0 845
0 0 986
0 0 1127
0 0 1268
0 0 1409
0 0 1550
0 0 1691
0 0 1832
0 0 1973
0 0 2114
0 0 2254
0 0 2395
0 0 2536
0 0 2677
0 0 2818
0 0 2959
0 0 3100
0 0 3241
0 0 3382
13 255 291
6 181 206
2 148 285
0 134 403
0 137 547
0 138 691
0 139 834
0 140 977
0 140 1119
0 140 1261
0 140 1402
0 140 1544
0 140 1685
0 141 1827
0 141 1968
0 141 2109
0 141 2251
0 141 2392
0 141 2533
0 141 2674
0 141 2815
0 141 2956
0 141 3097
0 141 3238
0 141 3379
32 460 513
28 422 473
15 358 392
5 320 462
5 273 549
0 269 673
0 273 819
0 275 963
0 277 1107
0 278 1251
0 279 1393
0 279 1536
0 280 1678
0 280 1820
0 280 1962
0 281 2104
0 281 2245
0 281 2387
0 281 2528
0 281 2670
0 281 2811
0 281 2952
0 281 3094
0 281 3235
0 281 3376
58 664 735
55 641 712
47 596 646
28 533 578
13 493 635
8 456 736
4 398 795
0 404 943
0 409 1090
0 412 1235
0 414 1380
0 415 1523
0 417 1667
0 418 1810
0 418 1953
0 419 2095
0 420 2237
0 420 2380
0 420 2522
0 421 2663
0 421 2805
0 421 2947
0 421 3088
0 421 3230
0 421 3371
97 871 957
94 853 940
90 827 916
75 772 824
47 708 764
25 666 811
16 635 915
15 579 1000
0 533 1065
0 539 1214
0 544 1360
0 548 1506
0 550 1651
0 553 1796
0 554 1940
0 556 2083
0 557 2226
0 557 2369
0 558 2512
0 559 2654
0 559 2797
0 560 2939
0 560 3081
0 561 3223
0 561 3365
145 1077 1180
142 1063 1167
139 1043 1147
135 1012 1115
106 947 1004
72 884 950
42 840 990
26 811 1093
20 768 1187
27 676 1251
0 668 1336
0 675 1484
0 680 1631
0 684 1777
0 687 1923
0 689 2068
0 691 2212
0 693 2356
0 694 2500
0 696 2643
0 696 2786
0 697 2929
0 698 3071
0 699 3214
0 699 3356
203 1283 1402
201 1272 1391
201 1256 1376
195 1231 1352
180 1187 1288
145 1122 1185
102 1059 1136
66 1015 1170
42 983 1265
32 948 1367
31 891 1452
21 794 1465
0 803 1606
0 810 1755
0 815 1902
0 819 2048
0 823 2194
0 826 2339
0 828 2484
0 830 2628
0 832 2772
0 833 2916
0 834 3059
0 835 3202
0 836 3345
262 1489 1624
262 1480 1615
260 1466 1602
255 1446 1583
250 1417 1556
225 1363 1463
183 1297 1367
134 1235 1322
93 1189 1352
62 1156 1438
46 1125 1546
38 1080 1638
48 1000 1709
0 930 1727
0 938 1876
0 945 2025
0 951 2173
0 955 2319
0 959 2465
0 962 2611
0 965 2756
0 967 2900
0 969 3045
0 970 3189
0 972 3332
322 1696 1847
320 1687 1839
318 1676 1828
316 1659 1811
312 1634 1788
306 1602 1757
266 1538 1639
218 1472 1550
166 1410 1507
119 1364 1534
85 1329 1613
62 1301 1724
53 1260 1819
53 1203 1904
64 1071 1953
0 1065 1997
0 1073 2147
0 1080 2296
0 1086 2443
0 1091 2590
0 1095 2736
0 1098 2882
0 1101 3027
0 1103 3172
0 1106 3317
379 1902 2069
379 1894 2062
377 1885 2053
374 1870 2038
370 1849 2018
367 1821 1992
350 1778 1929
305 1713 1817
254 1647 1733
197 1586 1694
148 1538 1717
109 1502 1790
81 1474 1897
68 1439 1998
60 1391 2090
70 1317 2163
53 1191 2153
0 1201 2268
0 1209 2417
0 1216 2566
0 1221 2714
0 1226 2861
0 1230 3007
0 1234 3153
0 1237 3299
439 2107 2291
437 2101 2285
436 2093 2277
434 2080 2265
431 2061 2247
427 2037 2224
422 2007 2195
392 1954 2104
344 1888 1996
289 1822 1917
230 1762 1879
176 1713 1900
135 1676 1968
102 1646 2069
84 1615 2177
75 1573 2271
75 1515 2355
86 1414 2415
0 1327 2388
0 1336 2538
0 1344 2688
0 1351 2837
0 1357 2984
0 1362 3132
0 1366 3278
497 2314 2514
496 2308 2508
494 2301 2501
493 2289 2490
490 2273 2474
486 2251 2454
482 2224 2428
477 2191 2397
433 2129 2279
381 2063 2175
324 1997 2101
262 1937 2065
205 1888 2084
161 1850 2147
125 1819 2242
101 1791 2355
91 1752 2450
82 1702 2541
92 1632 2616
102 1464 2651
0 1462 2659
0 1471 2809
0 1479 2958
0 1486 3107
0 1492 3255
556 2520 2736
554 2515 2731
554 2508 2724
552 2498 2715
550 2483 2701
547 2464 2683
542 2440 2660
538 2411 2632
521 2368 2572
473 2304 2455
418 2238 2356
358 2173 2285
293 2113 2251
234 2063 2268
188 2024 2327
149 1991 2417
119 1965 2530
106 1929 2629
97 1885 2722
97 1827 2807
108 1737 2871
87 1588 2849
0 1598 2929
0 1607 3080
0 1614 3229
614 2726 2958
614 2721 2954
613 2715 2948
611 2706 2939
609 2693 2927
606 2676 2910
603 2654 2890
599 2627 2864
593 2596 2834
562 2544 2745
511 2479 2632
454 2413 2538
393 2348 2470
325 2288 2437
264 2238 2452
215 2198 2508
174 2165 2592
141 2137 2701
123 2105 2808
113 2064 2902
104 2014 2993
114 1945 3069
124 1822 3119
37 1723 3049
0 1733 3200
673 2932 3180
672 2928 3176
671 2922 3171
670 2914 3163
668 2902 3152
665 2886 3137
662 2867 3118
658 2843 3095
654 2814 3068
648 2780 3036
602 2720 2919
548 2654 2809
490 2588 2719
426 2523 2654
357 2464 2623
294 2413 2636
243 2373 2689
199 2338 2769
164 2309 2873
139 2281 2986
128 2242 3081
119 2196 3174
119 2138 3258
130 2055 3326
138 1855 3348
732 3138 3403
731 3134 3399
730 3129 3394
729 3121 3387
727 3111 3376
725 3096 3363
722 3078 3346
718 3057 3325
714 3031 3300
709 3000 3271
692 2958 3214
642 2895 3094
586 2829 2988
525 2763 2901
460 2699 2839
389 2639 2809
324 2589 2821
271 2547 2871
225 2511 2947
188 2481 3046
156 2456 3163
145 2419 3260
135 2377 3354
126 2325 3444
136 2258 3521
790 3344 3625
790 3341 3622
789 3336 3617
788 3329 3610
786 3319 3601
784 3306 3588
782 3290 3573
778 3269 3554
774 3246 3531
770 3218 3504
765 3185 3473
734 3134 3387
681 3070 3270
623 3004 3167
560 2938 3083
493 2874 3024
422 2815 2995
355 2764 3006
299 2722 3054
252 2685 3125
212 2654 3220
179 2628 3333
161 2596 3438
151 2555 3534
141 2508 3625
849 3550 3847
849 3547 3844
848 3543 3840
846 3536 3834
845 3527 3825
843 3515 3814
841 3500 3799
838 3481 3782
834 3459 3761
830 3434 3736
825 3404 3708
819 3370 3675
773 3310 3560
719 3245 3447
659 3179 3347
595 3113 3266
526 3049 3209
454 2990 3181
385 2939 3190
328 2897 3236
280 2859 3305
238 2827 3395
202 2800 3504
178 2771 3616
167 2733 3712
907 3756 4070
907 3753 4067
906 3749 4063
906 3743 4057
904 3735 4049
902 3723 4038
901 3709 4025
897 3692 4009
894 3672 3989
890 3648 3967
885 3621 3940
880 3589 3911
865 3548 3856
813 3485 3735
756 3420 3624
695 3354 3527
629 3288 3449
559 3225 3394
486 3166 3367
416 3114 3375
358 3071 3418
307 3033 3484
263 3000 3572
226 2972 3676
194 2946 3794
967 3962 4095
965 3960 4095
965 3956 4095
965 3950 4095
963 3942 4095
961 3932 4095
959 3919 4095
955 3903 4095
953 3884 4095
949 3862 4095
946 3837 4095
940 3807 4095
936 3775 4095
906 3725 4029
852 3661 3910
793 3595 3802
730 3529 3708
663 3463 3633
592 3400 3579
517 3341 3553
447 3290 3560
387 3246 3601
335 3208 3665
290 3174 3748
250 3145 3850
1024 4095 4095
1024 4095 4095
1024 4095 4095
1024 4095 4095
1021 4095 4095
1021 4095 4095
1018 4095 4095
1015 4095 4095
1012 4095 4095
1010 4075 4095
1007 4051 4095
1002 4024 4095
996 3994 4095
990 3959 4095
946 3900 4027
889 3836 3956
829 3770 3897
766 3704 3850
698 3639 3816
625 3576 3764
549 3517 3738
478 3465 3745
417 3421 3784
363 3382 3846
316 3347 3926
1083 4095 4095
1083 4095 4095
1083 4095 4095
1081 4095 4095
1081 4095 4095
1078 4095 4095
1078 4095 4095
1075 4095 4095
1073 4095 4095
1070 4095 4095
1064 4095 4095
1061 4095 4095
1055 4095 4095
1053 4095 4095
1038 4091 4081
983 4068 4013
926 4011 3955
866 3945 3909
800 3879 3877
732 3814 3860
658 3751 3862
582 3692 3884
509 3640 3930
446 3596 3967
392 3556 4027
1142 4095 4095
1142 4095 4095
1142 4095 4095
1139 4095 4095
1139 4095 4095
1137 4095 4095
1137 4095 4095
1134 4095 4095
1132 4095 4095
1129 4095 4095
1124 4095 4095
1121 4095 4095
1116 4095 4095
1113 4095 4095
1108 4095 4095
1077 4088 4062
1023 4073 4006
963 4056 3960
902 4039 3926
836 4020 3907
764 3989 3904
691 3926 3919
614 3868 3954
540 3816 4014
476 3771 4095
1200 4095 4095
1200 4095 4095
1200 4095 4095
1200 4095 4095
1197 4095 4095
1197 4095 4095
1195 4095 4095
1193 4095 4095
1190 4095 4095
1188 4095 4095
1185 4095 4095
1180 4095 4095
1178 4095 4095
1173 4095 4095
1168 4095 4095
1163 4095 4095
1116 4089 4049
1061 4082 4003
1001 4074 3968
937 4065 3946
870 4056 3939
797 4046 3949
724 4036 3977
645 4025 4025
571 3991 4095
1259 4095 4095
1259 4095 4095
1259 4095 4095
1257 4095 4095
1257 4095 4095
1254 4095 4095
1254 4095 4095
1252 4095 4095
1250 4095 4095
1248 4095 4095
1245 4095 4095
1241 4095 4095
1236 4095 4095
1234 4095 4095
1229 4095 4095
1221 4095 4095
1210 4095 4087
1155 4095 4041
1099 4095 4005
1038 4095 3981
973 4095 3971
903 4095 3975
832 4095 3996
757 4095 4035
678 4095 4095
171 0 0
171 0 171
153 0 307
148 0 443
145 0 580
144 0 718
143 0 857
142 0 996
142 0 1136
142 0 1276
142 0 1416
141 0 1556
141 0 1696
141 0 1837
141 0 1977
141 0 2118
141 0 2258
141 0 2399
141 0 2540
141 0 2680
141 0 2821
141 0 2962
141 0 3102
141 0 3243
141 0 3384
165 240 243
171 171 171
172 150 288
154 141 423
141 141 564
141 141 705
141 141 845
141 141 986
141 141 1127
141 141 1268
141 141 1409
141 141 1550
141 141 1691
141 141 1832
141 141 1973
141 141 2114
141 141 2254
141 141 2395
141 141 2536
141 141 2677
141 141 2818
141 141 2959
141 141 3100
141 141 3241
141 141 3382
152 455 493
158 419 457
169 352 375
173 318 456
176 273 542
137 274 684
138 276 829
139 278 972
139 279 1115
140 279 1258
140 280 1400
140 280 1542
140 281 1683
140 281 1825
140 281 1966
141 281 2108
141 281 2249
141 281 2390
141 281 2532
141 281 2673
141 281 2814
141 281 2955
141 281 3096
141 282 3237
141 282 3378
136 667 730
142 643 706
152 605 669
167 532 571
173 494 635
177 455 730
167 402 804
136 408 951
137 411 1097
138 414 1242
139 416 1386
139 417 1529
139 418 1672
140 419 1815
140 419 1957
140 420 2099
140 420 2241
140 421 2383
140 421 2525
140 421 2666
140 421 2808
140 421 2950
140 421 3091
141 422 3232
141 422 3374
161 874 955
158 856 938
155 831 914
154 779 839
163 710 763
174 667 810
179 634 913
184 576 994
144 536 1072
136 542 1220
137 546 1366
137 550 1512
138 552 1656
138 554 1800
139 555 1944
139 557 2087
139 558 2230
140 558 2373
140 559 2515
140 559 2657
140 560 2800
140 560 2942
140 561 3084
140 561 3225
140 561 3367
206 1080 1179
203 1066 1166
201 1046 1145
198 1015 1117
189 951 1011
180 885 949
173 841 991
180 811 1092
186 767 1184
193 673 1242
134 670 1341
135 677 1489
136 682 1636
137 685 1782
138 688 1927
138 691 2072
138 692 2216
139 694 2359
139 695 2503
139 696 2646
139 697 2789
140 698 2931
140 699 3074
140 699 3216
140 700 3358
255 1285 1401
252 1274 1390
250 1258 1375
248 1233 1351
241 1194 1302
225 1125 1190
206 1060 1135
191 1015 1170
181 985 1269
188 948 1366
196 890 1449
179 797 1462
134 805 1610
135 812 1759
136 817 1906
137 821 2052
137 824 2198
138 827 2343
138 829 2487
138 831 2631
139 833 2775
139 834 2919
139 835 3062
139 836 3205
139 837 3348
306 1491 1623
304 1481 1614
304 1468 1602
299 1447 1582
295 1418 1554
283 1367 1473
259 1299 1370
232 1236 1321
211 1189 1352
196 1157 1440
190 1126 1547
199 1079 1636
207 998 1705
143 932 1730
134 940 1880
135 947 2028
136 952 2176
137 956 2322
137 960 2468
138 963 2614
138 965 2759
138 968 2903
139 970 3047
139 971 3191
139 973 3334
360 1697 1846
358 1689 1838
356 1677 1828
354 1660 1811
351 1636 1788
345 1603 1756
322 1542 1646
292 1474 1552
261 1411 1507
233 1364 1534
214 1330 1615
200 1302 1725
202 1261 1819
211 1202 1902
219 1067 1947
133 1067 2000
134 1075 2150
135 1082 2298
136 1087 2446
136 1092 2593
137 1096 2739
137 1099 2885
138 1102 3030
138 1104 3175
138 1106 3319
412 1903 2068
412 1895 2061
411 1886 2052
408 1871 2038
404 1850 2018
401 1822 1991
392 1782 1939
361 1716 1822
327 1648 1735
290 1587 1693
257 1539 1717
233 1503 1791
215 1475 1900
207 1439 1999
214 1390 2088
223 1316 2160
204 1192 2150
134 1202 2271
134 1210 2420
135 1217 2569
136 1222 2716
136 1227 2863
137 1231 3010
137 1235 3156
138 1238 3301
468 2109 2291
467 2102 2285
465 2094 2277
464 2081 2264
461 2063 2247
457 2038 2223
452 2008 2194
433 1957 2111
399 1890 2000
361 1823 1918
319 1762 1879
283 1714 1900
254 1676 1968
233 1647 2070
221 1616 2177
218 1573 2271
228 1514 2354
237 1412 2412
160 1328 2390
134 1337 2541
135 1345 2690
135 1352 2839
136 1358 2987
136 1362 3134
137 1367 3280
