Examples/Masked Alt - Double Camera Calibration 2.3dl
#25pt 3DLUT created by 3D LUT Creator Pro (c) Oleg Sharonov
#Copyright Oleg Sharonov
#INPUTGAMMA sRGB IEC61966-2.1 v.2.10
#IMAGEPROFILE sRGB IEC61966-2.1 v.2.10
#OUTPUTGAMMA sRGB IEC61966-2.1 v.2.10
0 256 512 768 1023
0 0 0
0 420 849
0 899 1647
0 1405 2487
0 1948 2740
78 953 107
0 1070 989
0 1335 1957
0 1707 2750
0 2173 2941
358 1918 222
267 1987 152
0 2117 2004
0 2309 3093
0 2580 3468
838 2724 647
815 2749 830
724 2807 1828
635 2855 3403
924 2949 4095
1362 3420 1142
1333 3423 1567
1301 3430 2330
1366 3397 3795
2560 3271 4095
1041 0 0
896 369 1119
358 953 2015
0 1458 2750
0 1995 2854
1180 845 161
1024 1024 1024
614 1347 2114
0 1741 2964
0 2208 3033
1170 1879 262
1090 1954 238
789 2106 2041
0 2321 3200
0 2596 3540
1078 2750 609
1041 2776 820
917 2838 1820
746 2893 3393
940 2989 4095
1394 3470 1036
1359 3473 1506
1313 3481 2310
1343 3452 3763
2568 3325 4095
2080 0 0
2067 0 1186
1814 855 2221
1399 1482 3112
1017 2073 3255
2344 358 203
2233 692 1065
1911 1251 2229
1517 1734 3174
1122 2260 3353
2335 1754 291
2269 1849 310
2048 2048 2048
1698 2303 3221
1007 2631 3720
2356 2752 525
2306 2786 673
2117 2872 1722
1682 2972 3314
1247 3102 4095
2269 3560 945
2186 3574 1230
1861 3606 2207
1355 3618 3657
2615 3486 4095
3117 0 0
3123 0 1088
3078 0 2385
2732 1343 3322
2444 2063 3455
3303 322 97
3300 349 905
3151 864 2317
2795 1649 3269
2499 2231 3527
3471 1588 271
3403 1729 217
3200 2009 1923
2928 2320 3137
2623 2659 3724
3445 2825 314
3413 2861 295
3299 2956 1456
3071 3071 3071
2737 3224 4034
3547 3698 687
3518 3711 694
3397 3740 1859
3145 3770 3308
3195 3742 4095
4067 386 0
4069 419 802
4051 462 2164
3870 1219 3303
3577 2120 3584
4095 818 110
4095 812 492
4095 889 2069
3857 1665 3191
3599 2325 3603
4095 1744 644
4095 1769 662
4084 2106 1604
3845 2502 2929
3674 2831 3672
4058 3119 0
4040 3155 0
3993 3248 916
3910 3352 2716
3831 3469 3827
4095 4061 116
4095 4069 119
4095 4088 1199
4095 4095 2830
4095 4095 4095
