Examples/Masks - Curves - Saturation Contrast 2.3dl
#25pt 3DLUT created by 3D LUT Creator Pro (c) Oleg Sharonov
#Copyright Oleg Sharonov
#IMAGEPROFILE sRGB IEC61966-2.1 v.2.10
#INPUTGAMMA sRGB IEC61966-2.1 v.2.10
#OUTPUTGAMMA sRGB IEC61966-2.1 v.2.10
0 43 86 128 171 214 256 299 341 384 427 469 512 555 597 640 682 725 768 810 853 896 938 981 1023 
0 0 0
0 0 168
0 0 330
3 3 488
3 3 641
6 6 802
6 6 971
3 3 1141
3 3 1311
3 3 1484
3 3 1659
3 3 1836
3 3 2013
3 3 2192
3 3 2370
3 3 2550
0 0 2729
0 0 2906
0 0 3083
0 0 3257
0 0 3428
0 0 3596
0 0 3764
0 0 3929
0 0 4095
0 161 0
0 161 161
3 165 320
3 165 477
6 168 628
6 165 793
6 158 964
6 155 1136
3 149 1308
3 142 1482
3 139 1658
3 132 1835
3 129 2013
3 123 2192
3 116 2372
3 113 2551
0 107 2729
0 100 2908
0 94 3084
0 87 3258
0 81 3429
0 74 3598
0 74 3765
0 74 3930
3 81 4095
3 306 3
3 306 158
6 308 308
6 310 457
10 312 603
10 304 772
6 295 948
6 287 1124
6 278 1300
6 269 1477
3 260 1655
3 250 1833
3 243 2013
3 233 2193
3 225 2374
3 217 2553
3 206 2733
0 198 2910
0 186 3087
0 177 3261
0 168 3432
0 158 3600
0 155 3767
3 155 3932
13 158 4095
10 434 10
10 434 158
13 436 297
13 439 439
13 437 573
13 428 749
10 416 931
10 403 1111
10 391 1292
6 377 1471
6 365 1652
6 354 1833
6 341 2014
6 330 2195
6 318 2376
6 306 2557
3 295 2737
3 282 2915
0 271 3092
0 257 3266
0 245 3437
0 238 3605
3 230 3771
13 228 3935
29 228 4095
13 577 13
13 576 155
16 578 282
16 578 409
19 582 537
16 572 718
13 558 907
13 545 1094
10 530 1279
10 516 1463
10 503 1647
6 489 1830
6 475 2013
6 464 2197
6 451 2379
6 439 2561
6 428 2742
6 416 2921
3 404 3098
3 393 3272
3 383 3442
6 372 3609
13 367 3775
26 362 3939
42 362 4095
13 734 13
13 734 139
13 737 255
16 744 370
19 752 489
19 746 675
16 733 874
13 718 1068
13 703 1259
10 689 1448
10 675 1636
10 662 1824
10 649 2010
10 637 2196
10 626 2380
10 615 2564
10 604 2746
10 594 2925
6 584 3103
6 575 3277
6 565 3446
13 558 3613
19 553 3778
36 550 3942
55 548 4095
13 899 13
13 902 123
13 907 228
16 915 330
19 927 434
19 924 626
16 913 833
16 899 1036
13 884 1234
13 869 1429
13 855 1623
10 841 1814
10 828 2004
10 816 2193
13 805 2380
13 795 2565
13 785 2749
10 776 2930
10 766 3108
10 759 3281
13 752 3451
16 746 3617
29 742 3781
45 740 3944
68 739 4095
10 1071 10
13 1074 107
13 1080 198
16 1090 287
16 1104 377
19 1105 572
16 1097 788
16 1085 998
16 1071 1204
13 1056 1406
13 1041 1606
13 1027 1802
13 1014 1997
13 1002 2189
13 991 2379
13 981 2566
13 971 2751
13 963 2933
13 955 3112
13 948 3285
16 942 3455
23 938 3621
32 935 3784
55 933 3946
81 933 4095
10 1247 10
10 1251 87
13 1257 168
13 1268 243
16 1283 320
16 1287 516
16 1283 737
16 1274 955
16 1261 1169
16 1248 1379
13 1233 1585
13 1218 1787
16 1205 1986
16 1193 2182
16 1182 2375
16 1171 2565
16 1162 2752
16 1154 2935
16 1146 3115
16 1141 3289
16 1136 3458
26 1133 3623
39 1131 3786
61 1130 3948
90 1131 4095
10 1428 10
10 1432 71
10 1439 136
13 1450 201
13 1465 262
16 1472 458
16 1472 685
16 1465 909
16 1456 1130
16 1443 1347
16 1429 1559
16 1415 1768
16 1402 1972
19 1389 2173
19 1377 2369
19 1367 2562
19 1358 2752
19 1350 2937
16 1344 3117
16 1339 3292
19 1335 3461
26 1332 3625
42 1331 3787
68 1332 3948
100 1333 4095
6 1614 6
6 1618 55
10 1625 103
10 1636 155
13 1650 203
13 1659 399
16 1662 631
16 1659 862
16 1652 1088
16 1642 1312
16 1629 1531
19 1616 1745
19 1603 1955
19 1590 2161
23 1578 2361
23 1568 2558
23 1559 2749
19 1551 2936
16 1545 3118
13 1541 3293
16 1538 3462
23 1537 3627
42 1536 3788
68 1537 3947
103 1539 4095
6 1803 6
6 1808 39
6 1814 74
10 1824 110
10 1839 145
13 1849 343
13 1854 578
16 1854 813
16 1850 1046
16 1842 1275
19 1831 1500
19 1819 1720
23 1806 1936
23 1794 2146
23 1783 2351
23 1772 2551
23 1764 2745
16 1756 2934
13 1751 3118
10 1747 3293
10 1744 3462
16 1744 3626
36 1745 3787
61 1746 3946
97 1748 4095
3 1995 3
6 2000 26
6 2006 45
6 2016 65
10 2030 87
13 2040 289
13 2047 526
16 2050 765
16 2048 1003
19 2042 1237
23 2033 1467
23 2023 1694
26 2011 1915
26 1999 2130
26 1989 2339
23 1979 2542
19 1970 2740
13 1963 2931
6 1958 3116
0 1955 3292
0 1954 3461
3 1956 3624
19 1959 3784
42 1963 3943
74 1968 4095
3 2189 3
3 2194 10
6 2200 16
6 2209 26
10 2222 32
13 2233 235
13 2241 475
16 2245 719
19 2246 960
23 2242 1199
23 2235 1435
26 2226 1666
26 2216 1893
26 2205 2114
26 2195 2327
23 2187 2533
13 2180 2733
3 2174 2925
0 2170 3109
0 2169 3285
0 2169 3454
0 2171 3618
0 2174 3778
16 2177 3938
45 2180 4095
0 2384 0
3 2388 6
3 2394 16
6 2402 23
6 2414 36
10 2424 238
13 2432 479
16 2437 722
19 2438 963
23 2435 1202
23 2430 1438
26 2423 1668
26 2415 1893
23 2406 2112
19 2398 2323
13 2390 2528
3 2384 2726
0 2379 2918
0 2376 3103
0 2374 3278
0 2374 3447
0 2376 3612
0 2378 3774
0 2380 3934
10 2383 4095
0 2574 0
0 2578 16
0 2583 32
3 2590 55
6 2601 78
10 2610 276
13 2617 512
16 2621 748
19 2622 984
19 2621 1217
23 2617 1448
23 2612 1675
23 2605 1896
19 2598 2112
13 2591 2321
6 2584 2525
0 2579 2722
0 2575 2912
0 2572 3096
0 2571 3273
0 2571 3442
0 2572 3607
0 2573 3769
0 2576 3931
0 2578 4093
0 2759 0
0 2762 23
0 2766 52
0 2773 84
3 2782 116
6 2790 314
10 2796 546
13 2800 776
16 2801 1006
19 2800 1235
19 2797 1461
19 2793 1683
19 2788 1901
13 2782 2114
6 2776 2321
0 2770 2523
0 2766 2718
0 2762 2908
0 2759 3092
0 2758 3268
0 2758 3437
0 2759 3603
0 2761 3766
0 2763 3928
0 2764 4091
0 2937 0
0 2939 29
0 2943 68
0 2949 113
0 2957 158
6 2964 352
10 2969 579
13 2972 807
16 2974 1031
16 2973 1255
16 2971 1476
16 2968 1694
13 2963 1909
6 2958 2119
0 2953 2323
0 2949 2523
0 2945 2717
0 2941 2905
0 2939 3088
0 2938 3264
0 2938 3434
0 2939 3600
0 2941 3764
0 2942 3927
0 2943 4090
0 3109 0
0 3112 32
0 3115 87
0 3120 142
0 3127 201
3 3133 394
6 3137 616
10 3140 838
13 3141 1057
16 3141 1276
16 3139 1493
13 3136 1708
10 3132 1919
0 3128 2125
0 3124 2327
0 3120 2524
0 3117 2716
0 3114 2904
0 3112 3086
0 3111 3261
0 3112 3431
0 3112 3598
0 3113 3762
0 3115 3926
0 3116 4090
0 3277 0
0 3278 42
0 3281 107
0 3286 174
0 3292 243
3 3297 436
6 3301 654
13 3303 871
16 3304 1086
16 3303 1300
16 3302 1512
13 3299 1722
10 3296 1930
0 3293 2133
0 3289 2332
0 3286 2527
0 3283 2718
0 3281 2904
0 3279 3085
0 3278 3260
0 3278 3430
0 3279 3597
0 3280 3762
0 3281 3926
0 3282 4091
0 3441 0
0 3442 52
0 3444 126
0 3448 209
0 3454 289
6 3458 479
10 3461 693
16 3462 904
19 3463 1115
19 3462 1325
19 3461 1533
16 3459 1739
10 3456 1943
3 3453 2142
0 3450 2339
0 3448 2531
0 3445 2720
0 3443 2904
0 3442 3084
0 3441 3259
0 3441 3429
0 3442 3596
0 3443 3762
0 3443 3926
0 3444 4092
0 3603 0
0 3604 65
0 3606 152
0 3610 245
3 3615 337
10 3617 525
16 3620 732
19 3621 940
26 3621 1145
26 3621 1350
26 3620 1554
23 3618 1756
16 3616 1956
10 3613 2152
0 3610 2346
0 3608 2536
0 3606 2722
0 3604 2905
0 3603 3084
0 3603 3258
0 3603 3428
0 3603 3596
0 3604 3762
0 3605 3927
0 3605 4093
0 3766 0
0 3767 81
0 3768 180
0 3771 284
10 3775 386
19 3777 570
26 3779 772
29 3780 975
32 3780 1176
36 3780 1376
36 3779 1575
32 3777 1773
26 3775 1969
19 3773 2163
6 3771 2353
0 3769 2540
0 3767 2725
0 3766 2906
0 3765 3083
0 3765 3257
0 3765 3427
0 3765 3595
0 3766 3761
0 3766 3927
0 3767 4094
0 3929 0
0 3930 100
0 3931 212
6 3934 322
19 3937 434
29 3939 615
36 3940 813
39 3940 1010
45 3941 1206
45 3940 1402
45 3939 1597
45 3938 1790
39 3936 1983
29 3935 2172
19 3933 2359
3 3931 2544
0 3930 2727
0 3929 2906
0 3928 3083
0 3928 3256
0 3928 3426
0 3929 3594
0 3929 3761
0 3929 3927
0 3930 4095
0 4095 0
3 4095 119
6 4095 240
16 4095 360
29 4095 482
39 4095 661
45 4095 852
48 4095 1045
55 4095 1236
55 4095 1428
55 4095 1618
55 4095 1807
48 4095 1996
42 4095 2182
32 4095 2366
19 4095 2548
3 4095 2728
0 4094 2906
0 4094 3081
0 4094 3254
0 4094 3424
0 4094 3592
0 4094 3760
0 4095 3927
0 4095 4095
165 0 0
165 0 165
165 3 326
165 3 482
168 6 635
165 6 800
161 6 968
155 3 1138
149 3 1311
145 3 1484
139 3 1660
132 3 1836
129 3 2014
123 3 2193
119 3 2372
113 3 2551
107 0 2730
100 0 2907
94 0 3084
87 0 3258
81 0 3429
74 0 3598
74 0 3764
74 0 3930
81 6 4095
161 161 3
161 161 161
161 161 318
165 165 472
168 168 624
165 165 789
158 158 961
152 152 1134
149 149 1308
142 142 1482
139 139 1658
132 132 1836
126 126 2014
123 123 2193
116 116 2372
113 113 2552
107 107 2731
100 100 2909
94 94 3086
87 87 3260
81 81 3430
78 78 3599
74 74 3766
78 78 3931
84 84 4095
158 304 6
158 304 158
161 306 306
165 308 454
165 308 599
161 304 770
155 295 947
152 287 1123
145 278 1300
139 269 1477
136 260 1655
129 250 1835
123 243 2014
119 233 2194
116 225 2375
110 217 2554
107 206 2734
100 198 2912
94 186 3089
87 177 3262
81 168 3433
78 161 3602
78 158 3768
81 158 3933
90 161 4095
158 433 10
158 431 158
161 433 297
165 434 434
165 434 570
161 425 747
155 414 930
149 401 1111
142 389 1291
136 377 1472
129 365 1653
123 352 1834
119 341 2015
116 330 2197
110 318 2378
107 306 2559
103 295 2739
97 282 2917
90 269 3094
87 257 3268
81 248 3438
81 238 3606
84 233 3772
90 230 3936
100 230 4095
155 576 13
155 573 155
155 575 280
158 576 406
161 579 535
155 571 716
149 557 907
142 543 1094
136 530 1279
129 516 1463
123 501 1648
119 488 1831
113 475 2015
110 464 2199
107 451 2381
103 440 2563
97 428 2744
94 416 2923
87 404 3100
84 393 3273
81 383 3443
81 374 3610
87 367 3776
97 363 3940
110 363 4095
139 733 13
139 734 139
139 737 255
145 744 370
149 751 488
145 745 674
139 732 873
132 718 1068
126 703 1259
119 689 1449
116 675 1638
110 662 1825
107 649 2011
103 636 2197
100 626 2382
97 614 2565
94 604 2748
87 594 2927
84 584 3104
81 575 3278
78 566 3448
81 559 3615
87 554 3779
100 551 3943
119 550 4095
123 901 13
123 902 123
126 907 228
129 916 330
132 927 434
132 924 626
126 914 833
123 899 1036
116 885 1235
110 870 1431
107 855 1624
100 842 1816
97 829 2007
94 817 2195
90 806 2382
87 795 2567
84 786 2751
81 776 2931
78 767 3110
74 759 3283
74 752 3452
78 747 3619
87 743 3782
103 741 3945
123 740 4095
107 1073 13
107 1076 107
107 1082 201
110 1092 287
116 1105 377
116 1106 572
113 1098 787
110 1086 999
103 1072 1205
100 1057 1408
94 1042 1607
90 1028 1804
87 1014 1999
87 1002 2191
84 991 2381
81 981 2568
78 971 2753
74 963 2935
71 955 3114
68 948 3287
71 943 3456
74 939 3622
84 935 3786
103 934 3948
129 935 4095
87 1251 10
87 1254 87
90 1260 168
94 1271 243
97 1286 320
97 1289 516
97 1285 738
94 1276 956
90 1263 1170
87 1249 1380
84 1234 1586
81 1220 1789
78 1206 1988
78 1194 2184
74 1182 2377
74 1171 2567
71 1162 2754
68 1155 2938
65 1147 3117
61 1141 3291
65 1137 3460
68 1133 3625
81 1132 3788
103 1131 3949
132 1132 4095
71 1432 10
71 1436 71
74 1443 136
74 1454 201
78 1468 262
81 1475 458
81 1474 686
78 1468 911
78 1458 1132
74 1445 1349
71 1431 1561
71 1417 1770
68 1403 1974
68 1390 2175
65 1379 2372
65 1368 2564
61 1359 2754
58 1351 2939
55 1344 3120
52 1339 3294
55 1336 3463
61 1334 3627
74 1333 3789
97 1333 3950
129 1334 4095
55 1618 6
55 1623 55
58 1629 103
58 1639 155
61 1654 203
61 1663 401
65 1665 632
65 1662 863
61 1655 1090
61 1644 1314
58 1631 1533
58 1618 1748
58 1604 1958
58 1591 2163
58 1580 2363
55 1569 2560
52 1560 2751
48 1553 2938
45 1546 3120
42 1542 3295
42 1539 3464
48 1538 3628
65 1538 3790
90 1539 3949
123 1540 4095
