Examples/Masks - Grey & Orange.3dl
#25pt 3DLUT created by 3D LUT Creator Pro (c) Oleg Sharonov
#Copyright Oleg Sharonov
0 43 86 128 171 214 256 299 341 384 427 469 512 555 597 640 682 725 768 810 853 896 938 981 1023 
0 0 0
13 13 13
29 29 29
55 55 55
90 90 90
136 136 136
192 192 192
250 250 250
306 306 306
363 363 363
420 420 420
478 478 478
535 535 535
592 592 592
649 649 649
706 706 706
764 764 764
820 820 820
877 877 877
935 935 935
992 992 992
1049 1049 1049
1106 1106 1106
1163 1163 1163
1220 1220 1220
123 123 123
136 136 136
152 152 152
177 177 177
209 209 209
245 245 245
287 287 287
332 332 332
377 377 377
427 427 427
477 477 477
528 528 528
580 580 580
633 633 633
687 687 687
741 741 741
795 795 795
850 850 850
905 905 905
961 961 961
1016 1016 1016
1071 1071 1071
1127 1127 1127
1183 1183 1183
1239 1239 1239
267 267 267
276 276 276
287 287 287
304 304 304
326 326 326
354 354 354
386 386 386
420 420 420
460 460 460
501 501 501
545 545 545
590 590 590
637 637 637
686 686 686
735 735 735
786 786 786
837 837 837
888 888 888
941 941 941
994 994 994
1047 1047 1047
1101 1101 1101
1155 1155 1155
1210 1210 1210
1264 1264 1264
416 416 416
422 422 422
430 430 430
442 442 442
458 458 458
478 478 478
503 503 503
531 531 531
563 563 563
596 596 596
634 634 634
673 673 673
714 714 714
758 758 758
802 802 802
849 849 849
896 896 896
944 944 944
994 994 994
1044 1044 1044
1094 1094 1094
1145 1145 1145
1197 1197 1197
1250 1250 1250
1302 1302 1302
564 564 564
569 569 569
575 575 575
584 584 584
596 596 596
613 613 613
631 631 631
654 654 654
680 680 680
708 708 708
740 740 740
773 773 773
809 809 809
847 847 847
887 887 887
928 928 928
972 972 972
1016 1016 1016
1061 1061 1061
1108 1108 1108
1155 1155 1155
1203 1203 1203
1252 1252 1252
1302 1302 1302
1352 1352 1352
713 713 713
716 716 716
721 721 721
728 728 728
738 738 738
751 751 751
766 766 766
785 785 785
806 806 806
830 830 830
856 856 856
885 885 885
917 917 917
950 950 950
985 985 985
1022 1022 1022
1061 1061 1061
1101 1101 1101
1143 1143 1143
1186 1186 1186
1230 1230 1230
1274 1274 1274
1320 1320 1320
1367 1367 1367
1415 1415 1415
861 861 861
864 864 864
868 868 868
874 874 874
882 882 882
892 892 892
905 905 905
921 921 921
939 939 939
959 959 959
982 982 982
1006 1006 1006
1033 1033 1033
1063 1063 1063
1094 1094 1094
1127 1127 1127
1162 1162 1162
1198 1198 1198
1236 1236 1236
1275 1275 1275
1315 1315 1315
1357 1357 1357
1399 1399 1399
1443 1443 1443
1488 1488 1488
1010 1010 1010
1012 1012 1012
1015 1015 1015
1020 1020 1020
1027 1027 1027
1036 1036 1036
1047 1047 1047
1060 1060 1060
1075 1075 1075
1093 1093 1093
1112 1112 1112
1134 1134 1134
1157 1157 1157
1183 1183 1183
1211 1211 1211
1240 1240 1240
1271 1271 1271
1304 1304 1304
1338 1338 1338
1374 1374 1374
1411 1411 1411
1449 1449 1449
1489 1489 1489
1530 1530 1530
1571 1571 1571
1157 1157 1157
1160 1160 1160
1162 1162 1162
1167 1167 1167
1173 1173 1173
1180 1180 1180
1190 1190 1190
1201 1201 1201
1214 1214 1214
1230 1230 1230
1247 1247 1247
1265 1265 1265
1286 1286 1286
1309 1309 1309
1334 1334 1334
1360 1360 1360
1388 1388 1388
1417 1417 1417
1448 1448 1448
1481 1481 1481
1515 1515 1515
1550 1550 1550
1586 1586 1586
1624 1624 1624
1663 1663 1663
1306 1306 1306
1308 1308 1308
1310 1310 1310
1314 1314 1314
1319 1319 1319
1326 1326 1326
1334 1334 1334
1344 1344 1344
1355 1355 1355
1369 1369 1369
1384 1384 1384
1400 1400 1400
1419 1419 1419
1439 1439 1439
1461 1461 1461
1485 1485 1485
1510 1510 1510
1537 1537 1537
1565 1565 1565
1595 1595 1595
1625 1625 1625
1658 1658 1658
1692 1692 1692
1726 1726 1726
1762 1762 1762
1455 1455 1455
1456 1456 1456
1458 1458 1458
1461 1461 1461
1466 1466 1466
1472 1472 1472
1479 1479 1479
1488 1488 1488
1498 1498 1498
1510 1510 1510
1523 1523 1523
1538 1538 1538
1555 1555 1555
1573 1573 1573
1593 1593 1593
1614 1614 1614
1637 1637 1637
1661 1661 1661
1687 1687 1687
1714 1714 1714
1742 1742 1742
1772 1772 1772
1803 1803 1803
1835 1835 1835
1868 1868 1868
1603 1603 1603
1604 1604 1604
1606 1606 1606
1609 1609 1609
1613 1613 1613
1618 1618 1618
1625 1625 1625
1632 1632 1632
1642 1642 1642
1652 1652 1652
1664 1664 1664
1677 1677 1677
1693 1693 1693
1709 1709 1709
1727 1727 1727
1746 1746 1746
1767 1767 1767
1789 1789 1789
1812 1812 1812
1837 1837 1837
1863 1863 1863
1890 1890 1890
1919 1919 1919
1949 1949 1949
1980 1980 1980
1751 1751 1751
1753 1753 1753
1754 1754 1754
1757 1757 1757
1760 1760 1760
1765 1765 1765
1771 1771 1771
1778 1778 1778
1786 1786 1786
1796 1796 1796
1806 1806 1806
1819 1819 1819
1832 1832 1832
1847 1847 1847
1863 1863 1863
1881 1881 1881
1900 1900 1900
1920 1920 1920
1941 1941 1941
1964 1964 1964
1988 1988 1988
2013 2013 2013
2040 2040 2040
2068 2068 2068
2096 2096 2096
1900 1900 1900
1901 1901 1901
1902 1902 1902
1905 1905 1905
1908 1908 1908
1912 1912 1912
1917 1917 1917
1924 1924 1924
1931 1931 1931
1940 1940 1940
1950 1950 1950
1961 1961 1961
1973 1973 1973
1986 1986 1986
2001 2001 2001
2017 2017 2017
2035 2035 2035
2053 2053 2053
2073 2073 2073
2094 2094 2094
2116 2116 2116
2140 2140 2140
2164 2164 2164
2190 2190 2190
2217 2217 2217
2048 2048 2048
2049 2049 2049
2051 2051 2051
2052 2052 2052
2055 2055 2055
2059 2059 2059
2064 2064 2064
2070 2070 2070
2077 2077 2077
2085 2085 2085
2094 2094 2094
2104 2104 2104
2115 2115 2115
2127 2127 2127
2141 2141 2141
2156 2156 2156
2172 2172 2172
2189 2189 2189
2207 2207 2207
2226 2226 2226
2247 2247 2247
2269 2269 2269
2291 2291 2291
2315 2315 2315
2340 2340 2340
2196 2196 2196
2197 2197 2197
2199 2199 2199
2201 2201 2201
2203 2203 2203
2207 2207 2207
2211 2211 2211
2217 2217 2217
2223 2223 2223
2230 2230 2230
2238 2238 2238
2248 2248 2248
2258 2258 2258
2269 2269 2269
2282 2282 2282
2295 2295 2295
2310 2310 2310
2326 2326 2326
2343 2343 2343
2361 2361 2361
2380 2380 2380
2400 2400 2400
2422 2422 2422
2444 2444 2444
2467 2467 2467
2345 2345 2345
2346 2346 2346
2347 2347 2347
2349 2349 2349
2351 2351 2351
2354 2354 2354
2359 2359 2359
2363 2363 2363
2369 2369 2369
2376 2376 2376
2383 2383 2383
2392 2392 2392
2402 2402 2402
2412 2412 2412
2424 2424 2424
2436 2436 2436
2450 2450 2450
2465 2465 2465
2480 2480 2480
2497 2497 2497
2515 2515 2515
2534 2534 2534
2554 2554 2554
2574 2574 2574
2596 2596 2596
2493 2493 2493
2494 2494 2494
2495 2495 2495
2497 2497 2497
2499 2499 2499
2502 2502 2502
2506 2506 2506
2510 2510 2510
2516 2516 2516
2522 2522 2522
2529 2529 2529
2537 2537 2537
2546 2546 2546
2556 2556 2556
2566 2566 2566
2578 2578 2578
2591 2591 2591
2604 2604 2604
2619 2619 2619
2635 2635 2635
2651 2651 2651
2669 2669 2669
2687 2687 2687
2707 2707 2707
2727 2727 2727
2642 2642 2642
2642 2642 2642
2643 2643 2643
2645 2645 2645
2647 2647 2647
2650 2650 2650
2653 2653 2653
2658 2658 2658
2662 2662 2662
2668 2668 2668
2675 2675 2675
2682 2682 2682
2690 2690 2690
2699 2699 2699
2710 2710 2710
2720 2720 2720
2732 2732 2732
2745 2745 2745
2759 2759 2759
2773 2773 2773
2789 2789 2789
2805 2805 2805
2823 2823 2823
2841 2841 2841
2861 2861 2861
2790 2790 2790
2791 2791 2791
2792 2792 2792
2793 2793 2793
2795 2795 2795
2798 2798 2798
2801 2801 2801
2805 2805 2805
2809 2809 2809
2815 2815 2815
2821 2821 2821
2828 2828 2828
2836 2836 2836
2844 2844 2844
2854 2854 2854
2864 2864 2864
2875 2875 2875
2887 2887 2887
2900 2900 2900
2913 2913 2913
2928 2928 2928
2943 2943 2943
2960 2960 2960
2977 2977 2977
2995 2995 2995
2938 2938 2938
2939 2939 2939
2940 2940 2940
2941 2941 2941
2943 2943 2943
2945 2945 2945
2949 2949 2949
2952 2952 2952
2956 2956 2956
2962 2962 2962
2967 2967 2967
2974 2974 2974
2981 2981 2981
2989 2989 2989
2998 2998 2998
3007 3007 3007
3018 3018 3018
3029 3029 3029
3041 3041 3041
3054 3054 3054
3068 3068 3068
3082 3082 3082
3098 3098 3098
3114 3114 3114
3131 3131 3131
3087 3087 3087
3087 3087 3087
3088 3088 3088
3089 3089 3089
3091 3091 3091
3093 3093 3093
3096 3096 3096
3100 3100 3100
3104 3104 3104
3108 3108 3108
3114 3114 3114
3120 3120 3120
3127 3127 3127
3134 3134 3134
3143 3143 3143
3152 3152 3152
3161 3161 3161
3172 3172 3172
3183 3183 3183
3195 3195 3195
3208 3208 3208
3222 3222 3222
3237 3237 3237
3252 3252 3252
3268 3268 3268
3235 3235 3235
3236 3236 3236
3236 3236 3236
3238 3238 3238
3239 3239 3239
3242 3242 3242
3244 3244 3244
3247 3247 3247
3251 3251 3251
3256 3256 3256
3261 3261 3261
3266 3266 3266
3273 3273 3273
3280 3280 3280
3288 3288 3288
3296 3296 3296
3305 3305 3305
3315 3315 3315
3326 3326 3326
3338 3338 3338
3350 3350 3350
3363 3363 3363
3377 3377 3377
3391 3391 3391
3406 3406 3406
3383 3383 3383
3384 3384 3384
3385 3385 3385
3386 3386 3386
3387 3387 3387
3389 3389 3389
3392 3392 3392
3395 3395 3395
3399 3399 3399
3403 3403 3403
3408 3408 3408
3413 3413 3413
3419 3419 3419
3426 3426 3426
3433 3433 3433
3441 3441 3441
3450 3450 3450
3459 3459 3459
3469 3469 3469
3480 3480 3480
3492 3492 3492
3504 3504 3504
3517 3517 3517
3531 3531 3531
3545 3545 3545
3532 3532 3532
3532 3532 3532
3533 3533 3533
3534 3534 3534
3536 3536 3536
3537 3537 3537
3540 3540 3540
3543 3543 3543
3546 3546 3546
3550 3550 3550
3555 3555 3555
3560 3560 3560
3565 3565 3565
3572 3572 3572
3579 3579 3579
3586 3586 3586
3595 3595 3595
3604 3604 3604
3613 3613 3613
3624 3624 3624
3635 3635 3635
3646 3646 3646
3659 3659 3659
3672 3672 3672
3686 3686 3686
146 7 7
48 48 48
65 65 65
90 90 90
126 126 126
174 174 174
222 222 222
276 276 276
330 330 330
383 383 383
439 439 439
493 493 493
548 548 548
605 605 605
660 660 660
717 717 717
773 773 773
829 829 829
885 885 885
942 942 942
999 999 999
1055 1055 1055
1112 1112 1112
1169 1169 1169
1225 1225 1225
161 161 120
171 171 171
186 186 186
209 209 209
238 238 238
271 271 271
310 310 310
352 352 352
398 398 398
443 443 443
492 492 492
542 542 542
593 593 593
645 645 645
697 697 697
751 751 751
805 805 805
859 859 859
913 913 913
968 968 968
1023 1023 1023
1078 1078 1078
1133 1133 1133
1189 1189 1189
1245 1245 1245
293 293 293
299 299 299
312 312 312
328 328 328
349 349 349
374 374 374
404 404 404
437 437 437
475 475 475
516 516 516
558 558 558
603 603 603
649 649 649
696 696 696
745 745 745
795 795 795
845 845 845
897 897 897
949 949 949
1001 1001 1001
1055 1055 1055
1108 1108 1108
1162 1162 1162
1215 1215 1215
1270 1270 1270
433 433 433
439 439 439
446 446 446
458 458 458
474 474 474
494 494 494
518 518 518
545 545 545
576 576 576
610 610 610
646 646 646
684 684 684
725 725 725
768 768 768
812 812 812
858 858 858
904 904 904
952 952 952
1001 1001 1001
1050 1050 1050
1101 1101 1101
1151 1151 1151
1203 1203 1203
1255 1255 1255
1307 1307 1307
577 577 577
582 582 582
587 587 587
596 596 596
609 609 609
625 625 625
644 644 644
665 665 665
691 691 691
719 719 719
750 750 750
783 783 783
819 819 819
856 856 856
896 896 896
937 937 937
979 979 979
1023 1023 1023
1068 1068 1068
1114 1114 1114
1161 1161 1161
1209 1209 1209
1258 1258 1258
1307 1307 1307
1357 1357 1357
723 723 723
726 726 726
731 731 731
738 738 738
748 748 748
761 761 761
776 776 776
794 794 794
815 815 815
838 838 838
865 865 865
894 894 894
924 924 924
957 957 957
992 992 992
1029 1029 1029
1068 1068 1068
1107 1107 1107
1149 1149 1149
1192 1192 1192
1235 1235 1235
1280 1280 1280
1325 1325 1325
1372 1372 1372
1419 1419 1419
869 869 869
872 872 872
876 876 876
882 882 882
890 890 890
901 901 901
914 914 914
928 928 928
946 946 946
967 967 967
989 989 989
1013 1013 1013
1041 1041 1041
1070 1070 1070
1101 1101 1101
1133 1133 1133
1168 1168 1168
1203 1203 1203
1242 1242 1242
1280 1280 1280
1320 1320 1320
1362 1362 1362
1404 1404 1404
1448 1448 1448
1492 1492 1492
1017 1017 1017
1019 1019 1019
1022 1022 1022
1027 1027 1027
1034 1034 1034
1043 1043 1043
1053 1053 1053
1067 1067 1067
1081 1081 1081
1099 1099 1099
1118 1118 1118
1140 1140 1140
1163 1163 1163
1189 1189 1189
1216 1216 1216
1246 1246 1246
1277 1277 1277
1309 1309 1309
1343 1343 1343
1379 1379 1379
1416 1416 1416
1454 1454 1454
1493 1493 1493
1534 1534 1534
1575 1575 1575
1164 1164 1164
1166 1166 1166
1169 1169 1169
1173 1173 1173
1179 1179 1179
1186 1186 1186
1196 1196 1196
1207 1207 1207
1220 1220 1220
1235 1235 1235
1252 1252 1252
1271 1271 1271
1292 1292 1292
1314 1314 1314
1339 1339 1339
1365 1365 1365
1393 1393 1393
1422 1422 1422
1453 1453 1453
1485 1485 1485
1519 1519 1519
1554 1554 1554
1591 1591 1591
1628 1628 1628
1667 1667 1667
1312 1312 1312
1313 1313 1313
1316 1316 1316
1319 1319 1319
1325 1325 1325
1331 1331 1331
1339 1339 1339
1349 1349 1349
1360 1360 1360
1374 1374 1374
1389 1389 1389
1406 1406 1406
1424 1424 1424
1444 1444 1444
1466 1466 1466
1489 1489 1489
1514 1514 1514
1541 1541 1541
1569 1569 1569
1599 1599 1599
1630 1630 1630
1662 1662 1662
1696 1696 1696
1730 1730 1730
1766 1766 1766
1459 1459 1459
1461 1461 1461
1463 1463 1463
1466 1466 1466
1471 1471 1471
1476 1476 1476
1484 1484 1484
1493 1493 1493
1502 1502 1502
1514 1514 1514
1528 1528 1528
1543 1543 1543
1559 1559 1559
1577 1577 1577
1597 1597 1597
1618 1618 1618
1641 1641 1641
1665 1665 1665
1690 1690 1690
1717 1717 1717
1746 1746 1746
1776 1776 1776
1807 1807 1807
1839 1839 1839
1872 1872 1872
