Examples/Master - Per-channel contrast.3dl
#25pt 3DLUT created by 3D LUT Creator Pro (c) Oleg Sharonov
#Copyright Oleg Sharonov
#IMAGEPROFILE sRGB IEC61966-2.1 v.2.10
#INPUTGAMMA sRGB IEC61966-2.1 v.2.10
#OUTPUTGAMMA sRGB IEC61966-2.1 v.2.10
0 43 86 128 171 214 256 299 341 384 427 469 512 555 597 640 682 725 768 810 853 896 938 981 1023 
0 0 0
48 48 291
107 107 613
158 158 959
192 192 1304
212 212 1629
233 233 1946
260 260 2242
295 295 2502
349 349 2745
414 414 2958
490 490 3146
564 564 3303
637 637 3439
707 707 3558
769 769 3660
821 821 3749
859 859 3825
880 880 3890
883 883 3946
827 827 3971
743 743 3994
623 623 4022
436 436 4055
0 0 4095
0 171 0
32 255 255
84 358 568
136 437 912
174 490 1259
201 521 1592
225 542 1911
255 559 2211
293 575 2477
349 599 2723
416 631 2939
492 673 3129
566 719 3289
641 768 3427
711 817 3547
772 862 3651
823 901 3741
861 929 3818
883 944 3884
885 941 3941
831 885 3968
745 801 3992
625 687 4020
437 516 4054
0 171 4095
0 345 0
23 417 235
65 525 525
113 624 857
152 696 1201
186 746 1545
214 776 1870
248 792 2167
291 805 2445
349 818 2695
419 835 2916
493 855 3106
571 882 3271
646 912 3412
715 943 3534
777 973 3640
827 999 3731
865 1017 3809
886 1023 3876
888 1014 3935
835 957 3964
749 874 3989
629 765 4019
440 610 4054
0 341 4095
3 522 3
19 583 220
52 692 490
90 805 805
132 896 1141
168 961 1480
201 1003 1807
240 1029 2115
287 1043 2397
347 1049 2650
422 1058 2879
499 1065 3075
576 1074 3242
651 1086 3387
721 1101 3513
783 1116 3622
835 1129 3717
872 1134 3797
893 1132 3866
894 1115 3926
842 1057 3958
756 975 3985
634 871 4016
445 729 4053
3 513 4095
3 702 3
16 753 212
39 855 461
74 973 756
110 1079 1079
149 1164 1415
186 1219 1740
230 1254 2051
284 1273 2339
349 1281 2598
427 1284 2832
506 1283 3034
585 1280 3207
660 1279 3357
731 1280 3487
793 1281 3600
845 1281 3698
883 1276 3781
903 1263 3853
905 1240 3916
852 1179 3951
765 1097 3980
644 996 4014
454 868 4052
10 686 4095
6 887 6
13 928 209
32 1020 442
61 1137 716
94 1253 1025
129 1348 1348
174 1419 1672
225 1467 1984
282 1493 2273
354 1504 2539
434 1506 2777
517 1501 2987
597 1491 3166
674 1480 3321
746 1470 3457
808 1460 3574
860 1449 3675
897 1433 3762
918 1412 3838
919 1381 3903
867 1317 3942
780 1235 3975
657 1137 4011
467 1018 4052
23 859 4095
10 1076 10
13 1110 209
29 1191 428
52 1302 687
81 1420 979
116 1524 1290
165 1607 1607
220 1665 1916
287 1701 2208
363 1717 2477
446 1721 2721
532 1714 2935
614 1699 3120
693 1682 3281
765 1663 3421
828 1645 3544
880 1625 3650
917 1601 3741
937 1572 3820
938 1535 3889
887 1468 3932
798 1384 3968
675 1289 4008
485 1176 4052
45 1034 4095
10 1272 10
16 1300 212
26 1371 423
48 1473 668
74 1588 945
110 1696 1243
161 1787 1550
222 1854 1854
295 1897 2144
377 1921 2415
464 1928 2662
553 1922 2881
639 1905 3072
718 1883 3239
791 1860 3385
855 1834 3512
906 1806 3622
944 1776 3718
964 1740 3802
963 1698 3874
913 1629 3923
824 1544 3963
701 1450 4006
512 1342 4054
84 1211 4095
19 1497 19
23 1519 228
32 1579 431
48 1669 666
74 1775 928
113 1881 1214
168 1974 1511
238 2044 1807
316 2094 2094
404 2122 2365
496 2133 2613
587 2128 2835
675 2110 3030
756 2086 3202
830 2059 3353
895 2029 3485
946 1995 3599
984 1959 3699
1004 1919 3787
1005 1872 3864
956 1801 3918
868 1715 3963
746 1623 4011
562 1519 4062
180 1396 4095
29 1747 29
32 1764 248
42 1813 449
61 1890 676
87 1984 929
132 2083 1203
195 2172 1489
269 2243 1777
354 2295 2059
446 2326 2326
542 2339 2575
637 2335 2798
727 2317 2997
811 2292 3172
885 2262 3326
951 2228 3463
1004 2191 3582
1043 2151 3686
1064 2106 3778
1064 2056 3858
1017 1984 3918
931 1898 3968
811 1806 4020
637 1706 4077
314 1590 4095
45 2002 45
48 2014 271
61 2055 470
81 2120 692
113 2203 937
165 2293 1201
235 2377 1478
316 2446 1757
406 2498 2033
503 2530 2297
603 2544 2544
701 2540 2768
793 2523 2968
878 2497 3146
955 2464 3304
1022 2428 3444
1075 2388 3566
1114 2345 3675
1136 2298 3770
1137 2245 3855
1093 2173 3920
1009 2087 3975
894 1996 4033
730 1899 4094
451 1789 4095
68 2241 68
74 2251 293
87 2285 488
110 2342 705
152 2416 944
212 2497 1199
287 2576 1468
370 2642 1740
467 2693 2010
568 2726 2270
672 2740 2514
773 2738 2738
867 2721 2939
954 2694 3119
1031 2661 3280
1099 2623 3423
1154 2582 3549
1193 2536 3661
1215 2487 3760
1217 2432 3848
1175 2360 3919
1093 2274 3979
982 2186 4042
826 2091 4095
576 1985 4095
94 2449 94
100 2457 310
116 2487 500
145 2538 712
195 2606 944
260 2681 1192
337 2755 1452
428 2820 1718
527 2871 1981
632 2904 2237
739 2920 2479
843 2920 2702
938 2903 2903
1026 2877 3085
1105 2844 3248
1173 2806 3394
1229 2764 3524
1268 2717 3639
1290 2666 3742
1293 2611 3834
1252 2540 3910
1169 2455 3975
1060 2367 4043
909 2275 4095
674 2174 4095
119 2621 119
129 2629 324
149 2657 505
183 2704 711
235 2768 936
304 2840 1177
384 2912 1430
479 2976 1689
582 3027 1946
690 3063 2198
799 3081 2438
904 3082 2659
1001 3069 2861
1090 3044 3044
1170 3012 3209
1239 2974 3358
1294 2932 3491
1333 2885 3609
1355 2834 3715
1357 2778 3811
1317 2708 3892
1234 2624 3963
1124 2539 4035
973 2449 4095
742 2351 4095
152 2782 152
161 2789 339
183 2815 512
222 2859 711
278 2920 930
349 2989 1163
434 3059 1410
531 3122 1662
636 3174 1914
748 3211 2162
859 3231 2398
967 3234 2618
1065 3223 2819
1155 3200 3003
1235 3170 3170
1304 3133 3320
1359 3091 3456
1399 3045 3577
1420 2994 3687
1421 2938 3786
1381 2870 3871
1296 2788 3947
1185 2705 4024
1032 2618 4095
802 2524 4095
189 2934 189
198 2941 358
222 2965 521
262 3007 713
320 3065 925
394 3131 1153
484 3199 1393
584 3261 1639
693 3312 1886
806 3350 2128
920 3371 2361
1029 3377 2579
1128 3367 2780
1219 3347 2963
1300 3318 3131
1369 3283 3283
1424 3242 3420
1463 3197 3544
1484 3147 3656
1485 3093 3759
1444 3026 3848
1357 2947 3928
1243 2867 4010
1087 2783 4095
853 2693 4095
225 3078 225
235 3085 376
260 3108 532
302 3148 717
362 3203 924
439 3266 1145
532 3331 1379
635 3392 1619
747 3443 1860
864 3481 2099
980 3503 2328
1091 3511 2543
1191 3503 2742
1283 3485 2926
1364 3458 3093
1433 3424 3246
1488 3385 3385
1527 3341 3511
1547 3293 3625
1546 3240 3731
1504 3177 3824
1415 3101 3908
1297 3023 3994
1137 2943 4084
896 2857 4095
257 3216 257
267 3223 396
293 3245 543
337 3283 722
401 3334 923
484 3395 1139
578 3457 1367
686 3517 1602
801 3567 1839
920 3605 2073
1038 3628 2299
1150 3637 2511
1252 3631 2708
1345 3614 2891
1426 3589 3058
1495 3558 3211
1550 3520 3351
1588 3478 3478
1607 3432 3595
1605 3381 3702
1562 3321 3798
1469 3249 3886
1347 3175 3976
1179 3099 4070
928 3018 4095
284 3349 284
295 3356 412
324 3377 553
370 3412 727
437 3462 923
523 3519 1134
623 3580 1359
734 3637 1589
852 3686 1821
974 3723 2051
1094 3747 2273
1209 3756 2483
1312 3752 2678
1405 3737 2859
1487 3714 3026
1556 3684 3179
1610 3649 3319
1648 3609 3447
1666 3565 3565
1662 3517 3674
1617 3459 3772
1519 3392 3863
1391 3322 3957
1214 3251 4055
946 3175 4095
306 3479 306
316 3485 425
347 3504 562
398 3538 731
470 3585 924
558 3640 1131
663 3698 1351
778 3753 1578
900 3800 1806
1025 3837 2032
1148 3860 2251
1264 3870 2458
1369 3867 2651
1463 3853 2830
1545 3832 2996
1614 3804 3149
1668 3771 3289
1705 3733 3417
1722 3692 3536
1715 3646 3646
1668 3593 3747
1565 3530 3840
1429 3466 3937
1240 3399 4039
948 3329 4095
314 3605 314
328 3611 430
360 3629 564
416 3661 732
492 3706 921
587 3758 1127
697 3813 1345
818 3866 1568
944 3911 1794
1073 3946 2017
1199 3969 2233
1317 3979 2437
1423 3977 2628
1517 3964 2806
1601 3945 2970
1670 3919 3122
1724 3888 3261
1759 3852 3390
1774 3813 3509
1766 3771 3620
1715 3722 3722
1605 3664 3818
1459 3605 3917
1254 3545 4023
930 3481 4095
310 3730 310
324 3735 425
362 3753 559
422 3784 727
506 3826 917
609 3875 1122
725 3927 1338
852 3977 1560
982 4020 1783
1115 4054 2004
1245 4076 2217
1366 4086 2420
1473 4083 2608
1570 4072 2784
1653 4054 2947
1723 4029 3098
1776 4000 3237
1811 3967 3365
1824 3931 3484
1812 3892 3596
1757 3848 3699
1639 3796 3796
1480 3743 3898
1254 3689 4007
883 3632 4095
282 3854 282
299 3860 401
341 3876 541
412 3905 713
506 3945 907
618 3992 1113
744 4041 1330
877 4088 1551
1015 4095 1773
1153 4095 1993
1286 4095 2205
1410 4095 2405
1521 4095 2592
1618 4095 2766
1703 4095 2928
1772 4095 3077
1825 4095 3215
1858 4079 3342
1869 4046 3461
1854 4011 3573
1794 3971 3677
1665 3925 3775
1491 3879 3879
1236 3832 3992
791 3784 4095
217 3980 217
238 3985 352
293 4001 506
379 4028 688
489 4065 888
614 4095 1099
751 4095 1318
894 4095 1541
1039 4095 1763
1184 4095 1982
1323 4095 2193
1451 4095 2393
1563 4095 2578
1662 4095 2751
1748 4095 2911
1818 4095 3059
1871 4095 3196
1902 4095 3323
1911 4095 3441
1892 4095 3552
1825 4092 3656
1683 4054 3755
1488 4015 3861
1194 3977 3977
617 3938 4095
3 4095 3
39 4095 206
126 4095 411
269 4095 624
417 4095 842
571 4095 1065
729 4095 1292
889 4095 1521
1046 4095 1746
1200 4095 1968
1346 4095 2179
1480 4095 2379
1596 4095 2564
1698 4095 2736
1785 4095 2895
1856 4095 3042
1907 4095 3178
1937 4095 3304
1942 4095 3421
1916 4095 3531
1840 4095 3635
1679 4095 3735
1451 4095 3842
1088 4095 3961
0 4095 4095
119 0 0
225 19 225
337 74 542
425 126 891
481 168 1242
521 201 1591
538 222 1901
556 250 2201
575 293 2476
596 345 2716
631 416 2939
671 489 3125
716 564 3285
766 640 3426
814 707 3544
861 771 3650
899 821 3739
926 858 3815
941 880 3882
938 882 3939
882 827 3965
798 741 3989
682 620 4018
510 431 4052
158 0 4092
136 136 0
214 214 214
318 318 520
403 403 858
462 462 1206
500 500 1544
527 527 1870
547 547 2173
569 569 2451
593 593 2695
627 627 2915
670 670 3108
717 717 3271
766 766 3411
816 816 3534
862 862 3640
902 902 3731
928 928 3809
943 943 3876
940 940 3934
884 884 3962
800 800 3987
685 685 4017
512 512 4051
158 158 4093
149 314 0
206 383 206
295 492 492
379 594 820
440 671 1164
482 723 1504
513 758 1832
535 777 2134
559 794 2415
588 810 2669
626 828 2893
671 852 3089
719 879 3254
769 909 3397
819 942 3521
865 972 3629
904 998 3721
933 1016 3801
946 1022 3869
943 1013 3928
888 957 3958
803 873 3984
688 763 4015
514 606 4051
158 334 4093
158 496 0
201 554 201
273 661 464
349 774 774
411 868 1108
458 940 1449
493 986 1778
521 1013 2085
550 1030 2370
583 1041 2629
624 1050 2857
670 1059 3056
721 1070 3227
773 1084 3374
824 1099 3502
871 1115 3612
910 1127 3707
938 1133 3788
953 1131 3859
948 1114 3920
894 1056 3953
809 973 3981
693 868 4013
518 726 4050
161 508 4093
168 680 0
198 729 198
257 828 443
322 946 734
383 1054 1054
431 1140 1387
471 1200 1715
504 1238 2025
537 1260 2315
576 1271 2578
620 1275 2813
671 1276 3016
725 1275 3193
779 1275 3344
831 1277 3476
879 1279 3590
919 1279 3688
948 1274 3773
961 1262 3846
958 1239 3909
904 1177 3945
818 1095 3976
701 994 4010
526 865 4049
168 681 4094
177 868 3
198 908 198
245 998 428
302 1114 700
356 1229 1005
406 1327 1327
448 1400 1650
486 1450 1962
526 1479 2254
569 1493 2520
619 1497 2761
674 1493 2971
730 1484 3151
787 1474 3308
842 1465 3445
890 1456 3563
931 1446 3666
960 1431 3754
974 1410 3831
971 1379 3897
917 1316 3937
831 1233 3970
713 1135 4007
537 1015 4049
180 855 4095
186 1059 6
201 1093 201
238 1173 419
284 1283 675
336 1399 964
384 1506 1274
428 1590 1590
471 1649 1897
516 1686 2190
565 1706 2461
622 1711 2705
680 1705 2920
741 1693 3107
800 1677 3269
856 1660 3411
907 1642 3534
948 1622 3641
977 1598 3733
992 1570 3814
988 1533 3883
935 1466 3927
849 1383 3964
730 1287 4004
552 1174 4049
198 1030 4095
195 1257 10
206 1285 206
235 1355 416
273 1456 659
320 1571 933
367 1679 1229
412 1770 1535
460 1839 1839
509 1883 2128
565 1909 2400
627 1917 2648
692 1913 2868
756 1898 3060
818 1877 3227
877 1854 3374
928 1830 3503
971 1803 3615
1001 1773 3711
1016 1738 3795
1012 1696 3869
960 1627 3918
873 1542 3959
753 1448 4003
577 1340 4051
230 1208 4095
214 1484 16
222 1506 222
243 1565 427
276 1655 659
316 1761 921
360 1866 1203
408 1959 1499
458 2030 1795
514 2081 2081
577 2111 2352
645 2123 2601
715 2120 2824
783 2103 3019
849 2080 3192
910 2053 3343
964 2024 3476
1008 1992 3592
1039 1957 3693
1054 1916 3781
1050 1869 3858
1000 1799 3913
913 1714 3959
795 1621 4007
622 1517 4060
302 1394 4095
238 1734 29
243 1751 243
260 1800 445
289 1877 670
324 1972 922
367 2069 1194
416 2159 1480
471 2231 1767
533 2283 2048
602 2316 2316
676 2329 2564
752 2327 2788
825 2310 2987
895 2286 3163
959 2256 3318
1015 2223 3455
1060 2187 3575
1093 2148 3680
1109 2104 3772
1106 2053 3853
1058 1982 3914
973 1896 3964
857 1805 4017
691 1704 4074
403 1588 4095
262 1990 45
267 2003 267
282 2043 465
306 2108 687
341 2192 931
384 2280 1194
436 2364 1470
496 2435 1749
565 2486 2024
641 2520 2288
722 2534 2534
803 2533 2759
881 2516 2959
954 2490 3138
1021 2459 3296
1079 2424 3436
1127 2384 3560
1161 2342 3669
1178 2295 3765
1176 2242 3850
1131 2171 3916
1047 2085 3972
935 1995 4030
777 1897 4091
520 1787 4095
