Examples/Master - Per-channel contrast.3dl
#25pt 3DLUT created by 3D LUT Creator Pro (c) Oleg Sharonov
#Copyright Oleg Sharonov
#IMAGEPROFILE sRGB IEC61966-2.1 v.2.10
#INPUTGAMMA sRGB IEC61966-2.1 v.2.10
#OUTPUTGAMMA sRGB IEC61966-2.1 v.2.10
0 128 256 384 512 640 768 896 1023
0 0 0
158 158 959
233 233 1946
349 349 2745
564 564 3303
769 769 3660
880 880 3890
743 743 3994
0 0 4095
3 522 3
90 805 805
201 1003 1807
347 1049 2650
576 1074 3242
783 1116 3622
893 1132 3866
756 975 3985
3 513 4095
10 1076 10
52 1302 687
165 1607 1607
363 1717 2477
614 1699 3120
828 1645 3544
937 1572 3820
798 1384 3968
45 1034 4095
29 1747 29
61 1890 676
195 2172 1489
446 2326 2326
727 2317 2997
951 2228 3463
1064 2106 3778
931 1898 3968
314 1590 4095
94 2449 94
145 2538 712
337 2755 1452
632 2904 2237
938 2903 2903
1173 2806 3394
1290 2666 3742
1169 2455 3975
674 2174 4095
189 2934 189
262 3007 713
484 3199 1393
806 3350 2128
1128 3367 2780
1369 3283 3283
1484 3147 3656
1357 2947 3928
853 2693 4095
284 3349 284
370 3412 727
623 3580 1359
974 3723 2051
1312 3752 2678
1556 3684 3179
1666 3565 3565
1519 3392 3863
946 3175 4095
310 3730 310
422 3784 727
725 3927 1338
1115 4054 2004
1473 4083 2608
1723 4029 3098
1824 3931 3484
1639 3796 3796
883 3632 4095
3 4095 3
269 4095 624
729 4095 1292
1200 4095 1968
1596 4095 2564
1856 4095 3042
1942 4095 3421
1679 4095 3735
0 4095 4095
324 0 0
744 68 744
982 189 1772
1038 336 2627
1064 564 3225
1105 770 3609
1119 878 3855
958 735 3973
484 0 4083
422 422 0
687 687 687
924 924 1677
1008 1008 2549
1055 1055 3171
1107 1107 3574
1126 1126 3833
967 967 3964
485 485 4084
497 1000 0
634 1217 634
836 1530 1530
958 1666 2403
1046 1669 3061
1125 1629 3501
1154 1562 3790
997 1375 3949
501 1018 4091
582 1686 23
649 1828 649
797 2112 1446
944 2278 2278
1084 2285 2954
1200 2208 3428
1249 2094 3752
1101 1889 3951
620 1579 4095
652 2399 87
696 2489 696
823 2707 1426
1007 2863 2206
1205 2873 2873
1363 2786 3368
1434 2653 3721
1302 2445 3961
859 2164 4095
659 2898 183
703 2972 703
849 3164 1378
1079 3318 2110
1324 3342 2759
1512 3264 3264
1596 3134 3640
1463 2938 3916
998 2684 4095
666 3324 276
719 3387 719
896 3555 1349
1173 3699 2039
1455 3731 2665
1663 3668 3166
1753 3553 3553
1603 3383 3854
1067 3167 4095
648 3712 291
716 3766 716
939 3910 1330
1264 4037 1996
1581 4068 2600
1804 4017 3089
1891 3922 3476
1707 3789 3789
998 3627 4095
486 4084 0
603 4095 603
916 4095 1282
1318 4095 1960
1678 4095 2557
1919 4095 3036
1993 4095 3414
1734 4095 3729
351 4092 4092
651 0 0
1068 6 540
1497 119 1497
1655 314 2395
1654 560 3056
1603 770 3491
1528 874 3775
1333 716 3923
969 0 4055
751 336 0
1066 538 538
1455 788 1455
1622 924 2345
1636 1014 3015
1597 1089 3463
1528 1113 3756
1337 948 3916
969 403 4057
887 887 0
1076 1076 545
1383 1383 1383
1557 1557 2248
1603 1603 2932
1592 1592 3404
1538 1538 3720
1354 1354 3904
976 976 4065
1047 1567 6
1145 1702 592
1353 1981 1353
1515 2171 2171
1596 2210 2854
1624 2161 3348
1597 2064 3692
1426 1866 3910
1043 1549 4095
1166 2290 71
1221 2380 657
1367 2598 1367
1525 2768 2134
1646 2802 2802
1719 2737 3306
1726 2620 3671
1574 2422 3925
1194 2139 4095
1162 2816 161
1207 2890 678
1341 3081 1341
1520 3241 2064
1687 3280 2711
1803 3219 3219
1837 3102 3602
1691 2915 3888
1283 2662 4095
1137 3264 243
1182 3327 696
1325 3493 1325
1535 3641 2010
1745 3682 2633
1896 3630 3135
1947 3525 3525
1794 3363 3832
1318 3148 4095
1093 3669 230
1143 3723 686
1309 3866 1309
1560 3994 1975
1811 4031 2578
1989 3987 3068
2048 3900 3456
1866 3773 3773
1238 3613 4095
970 4056 0
1039 4095 540
1253 4095 1253
1566 4095 1940
1864 4095 2540
2066 4095 3019
2120 4095 3399
1869 4095 3717
758 4086 4086
1072 0 0
1390 0 445
1875 74 1271
2141 302 2141
2184 571 2842
2113 784 3331
1993 880 3663
1775 696 3854
1451 0 4022
1138 324 0
1410 454 454
1854 666 1256
2114 834 2114
2165 969 2815
2104 1072 3311
1990 1104 3648
1776 925 3849
1451 225 4024
1265 827 0
1459 968 475
1821 1234 1234
2064 1429 2064
2128 1519 2761
2088 1545 3268
1990 1512 3621
1785 1327 3841
1456 907 4034
1461 1461 0
1577 1577 533
1832 1832 1248
2035 2035 2035
2112 2112 2720
2099 2099 3235
2026 2026 3605
1837 1837 3853
1504 1504 4075
1631 2167 48
1699 2252 612
1871 2460 1294
2039 2640 2039
2131 2702 2702
2154 2669 3217
2113 2577 3599
1945 2391 3874
1610 2104 4095
1643 2715 126
1695 2786 645
1838 2969 1295
2003 3135 2003
2126 3192 2644
2188 3155 3155
2177 3059 3547
2021 2885 3846
1665 2631 4095
1615 3188 192
1660 3248 665
1795 3409 1293
1972 3558 1972
2129 3610 2591
2227 3575 3092
2241 3486 3486
2085 3335 3801
1674 3122 4095
1561 3615 107
1606 3668 640
1746 3805 1280
1949 3932 1949
2142 3976 2551
2271 3943 3040
2299 3867 3429
2124 3750 3750
1587 3593 4095
1452 4023 0
1505 4070 425
1671 4095 1212
1915 4095 1915
2150 4095 2519
2307 4095 3000
2337 4095 3380
2101 4095 3700
1211 4079 4079
1576 0 0
1801 0 417
2241 52 1137
2554 320 1943
2645 611 2645
2589 827 3171
2461 913 3546
2237 691 3785
1937 0 3998
1614 347 0
1821 423 423
2234 591 1134
2537 773 1931
2630 946 2630
2580 1077 3157
2456 1115 3535
2237 912 3782
1937 0 4001
1706 827 0
1873 922 442
2228 1132 1132
2505 1325 1909
2600 1451 2600
2563 1512 3130
2452 1498 3517
2243 1308 3778
1942 811 4012
1887 1409 0
2002 1500 492
2269 1714 1164
2498 1913 1913
2589 2020 2589
2568 2043 3118
2476 1995 3513
2283 1813 3794
1983 1449 4051
2076 2076 19
2149 2149 573
2337 2337 1232
2516 2516 1950
2603 2603 2603
2604 2604 3124
2538 2538 3521
2365 2365 3820
2066 2066 4095
2108 2630 87
2163 2694 615
2314 2863 1255
2477 3026 1947
2579 3101 2579
2610 3090 3090
2572 3016 3489
2415 2857 3802
2102 2600 4095
2087 3121 116
2134 3177 633
2267 3325 1267
2428 3469 1941
2553 3532 2553
2614 3516 3051
2602 3446 3446
2451 3308 3768
2097 3096 4095
2035 3569 0
2078 3617 583
2207 3745 1255
2380 3866 1931
2531 3914 2531
2622 3894 3017
2627 3833 3403
2464 3728 3728
2012 3574 4090
1937 3999 0
1984 4042 206
2126 4095 1170
2325 4095 1899
2510 4095 2510
2627 4095 2989
2638 4095 3365
2426 4095 3684
1704 4074 4074
2142 0 0
2301 0 414
2659 48 1076
2962 381 1821
3077 696 2503
3042 917 3042
2922 993 3447
2712 725 3732
2438 0 3996
2164 367 0
2315 417 417
2658 558 1077
2952 759 1816
3065 970 2495
3033 1126 3033
2918 1169 3441
2712 933 3730
2439 0 3999
2224 855 0
2355 919 425
2663 1081 1081
2934 1268 1810
3044 1423 2481
3019 1516 3019
2913 1518 3429
2716 1313 3729
2444 680 4009
2368 1407 0
2469 1474 465
2717 1648 1120
2943 1834 1834
3041 1963 2492
3024 2019 3024
2931 1994 3435
2749 1812 3746
2481 1393 4044
2543 2033 0
2613 2093 552
2796 2254 1199
2973 2425 1895
3057 2532 2532
3050 2563 3050
2976 2522 3455
2814 2361 3775
2551 2036 4091
2583 2583 52
2637 2637 601
2785 2785 1241
2940 2940 1920
3028 3028 2538
3042 3042 3042
2993 2993 3442
2847 2847 3766
2577 2577 4095
2570 3083 42
2615 3131 615
2743 3262 1265
2889 3397 1936
2990 3467 2539
3028 3469 3028
3002 3418 3418
2866 3295 3743
2568 3077 4095
2524 3546 0
2564 3588 527
2683 3700 1252
2832 3810 1940
2952 3859 2538
3016 3852 3016
3007 3805 3393
2865 3713 3713
2492 3559 4086
2439 3997 0
2481 4035 0
2605 4095 1141
2770 4095 1910
2916 4095 2528
3004 4095 3004
3004 4095 3369
2825 4095 3677
2238 4073 4073
2755 0 0
2868 0 408
3145 84 1066
3402 508 1772
3511 852 2427
3487 1080 2963
3383 1148 3383
3201 842 3704
2966 0 4017
2768 362 0
2877 408 408
3145 562 1067
3395 808 1771
3502 1065 2424
3480 1247 2959
3379 1293 3379
3201 1022 3702
2967 0 4019
2804 885 0
2904 933 409
3151 1074 1074
3384 1270 1773
3487 1458 2421
3468 1583 2953
3374 1599 3374
3203 1372 3702
2973 523 4027
2911 1432 0
2992 1483 449
3200 1628 1117
3399 1810 1810
3487 1962 2447
3471 2049 2971
3387 2045 3387
3230 1858 3719
3005 1351 4055
3052 2032 0
3113 2081 559
3272 2219 1211
3429 2384 1892
3499 2510 2510
3488 2570 3015
3418 2554 3418
3279 2398 3747
3063 2030 4091
3088 2575 65
3137 2620 625
3267 2747 1272
3401 2893 1942
3470 2994 2544
3472 3033 3033
3422 3007 3422
3300 2873 3746
3084 2578 4095
3077 3077 39
3118 3118 641
3230 3230 1309
3352 3352 1982
3429 3429 2573
3450 3450 3046
3420 3420 3420
3309 3309 3734
3076 3076 4095
3037 3550 0
3073 3584 520
3175 3677 1298
3297 3772 2002
3386 3822 2595
3428 3826 3058
3416 3796 3416
3305 3716 3716
3016 3555 4087
2967 4018 0
3004 4047 0
3107 4095 1164
3239 4095 1979
3349 4095 2604
3412 4095 3068
3411 4095 3411
3276 4095 3689
2813 4075 4075
3412 0 0
3490 0 417
3690 278 1110
3880 750 1801
3958 1123 2432
3931 1365 2951
3843 1435 3366
3703 1126 3703
3527 0 4055
3418 347 0
3494 417 417
3690 644 1113
3875 969 1804
3951 1279 2432
3925 1489 2950
3839 1545 3364
3702 1263 3702
3529 0 4057
3438 919 0
3510 967 422
3692 1124 1124
3866 1362 1814
3937 1600 2439
3913 1762 2952
3833 1796 3364
3702 1555 3702
3533 533 4062
3509 1479 0
3570 1525 492
3726 1666 1181
3874 1865 1865
3933 2054 2480
3910 2177 2982
3837 2196 3384
3718 2005 3718
3557 1400 4080
3609 2070 126
3656 2113 660
3777 2242 1307
3891 2415 1974
3933 2569 2569
3911 2663 3048
3849 2674 3429
3747 2526 3747
3598 2103 4095
3631 2606 322
3668 2645 760
3766 2760 1395
3861 2906 2055
3899 3026 2634
3887 3094 3094
3841 3096 3454
3756 2974 3756
3613 2643 4095
3616 3106 354
3647 3139 802
3730 3236 1458
3814 3352 2125
3856 3440 2696
3858 3484 3140
3830 3478 3478
3758 3383 3758
3611 3124 4095
3580 3580 0
3607 3607 702
3682 3682 1465
3763 3763 2172
3815 3815 2752
3834 3834 3187
3823 3823 3506
3757 3757 3757
3578 3578 4094
3528 4056 0
3554 4075 0
3629 4095 1347
3716 4095 2176
3783 4095 2798
3822 4095 3239
3827 4095 3541
3753 4095 3753
3443 4080 4080
4080 0 0
4095 189 588
4095 686 1268
4095 1165 1947
4095 1564 2547
4095 1825 3030
4095 1913 3412
4095 1649 3730
4093 0 4093
4082 482 0
4095 594 594
4095 907 1275
4095 1308 1954
4095 1670 2552
4095 1912 3033
4095 1990 3413
4095 1741 3730
4094 439 4094
4090 1017 0
4095 1083 617
4095 1297 1297
4095 1609 1974
4095 1910 2568
4095 2116 3044
4095 2180 3419
4095 1959 3733
4095 1034 4095
4095 1577 252
4095 1631 735
4095 1800 1384
4095 2050 2050
4095 2294 2632
4095 2464 3093
4095 2519 3452
4095 2345 3752
4095 1703 4095
4095 2162 635
4095 2208 967
4095 2351 1560
4095 2558 2200
4095 2758 2758
4095 2898 3191
4095 2947 3520
4095 2823 3790
4095 2373 4095
4095 2684 819
4095 2722 1115
4095 2841 1691
4095 3009 2322
4095 3166 2864
4095 3276 3276
4095 3317 3579
4095 3223 3817
4095 2877 4095
4095 3168 912
4095 3199 1208
4095 3293 1797
4095 3419 2436
4095 3533 2973
4095 3614 3369
4095 3647 3647
4095 3581 3848
4095 3315 4095
4095 3628 842
4095 3650 1194
4095 3714 1853
4095 3793 2535
4095 3860 3086
4095 3906 3478
4095 3929 3736
4095 3893 3893
4095 3707 4095
4094 4094 0
4095 4095 888
4095 4095 1810
4095 4095 2607
4095 4095 3214
4095 4095 3627
4095 4095 3881
4095 4095 3989
4095 4095 4095
