Examples/Master - Per-channel contrast.3dl
#25pt 3DLUT created by 3D LUT Creator Pro (c) Oleg Sharonov
#Copyright Oleg Sharonov
#IMAGEPROFILE sRGB IEC61966-2.1 v.2.10
#INPUTGAMMA sRGB IEC61966-2.1 v.2.10
#OUTPUTGAMMA sRGB IEC61966-2.1 v.2.10
0 256 512 768 1023
0 0 0
233 233 1946
564 564 3303
880 880 3890
0 0 4095
10 1076 10
165 1607 1607
614 1699 3120
937 1572 3820
45 1034 4095
94 2449 94
337 2755 1452
938 2903 2903
1290 2666 3742
674 2174 4095
284 3349 284
623 3580 1359
1312 3752 2678
1666 3565 3565
946 3175 4095
3 4095 3
729 4095 1292
1596 4095 2564
1942 4095 3421
0 4095 4095
651 0 0
1497 119 1497
1654 560 3056
1528 874 3775
969 0 4055
887 887 0
1383 1383 1383
1603 1603 2932
1538 1538 3720
976 976 4065
1166 2290 71
1367 2598 1367
1646 2802 2802
1726 2620 3671
1194 2139 4095
1137 3264 243
1325 3493 1325
1745 3682 2633
1947 3525 3525
1318 3148 4095
970 4056 0
1253 4095 1253
1864 4095 2540
2120 4095 3399
758 4086 4086
1576 0 0
2241 52 1137
2645 611 2645
2461 913 3546
1937 0 3998
1706 827 0
2228 1132 1132
2600 1451 2600
2452 1498 3517
1942 811 4012
2076 2076 19
2337 2337 1232
2603 2603 2603
2538 2538 3521
2066 2066 4095
2087 3121 116
2267 3325 1267
2553 3532 2553
2602 3446 3446
2097 3096 4095
1937 3999 0
2126 4095 1170
2510 4095 2510
2638 4095 3365
1704 4074 4074
2755 0 0
3145 84 1066
3511 852 2427
3383 1148 3383
2966 0 4017
2804 885 0
3151 1074 1074
3487 1458 2421
3374 1599 3374
2973 523 4027
3052 2032 0
3272 2219 1211
3499 2510 2510
3418 2554 3418
3063 2030 4091
3077 3077 39
3230 3230 1309
3429 3429 2573
3420 3420 3420
3076 3076 4095
2967 4018 0
3107 4095 1164
3349 4095 2604
3411 4095 3411
2813 4075 4075
4080 0 0
4095 686 1268
4095 1564 2547
4095 1913 3412
4093 0 4093
4090 1017 0
4095 1297 1297
4095 1910 2568
4095 2180 3419
4095 1034 4095
4095 2162 635
4095 2351 1560
4095 2758 2758
4095 2947 3520
4095 2373 4095
4095 3168 912
4095 3293 1797
4095 3533 2973
4095 3647 3647
4095 3315 4095
4094 4094 0
4095 4095 1810
4095 4095 3214
4095 4095 3881
4095 4095 4095
