Examples/Master - Warm up.3dl
#25pt 3DLUT created by 3D LUT Creator Pro (c) Oleg Sharonov
#Copyright Oleg Sharonov
0 43 86 128 171 214 256 299 341 384 427 469 512 555 597 640 682 725 768 810 853 896 938 981 1023 
0 0 0
1 0 160
4 3 315
7 6 473
10 12 634
12 19 794
10 30 957
10 39 1122
33 43 1286
68 43 1455
111 40 1623
139 43 1789
160 52 1951
180 62 2114
200 74 2277
221 86 2439
241 97 2603
261 111 2765
281 123 2928
302 134 3091
322 146 3253
342 158 3416
363 170 3579
383 182 3741
404 194 3904
0 171 0
1 171 157
4 174 315
7 176 474
10 182 634
12 188 794
10 196 957
22 201 1122
46 204 1287
76 206 1453
100 212 1617
122 218 1780
143 225 1944
165 232 2107
186 239 2270
207 247 2433
229 256 2596
249 264 2759
271 273 2922
291 282 3086
312 291 3249
333 300 3411
354 310 3574
375 320 3737
396 329 3900
1 341 1
1 341 157
6 343 315
7 345 473
10 348 633
12 352 795
18 356 957
30 360 1120
43 365 1283
61 369 1446
81 375 1609
103 380 1772
126 385 1936
147 391 2100
170 397 2263
192 403 2426
213 409 2590
235 416 2753
257 423 2916
279 430 3079
300 438 3243
322 446 3406
343 454 3569
364 462 3732
385 470 3895
1 512 0
3 512 157
4 513 315
6 515 473
7 517 632
10 520 792
16 524 953
24 527 1115
34 531 1276
48 535 1438
65 540 1602
86 544 1764
107 550 1927
129 554 2091
152 560 2254
174 565 2417
195 571 2581
218 576 2745
240 582 2908
262 588 3072
284 595 3235
306 601 3398
328 608 3562
350 615 3725
371 622 3889
1 682 0
3 683 157
3 684 315
4 685 473
7 687 631
9 689 790
13 692 950
19 695 1110
28 698 1271
39 702 1433
52 706 1595
70 711 1757
91 715 1920
112 720 2083
133 725 2246
154 729 2409
176 735 2573
199 740 2736
221 745 2900
243 750 3063
265 756 3226
287 762 3390
310 768 3554
332 773 3717
354 780 3881
1 853 0
3 853 157
4 854 314
6 855 472
7 856 630
10 858 788
13 860 948
18 863 1108
25 866 1268
33 870 1429
45 873 1590
58 877 1752
76 882 1913
95 886 2076
115 890 2239
137 895 2401
158 899 2565
179 904 2728
201 909 2891
223 914 3055
245 920 3218
268 925 3381
290 930 3545
312 936 3708
335 941 3872
3 1024 0
3 1024 156
4 1024 314
6 1025 471
7 1026 630
10 1028 788
13 1030 946
16 1032 1106
22 1035 1265
30 1038 1425
39 1041 1586
51 1045 1747
65 1049 1908
83 1053 2070
101 1057 2232
122 1061 2395
141 1066 2557
162 1070 2720
183 1075 2883
205 1079 3046
226 1084 3209
248 1089 3373
271 1094 3536
292 1099 3699
315 1105 3863
3 1194 0
4 1195 156
4 1195 314
6 1196 471
7 1197 629
10 1198 787
13 1200 945
16 1202 1104
22 1204 1263
28 1207 1423
36 1210 1583
46 1213 1744
58 1216 1904
73 1220 2066
90 1224 2227
108 1228 2389
128 1232 2551
146 1236 2713
166 1241 2876
187 1245 3039
208 1250 3202
229 1255 3365
251 1260 3528
273 1264 3691
295 1269 3854
4 1365 0
4 1365 156
6 1365 314
7 1366 471
9 1367 629
10 1368 786
13 1370 945
18 1371 1103
22 1373 1262
27 1376 1421
34 1378 1581
43 1381 1741
53 1384 1901
65 1388 2062
81 1391 2223
97 1395 2384
115 1399 2546
134 1403 2708
153 1407 2870
172 1412 3032
193 1416 3194
213 1421 3357
234 1425 3520
255 1430 3683
276 1434 3846
4 1535 0
6 1536 157
6 1536 314
7 1537 470
9 1537 628
12 1538 786
13 1540 944
18 1541 1102
22 1543 1260
27 1545 1420
33 1547 1579
42 1550 1738
49 1553 1898
61 1556 2059
74 1559 2219
90 1563 2380
106 1566 2541
123 1570 2703
141 1574 2864
160 1578 3026
178 1582 3188
198 1587 3351
218 1591 3513
238 1596 3676
259 1600 3839
4 1706 0
6 1706 157
6 1707 313
7 1707 470
10 1708 628
12 1709 785
15 1710 943
18 1711 1101
22 1713 1260
27 1715 1418
33 1717 1577
40 1719 1737
48 1722 1896
58 1725 2056
70 1728 2216
84 1731 2377
100 1734 2537
115 1738 2698
131 1742 2860
149 1745 3021
166 1749 3183
184 1754 3345
204 1758 3507
224 1762 3669
244 1766 3832
6 1877 0
6 1877 157
7 1877 313
9 1877 470
10 1878 628
12 1879 785
15 1880 943
19 1881 1101
22 1883 1259
27 1884 1417
33 1886 1576
39 1889 1735
46 1891 1894
56 1893 2054
67 1896 2214
80 1899 2374
94 1902 2534
108 1906 2695
124 1909 2856
140 1913 3017
157 1917 3178
174 1921 3340
192 1925 3502
211 1929 3663
230 1933 3826
6 2047 0
6 2047 156
7 2048 313
9 2048 470
10 2049 628
13 2049 785
16 2050 942
19 2051 1101
22 2053 1258
28 2054 1417
33 2056 1575
39 2058 1734
46 2060 1893
55 2063 2052
65 2065 2211
77 2068 2371
90 2071 2531
103 2074 2692
117 2077 2852
133 2081 3013
148 2084 3174
165 2088 3335
181 2092 3497
199 2096 3658
217 2100 3820
7 2218 1
7 2218 156
9 2218 313
10 2219 470
12 2219 627
13 2220 785
16 2221 942
19 2222 1100
24 2223 1258
28 2224 1416
33 2226 1574
39 2228 1733
46 2230 1892
55 2232 2051
64 2234 2210
74 2237 2369
86 2240 2529
100 2243 2689
113 2246 2849
127 2249 3010
142 2252 3170
157 2256 3331
174 2259 3492
190 2263 3654
207 2267 3815
7 2389 1
9 2389 157
9 2389 313
10 2389 470
12 2390 627
13 2390 785
16 2391 942
21 2392 1100
24 2393 1257
28 2394 1415
33 2396 1573
40 2397 1732
46 2399 1890
53 2401 2049
62 2404 2208
73 2406 2367
84 2409 2527
96 2411 2687
109 2414 2847
123 2417 3007
136 2420 3167
151 2424 3328
166 2427 3489
181 2431 3649
198 2434 3811
7 2559 1
9 2559 156
9 2559 313
10 2560 470
12 2560 627
15 2561 785
18 2561 942
21 2562 1099
24 2563 1257
30 2565 1415
34 2566 1573
40 2567 1731
46 2569 1890
53 2571 2048
62 2573 2207
73 2575 2366
83 2578 2525
95 2580 2685
106 2583 2844
118 2586 3004
132 2589 3164
145 2592 3325
160 2595 3485
174 2599 3646
190 2602 3807
9 2730 1
9 2730 156
10 2730 313
10 2730 470
12 2731 627
15 2731 784
18 2732 942
21 2733 1099
25 2734 1257
30 2735 1414
34 2736 1572
40 2738 1730
46 2739 1889
53 2741 2047
62 2743 2206
71 2745 2365
81 2747 2524
92 2749 2683
103 2752 2842
116 2755 3002
128 2758 3162
142 2761 3322
155 2764 3482
170 2767 3643
185 2770 3803
9 2900 1
10 2900 156
10 2901 313
12 2901 470
13 2901 627
15 2902 784
18 2902 941
21 2903 1099
25 2904 1256
30 2905 1414
34 2906 1572
40 2908 1730
48 2909 1888
53 2911 2046
62 2912 2205
71 2914 2363
81 2916 2522
92 2919 2681
102 2921 2840
114 2924 3000
126 2926 3160
139 2929 3319
151 2932 3480
165 2935 3640
178 2938 3800
9 3071 1
10 3071 156
10 3071 313
12 3072 470
13 3072 627
16 3072 784
18 3073 941
21 3074 1098
25 3074 1256
30 3075 1413
34 3076 1571
40 3078 1729
46 3079 1887
53 3081 2045
62 3082 2204
71 3084 2362
80 3086 2521
91 3088 2680
101 3090 2839
112 3093 2998
124 3095 3158
136 3098 3317
148 3101 3477
160 3104 3637
174 3107 3797
9 3242 1
10 3242 156
10 3242 313
12 3242 470
13 3243 627
15 3243 784
19 3243 941
22 3244 1098
25 3245 1256
30 3246 1413
34 3247 1571
42 3248 1729
48 3249 1887
53 3251 2045
62 3252 2203
70 3254 2361
80 3256 2520
90 3258 2679
100 3260 2837
112 3262 2997
123 3265 3156
133 3267 3315
145 3270 3475
157 3273 3635
170 3276 3795
10 3412 1
10 3412 156
12 3412 313
12 3413 469
13 3413 626
16 3413 784
18 3414 941
22 3415 1098
25 3415 1255
30 3416 1413
36 3417 1570
40 3418 1728
46 3419 1886
53 3421 2044
61 3422 2202
70 3424 2360
80 3426 2519
90 3427 2678
100 3429 2836
109 3432 2995
120 3434 3154
132 3436 3313
143 3439 3473
155 3441 3633
167 3444 3792
10 3583 0
10 3583 156
10 3583 312
12 3583 469
13 3584 626
16 3584 783
18 3584 940
21 3585 1098
25 3586 1255
30 3587 1413
34 3587 1570
40 3588 1728
48 3590 1886
53 3591 2043
62 3592 2201
70 3594 2360
80 3596 2518
88 3597 2676
99 3599 2835
109 3601 2994
119 3603 3153
130 3606 3312
141 3608 3471
153 3611 3630
165 3613 3790
10 3754 0
10 3754 156
10 3754 312
12 3754 469
15 3754 626
15 3755 783
18 3755 940
22 3756 1098
25 3756 1255
30 3757 1412
34 3758 1570
40 3759 1727
48 3760 1885
53 3761 2043
61 3762 2201
70 3764 2359
79 3765 2517
88 3767 2675
99 3769 2834
108 3771 2993
118 3773 3151
129 3775 3310
140 3777 3470
151 3780 3629
162 3782 3788
10 3924 0
10 3924 155
10 3924 312
12 3925 468
13 3925 626
16 3925 783
18 3926 940
21 3926 1097
25 3927 1254
30 3927 1412
34 3928 1569
40 3929 1727
46 3930 1885
53 3931 2042
61 3933 2200
70 3934 2358
79 3935 2516
88 3937 2675
97 3939 2833
107 3941 2992
117 3943 3150
128 3945 3309
139 3947 3468
149 3949 3627
160 3951 3786
12 4095 0
12 4095 156
13 4095 311
15 4095 469
18 4095 626
18 4095 783
21 4095 940
27 4095 1098
28 4095 1255
34 4095 1412
40 4095 1570
48 4095 1727
52 4095 1885
59 4095 2043
68 4095 2201
77 4095 2359
102 4095 2518
96 4095 2675
167 4095 2837
251 4095 2999
262 4095 3157
396 4095 3324
424 4095 3481
505 4095 3641
514 4095 3796
188 0 0
197 0 134
203 0 287
215 0 452
230 0 624
234 1 786
237 10 946
244 18 1111
256 24 1277
275 25 1443
293 28 1611
308 36 1774
323 46 1938
338 55 2103
354 67 2266
370 79 2430
386 92 2593
404 105 2756
421 117 2919
438 130 3083
456 142 3246
475 154 3409
493 166 3572
511 178 3735
530 191 3898
213 156 0
221 155 141
223 157 304
226 160 465
230 165 624
234 172 784
238 180 946
247 186 1111
260 191 1276
273 197 1440
285 204 1604
299 210 1768
313 218 1932
329 226 2096
344 234 2260
361 242 2424
378 250 2588
395 259 2751
413 268 2915
430 277 3078
448 287 3241
467 297 3405
485 306 3568
504 316 3731
523 326 3894
221 331 0
222 331 143
223 333 304
226 335 465
231 338 624
235 342 785
240 346 947
247 351 1108
256 356 1272
266 362 1436
277 367 1599
290 372 1763
304 379 1927
318 385 2090
333 391 2254
350 398 2418
367 405 2582
384 412 2745
402 418 2909
420 426 3072
438 434 3236
457 442 3400
476 450 3563
495 459 3726
514 467 3890
227 503 0
226 504 144
228 505 306
229 507 465
232 509 624
235 512 785
238 516 945
245 520 1106
252 524 1268
260 529 1431
270 534 1594
281 539 1756
293 543 1920
307 549 2084
322 554 2247
338 560 2411
354 566 2575
371 572 2738
389 578 2902
407 584 3066
425 591 3229
444 598 3393
463 604 3556
482 611 3720
502 618 3883
228 676 0
228 676 149
229 677 308
230 679 467
233 680 625
235 683 784
238 686 944
244 689 1104
248 693 1265
255 697 1427
263 701 1589
274 706 1751
284 710 1914
297 715 2077
310 720 2240
325 725 2403
340 730 2567
357 735 2730
374 741 2894
392 747 3058
411 752 3221
430 758 3385
448 764 3549
467 770 3712
486 777 3876
229 848 0
229 848 150
230 849 310
231 850 467
233 851 625
236 854 784
239 856 943
242 859 1103
247 862 1263
253 865 1424
259 869 1585
267 873 1746
277 877 1909
288 882 2071
300 886 2233
314 891 2397
328 896 2560
344 901 2723
360 906 2886
377 911 3050
395 916 3213
413 922 3377
432 927 3540
451 933 3704
471 938 3868
229 1020 0
230 1020 153
231 1020 310
232 1021 468
234 1022 625
236 1024 784
238 1026 942
242 1028 1102
246 1031 1261
251 1034 1421
257 1037 1582
264 1041 1743
272 1045 1904
281 1049 2066
292 1053 2228
304 1058 2390
317 1062 2553
332 1067 2716
347 1072 2879
363 1076 3042
381 1081 3205
398 1086 3369
416 1091 3532
435 1097 3696
454 1102 3859
230 1191 0
230 1191 153
231 1191 310
233 1192 468
235 1193 626
237 1195 784
239 1196 942
242 1198 1101
246 1201 1260
250 1203 1419
255 1206 1580
261 1210 1740
268 1213 1901
277 1217 2062
286 1221 2224
297 1225 2385
308 1229 2548
321 1233 2710
335 1238 2872
350 1242 3035
366 1247 3198
383 1252 3361
401 1257 3524
419 1262 3688
437 1267 3851
230 1362 0
231 1362 153
232 1362 310
233 1363 468
235 1364 626
237 1365 784
239 1367 942
242 1368 1100
246 1370 1259
249 1373 1418
253 1375 1578
259 1378 1738
266 1381 1898
273 1385 2059
281 1389 2220
290 1392 2381
302 1396 2543
313 1400 2704
326 1405 2867
340 1409 3029
355 1413 3191
371 1418 3354
387 1423 3517
404 1427 3680
422 1432 3843
231 1533 0
232 1533 153
233 1533 311
234 1534 468
236 1535 626
237 1536 783
239 1537 941
242 1538 1100
246 1540 1258
249 1543 1417
253 1545 1576
258 1548 1736
263 1550 1896
270 1553 2056
277 1557 2216
286 1560 2377
296 1564 2538
306 1568 2700
318 1572 2862
331 1576 3023
344 1580 3186
359 1584 3348
375 1589 3511
391 1593 3673
408 1598 3836
232 1704 0
233 1704 153
234 1704 311
235 1705 468
236 1705 626
238 1706 783
240 1707 941
243 1709 1099
246 1711 1257
249 1712 1416
253 1715 1575
258 1717 1734
263 1720 1894
269 1722 2054
275 1725 2214
283 1729 2374
292 1732 2535
301 1736 2696
311 1739 2857
324 1743 3019
336 1747 3180
349 1751 3342
364 1756 3505
379 1760 3667
395 1764 3829
