Examples/Master - Warm up.3dl
#25pt 3DLUT created by 3D LUT Creator Pro (c) Oleg Sharonov
#Copyright Oleg Sharonov
0 128 256 384 512 640 768 896 1023
0 0 0
7 6 473
10 30 957
68 43 1455
160 52 1951
221 86 2439
281 123 2928
342 158 3416
404 194 3904
1 512 0
6 515 473
16 524 953
48 535 1438
107 550 1927
174 565 2417
240 582 2908
306 601 3398
371 622 3889
3 1024 0
6 1025 471
13 1030 946
30 1038 1425
65 1049 1908
122 1061 2395
183 1075 2883
248 1089 3373
315 1105 3863
4 1535 0
7 1537 470
13 1540 944
27 1545 1420
49 1553 1898
90 1563 2380
141 1574 2864
198 1587 3351
259 1600 3839
6 2047 0
9 2048 470
16 2050 942
28 2054 1417
46 2060 1893
77 2068 2371
117 2077 2852
165 2088 3335
217 2100 3820
7 2559 1
10 2560 470
18 2561 942
30 2565 1415
46 2569 1890
73 2575 2366
106 2583 2844
145 2592 3325
190 2602 3807
9 3071 1
12 3072 470
18 3073 941
30 3075 1413
46 3079 1887
71 3084 2362
101 3090 2839
136 3098 3317
174 3107 3797
10 3583 0
12 3583 469
18 3584 940
30 3587 1413
48 3590 1886
70 3594 2360
99 3599 2835
130 3606 3312
165 3613 3790
12 4095 0
15 4095 469
21 4095 940
34 4095 1412
52 4095 1885
77 4095 2359
167 4095 2837
396 4095 3324
514 4095 3796
504 7 0
544 0 386
601 0 852
652 0 1359
692 0 1878
726 31 2377
762 76 2875
802 122 3371
843 165 3865
618 470 0
641 465 425
655 475 902
672 491 1387
694 509 1878
720 530 2372
752 552 2866
788 574 3361
829 598 3854
666 993 0
667 996 444
674 1001 918
683 1010 1396
696 1022 1879
714 1036 2365
737 1051 2854
767 1068 3345
803 1085 3837
674 1516 0
677 1517 452
682 1520 926
689 1526 1401
698 1534 1879
710 1544 2360
727 1557 2845
750 1570 3331
779 1584 3820
680 2033 0
682 2034 454
686 2036 929
692 2040 1404
699 2046 1879
709 2054 2357
722 2064 2838
739 2075 3321
762 2087 3806
684 2548 0
686 2549 456
689 2551 931
694 2554 1405
701 2558 1879
709 2565 2355
720 2572 2834
734 2581 3314
753 2592 3796
686 3063 0
688 3063 457
691 3064 932
696 3067 1405
702 3070 1879
710 3075 2354
719 3082 2830
731 3089 3309
747 3098 3788
688 3576 0
690 3576 457
693 3577 932
697 3579 1405
703 3582 1879
710 3587 2353
719 3592 2828
730 3598 3305
744 3606 3783
691 4089 0
692 4089 457
694 4090 932
698 4092 1405
704 4094 1878
711 4095 2352
720 4095 2826
731 4095 3302
882 4095 3786
966 83 0
1046 0 336
1079 0 795
1133 0 1249
1194 0 1736
1248 0 2240
1299 0 2770
1335 0 3283
1369 51 3785
1102 452 0
1185 358 333
1202 367 828
1226 386 1307
1252 411 1795
1280 440 2288
1308 472 2785
1337 503 3284
1367 535 3782
1219 944 0
1240 937 385
1250 942 862
1264 951 1337
1279 964 1818
1297 980 2303
1317 998 2793
1339 1018 3285
1364 1039 3779
1272 1472 0
1275 1474 401
1281 1477 884
1290 1483 1359
1300 1492 1835
1311 1503 2316
1325 1516 2800
1342 1531 3286
1361 1547 3775
1297 1999 0
1295 2001 411
1299 2003 897
1305 2007 1372
1312 2013 1847
1321 2022 2325
1331 2032 2805
1343 2044 3287
1358 2057 3772
1305 2522 0
1306 2522 417
1310 2524 905
1314 2527 1380
1320 2532 1854
1327 2539 2330
1335 2547 2808
1345 2556 3288
1357 2567 3769
1312 3041 0
1313 3041 420
1316 3043 909
1320 3045 1385
1325 3049 1859
1330 3054 2334
1337 3061 2810
1346 3069 3288
1356 3078 3767
1317 3558 0
1318 3558 422
1320 3559 912
1323 3561 1388
1328 3565 1862
1333 3569 2336
1339 3574 2811
1346 3581 3288
1355 3589 3766
1320 4074 0
1321 4074 423
1323 4075 913
1326 4077 1389
1330 4079 1864
1334 4083 2337
1340 4087 2812
1346 4093 3287
1355 4095 3764
1501 84 0
1553 0 359
1572 0 798
1610 0 1236
1660 0 1694
1714 0 2173
1772 0 2676
1822 0 3192
1863 0 3706
1588 450 0
1680 276 303
1695 276 795
1720 276 1264
1755 276 1745
1784 305 2233
1812 356 2727
1842 408 3224
1871 455 3723
1701 920 0
1746 887 333
1757 891 822
1772 899 1295
1790 912 1772
1809 928 2255
1831 947 2743
1853 968 3234
1877 991 3728
1776 1441 0
1793 1436 349
1800 1439 848
1809 1445 1323
1821 1453 1798
1834 1465 2277
1849 1478 2759
1866 1494 3245
1884 1511 3734
1821 1969 0
1825 1970 361
1829 1972 865
1836 1976 1342
1844 1983 1817
1853 1991 2293
1864 2001 2772
1876 2013 3254
1890 2027 3739
1848 2495 0
1845 2497 367
1848 2499 877
1852 2502 1355
1859 2507 1830
1866 2513 2305
1874 2521 2782
1884 2531 3261
1895 2542 3743
1861 3018 0
1858 3020 373
1860 3021 884
1864 3024 1364
1868 3028 1839
1874 3033 2313
1881 3039 2789
1889 3048 3267
1898 3057 3746
1865 3540 0
1866 3540 375
1868 3541 889
1871 3543 1369
1875 3546 1845
1880 3551 2319
1886 3556 2794
1892 3563 3270
1900 3571 3748
1871 4058 0
1872 4058 377
1873 4059 892
1876 4061 1373
1879 4064 1849
1883 4067 2323
1889 4072 2797
1895 4078 3273
1901 4084 3749
2037 40 0
2065 0 380
2076 0 815
2101 0 1253
2136 0 1703
2183 0 2169
2230 0 2650
2277 0 3145
2325 0 3656
2089 442 0
2158 276 327
2168 276 801
2187 276 1260
2216 276 1728
2254 276 2209
2292 276 2703
2319 297 3196
2347 371 3691
2178 911 0
2230 856 309
2239 859 806
2253 867 1279
2270 878 1754
2289 893 2234
2310 912 2718
2333 933 3207
2356 957 3699
2247 1430 0
2275 1415 315
2281 1418 828
2291 1423 1304
2303 1431 1778
2316 1441 2256
2332 1454 2737
2349 1470 3221
2367 1487 3708
2298 1955 0
2310 1952 319
2314 1954 846
2321 1958 1324
2329 1964 1799
2339 1972 2275
2350 1982 2753
2363 1994 3234
2377 2008 3718
2333 2480 0
2334 2481 325
2337 2483 858
2342 2486 1339
2348 2491 1814
2355 2497 2289
2364 2505 2766
2374 2515 3244
2385 2526 3725
2354 3004 0
2351 3006 328
2353 3007 866
2357 3010 1349
2361 3014 1825
2367 3019 2300
2374 3025 2775
2382 3033 3252
2391 3043 3731
2366 3526 0
2362 3528 331
2364 3529 872
2367 3531 1356
2371 3534 1832
2375 3538 2307
2381 3544 2782
2387 3551 3258
2395 3559 3735
2370 4047 0
2370 4047 333
2372 4048 876
2374 4050 1361
2377 4053 1838
2381 4056 2313
2385 4061 2787
2391 4067 3262
2397 4074 3739
2559 0 0
2578 0 394
2586 0 838
2600 0 1284
2623 0 1736
2658 0 2199
2696 0 2673
2741 0 3163
2783 0 3664
2605 399 0
2649 276 340
2655 276 818
2668 276 1281
2689 276 1747
2717 276 2221
2754 276 2709
2781 276 3199
2805 336 3690
2649 928 0
2703 855 311
2710 858 816
2722 865 1289
2736 875 1762
2753 889 2240
2772 906 2722
2792 927 3208
2813 950 3697
2707 1438 0
2738 1416 312
2743 1419 831
2752 1423 1307
2762 1431 1781
2775 1440 2258
2790 1452 2737
2805 1466 3220
2823 1482 3706
2752 1958 0
2768 1952 314
2772 1954 845
2778 1958 1324
2786 1963 1799
2795 1971 2274
2806 1980 2751
2819 1991 3232
2832 2004 3714
2785 2480 0
2792 2480 317
2794 2482 855
2798 2485 1337
2804 2489 1812
2811 2495 2287
2820 2503 2764
2829 2512 3242
2840 2523 3722
2809 3002 0
2808 3004 318
2810 3006 862
2813 3008 1346
2818 3012 1822
2823 3017 2297
2830 3023 2773
2837 3031 3249
2846 3040 3728
2823 3524 0
2820 3526 319
2821 3527 868
2824 3529 1353
2827 3532 1830
2831 3536 2305
2837 3542 2780
2843 3548 3255
2850 3556 3733
2830 4044 0
2828 4045 322
2829 4046 871
2831 4048 1358
2834 4051 1835
2838 4054 2310
2842 4059 2785
2847 4065 3260
2853 4071 3736
3073 0 0
3090 0 409
3095 0 867
3103 0 1323
3116 0 1782
3143 0 2247
3173 0 2722
3204 0 3205
3240 0 3699
3102 420 0
3150 276 346
3153 276 840
3160 276 1311
3172 276 1783
3194 276 2259
3215 276 2741
3235 336 3226
3255 399 3714
3136 939 0
3170 888 343
3175 891 844
3184 896 1318
3195 905 1791
3209 917 2268
3224 933 2748
3241 951 3232
3260 971 3718
3168 1459 0
3193 1439 343
3197 1441 853
3203 1446 1329
3212 1452 1803
3223 1460 2279
3236 1471 2758
3250 1483 3239
3265 1498 3723
3198 1977 0
3214 1969 343
3217 1971 862
3222 1975 1341
3229 1980 1815
3237 1987 2290
3247 1995 2767
3258 2005 3247
3271 2017 3728
3224 2496 0
3232 2494 345
3234 2496 869
3237 2498 1350
3242 2502 1825
3249 2508 2299
3257 2515 2776
3266 2524 3253
3276 2534 3733
3243 3015 0
3245 3015 346
3246 3017 875
3249 3019 1357
3253 3023 1832
3258 3027 2307
3264 3033 2782
3271 3041 3259
3280 3049 3737
3256 3534 0
3254 3535 346
3255 3536 878
3257 3538 1362
3261 3541 1838
3265 3545 2313
3270 3550 2787
3276 3557 3263
3282 3564 3740
3262 4052 0
3261 4053 348
3262 4054 881
3264 4056 1365
3266 4059 1842
3269 4062 2317
3274 4066 2791
3279 4072 3267
3285 4078 3743
3585 0 0
3603 0 425
3605 0 896
3609 0 1362
3618 0 1830
3634 0 2301
3656 0 2779
3683 0 3264
3705 0 3752
3615 390 0
3629 309 397
3633 318 881
3640 333 1353
3649 358 1828
3660 389 2305
3674 423 2785
3689 458 3268
3705 494 3753
3621 966 0
3637 942 397
3640 945 884
3646 950 1358
3655 958 1832
3665 968 2308
3677 981 2787
3690 997 3269
3705 1015 3753
3635 1488 0
3648 1477 397
3651 1479 888
3656 1483 1363
3662 1488 1837
3671 1496 2313
3681 1505 2791
3693 1516 3271
3706 1529 3754
3652 2003 0
3659 2000 398
3661 2002 892
3665 2005 1369
3670 2009 1843
3677 2015 2318
3686 2023 2795
3695 2032 3274
3706 2043 3755
3665 2520 0
3669 2519 398
3670 2521 896
3673 2523 1373
3677 2527 1848
3683 2532 2323
3690 2538 2799
3698 2546 3276
3707 2556 3756
3674 3036 0
3676 3037 399
3677 3038 899
3679 3040 1377
3683 3043 1852
3687 3048 2326
3693 3053 2801
3699 3060 3278
3707 3068 3756
3682 3552 0
3682 3553 399
3682 3554 901
3684 3556 1380
3687 3559 1855
3690 3563 2329
3695 3568 2804
3700 3574 3279
3706 3581 3756
3686 4068 0
3686 4069 397
3686 4070 903
3687 4072 1382
3690 4074 1857
3693 4077 2331
3697 4081 2806
3701 4087 3281
3707 4093 3757
4095 0 0
4095 3 469
4095 12 941
4095 28 1414
4095 58 1890
4095 144 2367
4095 198 2844
4095 257 3319
4095 340 3786
4095 512 0
4095 513 468
4095 518 941
4095 525 1414
4095 535 1889
4095 566 2367
4095 602 2843
4095 651 3317
4095 691 3789
4095 1023 0
4095 1024 468
4095 1027 940
4095 1031 1413
4095 1037 1888
4095 1056 2366
4095 1079 2842
4095 1108 3315
4095 1140 3785
4095 1535 0
4095 1536 468
4095 1538 940
4095 1541 1413
4095 1546 1887
4095 1558 2365
4095 1573 2840
4095 1587 3315
4095 1606 3789
4095 2047 1
4095 2048 468
4095 2049 940
4095 2052 1412
4095 2056 1886
4095 2061 2361
4095 2074 2840
4095 2087 3314
4095 2101 3787
4095 2559 1
4095 2560 468
4095 2561 939
4095 2563 1411
4095 2566 1885
4095 2571 2359
4095 2578 2837
4095 2590 3313
4095 2603 3785
4095 3071 1
4095 3071 468
4095 3073 939
4095 3074 1410
4095 3077 1883
4095 3081 2357
4095 3086 2833
4095 3094 3312
4095 3105 3787
4095 3583 1
4095 3583 468
4095 3584 938
4095 3586 1410
4095 3589 1882
4095 3592 2356
4095 3596 2830
4095 3602 3306
4095 3610 3790
4095 4095 43
4095 4095 466
4095 4095 937
4095 4095 1409
4095 4095 1882
4095 4095 2355
4095 4095 2886
4095 4095 3419
4095 4095 3912
