Examples/Master - Warm up.3dl
#25pt 3DLUT created by 3D LUT Creator Pro (c) Oleg Sharonov
#Copyright Oleg Sharonov
0 256 512 768 1023
0 0 0
10 30 957
160 52 1951
281 123 2928
404 194 3904
3 1024 0
13 1030 946
65 1049 1908
183 1075 2883
315 1105 3863
6 2047 0
16 2050 942
46 2060 1893
117 2077 2852
217 2100 3820
9 3071 1
18 3073 941
46 3079 1887
101 3090 2839
174 3107 3797
12 4095 0
21 4095 940
52 4095 1885
167 4095 2837
514 4095 3796
966 83 0
1079 0 795
1194 0 1736
1299 0 2770
1369 51 3785
1219 944 0
1250 942 862
1279 964 1818
1317 998 2793
1364 1039 3779
1297 1999 0
1299 2003 897
1312 2013 1847
1331 2032 2805
1358 2057 3772
1312 3041 0
1316 3043 909
1325 3049 1859
1337 3061 2810
1356 3078 3767
1320 4074 0
1323 4075 913
1330 4079 1864
1340 4087 2812
1355 4095 3764
2037 40 0
2076 0 815
2136 0 1703
2230 0 2650
2325 0 3656
2178 911 0
2239 859 806
2270 878 1754
2310 912 2718
2356 957 3699
2298 1955 0
2314 1954 846
2329 1964 1799
2350 1982 2753
2377 2008 3718
2354 3004 0
2353 3007 866
2361 3014 1825
2374 3025 2775
2391 3043 3731
2370 4047 0
2372 4048 876
2377 4053 1838
2385 4061 2787
2397 4074 3739
3073 0 0
3095 0 867
3116 0 1782
3173 0 2722
3240 0 3699
3136 939 0
3175 891 844
3195 905 1791
3224 933 2748
3260 971 3718
3198 1977 0
3217 1971 862
3229 1980 1815
3247 1995 2767
3271 2017 3728
3243 3015 0
3246 3017 875
3253 3023 1832
3264 3033 2782
3280 3049 3737
3262 4052 0
3262 4054 881
3266 4059 1842
3274 4066 2791
3285 4078 3743
4095 0 0
4095 12 941
4095 58 1890
4095 198 2844
4095 340 3786
4095 1023 0
4095 1027 940
4095 1037 1888
4095 1079 2842
4095 1140 3785
4095 2047 1
4095 2049 940
4095 2056 1886
4095 2074 2840
4095 2101 3787
4095 3071 1
4095 3073 939
4095 3077 1883
4095 3086 2833
4095 3105 3787
4095 4095 43
4095 4095 937
4095 4095 1882
4095 4095 2886
4095 4095 3912
