Examples/Volume - Darken skies.3dl
#25pt 3DLUT created by 3D LUT Creator Pro (c) Oleg Sharonov
#Copyright Oleg Sharonov
0 256 512 768 1023
0 0 0
0 0 412
0 0 817
0 0 1224
0 0 1632
0 443 0
0 427 427
0 414 827
0 411 1232
0 409 1636
0 887 0
0 876 439
0 852 852
0 836 1254
0 827 1655
0 1330 0
0 1323 442
0 1302 868
0 1278 1278
0 1260 1681
0 1773 0
0 1769 442
0 1752 876
0 1727 1296
0 1704 1704
1023 0 0
1023 0 1023
786 0 1573
609 0 1825
526 0 2101
1023 1023 0
1024 1024 1024
695 695 1544
293 293 1884
0 0 2152
799 1598 0
706 1561 706
520 1344 1344
0 1120 1777
0 979 2103
628 1884 0
337 1934 337
0 1808 1139
0 1636 1636
0 1501 2033
550 2199 0
0 2248 0
0 2175 1011
0 2069 1528
0 1964 1964
2048 0 0
2048 0 1024
2048 0 2048
1900 0 2850
1574 0 3147
2048 1024 0
2048 1024 1024
2048 1024 2048
1857 823 2827
1484 0 3190
2048 2048 0
2048 2048 1024
2048 2048 2048
1710 1710 2666
1106 1106 3243
1916 2875 0
1873 2848 838
1720 2679 1720
1396 2425 2425
0 2069 3080
1598 3196 0
1506 3239 0
1131 3277 1131
0 3102 2084
0 2746 2746
3071 0 0
3071 0 1023
3071 0 2047
3071 0 3071
3063 0 4084
3071 1023 0
3071 1023 1023
3071 1023 2047
3071 1023 3071
3036 834 4072
3071 2048 0
3071 2048 1023
3071 2048 2048
3071 2048 3071
2915 1717 4010
3071 3071 0
3071 3071 1024
3071 3071 2048
3071 3071 3071
2576 2576 3922
3071 4095 3
3056 4086 947
2933 4020 1756
2589 3929 2589
0 3756 3756
4095 0 0
4095 0 1023
4095 0 2047
4095 0 3071
4095 0 4095
4095 1023 0
4095 1024 1024
4095 1024 2048
4095 1024 3071
4095 1023 4095
4095 2048 0
4095 2048 1024
4095 2048 2048
4095 2047 3071
4095 2047 4095
4095 3071 0
4095 3071 1023
4095 3071 2047
4095 3071 3071
4095 3071 4095
4095 4095 0
4095 4095 1022
4095 4095 2046
4095 4095 3071
4095 4095 4095
