Examples/Volume - Contrast.3dl
#25pt 3DLUT created by 3D LUT Creator Pro (c) Oleg Sharonov
#Copyright Oleg Sharonov
0 128 256 384 512 640 768 896 1023
0 0 0
0 0 217
0 0 596
0 0 1031
0 0 1507
0 0 2013
0 0 2519
0 0 2992
0 0 3401
0 212 0
0 245 245
0 299 601
0 345 1034
0 377 1512
0 403 2015
0 420 2519
0 427 2991
0 425 3398
0 548 0
0 570 284
0 633 633
0 703 1054
0 762 1524
0 809 2021
0 839 2518
0 853 2985
0 846 3386
0 950 0
0 965 322
0 1018 679
0 1090 1090
0 1162 1548
0 1219 2033
0 1259 2517
0 1273 2970
0 1259 3357
0 1396 0
0 1406 352
0 1446 724
0 1509 1132
0 1577 1577
0 1636 2045
0 1674 2510
0 1682 2943
0 1654 3309
0 1863 0
0 1870 374
0 1899 759
0 1948 1169
0 2003 1603
0 2051 2051
0 2077 2492
0 2070 2897
0 2023 3237
0 2329 0
0 2334 389
0 2353 784
0 2385 1193
0 2422 1615
0 2450 2042
0 2454 2454
0 2424 2827
0 2353 3137
0 2766 0
0 2768 396
0 2778 793
0 2794 1197
0 2809 1605
0 2810 2007
0 2786 2388
0 2727 2727
0 2632 3008
0 3140 0
0 3140 393
0 3141 785
0 3140 1178
0 3131 1565
0 3105 1940
0 3052 2289
0 2968 2597
0 2855 2855
209 0 0
230 0 230
289 0 579
339 0 1018
374 0 1499
401 0 2006
419 0 2515
427 0 2991
425 0 3401
217 217 0
243 243 243
0 0 669
0 0 1081
0 0 1550
0 0 2043
0 0 2542
0 0 3012
0 0 3417
271 541 0
0 645 0
0 651 651
0 683 1084
0 723 1553
0 757 2047
0 780 2541
0 790 3005
0 782 3404
314 944 0
0 1014 0
0 1049 661
0 1101 1101
0 1157 1567
0 1205 2052
0 1236 2536
0 1247 2988
0 1230 3373
347 1390 0
0 1442 0
0 1475 686
0 1528 1128
0 1586 1586
0 1636 2058
0 1668 2525
0 1671 2958
0 1642 3324
372 1859 0
0 1899 0
0 1925 712
0 1968 1155
0 2017 1603
0 2058 2058
0 2079 2503
0 2068 2910
0 2020 3251
388 2326 0
0 2357 0
0 2375 730
0 2405 1173
0 2437 1610
0 2461 2044
0 2461 2461
0 2428 2837
0 2355 3149
394 2765 0
0 2789 0
0 2798 735
0 2812 1173
0 2824 1596
0 2822 2006
0 2796 2392
0 2735 2735
0 2639 3019
393 3141 0
0 3159 0
0 3160 725
0 3157 1151
0 3146 1554
0 3118 1937
0 3064 2291
0 2979 2604
0 2866 2866
518 0 0
522 0 262
580 0 580
665 0 998
741 0 1482
797 0 1991
834 0 2501
852 0 2984
850 0 3401
517 260 0
607 0 0
613 0 613
659 0 1046
707 0 1519
748 0 2023
777 0 2529
789 0 3004
785 0 3418
558 558 0
594 594 0
622 622 622
648 648 1075
694 694 1543
729 729 2039
719 719 2549
584 584 3049
0 0 3485
627 940 0
623 989 0
625 1049 625
659 1090 1090
699 1143 1559
721 1188 2050
690 1204 2551
489 1151 3043
0 1078 3450
691 1382 0
662 1425 0
648 1479 648
675 1524 1115
699 1580 1580
697 1629 2062
620 1652 2551
0 1619 3028
0 1579 3394
741 1852 0
697 1887 0
666 1933 666
676 1975 1137
674 2025 1598
627 2068 2068
422 2086 2540
0 2061 2967
0 2002 3312
774 2323 0
723 2352 0
637 2401 637
620 2433 1133
565 2471 1595
372 2502 2053
0 2494 2494
0 2447 2883
0 2365 3204
790 2766 0
733 2789 0
440 2865 440
312 2886 1058
0 2895 1548
0 2881 2001
0 2842 2412
0 2772 2772
0 2669 3069
788 3149 0
727 3167 0
0 3244 0
0 3236 1011
0 3218 1497
0 3182 1923
0 3120 2303
0 3029 2635
0 2913 2913
900 0 0
905 0 302
940 0 627
1018 0 1018
1110 0 1480
1190 0 1984
1250 0 2499
1280 0 2987
1281 0 3415
901 299 0
959 0 0
980 0 617
1038 0 1038
1113 0 1507
1180 0 2011
1229 0 2521
1254 0 3006
1251 0 3431
920 613 0
963 606 0
1021 600 600
1061 634 1061
1120 679 1531
1176 710 2031
1201 688 2547
1161 504 3059
1092 0 3494
977 977 0
1001 1001 0
1039 1039 614
1081 1081 1081
1134 1134 1552
1178 1178 2046
1189 1189 2553
1126 1126 3055
844 844 3541
1051 1401 0
1057 1431 0
1076 1476 640
1110 1522 1110
1149 1577 1577
1174 1625 2062
1160 1646 2557
1050 1608 3046
576 1436 3526
1119 1864 0
1111 1893 0
1112 1937 653
1132 1978 1132
1150 2028 1597
1148 2071 2071
1090 2090 2551
880 2056 3026
0 1948 3456
1168 2336 0
1151 2361 0
1122 2413 609
1124 2445 1124
1113 2484 1593
1064 2515 2059
915 2524 2524
87 2488 2988
0 2384 3328
1194 2786 0
1171 2807 0
1060 2888 316
1034 2910 1034
971 2934 1530
812 2953 1998
0 2949 2455
0 2854 2854
0 2735 3179
1193 3180 0
1166 3196 0
1021 3268 0
675 3365 675
264 3381 1329
0 3329 1877
0 3248 2326
0 3141 2703
0 3015 3015
1366 0 0
1368 0 341
1389 0 695
1444 0 1083
1530 0 1530
1618 0 2022
1688 0 2532
1729 0 3026
1735 0 3469
1365 341 0
1409 0 0
1424 0 662
1471 0 1086
1545 0 1545
1621 0 2040
1684 0 2550
1718 0 3042
1719 0 3482
1374 687 0
1412 657 0
1458 633 633
1499 656 1094
1562 686 1562
1629 697 2062
1675 644 2582
1670 318 3104
1646 0 3538
1410 1058 0
1439 1063 0
1479 1078 643
1522 1110 1110
1580 1151 1580
1637 1184 2076
1670 1182 2589
1648 1092 3103
1505 712 3610
1472 1472 0
1489 1489 0
1519 1519 655
1557 1557 1132
1603 1603 1603
1643 1643 2093
1655 1655 2595
1603 1603 3098
1397 1397 3601
1540 1926 0
1547 1946 0
1565 1984 648
1590 2020 1145
1619 2064 1619
1635 2102 2102
1615 2114 2592
1510 2072 3084
1166 1914 3586
1597 2395 0
1595 2415 0
1592 2468 563
1602 2497 1122
1607 2532 1607
1590 2561 2087
1517 2567 2567
1304 2527 3051
174 2396 3564
1629 2851 0
1621 2869 0
1576 2947 0
1559 2977 1001
1531 3001 1531
1457 3019 2019
1273 3020 2498
648 2988 2988
0 2846 3380
1629 3259 0
1617 3274 0
1553 3338 0
1385 3457 452
1286 3475 1286
1056 3492 1833
0 3490 2344
0 3345 2816
0 3191 3191
1927 0 0
1928 0 386
1941 0 777
1979 0 1188
2045 0 1636
2122 0 2122
2192 0 2630
2235 0 3129
2241 0 3586
1927 386 0
1962 0 0
1972 0 729
2005 0 1177
2064 0 1641
2134 0 2134
2195 0 2643
2234 0 3142
2235 0 3598
1930 772 0
1963 726 0
1993 701 701
2029 708 1174
2085 712 1648
2151 689 2151
2204 578 2676
2221 0 3197
2204 0 3647
1952 1171 0
1979 1162 0
2012 1163 698
2050 1181 1181
2104 1203 1660
2162 1215 2162
2205 1188 2682
2206 1061 3208
2124 468 3736
1995 1596 0
2016 1602 0
2048 1618 689
2083 1643 1188
2128 1673 1673
2173 1697 2173
2199 1692 2686
2177 1618 3204
2056 1358 3731
2051 2051 0
2064 2064 0
2093 2093 645
2118 2118 1182
2150 2150 1677
2176 2176 2176
2175 2175 2681
2117 2117 3192
1924 1924 3724
2102 2523 0
2108 2538 0
2126 2586 478
2140 2609 1132
2153 2635 1650
2151 2655 2151
2113 2652 2652
1991 2601 3162
1637 2443 3714
2133 2986 0
2133 3001 0
2128 3064 0
2122 3107 957
2109 3126 1547
2068 3139 2068
1964 3136 2576
1699 3099 3099
532 2989 3702
2132 3411 0
2127 3424 0
2102 3479 0
2027 3596 0
1959 3633 1225
1840 3651 1840
1565 3667 2391
289 3680 2965
0 3458 3458
2605 0 0
2607 0 434
2615 0 871
2641 0 1320
2687 0 1791
2747 0 2289
2804 0 2804
2839 0 3312
2840 0 3787
2605 434 0
2636 0 0
2643 0 811
2665 0 1299
2707 0 1787
2761 0 2294
2812 0 2812
2842 0 3322
2839 0 3796
2608 869 0
2637 810 0
2659 780 780
2687 771 1286
2732 751 1786
2788 699 2302
2836 554 2836
2855 0 3363
2832 0 3835
2620 1310 0
2646 1290 0
2675 1279 764
2704 1284 1284
2748 1289 1789
2797 1281 2307
2838 1239 2838
2850 1098 3371
2808 425 3910
2648 1765 0
2669 1762 0
2703 1764 730
2731 1777 1277
2769 1791 1791
2809 1798 2310
2837 1778 2837
2833 1689 3365
2767 1396 3907
2687 2239 0
2703 2245 0
2740 2260 648
2762 2275 1251
2790 2293 1781
2815 2302 2302
2825 2287 2825
2797 2214 3350
2688 1987 3902
2724 2724 0
2734 2734 0
2771 2771 379
2784 2784 1177
2798 2798 1738
2805 2805 2266
2788 2788 2788
2720 2720 3316
2526 2526 3897
2745 3202 0
2749 3213 0
2767 3260 0
2779 3299 958
2775 3309 1610
2755 3312 2165
2697 3297 2697
2550 3245 3245
2128 3100 3892
2736 3647 0
2736 3658 0
2734 3703 0
2720 3797 0
2685 3842 1211
2619 3854 1887
2471 3866 2471
2087 3877 3078
0 3826 3826
3424 0 0
3425 0 489
3432 0 981
3449 0 1478
3480 0 1988
3520 0 2514
3556 0 3048
3573 0 3573
3558 0 4067
3424 489 0
3448 217 217
3455 183 916
3472 84 1449
3500 0 1977
3534 113 2512
3563 310 3050
3575 386 3575
3561 0 4074
3426 979 0
3451 912 158
3459 911 911
3477 909 1449
3505 914 1978
3537 929 2514
3563 958 3050
3573 967 3573
3560 761 4080
3433 1471 0
3458 1442 0
3469 1442 901
3487 1447 1447
3513 1458 1981
3541 1474 2516
3563 1491 3049
3568 1482 3568
3550 1333 4076
3449 1971 0
3470 1960 0
3485 1961 886
3502 1970 1446
3524 1983 1983
3546 1997 2517
3560 2005 3044
3558 1979 3558
3531 1831 4069
3471 2480 0
3488 2479 0
3505 2483 862
3518 2491 1439
3533 2502 1980
3547 2511 2511
3551 2506 3031
3540 2463 3540
3496 2299 4060
3490 2991 0
3502 2996 0
3519 3004 802
3527 3010 1412
3535 3015 1958
3538 3015 2485
3532 2997 2997
3504 2938 3504
3426 2757 4052
3492 3492 0
3499 3499 0
3520 3520 578
3521 3521 1312
3520 3520 1880
3513 3513 2406
3489 3489 2914
3430 3430 3430
3255 3255 4044
3465 3960 0
3468 3968 0
3481 4002 0
3490 4037 879
3477 4038 1601
3450 4039 2165
3389 4038 2684
3229 4038 3229
2524 4032 4032
4095 1144 1144
4095 1150 1213
4095 1178 1461
4095 1237 1838
4095 1335 2277
4095 1474 2742
4095 1648 3210
4095 1845 3665
4095 2055 4095
4095 1212 1149
4095 1217 1217
4095 1244 1465
4095 1298 1840
4095 1391 2279
4095 1523 2744
4095 1689 3211
4095 1879 3665
4095 2082 4095
4095 1456 1170
4095 1461 1238
4095 1481 1481
4095 1525 1853
4095 1601 2289
4095 1709 2750
4095 1850 3215
4095 2014 3667
4095 2195 4095
4095 1827 1216
4095 1830 1280
4095 1846 1515
4095 1879 1879
4095 1935 2308
4095 2017 2764
4095 2124 3223
4095 2253 3671
4095 2399 4095
4095 2261 1293
4095 2264 1353
4095 2275 1574
4095 2299 1923
4095 2339 2339
4095 2398 2785
4095 2474 3236
4095 2567 3676
4095 2676 4095
4095 2722 1403
4095 2724 1456
4095 2732 1659
4095 2749 1986
4095 2776 2384
4095 2814 2814
4095 2865 3253
4095 2927 3684
4095 3001 4095
4095 3189 1537
4095 3190 1583
4095 3195 1764
4095 3205 2064
4095 3221 2439
4095 3244 2850
4095 3273 3273
4095 3308 3692
4095 3354 4095
4095 3649 1679
4095 3649 1721
4095 3651 1878
4095 3656 2150
4095 3663 2498
4095 3672 2886
4095 3684 3291
4095 3698 3698
4095 3722 4095
4095 4095 1804
4095 4095 1839
4095 4095 1978
4095 4095 2224
4095 4095 2544
4095 4095 2912
4095 4095 3300
4095 4095 3697
4095 4095 4095
