Examples/Volume - Darken skies.3dl
#25pt 3DLUT created by 3D LUT Creator Pro (c) Oleg Sharonov
#Copyright Oleg Sharonov
0 43 86 128 171 214 256 299 341 384 427 469 512 555 597 640 682 725 768 810 853 896 938 981 1023 
0 0 0
0 0 90
0 0 136
0 0 217
0 0 284
0 0 341
0 0 412
0 0 475
0 0 547
0 0 612
0 0 683
0 0 747
0 0 817
0 0 881
0 0 950
0 0 1022
0 0 1089
0 0 1159
0 0 1224
0 0 1292
0 0 1362
0 0 1428
0 0 1496
0 0 1566
0 0 1632
0 71 0
0 71 71
0 68 136
0 68 206
0 68 276
0 68 339
0 68 409
0 68 475
0 68 546
0 68 611
0 68 681
0 68 747
0 68 816
0 68 882
0 68 950
0 68 1022
0 68 1088
0 68 1158
0 68 1223
0 68 1292
0 68 1362
0 68 1428
0 68 1496
0 68 1565
0 68 1632
0 149 0
0 145 74
0 142 142
0 142 212
0 136 273
0 136 339
0 136 409
0 136 475
0 136 545
0 136 612
0 136 681
0 136 747
0 136 816
0 136 888
0 136 950
0 136 1021
0 136 1088
0 136 1157
0 136 1223
0 136 1292
0 136 1361
0 136 1428
0 136 1496
0 136 1565
0 136 1632
0 222 0
0 220 74
0 220 145
0 212 212
0 209 278
0 206 345
0 209 416
0 206 482
0 203 546
0 206 618
0 203 682
0 203 749
0 203 817
0 206 888
0 203 952
0 203 1022
0 203 1089
0 203 1159
0 203 1224
0 203 1293
0 203 1362
0 203 1429
0 203 1496
0 203 1566
0 203 1632
0 295 0
0 293 74
0 291 145
0 287 214
0 284 284
0 282 352
0 280 419
0 276 484
0 276 552
0 276 619
0 273 685
0 273 751
0 273 819
0 273 891
0 273 955
0 273 1024
0 273 1092
0 273 1161
0 273 1227
0 273 1295
0 273 1364
0 273 1431
0 273 1498
0 271 1564
0 273 1634
0 369 0
0 369 74
0 367 149
0 363 217
0 358 287
0 354 354
0 352 422
0 349 489
0 347 556
0 347 623
0 345 689
0 343 756
0 343 824
0 343 891
0 343 959
0 341 1026
0 341 1093
0 341 1162
0 341 1229
0 341 1296
0 341 1365
0 341 1432
0 341 1500
0 339 1566
0 341 1636
0 443 0
0 442 74
0 440 145
0 437 217
0 434 289
0 430 358
0 427 427
0 422 492
0 420 560
0 417 626
0 416 693
0 416 761
0 414 827
0 412 894
0 412 962
0 411 1028
0 411 1096
0 411 1165
0 411 1232
0 411 1299
0 409 1365
0 409 1432
0 409 1500
0 409 1569
0 409 1636
0 517 0
0 518 74
0 514 145
0 513 220
0 509 291
0 505 360
0 501 430
0 497 497
0 493 564
0 490 630
0 489 698
0 486 765
0 485 831
0 484 899
0 482 965
0 481 1031
0 481 1099
0 481 1168
0 481 1235
0 481 1303
0 479 1369
0 479 1436
0 479 1504
0 478 1570
0 478 1640
0 592 0
0 591 74
0 590 149
0 586 220
0 585 293
0 580 363
0 576 431
0 571 500
0 569 569
0 564 635
0 562 702
0 559 769
0 558 836
0 556 902
0 553 969
0 553 1036
0 552 1104
0 551 1171
0 551 1238
0 548 1304
0 550 1373
0 548 1440
0 547 1506
0 547 1574
0 547 1642
0 664 0
0 665 74
0 664 149
0 661 220
0 658 293
0 654 363
0 650 433
0 647 503
0 643 571
0 639 639
0 635 707
0 632 773
0 631 841
0 629 908
0 626 974
0 625 1041
0 623 1108
0 622 1175
0 622 1242
0 619 1309
0 619 1375
0 618 1443
0 618 1511
0 617 1578
0 617 1645
0 738 0
0 739 74
0 738 149
0 736 220
0 733 293
0 730 365
0 725 436
0 721 505
0 717 573
0 714 643
0 711 711
0 707 777
0 704 845
0 701 912
0 698 978
0 696 1044
0 695 1111
0 694 1179
0 692 1245
0 691 1312
0 690 1379
0 689 1446
0 688 1513
0 688 1582
0 686 1647
0 812 0
0 813 74
0 812 149
0 810 220
0 807 293
0 804 365
0 801 437
0 797 506
0 793 577
0 789 646
0 784 713
0 782 782
0 777 849
0 775 915
0 772 982
0 769 1049
0 767 1117
0 765 1183
0 764 1250
0 762 1317
0 761 1384
0 759 1450
0 758 1517
0 758 1584
0 757 1652
0 887 0
0 886 74
0 885 149
0 885 222
0 883 293
0 880 367
0 876 439
0 872 509
0 868 578
0 865 648
0 860 716
0 856 785
0 852 852
0 849 919
0 845 986
0 842 1053
0 840 1120
0 838 1187
0 836 1254
0 834 1321
0 832 1387
0 831 1454
0 830 1521
0 829 1588
0 827 1655
0 960 0
0 961 74
0 960 149
0 959 222
0 956 293
0 954 367
0 950 439
0 947 510
0 943 580
0 939 650
0 935 719
0 931 788
0 927 856
0 924 924
0 919 990
0 917 1058
0 914 1124
0 912 1192
0 909 1259
0 907 1325
0 905 1392
0 903 1458
0 902 1526
0 900 1592
0 899 1659
0 1034 0
0 1035 74
0 1034 149
0 1032 222
0 1030 295
0 1028 367
0 1025 439
0 1022 510
0 1018 582
0 1014 652
0 1010 721
0 1006 790
0 1002 859
0 997 926
0 994 994
0 991 1062
0 988 1129
0 984 1195
0 982 1263
0 980 1330
0 977 1396
0 975 1463
0 973 1530
0 973 1597
0 970 1663
0 1109 0
0 1108 74
0 1107 149
0 1106 222
0 1105 295
0 1102 367
0 1099 440
0 1097 512
0 1093 583
0 1090 654
0 1085 724
0 1080 793
0 1077 862
0 1073 930
0 1068 997
0 1066 1066
0 1061 1133
0 1059 1200
0 1056 1267
0 1053 1334
0 1051 1401
0 1048 1467
0 1046 1534
0 1044 1602
0 1043 1668
0 1182 0
0 1182 74
0 1181 149
0 1180 222
0 1179 295
0 1177 367
0 1175 440
0 1171 512
0 1168 584
0 1164 655
0 1160 725
0 1156 794
0 1152 864
0 1148 933
0 1144 1001
0 1141 1069
0 1136 1136
0 1133 1204
0 1130 1271
0 1127 1338
0 1124 1405
0 1122 1472
0 1119 1539
0 1117 1606
0 1115 1672
0 1256 0
0 1256 74
0 1255 149
0 1255 222
0 1253 295
0 1251 369
0 1249 440
0 1246 513
0 1242 585
0 1239 656
0 1235 726
0 1231 797
0 1227 866
0 1222 935
0 1218 1003
0 1215 1072
0 1211 1139
0 1207 1207
0 1204 1274
0 1200 1342
0 1198 1409
0 1195 1476
0 1192 1543
0 1190 1610
0 1187 1676
0 1330 0
0 1330 74
0 1329 149
0 1329 222
0 1327 295
0 1325 369
0 1323 442
0 1320 513
0 1318 585
0 1314 657
0 1310 728
0 1306 798
0 1302 868
0 1297 937
0 1294 1006
0 1290 1075
0 1286 1143
0 1282 1211
0 1278 1278
0 1275 1346
0 1272 1413
0 1269 1480
0 1266 1547
0 1263 1614
0 1260 1681
0 1404 0
0 1403 74
0 1403 149
0 1403 222
0 1401 295
0 1399 369
0 1398 442
0 1395 514
0 1392 586
0 1389 658
0 1385 729
0 1381 800
0 1377 870
0 1373 940
0 1369 1008
0 1364 1077
0 1361 1146
0 1357 1214
0 1353 1282
0 1350 1350
0 1346 1417
0 1343 1484
0 1340 1551
0 1337 1618
0 1334 1685
0 1477 0
0 1478 74
0 1477 149
0 1476 222
0 1475 295
0 1474 369
0 1472 442
0 1470 514
0 1466 586
0 1463 658
0 1460 730
0 1456 801
0 1451 871
0 1448 941
0 1444 1011
0 1439 1080
0 1436 1148
0 1432 1217
0 1428 1285
0 1424 1353
0 1420 1420
0 1417 1488
0 1414 1555
0 1411 1622
0 1408 1689
0 1551 0
0 1551 74
0 1551 149
0 1550 222
0 1549 295
0 1548 369
0 1546 442
0 1543 514
0 1541 587
0 1538 659
0 1535 731
0 1531 802
0 1527 872
0 1523 943
0 1519 1013
0 1515 1082
0 1511 1151
0 1507 1220
0 1503 1288
0 1498 1356
0 1495 1423
0 1491 1491
0 1488 1559
0 1485 1626
0 1482 1693
0 1625 0
0 1625 74
0 1625 149
0 1624 222
0 1623 295
0 1622 369
0 1620 442
0 1618 514
0 1615 587
0 1612 659
0 1609 731
0 1606 802
0 1602 874
0 1598 944
0 1594 1014
0 1590 1084
0 1586 1153
0 1582 1222
0 1577 1291
0 1573 1359
0 1570 1427
0 1566 1495
0 1562 1562
0 1559 1630
0 1556 1697
0 1699 0
0 1699 74
0 1699 149
0 1698 222
0 1697 295
0 1696 369
0 1695 442
0 1692 516
0 1690 587
0 1687 660
0 1684 732
0 1681 803
0 1677 874
0 1673 946
0 1669 1016
0 1665 1086
0 1661 1155
0 1657 1224
0 1653 1293
0 1648 1362
0 1645 1430
0 1641 1498
0 1637 1566
0 1633 1633
0 1630 1701
0 1773 0
0 1773 74
0 1773 149
0 1772 222
0 1771 295
0 1770 369
0 1769 442
0 1766 516
0 1764 588
0 1761 660
0 1758 733
0 1755 804
0 1752 876
0 1748 947
0 1744 1017
0 1740 1087
0 1736 1157
0 1732 1227
0 1727 1296
0 1723 1364
0 1719 1433
0 1716 1501
0 1712 1569
0 1708 1637
0 1704 1704
168 0 0
171 0 171
132 0 264
100 0 299
87 0 349
81 0 404
74 0 455
74 0 516
74 0 583
71 0 645
71 0 701
71 0 776
68 0 833
71 0 905
71 0 973
68 0 1035
68 0 1101
68 0 1170
68 0 1235
68 0 1302
68 0 1372
68 0 1437
68 0 1504
68 0 1574
68 0 1640
171 171 0
171 171 171
0 0 284
0 0 314
0 0 367
0 0 412
0 0 455
0 0 530
0 0 580
0 0 641
0 0 710
0 0 771
0 0 839
0 0 902
0 0 969
0 0 1039
0 0 1105
0 0 1166
0 0 1238
0 0 1305
0 0 1368
0 0 1440
0 0 1507
0 0 1571
0 0 1642
132 264 0
0 289 0
0 230 230
0 186 295
0 161 349
0 152 406
0 142 464
0 139 522
0 136 584
0 129 642
0 129 711
0 129 775
0 126 836
0 129 907
0 126 968
0 126 1038
0 126 1105
0 126 1168
0 126 1239
0 126 1306
0 126 1370
0 126 1441
0 126 1508
0 126 1573
0 126 1639
103 314 0
0 326 0
0 299 189
0 271 271
0 252 339
0 235 401
0 225 462
0 217 522
0 212 582
0 209 648
0 206 712
0 206 777
0 203 840
0 203 906
0 203 973
0 201 1037
0 201 1104
0 201 1173
0 201 1238
0 201 1306
0 201 1370
0 201 1441
0 201 1508
0 198 1573
0 198 1639
90 365 0
0 376 0
0 362 168
0 345 255
0 328 328
0 312 393
0 302 457
0 293 521
0 289 584
0 284 649
0 280 711
0 278 777
0 276 842
0 276 907
0 273 971
0 273 1040
0 273 1107
0 271 1172
0 271 1238
0 271 1305
0 271 1375
0 271 1441
0 271 1508
0 269 1574
0 271 1643
84 425 0
0 431 0
0 425 158
0 414 243
0 401 320
0 388 388
0 377 455
0 370 520
0 363 584
0 358 648
0 354 714
0 352 779
0 349 845
0 347 908
0 345 976
0 345 1042
0 343 1106
0 343 1175
0 341 1241
0 341 1309
0 341 1374
0 339 1440
0 339 1508
0 339 1577
0 339 1643
81 489 0
0 493 0
0 489 149
0 481 235
0 472 312
0 462 384
0 452 452
0 445 520
0 439 586
0 431 649
0 428 715
0 425 782
0 420 845
0 419 913
0 417 979
0 416 1045
0 414 1110
0 412 1175
0 412 1242
0 411 1310
0 411 1375
0 409 1442
0 409 1510
0 409 1579
0 409 1645
81 556 0
0 559 0
0 554 145
0 550 230
0 542 306
0 533 379
0 526 451
0 518 518
0 512 585
0 506 652
0 501 717
0 497 783
0 493 849
0 490 914
0 489 981
0 488 1047
0 485 1113
0 484 1179
0 484 1247
0 482 1312
0 481 1378
0 479 1445
0 479 1513
0 478 1579
0 479 1648
78 622 0
0 625 0
0 624 142
0 618 225
0 614 304
0 606 376
0 600 448
0 593 518
0 586 586
0 580 653
0 576 720
0 570 785
0 566 852
0 564 919
0 562 984
0 558 1049
0 557 1116
0 556 1182
0 553 1248
0 553 1316
0 552 1383
0 551 1450
0 550 1515
0 548 1582
0 548 1649
78 692 0
0 695 0
0 693 142
0 690 222
0 684 299
0 679 374
0 673 448
0 667 518
0 659 586
0 654 654
0 649 721
0 644 788
0 641 855
0 637 921
0 634 988
0 630 1052
0 628 1119
0 627 1186
0 625 1252
0 624 1319
0 623 1386
0 620 1451
0 620 1519
0 619 1586
0 618 1653
78 762 0
0 765 0
0 763 139
0 760 222
0 757 299
0 751 374
0 746 446
0 741 517
0 735 587
0 728 655
0 724 724
0 719 791
0 714 858
0 710 924
0 707 991
0 704 1057
0 701 1122
0 698 1189
0 696 1255
0 695 1322
0 693 1388
0 693 1455
0 691 1522
0 690 1589
0 689 1656
