Examples/Volume - Darken skin.3dl
#25pt 3DLUT created by 3D LUT Creator Pro (c) Oleg Sharonov
#Copyright Oleg Sharonov
0 128 256 384 512 640 768 896 1023
0 0 0
0 0 512
0 0 1022
0 0 1535
0 0 2047
0 0 2559
0 0 3071
0 0 3583
0 0 4095
0 304 0
0 512 512
0 512 1023
0 512 1535
0 512 2047
0 512 2559
0 512 3071
0 512 3583
0 512 4095
0 609 0
0 844 422
0 1023 1023
0 1023 1535
0 1023 2047
0 1023 2559
0 1023 3071
0 1023 3583
0 1024 4095
0 913 0
0 1080 360
0 1452 968
0 1536 1536
0 1536 2048
0 1536 2560
0 1536 3072
0 1535 3583
0 1536 4095
0 1217 0
0 1340 336
0 1687 844
0 2047 1536
0 2047 2047
0 2047 2559
0 2048 3071
0 2048 3583
0 2048 4095
0 1521 0
0 1615 324
0 1919 767
0 2300 1380
0 2559 2048
0 2559 2559
0 2559 3071
0 2559 3583
0 2559 4095
0 1825 0
0 1899 316
0 2161 720
0 2531 1265
0 2905 1937
0 3071 2559
0 3071 3071
0 3071 3583
0 3071 4095
0 2130 0
0 2190 312
0 2415 690
0 2761 1183
0 3144 1796
0 3505 2503
0 3583 3071
0 3583 3583
3 3583 4095
0 2434 0
0 2484 310
0 2679 670
0 2997 1124
0 3374 1687
0 3753 2346
0 4095 3071
3 4095 3583
3 4095 4095
297 0 0
512 0 512
512 0 1023
512 0 1535
512 0 2047
512 0 2559
512 0 3071
512 0 3583
512 0 4095
304 304 0
512 512 512
512 512 1023
512 512 1535
512 512 2047
512 512 2559
512 512 3071
512 512 3583
512 512 4095
304 607 0
334 865 334
512 1023 1023
512 1023 1535
512 1023 2047
512 1023 2559
512 1023 3071
512 1023 3583
512 1023 4095
304 912 0
0 1132 0
437 1442 951
512 1536 1536
512 1536 2048
512 1536 2560
512 1536 3072
512 1535 3583
512 1535 4095
304 1216 0
0 1375 0
220 1707 807
504 2036 1527
512 2048 2048
512 2047 2559
512 2048 3071
512 2048 3583
512 2048 4095
304 1521 0
0 1641 0
0 1941 718
291 2308 1364
512 2559 2048
512 2559 2559
512 2559 3071
512 2559 3583
513 2559 4095
304 1825 0
0 1919 0
0 2179 669
0 2546 1241
149 2915 1926
512 3071 2559
512 3071 3071
512 3071 3583
513 3071 4095
304 2129 0
0 2206 0
0 2430 639
0 2774 1157
0 3155 1783
0 3513 2497
512 3583 3071
512 3583 3583
513 3583 4095
304 2434 0
0 2498 0
0 2692 618
0 3009 1097
0 3385 1671
0 3761 2337
505 4095 3071
513 4095 3583
513 4095 4095
602 0 0
842 0 422
1023 0 1023
1023 0 1535
1023 0 2047
1023 0 2558
1023 0 3071
1023 0 3583
1023 0 4095
605 304 0
863 332 332
1024 512 1024
1024 512 1536
1024 512 2048
1024 512 2560
1023 512 3071
1023 512 3583
1023 512 4095
606 606 0
773 773 155
1024 1024 1024
1024 1024 1536
1024 1024 2048
1024 1024 2560
1023 1023 3071
1023 1023 3583
1023 1023 4095
607 911 0
678 1077 0
896 1373 896
1024 1536 1536
1024 1536 2048
1024 1536 2559
1024 1536 3071
1024 1536 3583
1024 1536 4095
607 1215 0
629 1351 0
776 1662 776
982 1983 1484
1024 2048 2048
1024 2048 2560
1023 2047 3071
1023 2048 3583
1023 2048 4095
609 1520 0
602 1629 0
665 1931 665
851 2270 1337
1024 2559 2048
1024 2559 2559
1024 2559 3071
1024 2559 3583
1024 2559 4095
609 1825 0
587 1913 0
526 2207 526
685 2543 1199
868 2886 1901
1024 3071 2559
1024 3071 3071
1024 3071 3583
1024 3071 4095
609 2129 0
579 2203 0
0 2499 0
225 2831 1027
468 3186 1728
843 3496 2475
1024 3583 3071
1024 3583 3583
1024 3583 4095
609 2433 0
573 2496 0
0 2749 0
0 3061 957
0 3430 1595
0 3798 2295
929 4083 3053
1023 4095 3583
1024 4095 4095
907 0 0
1076 0 358
1449 0 966
1535 0 1535
1535 0 2047
1535 0 2559
1535 0 3071
1536 0 3583
1536 0 4095
906 302 0
1128 0 0
1441 436 950
1535 512 1535
1535 512 2047
1536 512 2560
1535 512 3071
1535 512 3583
1536 512 4095
908 605 0
1074 677 0
1372 895 895
1536 1024 1536
1535 1023 2047
1536 1024 2560
1535 1023 3071
1536 1023 3583
1536 1023 4095
909 909 0
1017 1017 0
1271 1271 812
1536 1536 1536
1536 1536 2048
1536 1536 2559
1536 1536 3071
1536 1536 3583
1535 1535 4095
911 1214 0
973 1318 0
1169 1592 722
1411 1893 1411
1536 2047 2047
1536 2047 2559
1536 2048 3071
1536 2048 3583
1536 2048 4095
911 1518 0
945 1611 0
1077 1886 622
1287 2205 1287
1500 2513 2007
1536 2559 2559
1536 2559 3071
1536 2559 3583
1536 2559 4095
912 1823 0
928 1902 0
983 2179 462
1156 2499 1156
1348 2831 1854
1536 3071 2559
1536 3071 3071
1536 3071 3583
1536 3071 4095
912 2128 0
916 2195 0
887 2469 0
971 2803 971
1127 3149 1682
1355 3456 2431
1536 3583 3071
1536 3583 3583
1536 3583 4095
912 2433 0
908 2491 0
852 2730 0
471 3151 471
538 3504 1420
791 3830 2218
1367 4062 3016
1536 4095 3583
1536 4095 4095
1209 0 0
1333 0 334
1683 0 842
2048 0 1536
2048 0 2048
2048 0 2560
2048 0 3072
2048 0 3584
2047 0 4095
1208 302 0
1368 0 0
1703 214 804
2034 503 1525
2048 512 2048
2048 512 2559
2048 512 3071
2048 512 3583
2048 513 4095
1210 605 0
1346 626 0
1659 773 773
1981 981 1482
2048 1024 2048
2048 1024 2559
2048 1024 3071
2048 1024 3583
2048 1024 4095
1211 908 0
1315 971 0
1590 1168 721
1893 1410 1410
2048 1536 2048
2047 1536 2559
2048 1536 3071
2048 1536 3583
2048 1536 4095
1212 1212 0
1287 1287 0
1512 1512 650
1786 1786 1319
2048 2048 2048
2048 2048 2559
2048 2048 3071
2048 2048 3583
2048 2048 4095
1214 1517 0
1264 1590 0
1436 1830 546
1675 2121 1215
1921 2416 1921
2048 2559 2559
2048 2559 3071
2048 2559 3583
2048 2559 4095
1215 1822 0
1247 1889 0
1361 2144 302
1560 2439 1085
1781 2757 1781
2013 3038 2527
2048 3071 3071
2048 3071 3583
2047 3071 4095
1215 2127 0
1236 2187 0
1299 2429 0
1419 2767 862
1603 3098 1603
1817 3399 2361
2048 3583 3071
2048 3583 3583
2048 3583 4095
1215 2431 0
1227 2484 0
1257 2702 0
1213 3112 0
1288 3479 1288
1457 3799 2129
1799 4033 2953
2047 4095 3583
2047 4095 4095
1510 0 0
1606 0 322
1912 0 765
2295 0 1377
2559 0 2048
2559 0 2559
2559 0 3071
2559 0 3583
2559 0 4095
1511 302 0
1632 0 0
1934 0 715
2304 284 1362
2559 512 2047
2559 512 2559
2559 512 3071
2559 512 3583
2559 512 4095
1511 604 0
1621 600 0
1927 662 662
2266 849 1335
2559 1023 2047
2559 1023 2559
2559 1023 3071
2559 1024 3583
2559 1024 4095
1513 908 0
1605 942 0
1882 1074 619
2202 1285 1285
2511 1498 2006
2560 1536 2560
2560 1536 3071
2559 1536 3583
2559 1535 4095
1515 1212 0
1588 1262 0
1828 1435 545
2119 1674 1214
2415 1920 1920
2559 2048 2559
2559 2048 3071
2559 2048 3583
2559 2048 4095
1516 1516 0
1571 1571 0
1772 1772 389
2029 2029 1117
2304 2304 1813
2559 2559 2559
2559 2559 3071
2559 2559 3583
2559 2559 4095
1517 1820 0
1558 1875 0
1711 2091 0
1935 2372 965
2182 2668 1677
2427 2942 2427
2559 3071 3071
2559 3071 3583
2559 3071 4095
1518 2125 0
1547 2176 0
1656 2384 0
1823 2726 616
2033 3037 1471
2256 3329 2256
2523 3561 3043
2560 3583 3583
2560 3583 4095
1519 2430 0
1539 2477 0
1614 2670 0
1709 3032 0
1801 3454 1013
1975 3765 1975
2230 3999 2852
2560 4095 3583
2560 4095 4095
1813 0 0
1888 0 314
2152 0 717
2524 0 1262
2900 0 1933
3071 0 2559
3071 0 3071
3071 0 3583
3071 0 4095
1813 302 0
1907 0 0
2170 0 666
2539 0 1238
2911 116 1923
3071 512 2559
3071 512 3071
3071 512 3583
3071 512 4095
1814 604 0
1903 584 0
2199 521 521
2537 682 1196
2882 865 1898
3071 1023 2559
3071 1023 3071
3071 1023 3583
3071 1023 4095
1814 907 0
1894 924 0
2173 980 458
2494 1153 1153
2828 1346 1851
3071 1536 2559
3071 1536 3071
3071 1536 3583
3071 1535 4095
1816 1211 0
1884 1244 0
2139 1358 297
2435 1558 1083
2754 1779 1779
3036 2011 2525
3071 2048 3071
3071 2048 3583
3071 2048 4095
1818 1515 0
1872 1555 0
2088 1709 0
2370 1933 964
2666 2181 1676
2941 2426 2426
3071 2559 3071
3071 2559 3583
3071 2559 4095
1819 1819 0
1862 1862 0
2033 2033 0
2300 2300 720
2569 2569 1519
2830 2830 2292
3071 3071 3071
3071 3071 3583
3071 3071 4095
1820 2124 0
1854 2166 0
1986 2339 0
2210 2654 0
2453 2971 1223
2688 3248 2089
2925 3479 2925
3071 3583 3583
3071 3583 4095
1821 2428 0
1846 2469 0
1947 2637 0
2113 2949 0
2287 3404 0
2468 3735 1672
2675 3968 2675
3021 4090 3558
3071 4095 4095
2114 0 0
2175 0 310
2403 0 687
2752 0 1179
3137 0 1793
3499 0 2500
3583 0 3071
3583 0 3583
3583 0 4095
2115 302 0
2192 0 0
2418 0 635
2765 0 1154
3148 0 1779
3508 0 2493
3583 512 3071
3583 512 3583
3583 513 4095
2115 604 0
2189 576 0
2487 0 0
2822 209 1023
3180 460 1724
3492 835 2471
3583 1024 3071
3583 1024 3583
3583 1024 4095
2116 907 0
2184 911 0
2459 883 0
2796 967 967
3144 1123 1678
3452 1350 2428
3583 1536 3071
3583 1536 3583
3583 1536 4095
2118 1210 0
2178 1231 0
2421 1295 0
2761 1416 859
3093 1600 1600
3396 1814 2358
3583 2048 3071
3583 2048 3583
3583 2048 4095
2119 1514 0
2171 1543 0
2379 1652 0
2722 1820 613
3034 2031 1469
3327 2254 2254
3560 2520 3042
3583 2559 3583
3583 2559 4095
2121 1818 0
2164 1851 0
2337 1984 0
2652 2208 0
2970 2451 1222
3247 2688 2088
3478 2924 2924
3583 3071 3583
3583 3071 4095
2122 2122 0
2157 2157 0
2298 2298 0
2554 2554 0
2896 2896 341
3150 3150 1772
3371 3371 2730
3583 3583 3583
3583 3583 4095
2123 2427 0
2151 2461 0
2265 2604 0
2469 2869 0
2734 3247 0
3004 3716 630
3187 3944 2293
3390 4070 3390
3583 4095 4095
2417 0 0
2468 0 308
2664 0 666
2985 0 1119
3365 0 1683
3746 0 2341
4094 0 3071
4095 0 3583
4095 0 4095
2417 302 0
2481 0 0
2677 0 615
2997 0 1093
3376 0 1667
3754 0 2332
4092 451 3067
4095 512 3583
4095 512 4095
2417 604 0
2480 570 0
2735 0 0
3050 0 953
3421 0 1591
3791 0 2291
4081 907 3049
4095 1023 3583
4095 1023 4095
2418 907 0
2477 903 0
2717 849 0
3142 462 462
3497 526 1415
3825 777 2213
4060 1354 3012
4095 1536 3583
4095 1536 4095
2419 1210 0
2473 1221 0
2692 1252 0
3102 1210 0
3473 1284 1284
3795 1451 2125
4030 1791 2950
4095 2047 3583
4095 2047 4095
2421 1513 0
2468 1533 0
2663 1609 0
3026 1705 0
3449 1797 1008
3762 1971 1971
3998 2225 2849
4095 2559 3583
4095 2559 4095
2422 1817 0
2463 1842 0
2632 1943 0
2945 2109 0
3400 2284 0
3733 2466 1669
3967 2672 2672
4089 3018 3557
4095 3071 4095
2424 2121 0
2459 2149 0
2601 2263 0
2867 2466 0
3245 2732 0
3715 3003 623
3943 3186 2291
4070 3388 3388
4095 3583 4095
2425 2425 0
2454 2454 0
2574 2574 0
2795 2795 0
3105 3105 0
3483 3483 0
3908 3908 0
4050 4050 2754
4095 4095 4095
