Examples/Volume - Darken skies.3dl
#25pt 3DLUT created by 3D LUT Creator Pro (c) Oleg Sharonov
#Copyright Oleg Sharonov
0 128 256 384 512 640 768 896 1023
0 0 0
0 0 217
0 0 412
0 0 612
0 0 817
0 0 1022
0 0 1224
0 0 1428
0 0 1632
0 222 0
0 212 212
0 209 416
0 206 618
0 203 817
0 203 1022
0 203 1224
0 203 1429
0 203 1632
0 443 0
0 437 217
0 427 427
0 417 626
0 414 827
0 411 1028
0 411 1232
0 409 1432
0 409 1636
0 664 0
0 661 220
0 650 433
0 639 639
0 631 841
0 625 1041
0 622 1242
0 618 1443
0 617 1645
0 887 0
0 885 222
0 876 439
0 865 648
0 852 852
0 842 1053
0 836 1254
0 831 1454
0 827 1655
0 1109 0
0 1106 222
0 1099 440
0 1090 654
0 1077 862
0 1066 1066
0 1056 1267
0 1048 1467
0 1043 1668
0 1330 0
0 1329 222
0 1323 442
0 1314 657
0 1302 868
0 1290 1075
0 1278 1278
0 1269 1480
0 1260 1681
0 1551 0
0 1550 222
0 1546 442
0 1538 659
0 1527 872
0 1515 1082
0 1503 1288
0 1491 1491
0 1482 1693
0 1773 0
0 1772 222
0 1769 442
0 1761 660
0 1752 876
0 1740 1087
0 1727 1296
0 1716 1501
0 1704 1704
512 0 0
512 0 512
393 0 786
306 0 914
262 0 1051
240 0 1205
230 0 1376
222 0 1555
217 0 1738
512 512 0
512 512 512
260 260 817
0 0 950
0 0 1073
0 0 1224
0 0 1393
0 0 1566
0 0 1746
399 799 0
271 823 271
0 686 686
0 559 888
0 489 1050
0 449 1216
0 427 1387
0 411 1565
0 401 1747
314 942 0
0 979 0
0 904 570
0 818 818
0 751 1017
0 703 1198
0 673 1380
0 652 1564
0 637 1749
276 1100 0
0 1124 0
0 1087 505
0 1035 764
0 982 982
0 938 1180
0 907 1372
0 883 1562
0 865 1751
255 1275 0
0 1293 0
0 1273 471
0 1239 727
0 1201 955
0 1164 1164
0 1133 1364
0 1108 1559
0 1089 1753
245 1465 0
0 1478 0
0 1465 451
0 1443 703
0 1415 934
0 1385 1150
0 1356 1356
0 1332 1557
0 1312 1754
238 1663 0
0 1674 0
0 1665 437
0 1649 688
0 1627 919
0 1603 1139
0 1578 1351
0 1555 1555
0 1535 1756
233 1867 0
0 1876 0
0 1870 430
0 1858 677
0 1840 909
0 1820 1131
0 1799 1345
0 1778 1553
0 1758 1758
1023 0 0
1023 0 512
1023 0 1023
950 0 1426
786 0 1573
680 0 1700
609 0 1825
559 0 1958
526 0 2101
1023 512 0
1023 512 512
1024 512 1024
928 411 1412
743 0 1596
635 0 1717
565 0 1839
518 0 1970
485 0 2110
1023 1023 0
1023 1023 512
1024 1024 1024
859 859 1327
695 695 1544
531 531 1720
293 293 1884
0 0 2020
0 0 2152
958 1437 0
936 1423 420
865 1334 865
752 1199 1199
622 1055 1452
467 920 1657
107 783 1846
0 713 1987
0 666 2133
799 1598 0
753 1619 0
706 1561 706
629 1461 1063
520 1344 1344
349 1228 1579
0 1120 1777
0 1038 1942
0 979 2103
696 1740 0
649 1756 0
552 1750 552
485 1680 936
362 1592 1238
0 1494 1494
0 1395 1704
0 1314 1892
0 1250 2068
628 1884 0
583 1897 0
337 1934 337
198 1886 808
0 1808 1139
0 1720 1408
0 1636 1636
0 1563 1841
0 1501 2033
582 2036 0
537 2047 0
0 2095 0
0 2052 737
0 1993 1066
0 1926 1338
0 1858 1577
0 1795 1795
0 1737 1997
550 2199 0
506 2208 0
0 2248 0
0 2218 693
0 2175 1011
0 2124 1284
0 2069 1528
0 2015 1753
0 1964 1964
1535 0 0
1535 0 512
1535 0 1023
1535 0 1535
1532 0 2043
1331 0 2219
1180 0 2360
1066 0 2487
979 0 2611
1535 512 0
1535 512 512
1535 512 1023
1535 512 1535
1518 497 2026
1312 180 2231
1157 0 2373
1042 0 2497
955 0 2620
1535 1023 0
1535 1023 512
1535 1023 1023
1536 1024 1536
1467 968 1962
1278 800 2184
1098 584 2373
914 0 2544
831 0 2659
1536 1536 0
1536 1536 512
1536 1536 1024
1536 1536 1536
1377 1377 1852
1216 1216 2101
1045 1045 2314
814 814 2523
0 0 2749
1536 2048 0
1528 2038 505
1475 1972 974
1382 1858 1382
1263 1718 1718
1127 1568 1993
959 1414 2234
683 1233 2470
0 1043 2674
1346 2243 0
1327 2252 217
1292 2203 811
1226 2116 1226
1132 2002 1575
1006 1874 1874
817 1739 2143
328 1588 2408
0 1457 2584
1199 2397 0
1175 2409 0
1117 2405 603
1061 2341 1061
971 2254 1428
823 2153 1748
510 2044 2044
0 1909 2293
0 1783 2489
1088 2539 0
1063 2549 0
932 2594 0
837 2565 837
702 2504 1253
352 2432 1605
0 2306 1919
0 2177 2177
0 2062 2397
1005 2680 0
981 2688 0
852 2726 0
0 2814 0
0 2728 1064
0 2627 1481
0 2518 1803
0 2410 2074
0 2309 2309
2048 0 0
2048 0 512
2048 0 1024
2048 0 1536
2048 0 2048
2048 0 2560
1900 0 2850
1719 0 3009
1574 0 3147
2048 512 0
2048 512 512
2048 512 1024
2048 512 1536
2048 512 2048
2048 512 2559
1888 0 2859
1705 0 3018
1558 0 3155
2048 1024 0
2048 1024 512
2048 1024 1024
2048 1024 1536
2048 1024 2048
2048 1024 2559
1857 823 2827
1637 174 3056
1484 0 3190
2048 1536 0
2048 1536 512
2048 1536 1023
2047 1536 1536
2048 1536 2048
1993 1487 2496
1799 1297 2760
1581 1022 3008
1276 0 3272
2048 2048 0
2048 2048 512
2048 2048 1024
2048 2048 1536
2048 2048 2048
1888 1888 2378
1710 1710 2666
1487 1487 2940
1106 1106 3243
2048 2559 0
2048 2559 512
2048 2560 1024
2001 2506 1495
1892 2383 1892
1756 2240 2240
1584 2080 2552
1331 1889 2858
753 1607 3198
1916 2875 0
1904 2883 0
1873 2848 838
1812 2777 1309
1720 2679 1720
1589 2560 2086
1396 2425 2425
1037 2268 2766
0 2069 3080
1740 3045 0
1726 3054 0
1658 3087 278
1600 3036 1043
1503 2963 1503
1344 2874 1901
1044 2774 2276
0 2643 2643
0 2446 2906
1598 3196 0
1582 3204 0
1506 3239 0
1295 3318 0
1131 3277 1131
780 3226 1626
0 3102 2084
0 2917 2456
0 2746 2746
2559 0 0
2559 0 512
2559 0 1023
2559 0 1536
2559 0 2048
2559 0 2559
2559 0 3071
2478 0 3470
2279 0 3646
2559 512 0
2559 512 512
2559 512 1023
2559 512 1535
2559 512 2047
2559 512 2559
2559 512 3071
2471 0 3477
2269 0 3653
2559 1024 0
2559 1024 512
2559 1023 1023
2559 1023 1535
2559 1023 2047
2559 1023 2559
2559 1023 3071
2444 773 3463
2226 0 3684
2559 1536 0
2559 1536 512
2560 1536 1024
2560 1536 1536
2560 1536 2048
2560 1536 2560
2560 1536 3071
2391 1300 3414
2124 468 3736
2559 2048 0
2559 2048 512
2559 2048 1024
2559 2048 1536
2559 2048 2048
2559 2048 2559
2514 2000 3025
2306 1755 3343
2017 1304 3693
2559 2559 0
2559 2559 512
2559 2559 1024
2559 2559 1536
2559 2559 2048
2559 2559 2559
2393 2393 2908
2178 2178 3253
1832 1832 3643
2559 3071 0
2559 3071 512
2559 3071 1024
2559 3071 1536
2522 3033 2009
2397 2913 2397
2230 2769 2769
1977 2588 3149
1461 2314 3594
2497 3496 0
2490 3503 0
2462 3482 815
2407 3431 1322
2320 3357 1771
2189 3264 2189
1983 3155 2594
1596 3022 3022
0 2824 3507
2302 3683 0
2292 3689 0
2247 3718 0
2148 3761 569
2039 3715 1334
1851 3661 1851
1478 3606 2327
0 3516 2831
0 3235 3235
3071 0 0
3071 0 512
3071 0 1023
3071 0 1536
3071 0 2047
3071 0 2559
3071 0 3071
3071 0 3583
3063 0 4084
3071 512 0
3071 512 512
3071 512 1023
3071 512 1535
3071 512 2047
3071 512 2559
3071 512 3071
3071 512 3583
3058 278 4086
3071 1023 0
3071 1023 512
3071 1023 1023
3071 1023 1535
3071 1023 2047
3071 1023 2559
3071 1023 3071
3071 1023 3583
3036 834 4072
3071 1536 0
3071 1536 512
3071 1536 1024
3071 1536 1536
3071 1536 2048
3071 1536 2559
3071 1536 3071
3071 1536 3583
2991 1287 4046
3071 2048 0
3071 2048 512
3071 2048 1023
3071 2048 1536
3071 2048 2048
3071 2048 2559
3071 2048 3071
3071 2048 3583
2915 1717 4010
3071 2559 0
3071 2559 512
3071 2559 1024
3071 2559 1536
3071 2559 2048
3071 2559 2559
3071 2559 3071
3032 2507 3552
2791 2139 3966
3071 3071 0
3071 3071 512
3071 3071 1024
3071 3071 1536
3071 3071 2048
3071 3071 2559
3071 3071 3071
2888 2888 3451
2576 2576 3922
3071 3583 0
3071 3583 512
3071 3583 1024
3071 3583 1536
3071 3583 2048
3040 3559 2519
2893 3455 2893
2652 3318 3318
2102 3086 3883
3071 4095 3
3071 4095 513
3056 4086 947
3010 4059 1349
2933 4020 1756
2807 3975 2163
2589 3929 2589
2113 3886 3092
0 3756 3756
3583 0 0
3583 0 512
3583 0 1024
3583 0 1536
3583 0 2048
3583 0 2559
3583 0 3071
3583 0 3583
3583 0 4095
3583 512 0
3583 512 512
3583 512 1024
3583 512 1536
3583 512 2048
3583 512 2559
3583 512 3071
3583 512 3583
3583 513 4095
3583 1024 0
3583 1024 512
3583 1024 1024
3583 1024 1536
3583 1024 2048
3583 1024 2559
3583 1024 3071
3583 1024 3583
3583 1024 4095
3583 1536 0
3583 1536 512
3583 1536 1024
3583 1536 1536
3583 1536 2048
3583 1536 2559
3583 1536 3071
3583 1536 3583
3583 1536 4095
3583 2048 0
3583 2048 512
3583 2048 1024
3583 2048 1536
3583 2048 2048
3583 2048 2559
3583 2048 3071
3583 2048 3583
3583 2048 4095
3583 2559 0
3583 2559 512
3583 2559 1024
3583 2559 1536
3583 2559 2048
3583 2559 2559
3583 2559 3071
3583 2559 3583
3583 2559 4095
3583 3071 0
3583 3071 512
3583 3071 1024
3583 3071 1536
3583 3071 2048
3583 3071 2559
3583 3071 3071
3583 3071 3583
3547 2999 4087
3583 3583 0
3583 3583 512
3583 3583 1024
3583 3583 1536
3583 3583 2048
3583 3583 2559
3583 3583 3071
3583 3583 3583
3341 3341 4062
3583 4095 0
3583 4095 508
3583 4095 1026
3583 4095 1536
3583 4095 2048
3583 4095 2560
3556 4089 3017
3347 4063 3347
2534 4033 4033
4095 0 0
4095 0 512
4095 0 1023
4095 0 1536
4095 0 2047
4095 0 2559
4095 0 3071
4095 0 3583
4095 0 4095
4095 512 0
4095 512 512
4095 513 1024
4095 513 1536
4095 513 2048
4095 513 2559
4095 510 3071
4095 512 3583
4095 512 4095
4095 1023 0
4095 1023 512
4095 1024 1024
4095 1024 1536
4095 1024 2048
4095 1024 2559
4095 1024 3071
4095 1023 3583
4095 1023 4095
4095 1536 0
4095 1536 513
4095 1536 1024
4095 1536 1536
4095 1536 2048
4095 1536 2559
4095 1536 3071
4095 1536 3583
4095 1536 4095
4095 2048 0
4095 2047 512
4095 2048 1024
4095 2048 1536
4095 2048 2048
4095 2048 2559
4095 2047 3071
4095 2047 3583
4095 2047 4095
4095 2559 0
4095 2559 512
4095 2559 1023
4095 2559 1535
4095 2559 2048
4095 2559 2559
4095 2559 3071
4095 2559 3583
4095 2559 4095
4095 3071 0
4095 3071 512
4095 3071 1023
4095 3071 1535
4095 3071 2047
4095 3071 2559
4095 3071 3071
4095 3071 3583
4095 3071 4095
4095 3583 0
4095 3583 513
4095 3583 1023
4095 3583 1535
4095 3583 2048
4095 3583 2559
4095 3583 3071
4095 3583 3583
4095 3583 4095
4095 4095 0
4095 4095 510
4095 4095 1022
4095 4095 1534
4095 4095 2046
4095 4095 2558
4095 4095 3071
4095 4095 3583
4095 4095 4095
