Examples/Volume - Darken skin.3dl
#25pt 3DLUT created by 3D LUT Creator Pro (c) Oleg Sharonov
#Copyright Oleg Sharonov
0 43 86 128 171 214 256 299 341 384 427 469 512 555 597 640 682 725 768 810 853 896 938 981 1023 
0 0 0
0 0 177
0 0 341
0 0 512
0 0 683
0 0 850
0 0 1022
0 0 1196
0 0 1362
0 0 1535
0 0 1704
0 0 1877
0 0 2047
0 0 2217
0 0 2388
0 0 2559
0 0 2731
0 0 2900
0 0 3071
0 0 3243
0 0 3413
0 0 3583
0 0 3754
0 0 3925
0 0 4095
0 100 0
0 171 171
0 171 341
0 171 513
0 171 684
0 171 852
0 171 1023
0 171 1196
0 171 1364
0 171 1535
0 171 1705
0 171 1878
0 171 2047
0 171 2218
0 171 2389
0 171 2559
0 171 2729
0 171 2901
0 171 3071
0 171 3243
0 171 3413
0 171 3583
0 171 3754
0 171 3925
0 171 4095
0 203 0
0 280 139
0 339 339
0 341 510
0 341 681
0 341 854
0 341 1025
0 341 1194
0 341 1366
0 341 1537
0 341 1707
0 341 1876
0 341 2049
0 341 2219
0 341 2390
0 341 2560
0 341 2730
0 341 2900
0 341 3070
0 341 3242
0 341 3412
0 341 3583
0 341 3753
0 341 3924
0 341 4095
0 304 0
0 360 119
0 485 324
0 512 512
0 512 682
0 512 852
0 512 1023
0 512 1195
0 512 1366
0 512 1535
0 512 1708
0 512 1877
0 512 2047
0 512 2217
0 512 2388
0 512 2559
0 512 2731
0 512 2900
0 512 3071
0 512 3242
0 512 3412
0 512 3583
0 512 3754
0 512 3924
0 512 4095
0 406 0
0 446 113
0 563 280
0 682 512
0 682 682
0 683 854
0 682 1023
0 683 1194
0 683 1365
0 682 1535
0 683 1707
0 682 1877
0 682 2047
0 682 2217
0 682 2388
0 682 2559
0 683 2731
0 682 2900
0 682 3071
0 683 3242
0 683 3412
0 683 3583
0 683 3754
0 683 3924
0 683 4095
0 508 0
0 537 107
0 640 257
0 766 460
0 853 683
0 852 852
0 853 1023
0 853 1195
0 852 1364
0 853 1535
0 852 1706
0 853 1877
0 853 2047
0 853 2218
0 853 2389
0 853 2559
0 853 2731
0 853 2900
0 853 3071
0 853 3242
0 853 3413
0 853 3583
0 853 3754
0 853 3925
0 853 4095
0 609 0
0 633 107
0 720 240
0 844 422
0 969 646
0 1023 852
0 1023 1023
0 1024 1195
0 1024 1365
0 1023 1535
0 1024 1707
0 1023 1877
0 1023 2047
0 1023 2218
0 1023 2388
0 1023 2559
0 1024 2730
0 1023 2900
0 1023 3071
0 1024 3242
0 1024 3412
0 1023 3583
0 1023 3754
0 1024 3924
0 1024 4095
0 711 0
0 731 103
0 805 230
0 921 394
0 1047 599
0 1168 835
0 1195 1024
0 1195 1195
0 1194 1365
0 1195 1536
0 1194 1706
0 1195 1877
0 1195 2048
0 1195 2218
0 1195 2389
0 1195 2559
0 1194 2730
0 1195 2901
0 1195 3071
0 1194 3242
0 1195 3413
0 1195 3583
0 1195 3754
0 1195 3925
0 1195 4095
0 811 0
0 827 103
0 893 222
0 999 376
0 1124 562
0 1251 782
0 1365 1024
0 1365 1194
0 1365 1365
0 1365 1536
0 1365 1707
0 1365 1877
0 1365 2048
0 1365 2219
0 1365 2389
0 1365 2560
0 1365 2730
0 1365 2900
0 1365 3071
0 1365 3242
0 1365 3412
0 1365 3583
0 1365 3754
0 1365 3924
0 1365 4095
0 913 0
0 927 103
0 983 220
0 1080 360
0 1202 533
0 1330 739
0 1452 968
0 1535 1194
0 1536 1365
0 1536 1536
0 1536 1707
0 1535 1877
0 1536 2048
0 1536 2218
0 1536 2389
0 1536 2560
0 1536 2730
0 1536 2901
0 1536 3072
0 1536 3242
0 1535 3412
0 1535 3583
0 1535 3754
0 1536 3924
0 1536 4095
0 1014 0
0 1027 103
0 1076 214
0 1165 349
0 1279 512
0 1406 703
0 1533 920
0 1653 1157
0 1707 1365
0 1707 1536
0 1707 1707
0 1706 1877
0 1707 2048
0 1707 2218
0 1707 2389
0 1707 2560
0 1706 2730
0 1707 2901
0 1707 3071
0 1706 3242
0 1706 3412
0 1707 3583
0 1706 3754
0 1706 3924
0 1706 4095
0 1116 0
0 1127 103
0 1170 212
0 1251 341
0 1359 494
0 1482 674
0 1610 878
0 1735 1104
0 1852 1346
0 1877 1536
0 1877 1707
0 1877 1877
0 1877 2048
0 1877 2218
0 1877 2389
0 1877 2560
0 1877 2730
0 1877 2901
0 1877 3071
0 1877 3242
0 1877 3412
0 1877 3583
0 1877 3754
0 1877 3924
0 1877 4095
0 1217 0
0 1227 103
0 1266 212
0 1340 336
0 1440 479
0 1560 650
0 1687 844
0 1814 1058
0 1937 1291
0 2047 1536
0 2047 1706
0 2048 1877
0 2047 2047
0 2047 2218
0 2048 2389
0 2047 2559
0 2048 2730
0 2048 2900
0 2048 3071
0 2048 3242
0 2048 3412
0 2048 3583
0 2048 3754
0 2048 3924
0 2048 4095
0 1318 0
0 1327 103
0 1363 209
0 1430 330
0 1524 470
0 1638 630
0 1763 814
0 1892 1019
0 2018 1242
0 2137 1480
0 2218 1707
0 2218 1877
0 2218 2047
0 2218 2218
0 2218 2389
0 2218 2559
0 2218 2730
0 2218 2900
0 2218 3071
0 2218 3242
0 2218 3412
0 2218 3583
0 2218 3754
0 2218 3924
0 2218 4095
0 1420 0
0 1428 103
0 1460 209
0 1522 326
0 1610 460
0 1719 614
0 1841 789
0 1968 984
0 2096 1198
0 2220 1427
0 2337 1669
0 2389 1877
0 2389 2048
0 2389 2218
0 2389 2389
0 2389 2559
0 2389 2730
0 2389 2901
0 2389 3071
0 2389 3242
0 2389 3412
0 2389 3583
0 2389 3754
0 2389 3924
0 2389 4095
0 1521 0
0 1528 103
0 1558 209
0 1615 324
0 1697 452
0 1801 601
0 1919 767
0 2045 954
0 2173 1159
0 2300 1380
0 2421 1614
0 2535 1859
0 2559 2048
0 2559 2218
0 2559 2389
0 2559 2559
0 2559 2730
0 2559 2901
0 2559 3071
0 2560 3242
0 2559 3412
0 2559 3583
0 2559 3754
0 2559 3924
0 2559 4095
0 1623 0
0 1629 100
0 1656 206
0 1709 320
0 1786 446
0 1884 588
0 1998 750
0 2122 928
0 2250 1124
0 2377 1337
0 2502 1564
0 2621 1802
0 2730 2048
0 2730 2218
0 2730 2389
0 2730 2559
0 2730 2730
0 2730 2901
0 2730 3071
0 2730 3242
0 2730 3412
0 2730 3583
0 2730 3754
0 2730 3924
3 2730 4095
0 1724 0
0 1730 103
0 1755 206
0 1803 318
0 1876 442
0 1969 579
0 2079 734
0 2199 906
0 2326 1094
0 2454 1299
0 2581 1519
0 2704 1750
0 2821 1991
0 2901 2218
0 2900 2389
0 2901 2559
0 2901 2730
0 2900 2900
0 2900 3071
0 2900 3242
0 2900 3412
0 2900 3583
0 2900 3754
0 2900 3924
0 2900 4095
0 1825 0
0 1831 100
0 1854 206
0 1899 316
0 1967 437
0 2056 571
0 2161 720
0 2278 886
0 2403 1068
0 2531 1265
0 2659 1477
0 2784 1701
0 2905 1937
0 3020 2181
0 3071 2389
0 3071 2559
0 3071 2730
0 3071 2900
0 3071 3071
0 3071 3242
0 3071 3412
0 3071 3583
0 3071 3754
0 3071 3924
0 3071 4095
0 1927 0
0 1932 103
0 1953 206
0 1996 316
0 2059 434
0 2144 564
0 2244 709
0 2358 869
0 2480 1044
0 2607 1235
0 2736 1440
0 2862 1657
0 2986 1886
0 3105 2125
0 3218 2371
0 3242 2559
0 3242 2730
0 3242 2901
0 3242 3071
0 3242 3242
0 3242 3412
0 3242 3583
0 3242 3754
0 3242 3924
0 3242 4095
0 2028 0
0 2033 100
0 2053 206
0 2093 314
0 2153 431
0 2232 558
0 2329 698
0 2439 853
0 2558 1023
0 2684 1208
0 2812 1406
0 2940 1617
0 3066 1840
0 3188 2072
0 3305 2314
0 3412 2559
0 3412 2730
0 3412 2900
0 3412 3071
0 3412 3242
0 3412 3412
0 3412 3583
0 3412 3754
0 3412 3924
0 3412 4095
0 2130 0
0 2134 103
0 2153 206
0 2190 312
0 2247 428
0 2322 553
0 2415 690
0 2521 840
0 2638 1005
0 2761 1183
0 2888 1375
0 3017 1580
0 3144 1796
0 3269 2024
0 3389 2260
0 3505 2503
0 3583 2730
0 3583 2901
0 3583 3071
0 3583 3242
0 3583 3412
0 3583 3583
0 3583 3754
0 3583 3924
3 3583 4095
0 2231 0
0 2235 100
0 2253 203
0 2288 312
0 2342 425
0 2413 548
0 2502 682
0 2604 829
0 2718 988
0 2839 1161
0 2965 1348
0 3093 1547
0 3221 1757
0 3348 1978
0 3471 2209
0 3590 2448
0 3703 2693
0 3754 2900
0 3754 3071
0 3754 3242
0 3754 3412
0 3754 3583
0 3754 3754
0 3754 3924
0 3754 4095
0 2332 0
0 2336 100
0 2353 203
0 2386 312
0 2437 423
0 2505 545
0 2590 675
0 2689 819
0 2799 973
0 2918 1142
0 3042 1323
0 3169 1516
0 3298 1721
0 3425 1936
0 3551 2161
0 3672 2395
0 3790 2636
0 3902 2884
0 3924 3071
0 3924 3242
0 3924 3412
0 3924 3583
0 3924 3754
0 3924 3924
0 3924 4095
0 2434 0
0 2437 100
0 2453 203
0 2484 310
0 2532 422
0 2598 541
0 2679 670
0 2774 809
0 2881 961
0 2997 1124
0 3120 1300
0 3246 1488
0 3374 1687
0 3503 1897
0 3629 2117
0 3753 2346
0 3873 2582
0 3989 2826
0 4095 3071
6 4095 3242
3 4095 3412
3 4095 3583
3 4095 3754
6 4095 3924
3 4095 4095
107 0 0
171 0 171
168 0 337
168 0 509
171 0 680
171 0 857
171 0 1021
171 0 1194
171 0 1367
171 0 1533
171 0 1708
171 0 1876
171 0 2046
171 0 2220
171 0 2387
171 0 2561
171 0 2731
171 0 2900
171 0 3070
171 0 3242
171 0 3412
171 0 3583
171 0 3753
171 0 3924
171 0 4095
100 100 0
171 171 171
171 171 341
171 171 512
171 171 682
171 171 851
171 171 1023
171 171 1195
171 171 1367
171 171 1535
171 171 1705
171 171 1877
171 171 2047
171 171 2217
171 171 2388
171 171 2559
171 171 2731
171 171 2900
171 171 3071
171 171 3242
171 171 3412
171 171 3583
171 171 3754
171 171 3924
171 171 4095
100 201 0
48 310 48
171 341 341
171 341 513
171 341 684
171 341 853
171 341 1025
171 341 1193
171 341 1365
171 341 1536
171 341 1707
171 341 1878
171 341 2048
171 341 2219
171 341 2389
171 341 2560
171 341 2730
171 341 2901
171 341 3072
171 341 3241
171 341 3413
171 341 3584
171 341 3754
171 341 3924
171 341 4095
103 306 0
0 377 0
84 492 314
171 512 512
171 512 682
171 512 854
171 513 1025
171 512 1194
171 512 1365
171 512 1536
171 512 1707
171 512 1876
171 512 2048
171 512 2219
171 512 2389
171 512 2560
171 512 2730
171 512 2900
171 512 3072
171 512 3242
171 512 3412
171 512 3583
171 512 3753
171 512 3924
171 512 4095
100 404 0
0 458 0
0 571 267
161 679 508
171 682 682
171 683 853
171 683 1024
171 682 1194
171 683 1365
171 683 1536
171 683 1707
171 682 1876
171 683 2048
171 683 2219
171 683 2389
171 683 2560
171 683 2730
171 683 2901
171 683 3072
171 683 3242
171 682 3412
171 682 3582
171 682 3753
171 683 3924
168 682 4095
100 506 0
0 547 0
0 648 240
0 771 452
171 853 682
171 853 853
171 852 1023
171 853 1194
171 853 1365
171 852 1535
171 853 1707
171 853 1877
171 852 2047
171 852 2218
171 853 2388
171 852 2559
171 853 2730
171 853 2900
171 853 3071
171 853 3242
171 853 3412
171 853 3583
171 853 3754
171 853 3924
171 853 4095
100 609 0
0 640 0
0 727 222
0 849 414
0 973 642
171 1024 853
171 1024 1024
171 1023 1194
171 1024 1365
171 1024 1536
171 1024 1707
171 1023 1876
171 1024 2048
171 1024 2219
171 1024 2389
171 1024 2560
171 1024 2730
171 1023 2900
171 1024 3072
171 1023 3242
171 1023 3412
171 1023 3583
171 1023 3753
171 1023 3924
171 1023 4095
100 710 0
0 735 0
0 810 214
0 925 386
0 1052 594
74 1170 832
171 1194 1023
171 1195 1195
171 1194 1364
171 1194 1535
171 1194 1706
171 1195 1877
171 1194 2047
171 1194 2218
171 1194 2389
171 1194 2559
171 1195 2731
171 1195 2900
171 1195 3071
171 1195 3242
171 1195 3412
171 1195 3583
171 1195 3754
171 1195 3924
171 1195 4095
100 811 0
0 832 0
0 897 206
0 1003 365
0 1128 557
0 1254 779
171 1365 1023
171 1365 1194
171 1365 1365
171 1365 1536
171 1365 1707
171 1365 1877
171 1365 2048
171 1365 2218
171 1365 2389
171 1365 2560
171 1365 2730
171 1365 2901
171 1365 3072
171 1365 3242
171 1365 3412
171 1365 3583
171 1365 3754
171 1365 3924
171 1365 4095
100 912 0
0 931 0
0 988 201
0 1084 351
0 1204 528
0 1332 735
0 1455 966
171 1536 1195
171 1536 1365
171 1536 1536
171 1536 1706
171 1536 1877
171 1536 2048
171 1536 2218
171 1536 2389
171 1536 2559
171 1536 2730
171 1536 2901
171 1536 3071
171 1535 3242
171 1536 3413
171 1536 3583
171 1536 3754
171 1536 3925
171 1536 4095
100 1014 0
0 1030 0
0 1080 198
0 1167 339
0 1282 506
0 1409 699
0 1535 917
0 1654 1155
171 1706 1365
171 1706 1536
171 1706 1706
171 1707 1877
171 1707 2048
171 1706 2218
171 1707 2389
171 1706 2559
171 1706 2730
171 1707 2901
171 1707 3071
171 1706 3242
171 1707 3413
171 1707 3583
171 1707 3754
171 1707 3925
171 1707 4095
