Examples/Volume - Darken skin.3dl
#25pt 3DLUT created by 3D LUT Creator Pro (c) Oleg Sharonov
#Copyright Oleg Sharonov
0 256 512 768 1023
0 0 0
0 0 1022
0 0 2047
0 0 3071
0 0 4095
0 609 0
0 1023 1023
0 1023 2047
0 1023 3071
0 1024 4095
0 1217 0
0 1687 844
0 2047 2047
0 2048 3071
0 2048 4095
0 1825 0
0 2161 720
0 2905 1937
0 3071 3071
0 3071 4095
0 2434 0
0 2679 670
0 3374 1687
0 4095 3071
3 4095 4095
602 0 0
1023 0 1023
1023 0 2047
1023 0 3071
1023 0 4095
606 606 0
1024 1024 1024
1024 1024 2048
1023 1023 3071
1023 1023 4095
607 1215 0
776 1662 776
1024 2048 2048
1023 2047 3071
1023 2048 4095
609 1825 0
526 2207 526
868 2886 1901
1024 3071 3071
1024 3071 4095
609 2433 0
0 2749 0
0 3430 1595
929 4083 3053
1024 4095 4095
1209 0 0
1683 0 842
2048 0 2048
2048 0 3072
2047 0 4095
1210 605 0
1659 773 773
2048 1024 2048
2048 1024 3071
2048 1024 4095
1212 1212 0
1512 1512 650
2048 2048 2048
2048 2048 3071
2048 2048 4095
1215 1822 0
1361 2144 302
1781 2757 1781
2048 3071 3071
2047 3071 4095
1215 2431 0
1257 2702 0
1288 3479 1288
1799 4033 2953
2047 4095 4095
1813 0 0
2152 0 717
2900 0 1933
3071 0 3071
3071 0 4095
1814 604 0
2199 521 521
2882 865 1898
3071 1023 3071
3071 1023 4095
1816 1211 0
2139 1358 297
2754 1779 1779
3071 2048 3071
3071 2048 4095
1819 1819 0
2033 2033 0
2569 2569 1519
3071 3071 3071
3071 3071 4095
1821 2428 0
1947 2637 0
2287 3404 0
2675 3968 2675
3071 4095 4095
2417 0 0
2664 0 666
3365 0 1683
4094 0 3071
4095 0 4095
2417 604 0
2735 0 0
3421 0 1591
4081 907 3049
4095 1023 4095
2419 1210 0
2692 1252 0
3473 1284 1284
4030 1791 2950
4095 2047 4095
2422 1817 0
2632 1943 0
3400 2284 0
3967 2672 2672
4095 3071 4095
2425 2425 0
2574 2574 0
3105 3105 0
3908 3908 0
4095 4095 4095
