Examples/Volume - Contrast skintone.3dl
#25pt 3DLUT created by 3D LUT Creator Pro (c) Oleg Sharonov
#Copyright Oleg Sharonov
#INPUTGAMMA sRGB IEC61966-2.1 v.2.10
#IMAGEPROFILE sRGB IEC61966-2.1 v.2.10
#OUTPUTGAMMA sRGB IEC61966-2.1 v.2.10
0 128 256 384 512 640 768 896 1023
0 0 0
42 42 533
131 131 1139
236 236 1826
415 415 2556
840 840 3200
1504 1504 3584
2128 2128 3882
2727 2727 4095
0 397 0
114 559 559
232 667 1217
336 757 1938
526 901 2679
976 1275 3319
1697 1930 3651
2337 2523 3912
2936 3080 4095
0 565 0
0 956 478
320 1236 1236
488 1420 2058
749 1579 2873
1248 1858 3570
2156 2507 3819
2869 3104 3987
3487 3638 4095
0 506 0
0 1063 355
254 1644 1107
578 2027 2027
974 2288 2955
1636 2548 3730
2689 3051 4035
3569 3655 4089
4087 4087 4095
0 324 0
0 973 243
0 1795 897
518 2404 1821
1037 2795 2795
1770 3042 3617
2658 3306 4095
3571 3718 4095
4087 4088 4095
0 404 0
0 999 201
0 1854 742
171 2586 1554
912 3079 2502
1698 3363 3363
2585 3546 3945
3503 3783 4095
4086 4089 4095
0 485 0
0 1028 171
0 1892 630
0 2686 1343
684 3295 2231
1578 3630 3117
2512 3775 3775
3377 3892 4095
4086 4091 4095
0 568 0
0 1060 152
0 1921 548
0 2750 1178
0 3462 1978
1346 3872 2876
2383 4002 3608
3301 4026 4026
4086 4092 4095
0 647 0
0 1097 136
0 1947 486
0 2795 1048
0 3552 1776
953 4095 2626
2498 4095 3430
3359 4095 3912
4085 4095 4095
472 0 0
542 72 542
625 169 1165
710 272 1861
848 455 2593
1199 880 3244
1824 1571 3608
2407 2202 3893
2963 2802 4095
412 412 0
543 543 543
668 668 1217
767 767 1951
920 920 2702
1292 1292 3356
1978 1978 3673
2581 2581 3921
3140 3140 4095
294 589 0
428 946 428
678 1220 1220
842 1415 2051
1061 1585 2876
1496 1875 3580
2342 2535 3836
3026 3142 3995
3613 3681 4095
167 498 0
94 1078 94
573 1621 1089
847 2012 2012
1183 2283 2947
1772 2553 3730
2759 3064 4049
3613 3677 4095
4087 4087 4095
81 326 0
0 990 0
322 1795 865
735 2382 1805
1169 2777 2777
1835 3031 3602
2668 3298 4095
3574 3716 4095
4087 4088 4095
81 408 0
0 1010 0
0 1868 691
520 2571 1543
1033 3064 2490
1754 3352 3352
2608 3540 3938
3505 3781 4095
4087 4089 4095
81 486 0
0 1035 0
0 1902 584
0 2696 1315
817 3284 2222
1628 3620 3108
2532 3769 3769
3379 3891 4095
4086 4091 4095
81 569 0
0 1066 0
0 1928 506
0 2758 1151
0 3470 1960
1397 3864 2869
2402 3997 3603
3307 4024 4024
4086 4092 4095
81 648 0
0 1101 0
0 1953 449
0 2802 1022
0 3559 1758
988 4095 2617
2504 4095 3427
3361 4095 3911
4085 4095 4095
937 0 0
984 0 492
1160 204 1160
1294 333 1893
1429 547 2650
1669 964 3340
2224 1745 3676
2770 2408 3922
3283 3014 4095
889 444 0
966 450 450
1175 640 1175
1334 774 1944
1483 961 2726
1743 1343 3421
2334 2100 3735
2903 2743 3949
3425 3314 4095
738 738 0
840 840 193
1147 1147 1147
1377 1377 1996
1583 1583 2851
1912 1912 3582
2599 2599 3885
3252 3252 4018
3809 3809 4095
524 785 0
615 964 71
1016 1526 1016
1343 1942 1942
1647 2246 2895
2101 2554 3704
2897 3086 4087
3623 3667 4095
4087 4087 4095
354 710 0
436 937 0
811 1715 811
1189 2298 1738
1555 2705 2705
2069 2982 3541
2759 3272 4064
3584 3706 4095
4087 4088 4095
295 740 0
362 980 0
607 1837 607
992 2506 1499
1389 3004 2440
1961 3307 3307
2700 3514 3907
3515 3772 4095
4087 4089 4095
255 766 0
312 1017 0
332 1927 332
756 2661 1270
1181 3237 2185
1816 3582 3075
2614 3746 3746
3399 3882 4088
4087 4091 4095
225 790 0
278 1054 0
0 1963 0
145 2797 1008
826 3441 1924
1584 3834 2841
2475 3977 3584
3330 4015 4015
4086 4092 4095
203 816 0
252 1094 0
0 1979 0
0 2834 886
0 3592 1670
1122 4095 2580
2527 4095 3411
3366 4095 3907
4086 4095 4095
1474 0 0
1454 0 485
1603 157 1076
1850 369 1850
2038 651 2654
2244 1144 3378
2642 1963 3775
3144 2709 3967
3620 3338 4095
1443 481 0
1439 430 430
1595 555 1070
1870 747 1870
2076 998 2698
2297 1455 3434
2716 2247 3826
3240 2980 3991
3728 3583 4095
1320 880 0
1325 857 287
1529 1018 1018
1879 1294 1879
2142 1556 2771
2416 1955 3548
2893 2664 3961
3496 3415 4054
4023 4009 4095
1092 1092 0
1090 1090 36
1363 1363 887
1810 1810 1810
2164 2164 2783
2521 2521 3617
3007 3007 4095
3646 3646 4095
4088 4088 4095
896 1195 0
887 1202 0
1162 1583 715
1622 2153 1622
2004 2577 2577
2409 2893 3430
2936 3226 3990
3607 3686 4095
4087 4088 4095
767 1279 0
754 1286 0
977 1740 527
1417 2392 1417
1815 2894 2347
2274 3222 3222
2862 3466 3849
3537 3753 4095
4087 4089 4095
667 1335 0
653 1340 0
791 1858 142
1202 2574 1202
1602 3148 2113
2107 3509 3009
2761 3700 3700
3449 3863 4067
4087 4091 4095
590 1376 0
576 1380 0
683 1902 0
931 2734 931
1318 3374 1858
1875 3776 2784
2610 3939 3545
3375 3998 3998
4087 4092 4095
528 1410 0
516 1412 0
605 1935 0
74 2907 74
717 3614 1509
1446 4066 2514
2579 4095 3379
3379 4095 3897
4086 4095 4095
2134 184 184
2116 167 553
2045 0 1023
2290 352 1730
2580 739 2580
2798 1336 3357
3059 2136 3893
3480 3063 4022
3918 3745 4095
2122 556 182
2104 546 546
2029 501 1012
2292 674 1732
2602 1012 2602
2834 1571 3394
3106 2337 3937
3546 3262 4043
3995 3923 4095
2048 1024 16
2028 1011 500
1951 962 962
2265 1168 1711
2632 1496 2632
2910 1989 3465
3227 2696 4028
3707 3585 4095
4088 4087 4095
1861 1396 0
1854 1381 363
1783 1324 851
2154 1623 1623
2578 2005 2578
2893 2410 3430
3226 2937 3990
3686 3607 4095
4088 4088 4095
1655 1655 0
1654 1654 0
1606 1606 717
1972 1972 1472
2409 2409 2409
2770 2770 3279
3158 3158 3888
3648 3648 4095
4088 4088 4095
1463 1828 0
1456 1832 0
1423 1814 535
1775 2241 1300
2217 2744 2217
2620 3103 3103
3070 3394 3766
3578 3717 4095
4088 4089 4095
1296 1945 0
1287 1950 0
1243 1972 0
1572 2455 1095
2005 3024 2005
2443 3404 2911
2956 3632 3632
3523 3834 4037
4088 4091 4095
1159 2028 0
1148 2032 0
1098 2052 0
1342 2646 787
1749 3278 1749
2212 3692 2695
2797 3882 3485
3442 3972 3972
4088 4092 4095
1045 2090 0
1034 2093 0
982 2110 0
1090 2794 0
1350 3549 1350
1840 4010 2408
2666 4095 3320
3402 4095 3880
4087 4095 4095
2954 477 477
2938 472 740
2866 442 1201
2737 369 1659
3005 781 2437
3275 1512 3275
3479 2409 3885
3757 3428 4084
4090 4087 4095
2957 751 495
2939 744 744
2866 712 1202
2731 642 1655
3013 980 2445
3296 1667 3296
3509 2543 3911
3782 3506 4095
4090 4087 4095
2925 1235 525
2906 1225 739
2828 1184 1184
2687 1105 1626
3007 1391 2442
3308 1963 3308
3515 2702 3907
3773 3516 4095
4090 4087 4095
2781 1690 455
2764 1679 667
2694 1631 1109
2568 1542 1542
2896 1817 2349
3223 2275 3223
3466 2863 3849
3754 3538 4095
4090 4088 4095
2575 2061 158
2562 2049 514
2507 2003 987
2407 1916 1420
2745 2218 2218
3104 2621 3104
3394 3071 3766
3717 3578 4095
4089 4088 4095
2342 2342 0
2342 2342 0
2303 2303 807
2225 2225 1262
2568 2568 2055
2956 2956 2956
3301 3301 3663
3675 3675 4050
4089 4089 4095
2122 2547 0
2118 2549 0
2095 2550 434
2031 2483 1042
2369 2873 1855
2782 3272 2782
3182 3543 3543
3617 3792 3997
4089 4091 4095
1925 2695 0
1918 2699 0
1887 2716 0
1819 2721 612
2138 3159 1577
2563 3585 2563
3020 3807 3399
3531 3936 3936
4089 4092 4095
1753 2805 0
1745 2809 0
1708 2826 0
1616 2867 0
1815 3471 1032
2233 3941 2233
2804 4095 3216
3441 4095 3849
4088 4095 4095
3892 1161 1161
3878 1160 1283
3814 1151 1610
3691 1122 2027
3519 1055 2433
3632 1583 3119
3776 2516 3776
3893 3379 4095
4091 4087 4095
3907 1310 1202
3891 1307 1307
3825 1290 1626
3693 1241 2031
3508 1143 2424
3622 1633 3111
3771 2536 3771
3892 3381 4095
4091 4087 4095
3849 1639 1205
3832 1631 1297
3761 1599 1599
3633 1536 1996
3459 1433 2387
3584 1819 3076
3747 2617 3747
3883 3401 4088
4091 4088 4095
3712 2045 1158
3697 2036 1247
3636 1999 1540
3523 1927 1927
3368 1817 2316
3511 2110 3011
3701 2763 3701
3864 3451 4068
4091 4088 4095
3529 2442 1071
3517 2433 1157
3467 2395 1442
3372 2320 1822
3240 2208 2208
3405 2444 2913
3633 2958 3633
3834 3524 4037
4091 4089 4095
3322 2795 903
3312 2787 995
3272 2750 1290
3196 2679 1672
3085 2573 2062
3273 2782 2782
3544 3183 3544
3792 3618 3998
4091 4090 4095
3106 3106 439
3099 3099 616
3067 3067 1015
3004 3004 1444
2910 2910 1857
3115 3115 2611
3430 3430 3430
3734 3734 3949
4091 4091 4095
2866 3344 0
2863 3346 0
2849 3356 0
2797 3318 994
2709 3242 1524
2920 3459 2364
3277 3714 3277
3646 3886 3886
4091 4093 4095
2641 3521 0
2636 3524 0
2612 3538 0
2558 3570 0
2446 3618 529
2638 3868 1915
3029 4086 3029
3512 4095 3790
4090 4095 4095
4095 2831 2831
4095 2822 2839
4095 2786 2872
4095 2705 2942
4095 2550 3063
4095 2249 3258
4003 2389 3610
4027 3305 4027
4093 4088 4095
4095 2839 2823
4095 2831 2831
4095 2794 2864
4095 2713 2934
4095 2559 3056
4095 2261 3252
3998 2407 3605
4025 3310 4025
4093 4088 4095
4095 2874 2789
4095 2866 2797
4095 2831 2831
4095 2751 2902
4095 2600 3026
4068 2358 3230
3978 2481 3586
4016 3333 4016
4093 4088 4095
4095 2948 2713
4095 2941 2721
4095 2906 2756
4095 2830 2830
4095 2684 2958
4017 2531 3185
3940 2615 3547
3999 3378 3999
4093 4088 4095
4095 3074 2569
4095 3067 2578
4095 3035 2614
4095 2965 2693
4054 2864 2864
3944 2757 3115
3883 2800 3487
3972 3444 3972
4093 4089 4095
4095 3272 2293
4095 3266 2303
4073 3242 2384
4022 3196 2549
3947 3122 2766
3852 3015 3015
3808 3021 3401
3936 3532 3936
4093 4090 4095
3959 3535 2145
3954 3530 2167
3933 3508 2254
3890 3464 2411
3827 3396 2622
3744 3297 2871
3714 3278 3278
3886 3647 3886
4093 4091 4095
3811 3811 1906
3807 3807 1927
3788 3788 2013
3753 3753 2169
3697 3697 2382
3617 3617 2638
3591 3591 3084
3810 3810 3810
4093 4093 4095
3637 4095 1546
3634 4095 1554
3622 4095 1590
3595 4095 1660
3539 4073 1866
3445 4036 2149
3391 4039 2688
3657 4095 3657
4092 4095 4095
4095 4095 4095
4095 4095 4095
4095 4095 4095
4095 4095 4095
4095 4095 4095
4095 4090 4092
4095 4082 4088
4095 4069 4088
4095 4088 4095
4095 4095 4095
4095 4095 4095
4095 4095 4095
4095 4095 4095
4095 4095 4095
4095 4090 4091
4095 4082 4088
4095 4069 4088
4095 4088 4095
4095 4095 4095
4095 4095 4095
4095 4095 4095
4095 4095 4095
4095 4095 4095
4095 4091 4092
4095 4083 4089
4095 4070 4088
4095 4089 4095
4095 4095 4095
4095 4095 4095
4095 4095 4095
4095 4095 4095
4095 4095 4095
4095 4093 4093
4095 4085 4090
4095 4073 4088
4095 4089 4095
4095 4095 4095
4095 4095 4095
4095 4095 4095
4095 4095 4095
4095 4095 4095
4095 4095 4095
4095 4089 4091
4095 4077 4089
4095 4090 4095
4095 4095 4095
4095 4095 4095
4095 4095 4095
4095 4095 4095
4095 4095 4095
4095 4095 4095
4095 4093 4093
4095 4083 4090
4095 4091 4095
4095 4095 4095
4095 4095 4095
4095 4095 4095
4095 4095 4095
4095 4095 4095
4095 4095 4095
4095 4095 4095
4095 4090 4092
4095 4092 4095
4095 4095 4095
4095 4095 4095
4095 4095 4095
4095 4095 4095
4095 4095 4095
4095 4095 4095
4095 4095 4095
4095 4095 4095
4095 4093 4095
4095 4095 4095
4095 4095 4095
4095 4095 4095
4095 4095 4095
4095 4095 4095
4095 4095 4095
4095 4095 4095
4095 4095 4095
4095 4095 4095
