Examples/Volume - Contrast skintone.3dl
#25pt 3DLUT created by 3D LUT Creator Pro (c) Oleg Sharonov
#Copyright Oleg Sharonov
#INPUTGAMMA sRGB IEC61966-2.1 v.2.10
#IMAGEPROFILE sRGB IEC61966-2.1 v.2.10
#OUTPUTGAMMA sRGB IEC61966-2.1 v.2.10
0 43 86 128 171 214 256 299 341 384 427 469 512 555 597 640 682 725 768 810 853 896 938 981 1023 
0 0 0
5 5 172
20 20 349
42 42 533
69 69 725
100 100 927
131 131 1139
164 164 1360
198 198 1590
236 236 1826
282 282 2068
340 340 2312
415 415 2556
512 512 2795
633 633 3026
840 840 3200
1070 1070 3337
1289 1289 3465
1504 1504 3584
1714 1714 3693
1923 1923 3792
2128 2128 3882
2330 2330 3962
2530 2530 4033
2727 2727 4095
0 158 0
15 175 175
36 192 356
60 213 542
88 238 736
117 264 940
148 291 1153
179 319 1375
213 348 1606
250 382 1843
296 422 2085
353 475 2329
429 546 2572
527 638 2811
649 755 3041
858 958 3214
1090 1185 3349
1311 1401 3475
1527 1611 3592
1738 1818 3699
1947 2021 3797
2152 2222 3885
2355 2420 3965
2554 2615 4035
2751 2807 4095
0 290 0
0 334 167
55 361 361
91 389 555
124 418 756
156 446 966
187 473 1185
218 500 1411
250 527 1645
287 557 1885
332 595 2128
391 644 2373
468 710 2617
569 798 2855
695 911 3083
906 1106 3255
1148 1334 3384
1374 1549 3504
1593 1757 3615
1807 1961 3717
2017 2161 3811
2223 2357 3895
2426 2551 3971
2625 2741 4038
2822 2927 4095
0 397 0
0 459 153
50 520 352
114 559 559
158 598 770
197 634 990
232 667 1217
265 697 1452
298 726 1693
336 757 1938
383 793 2186
444 839 2434
526 901 2679
632 984 2917
764 1092 3144
976 1275 3319
1234 1505 3437
1471 1722 3548
1697 1930 3651
1916 2132 3746
2129 2330 3833
2337 2523 3912
2540 2713 3981
2740 2898 4043
2936 3080 4095
0 479 0
0 555 139
0 652 326
114 717 547
180 770 770
230 820 1001
272 864 1240
311 902 1485
348 937 1736
389 972 1990
440 1009 2245
507 1054 2499
596 1113 2748
710 1192 2989
850 1295 3216
1057 1455 3400
1341 1689 3506
1594 1908 3606
1831 2118 3699
2057 2321 3785
2275 2518 3863
2486 2709 3933
2692 2896 3995
2892 3077 4049
3088 3255 4095
0 535 0
0 622 125
0 748 299
50 857 516
181 929 754
250 997 997
303 1056 1247
349 1108 1504
393 1153 1766
441 1196 2032
499 1237 2297
573 1284 2559
671 1342 2815
796 1416 3060
949 1513 3290
1137 1641 3494
1458 1878 3587
1734 2101 3674
1986 2313 3756
2223 2517 3830
2449 2714 3898
2666 2905 3958
2875 3090 4011
3077 3269 4057
3273 3443 4095
0 565 0
0 660 111
0 814 272
0 956 478
150 1067 721
250 1156 975
320 1236 1236
378 1306 1505
431 1366 1780
488 1420 2058
554 1470 2335
640 1521 2608
749 1579 2873
887 1651 3125
1054 1743 3359
1248 1858 3570
1575 2068 3676
1883 2293 3750
2156 2507 3819
2408 2714 3881
2644 2912 3938
2869 3104 3987
3083 3288 4030
3289 3466 4066
3487 3638 4095
0 571 0
0 672 97
0 850 243
0 1022 438
0 1177 672
226 1293 937
321 1397 1208
393 1489 1489
459 1568 1776
527 1637 2066
605 1699 2356
703 1758 2641
827 1820 2917
980 1891 3178
1163 1979 3419
1374 2088 3635
1682 2258 3772
2033 2481 3832
2334 2697 3887
2605 2905 3937
2856 3105 3981
3090 3297 4019
3311 3482 4051
3522 3659 4076
3723 3830 4095
0 551 0
0 656 82
0 856 213
0 1057 397
0 1244 622
157 1404 884
302 1534 1164
395 1650 1454
476 1753 1753
557 1841 2055
650 1919 2358
762 1990 2657
902 2058 2945
1073 2131 3217
1275 2216 3467
1504 2319 3689
1767 2448 3872
2176 2664 3918
2514 2878 3960
2810 3087 3996
3077 3289 4027
3324 3483 4053
3555 3668 4073
3773 3845 4087
3979 4016 4095
0 506 0
0 614 68
0 834 185
0 1063 355
0 1281 570
0 1479 822
254 1644 1107
380 1788 1405
481 1915 1713
578 2027 2027
686 2124 2342
816 2209 2654
974 2288 2955
1164 2366 3239
1385 2450 3500
1636 2548 3730
1909 2665 3925
2305 2843 4008
2689 3051 4035
3016 3258 4058
3306 3460 4076
3569 3655 4089
3792 3829 4095
3949 3965 4095
4087 4087 4095
0 434 0
0 543 54
0 783 156
0 1039 311
0 1287 515
0 1517 759
122 1725 1037
342 1897 1342
470 2053 1658
588 2189 1981
715 2309 2309
863 2412 2633
1041 2504 2947
1252 2590 3244
1495 2676 3517
1766 2771 3757
2062 2881 3960
2397 3013 4095
2805 3189 4095
3122 3365 4095
3382 3533 4095
3600 3690 4095
3786 3835 4095
3947 3968 4095
4087 4088 4095
0 337 0
0 447 42
0 704 128
0 985 270
0 1262 459
0 1524 693
0 1767 964
267 1979 1268
442 2163 1589
582 2324 1919
724 2462 2251
884 2579 2579
1070 2678 2896
1284 2764 3194
1525 2842 3464
1788 2921 3701
2066 3007 3899
2353 3105 4054
2740 3242 4095
3084 3399 4095
3359 3554 4095
3587 3703 4095
3779 3842 4095
3944 3971 4095
4087 4088 4095
0 324 0
0 428 36
0 686 113
0 973 243
0 1261 420
0 1538 641
0 1795 897
0 2030 1184
354 2228 1498
518 2404 1821
673 2556 2150
844 2686 2477
1037 2795 2795
1258 2887 3096
1503 2967 3373
1770 3042 3617
2052 3119 3824
2340 3205 3990
2658 3306 4095
3037 3440 4095
3332 3580 4095
3571 3718 4095
3771 3851 4095
3941 3974 4095
4087 4088 4095
0 351 0
0 448 36
0 696 107
0 983 228
0 1272 391
0 1553 597
0 1818 839
0 2064 1111
230 2285 1411
445 2473 1728
617 2638 2052
799 2780 2376
1001 2900 2695
1228 2999 2999
1479 3082 3280
1750 3156 3532
2034 3227 3748
2326 3302 3924
2616 3385 4058
2978 3488 4095
3298 3610 4095
3553 3736 4095
3762 3860 4095
3937 3978 4095
4087 4088 4095
0 377 0
0 468 32
0 708 100
0 991 212
0 1281 367
0 1565 559
0 1838 788
0 2093 1046
0 2329 1330
349 2533 1639
552 2710 1958
748 2864 2279
960 2994 2597
1194 3101 2903
1451 3189 3189
1726 3263 3447
2014 3329 3672
2309 3395 3857
2602 3466 4002
2904 3547 4095
3257 3646 4095
3530 3758 4095
3750 3872 4095
3933 3983 4095
4086 4089 4095
0 404 0
0 488 32
0 719 97
0 999 201
0 1290 343
0 1577 526
0 1854 742
0 2117 988
0 2362 1260
171 2586 1554
470 2775 1868
688 2939 2186
912 3079 2502
1155 3194 2809
1418 3287 3099
1698 3363 3363
1991 3427 3595
2289 3485 3790
2585 3546 3945
2873 3613 4060
3206 3690 4095
3503 3783 4095
3736 3885 4095
3927 3989 4095
4086 4089 4095
0 433 0
0 509 32
0 732 90
0 1008 189
0 1298 324
0 1587 496
0 1868 700
0 2137 935
0 2390 1195
0 2626 1477
349 2832 1780
612 3007 2095
855 3156 2409
1108 3280 2717
1379 3379 3010
1666 3457 3279
1963 3519 3519
2265 3572 3723
2565 3624 3888
2856 3679 4014
3143 3741 4095
3469 3813 4095
3720 3901 4095
3921 3995 4095
4086 4090 4095
0 460 0
0 530 32
0 744 87
0 1018 180
0 1307 308
0 1597 470
0 1881 664
0 2154 887
0 2414 1136
0 2658 1407
0 2884 1696
508 3070 2007
782 3228 2320
1051 3360 2628
1332 3464 2923
1626 3545 3197
1930 3607 3444
2237 3657 3657
2541 3700 3832
2836 3745 3968
3117 3795 4065
3428 3849 4095
3701 3920 4095
3914 4003 4095
4086 4090 4095
0 485 0
0 552 32
0 759 84
0 1028 171
0 1315 293
0 1606 446
0 1892 630
0 2169 843
0 2435 1082
0 2686 1343
0 2920 1622
330 3128 1920
684 3295 2231
979 3434 2539
1274 3545 2837
1578 3630 3117
1889 3692 3370
2203 3738 3591
2512 3775 3775
2812 3810 3921
3098 3849 4030
3377 3892 4095
3677 3942 4095
3905 4012 4095
4086 4091 4095
0 513 0
0 576 29
0 774 81
0 1038 165
0 1324 278
0 1614 425
0 1902 601
0 2183 804
0 2453 1033
0 2710 1284
0 2951 1553
0 3176 1838
538 3359 2144
884 3506 2452
1201 3623 2752
1519 3711 3036
1840 3775 3296
2161 3819 3525
2478 3850 3719
2784 3876 3876
3075 3903 3994
3348 3936 4076
3647 3969 4095
3894 4023 4095
4086 4091 4095
0 540 0
0 600 29
0 789 78
0 1049 158
0 1332 267
0 1623 406
0 1912 573
0 2195 768
0 2469 988
0 2731 1229
0 2978 1489
0 3210 1766
195 3422 2055
749 3576 2365
1106 3699 2668
1444 3791 2957
1778 3856 3223
2111 3899 3461
2435 3925 3664
2749 3943 3830
3047 3959 3959
3327 3980 4051
3610 4003 4095
3881 4036 4095
4086 4092 4095
0 568 0
0 623 29
0 806 78
0 1060 152
0 1342 255
0 1631 388
0 1921 548
0 2206 735
0 2483 946
0 2750 1178
0 3003 1430
0 3241 1698
0 3462 1978
522 3646 2276
975 3775 2582
1346 3872 2876
1702 3938 3149
2047 3979 3395
2383 4002 3608
2707 4012 3785
3014 4018 3924
3301 4026 4026
3570 4041 4092
3865 4051 4095
4086 4092 4095
0 594 0
0 646 29
0 823 74
0 1072 145
0 1351 245
0 1640 372
0 1930 526
0 2217 705
0 2496 908
0 2766 1132
0 3024 1375
0 3268 1634
0 3495 1906
0 3705 2189
773 3852 2493
1215 3953 2793
1601 4023 3074
1967 4063 3328
2318 4081 3551
2654 4084 3739
2972 4080 3888
3269 4075 4001
3547 4076 4076
3845 4071 4095
4086 4093 4095
0 621 0
0 670 29
0 841 74
0 1084 142
0 1360 235
0 1648 358
0 1939 505
0 2226 677
0 2509 873
0 2782 1088
0 3044 1324
0 3292 1574
0 3525 1839
0 3741 2114
299 3933 2399
1021 4039 2706
1524 4095 2997
2021 4095 3260
2405 4095 3486
2734 4095 3676
3029 4095 3833
3302 4095 3957
3563 4095 4045
3819 4095 4095
4085 4094 4095
0 647 0
0 695 29
0 858 71
0 1097 136
0 1370 228
0 1657 345
0 1947 486
0 2236 652
0 2520 840
0 2795 1048
0 3061 1275
0 3314 1519
0 3552 1776
0 3774 2044
0 3977 2320
953 4095 2626
1672 4095 2937
2131 4095 3203
2498 4095 3430
2814 4095 3623
3098 4095 3783
3359 4095 3912
3606 4095 4009
3845 4095 4072
4085 4095 4095
164 0 0
174 9 174
186 26 352
205 49 536
229 76 729
255 106 931
282 137 1143
310 169 1365
340 203 1595
374 241 1831
415 286 2073
468 344 2317
538 420 2561
630 517 2800
746 638 3030
947 845 3205
1172 1077 3341
1387 1297 3469
1597 1511 3586
1803 1723 3695
2007 1931 3794
2207 2136 3883
2405 2339 3963
2600 2539 4034
2792 2735 4095
157 157 0
174 174 174
193 193 357
216 216 543
241 241 739
268 268 943
295 295 1157
323 323 1380
352 352 1610
385 385 1848
426 426 2089
479 479 2334
550 550 2577
643 643 2816
760 760 3046
963 963 3219
1191 1191 3353
1408 1408 3478
1618 1618 3594
1826 1826 3701
2029 2029 3798
2230 2230 3887
2428 2428 3965
2623 2623 4035
2815 2815 4095
144 288 0
154 336 154
200 360 360
234 390 555
266 420 757
296 448 968
324 475 1187
353 502 1414
382 530 1648
415 560 1888
456 597 2132
511 647 2377
584 713 2621
680 801 2859
801 915 3087
1006 1110 3260
1244 1339 3388
1466 1555 3507
1681 1764 3617
1890 1968 3719
2096 2168 3812
2298 2365 3897
2496 2558 3972
2691 2748 4038
2882 2935 4095
132 395 0
124 461 124
186 518 350
244 558 558
288 598 770
325 635 990
358 668 1218
389 698 1454
420 728 1695
454 758 1940
498 795 2189
556 841 2437
633 903 2682
735 987 2921
863 1096 3148
1069 1277 3323
1323 1510 3441
1556 1727 3551
1778 1935 3654
1993 2138 3748
2202 2336 3835
2405 2530 3913
2605 2719 3982
2800 2905 4043
2991 3087 4095
119 477 0
109 556 109
109 654 320
233 715 546
296 770 770
345 820 1001
386 864 1240
423 903 1486
458 938 1737
497 973 1991
545 1010 2247
608 1056 2501
693 1115 2751
803 1194 2991
940 1298 3219
1141 1457 3404
1421 1693 3510
1671 1913 3609
1904 2123 3701
2126 2326 3786
2340 2523 3864
2548 2715 3934
2749 2901 3996
2945 3083 4049
3137 3261 4095
106 533 0
94 623 94
94 749 291
176 855 514
286 928 753
352 996 996
404 1056 1246
449 1108 1504
491 1154 1767
537 1196 2032
592 1238 2298
663 1285 2561
757 1343 2817
878 1418 3062
1027 1515 3292
1209 1643 3497
1527 1881 3590
1800 2104 3677
2049 2317 3758
2283 2522 3832
2505 2719 3899
2718 2910 3959
2923 3095 4012
3122 3275 4057
3314 3449 4095
93 565 0
79 661 79
79 815 263
78 958 473
245 1066 720
341 1155 974
408 1236 1236
465 1305 1505
517 1366 1780
571 1420 2058
635 1470 2335
717 1522 2609
823 1580 2874
957 1652 3126
1121 1744 3361
1311 1861 3572
1633 2070 3679
1938 2295 3753
2208 2511 3821
2457 2717 3883
2690 2916 3939
2911 3108 3988
3121 3293 4031
3323 3470 4067
3518 3642 4095
80 569 0
64 672 64
64 850 233
63 1023 432
99 1178 669
307 1292 935
397 1396 1207
468 1488 1488
532 1568 1775
597 1637 2066
673 1699 2356
768 1759 2642
888 1821 2918
1038 1892 3179
1218 1980 3420
1425 2089 3636
1727 2260 3774
2075 2483 3834
2374 2699 3889
2642 2908 3938
2890 3109 3982
3121 3301 4020
3339 3486 4052
3546 3664 4077
3744 3834 4095
68 549 0
49 656 49
49 856 204
48 1058 390
48 1246 617
235 1402 882
368 1533 1163
457 1649 1454
536 1752 1752
615 1841 2055
704 1919 2358
814 1990 2657
950 2059 2945
1118 2132 3218
1316 2217 3468
1542 2320 3690
1799 2449 3875
2206 2666 3920
2541 2881 3961
2834 3090 3997
3099 3292 4028
3344 3486 4054
3572 3671 4074
3786 3849 4088
3989 4019 4095
55 502 0
34 612 34
34 833 176
33 1064 348
33 1282 564
32 1481 819
312 1643 1106
430 1787 1404
528 1914 1712
623 2026 2026
728 2123 2342
854 2209 2653
1009 2288 2955
1195 2366 3239
1413 2451 3500
1660 2549 3731
1930 2667 3926
2322 2844 4010
2704 3053 4037
3029 3261 4059
3316 3463 4077
3576 3657 4090
3792 3829 4095
3949 3965 4095
4087 4087 4095
42 432 0
19 541 19
19 782 147
18 1039 305
18 1288 509
17 1519 755
203 1723 1036
384 1896 1341
505 2051 1657
619 2188 1980
743 2308 2308
888 2412 2632
1062 2504 2947
1269 2590 3244
1509 2677 3517
1777 2772 3758
2070 2882 3961
2398 3012 4095
2806 3189 4095
3123 3364 4095
3382 3532 4095
3600 3690 4095
3786 3835 4095
3947 3968 4095
4087 4088 4095
