Examples/Volume - Contrast skintone.3dl
#25pt 3DLUT created by 3D LUT Creator Pro (c) Oleg Sharonov
#Copyright Oleg Sharonov
#INPUTGAMMA sRGB IEC61966-2.1 v.2.10
#IMAGEPROFILE sRGB IEC61966-2.1 v.2.10
#OUTPUTGAMMA sRGB IEC61966-2.1 v.2.10
0 256 512 768 1023
0 0 0
131 131 1139
415 415 2556
1504 1504 3584
2727 2727 4095
0 565 0
320 1236 1236
749 1579 2873
2156 2507 3819
3487 3638 4095
0 324 0
0 1795 897
1037 2795 2795
2658 3306 4095
4087 4088 4095
0 485 0
0 1892 630
684 3295 2231
2512 3775 3775
4086 4091 4095
0 647 0
0 1947 486
0 3552 1776
2498 4095 3430
4085 4095 4095
937 0 0
1160 204 1160
1429 547 2650
2224 1745 3676
3283 3014 4095
738 738 0
1147 1147 1147
1583 1583 2851
2599 2599 3885
3809 3809 4095
354 710 0
811 1715 811
1555 2705 2705
2759 3272 4064
4087 4088 4095
255 766 0
332 1927 332
1181 3237 2185
2614 3746 3746
4087 4091 4095
203 816 0
0 1979 0
0 3592 1670
2527 4095 3411
4086 4095 4095
2134 184 184
2045 0 1023
2580 739 2580
3059 2136 3893
3918 3745 4095
2048 1024 16
1951 962 962
2632 1496 2632
3227 2696 4028
4088 4087 4095
1655 1655 0
1606 1606 717
2409 2409 2409
3158 3158 3888
4088 4088 4095
1296 1945 0
1243 1972 0
2005 3024 2005
2956 3632 3632
4088 4091 4095
1045 2090 0
982 2110 0
1350 3549 1350
2666 4095 3320
4087 4095 4095
3892 1161 1161
3814 1151 1610
3519 1055 2433
3776 2516 3776
4091 4087 4095
3849 1639 1205
3761 1599 1599
3459 1433 2387
3747 2617 3747
4091 4088 4095
3529 2442 1071
3467 2395 1442
3240 2208 2208
3633 2958 3633
4091 4089 4095
3106 3106 439
3067 3067 1015
2910 2910 1857
3430 3430 3430
4091 4091 4095
2641 3521 0
2612 3538 0
2446 3618 529
3029 4086 3029
4090 4095 4095
4095 4095 4095
4095 4095 4095
4095 4095 4095
4095 4082 4088
4095 4088 4095
4095 4095 4095
4095 4095 4095
4095 4095 4095
4095 4083 4089
4095 4089 4095
4095 4095 4095
4095 4095 4095
4095 4095 4095
4095 4089 4091
4095 4090 4095
4095 4095 4095
4095 4095 4095
4095 4095 4095
4095 4095 4095
4095 4092 4095
4095 4095 4095
4095 4095 4095
4095 4095 4095
4095 4095 4095
4095 4095 4095
