Examples/Volume - Contrast.3dl
#25pt 3DLUT created by 3D LUT Creator Pro (c) Oleg Sharonov
#Copyright Oleg Sharonov
0 43 86 128 171 214 256 299 341 384 427 469 512 555 597 640 682 725 768 810 853 896 938 981 1023 
0 0 0
0 0 45
0 0 136
0 0 217
0 0 341
0 0 455
0 0 596
0 0 735
0 0 881
0 0 1031
0 0 1181
0 0 1343
0 0 1507
0 0 1676
0 0 1843
0 0 2013
0 0 2183
0 0 2351
0 0 2519
0 0 2682
0 0 2840
0 0 2992
0 0 3139
0 0 3275
0 0 3401
0 45 0
0 55 55
0 68 136
0 74 228
0 87 341
0 94 464
0 100 595
0 103 733
0 110 877
0 113 1028
0 119 1186
0 123 1343
0 126 1508
0 129 1674
0 132 1843
0 136 2014
0 136 2183
0 139 2352
0 139 2519
0 142 2681
0 142 2841
0 142 2993
0 142 3138
0 142 3274
0 142 3402
0 123 0
0 126 61
0 139 139
0 155 235
0 174 349
0 186 465
0 201 599
0 209 732
0 220 880
0 228 1028
0 238 1187
0 245 1344
0 252 1511
0 257 1676
0 264 1845
0 269 2015
0 273 2184
0 276 2351
0 280 2519
0 282 2682
0 284 2839
0 284 2993
0 284 3138
0 284 3275
0 284 3401
0 212 0
0 217 71
0 230 152
0 245 245
0 267 354
0 284 472
0 299 601
0 318 740
0 332 884
0 345 1034
0 356 1187
0 367 1347
0 377 1512
0 388 1677
0 396 1846
0 403 2015
0 409 2185
0 416 2351
0 420 2519
0 423 2682
0 427 2840
0 427 2991
0 428 3137
0 427 3273
0 425 3398
0 316 0
0 316 78
0 328 165
0 345 260
0 363 363
0 386 484
0 406 610
0 427 746
0 443 888
0 462 1039
0 477 1192
0 492 1353
0 505 1515
0 517 1681
0 527 1848
0 538 2018
0 546 2185
0 554 2354
0 559 2518
0 564 2681
0 568 2839
0 570 2991
0 570 3135
0 569 3270
0 566 3396
0 428 0
0 431 87
0 437 174
0 452 271
0 472 377
0 494 494
0 518 620
0 538 755
0 559 896
0 580 1045
0 600 1200
0 617 1358
0 632 1518
0 648 1684
0 660 1850
0 673 2019
0 684 2187
0 692 2353
0 699 2519
0 706 2681
0 710 2837
0 712 2988
0 712 3131
0 710 3266
0 707 3391
0 548 0
0 551 90
0 557 186
0 570 284
0 588 393
0 611 509
0 633 633
0 658 767
0 680 907
0 703 1054
0 724 1207
0 744 1363
0 762 1524
0 779 1688
0 794 1854
0 809 2021
0 821 2189
0 831 2354
0 839 2518
0 845 2678
0 851 2835
0 853 2985
0 853 3128
0 851 3261
0 846 3386
0 677 0
0 678 97
0 685 195
0 696 297
0 712 408
0 733 523
0 755 648
0 780 780
0 805 919
0 828 1065
0 851 1216
0 873 1371
0 894 1531
0 912 1694
0 929 1858
0 945 2025
0 958 2191
0 970 2356
0 979 2518
0 986 2678
0 991 2831
0 994 2981
0 994 3122
0 990 3255
0 985 3378
0 811 0
0 812 100
0 817 203
0 828 310
0 843 422
0 862 538
0 884 663
0 908 794
0 933 933
0 957 1076
0 981 1227
0 1004 1381
0 1027 1540
0 1047 1701
0 1066 1865
0 1082 2029
0 1097 2193
0 1109 2357
0 1119 2518
0 1126 2675
0 1132 2829
0 1134 2976
0 1133 3115
0 1129 3247
0 1123 3368
0 950 0
0 953 107
0 957 212
0 965 322
0 980 436
0 997 553
0 1018 679
0 1041 809
0 1065 946
0 1090 1090
0 1114 1238
0 1138 1392
0 1162 1548
0 1183 1708
0 1202 1869
0 1219 2033
0 1235 2195
0 1248 2357
0 1259 2517
0 1266 2673
0 1271 2824
0 1273 2970
0 1272 3108
0 1267 3237
0 1259 3357
0 1096 0
0 1096 110
0 1101 220
0 1109 334
0 1120 448
0 1137 569
0 1156 694
0 1179 825
0 1202 961
0 1227 1103
0 1251 1251
0 1275 1403
0 1298 1558
0 1319 1715
0 1340 1876
0 1358 2036
0 1374 2198
0 1387 2358
0 1397 2515
0 1406 2670
0 1409 2819
0 1411 2963
0 1409 3099
0 1402 3225
0 1393 3343
0 1244 0
0 1245 113
0 1249 228
0 1255 343
0 1267 461
0 1282 583
0 1300 709
0 1320 840
0 1343 977
0 1366 1118
0 1390 1264
0 1414 1414
0 1437 1567
0 1458 1724
0 1478 1881
0 1497 2041
0 1513 2200
0 1526 2358
0 1536 2513
0 1543 2665
0 1547 2812
0 1547 2953
0 1544 3088
0 1536 3212
0 1525 3327
0 1396 0
0 1396 116
0 1399 233
0 1406 352
0 1416 472
0 1429 595
0 1446 724
0 1465 855
0 1486 991
0 1509 1132
0 1532 1276
0 1555 1425
0 1577 1577
0 1598 1731
0 1618 1888
0 1636 2045
0 1651 2202
0 1664 2357
0 1674 2510
0 1680 2660
0 1683 2805
0 1682 2943
0 1677 3074
0 1668 3196
0 1654 3309
0 1550 0
0 1551 119
0 1554 240
0 1559 360
0 1568 482
0 1580 607
0 1595 736
0 1613 868
0 1633 1005
0 1654 1145
0 1676 1289
0 1697 1436
0 1719 1587
0 1739 1739
0 1758 1893
0 1775 2048
0 1789 2202
0 1801 2356
0 1810 2506
0 1815 2652
0 1816 2794
0 1814 2930
0 1807 3058
0 1796 3178
0 1781 3288
0 1705 0
0 1706 123
0 1709 245
0 1714 367
0 1722 492
0 1733 619
0 1747 749
0 1763 882
0 1781 1018
0 1800 1157
0 1821 1301
0 1841 1446
0 1861 1595
0 1880 1746
0 1898 1898
0 1914 2050
0 1927 2202
0 1937 2352
0 1944 2500
0 1948 2644
0 1948 2782
0 1943 2915
0 1935 3040
0 1922 3157
0 1904 3264
0 1863 0
0 1863 123
0 1865 248
0 1870 374
0 1877 501
0 1887 629
0 1899 759
0 1914 893
0 1930 1029
0 1948 1169
0 1966 1311
0 1985 1456
0 2003 1603
0 2021 1751
0 2037 1901
0 2051 2051
0 2063 2200
0 2071 2347
0 2077 2492
0 2079 2633
0 2076 2768
0 2070 2897
0 2059 3020
0 2043 3133
0 2023 3237
0 2019 0
0 2020 126
0 2022 252
0 2026 379
0 2032 508
0 2041 637
0 2052 769
0 2065 903
0 2079 1039
0 2095 1178
0 2112 1320
0 2128 1463
0 2145 1609
0 2161 1755
0 2175 1903
0 2187 2050
0 2196 2196
0 2203 2341
0 2206 2482
0 2206 2619
0 2201 2752
0 2192 2877
0 2179 2996
0 2161 3106
0 2138 3207
0 2175 0
0 2175 129
0 2177 257
0 2181 384
0 2186 514
0 2194 646
0 2204 777
0 2215 912
0 2227 1048
0 2242 1187
0 2256 1327
0 2271 1470
0 2285 1613
0 2298 1757
0 2310 1903
0 2320 2047
0 2328 2191
0 2332 2332
0 2332 2470
0 2329 2603
0 2322 2732
0 2311 2854
0 2294 2969
0 2274 3076
0 2248 3174
0 2329 0
0 2329 129
0 2330 260
0 2334 389
0 2338 520
0 2345 651
0 2353 784
0 2363 919
0 2374 1055
0 2385 1193
0 2398 1332
0 2411 1473
0 2422 1615
0 2433 1757
0 2443 1900
0 2450 2042
0 2454 2182
0 2456 2320
0 2454 2454
0 2448 2584
0 2438 2709
0 2424 2827
0 2405 2939
0 2381 3042
0 2353 3137
0 2479 0
0 2480 129
0 2481 262
0 2484 393
0 2488 523
0 2493 656
0 2500 789
0 2507 924
0 2517 1060
0 2527 1197
0 2537 1335
0 2547 1475
0 2557 1615
0 2565 1755
0 2571 1895
0 2576 2033
0 2577 2171
0 2576 2305
0 2571 2436
0 2562 2562
0 2549 2683
0 2531 2798
0 2509 2905
0 2483 3006
0 2452 3097
0 2625 0
0 2626 132
0 2627 262
0 2629 394
0 2632 526
0 2636 659
0 2642 793
0 2648 927
0 2655 1062
0 2663 1198
0 2671 1336
0 2679 1474
0 2685 1611
0 2691 1749
0 2694 1886
0 2696 2022
0 2695 2155
0 2690 2287
0 2682 2414
0 2670 2536
0 2653 2653
0 2633 2764
0 2608 2868
0 2578 2965
0 2545 3054
0 2766 0
0 2766 132
0 2767 264
0 2768 396
0 2771 528
0 2774 660
0 2778 793
0 2783 928
0 2789 1063
0 2794 1197
0 2800 1333
0 2805 1469
0 2809 1605
0 2811 1740
0 2812 1874
0 2810 2007
0 2805 2137
0 2797 2265
0 2786 2388
0 2771 2507
0 2751 2620
0 2727 2727
0 2699 2828
0 2668 2922
0 2632 3008
0 2899 0
0 2899 132
0 2900 264
0 2901 396
0 2903 528
0 2905 660
0 2908 793
0 2911 926
0 2915 1060
0 2918 1194
0 2921 1328
0 2924 1462
0 2925 1595
0 2924 1728
0 2921 1859
0 2917 1988
0 2909 2115
0 2898 2239
0 2883 2359
0 2864 2474
0 2841 2583
0 2815 2687
0 2785 2785
0 2750 2875
0 2713 2959
0 3024 0
0 3024 132
0 3025 262
0 3026 394
0 3027 526
0 3028 658
0 3029 790
0 3031 922
0 3033 1055
0 3034 1187
0 3035 1319
0 3034 1451
0 3033 1582
0 3029 1712
0 3023 1840
0 3015 1966
0 3004 2089
0 2989 2210
0 2972 2326
0 2950 2437
0 2924 2543
0 2895 2643
0 2862 2738
0 2826 2826
0 2787 2908
0 3140 0
0 3140 129
0 3140 262
0 3140 393
0 3141 523
0 3141 654
0 3141 785
0 3141 917
0 3141 1047
0 3140 1178
0 3138 1308
0 3136 1437
0 3131 1565
0 3124 1692
0 3116 1818
0 3105 1940
0 3090 2060
0 3073 2177
0 3052 2289
0 3027 2397
0 2999 2499
0 2968 2597
0 2933 2688
0 2896 2775
0 2855 2855
45 0 0
58 0 58
65 0 126
74 0 222
87 0 347
90 0 455
97 0 590
103 0 725
110 0 879
113 0 1027
119 0 1183
123 0 1343
126 0 1506
129 0 1674
132 0 1845
136 0 2013
136 0 2183
139 0 2351
139 0 2518
142 0 2681
142 0 2839
142 0 2993
142 0 3138
142 0 3275
142 0 3402
48 48 0
55 55 55
0 0 136
0 0 252
0 0 341
0 0 475
0 0 596
0 0 735
0 0 881
0 0 1031
0 0 1188
0 0 1350
0 0 1513
0 0 1676
0 0 1848
0 0 2016
0 0 2187
0 0 2354
0 0 2519
0 0 2684
0 0 2842
0 0 2994
0 0 3139
0 0 3277
0 0 3403
61 123 0
0 145 0
0 142 142
0 155 245
0 165 354
0 177 474
0 183 599
0 195 740
0 203 884
0 212 1033
0 220 1190
0 225 1347
0 230 1512
0 238 1677
0 243 1846
0 245 2015
0 250 2184
0 255 2354
0 257 2520
0 260 2683
0 260 2843
0 262 2994
0 262 3139
0 262 3276
0 260 3402
71 209 0
0 228 0
0 235 149
0 248 248
0 264 360
0 280 477
0 295 607
0 310 744
0 322 885
0 336 1036
0 347 1192
0 358 1351
0 367 1514
0 376 1680
0 384 1849
0 391 2018
0 398 2186
0 403 2355
0 408 2520
0 411 2682
0 414 2842
0 414 2993
0 414 3137
0 414 3274
0 412 3400
78 316 0
0 326 0
0 334 155
0 347 257
0 365 365
0 386 486
0 404 612
0 423 750
0 440 893
0 457 1042
0 472 1196
0 486 1355
0 499 1517
0 510 1683
0 521 1851
0 531 2018
0 538 2186
0 546 2355
0 552 2520
0 557 2683
0 560 2841
0 562 2991
0 562 3135
0 560 3271
0 558 3397
84 427 0
0 437 0
0 443 165
0 457 269
0 475 377
0 497 497
0 517 623
0 538 758
0 559 900
0 578 1048
0 596 1201
0 614 1360
0 629 1521
0 643 1685
0 657 1854
0 668 2021
0 678 2188
0 687 2356
0 694 2520
0 699 2682
0 703 2838
0 705 2989
0 706 3133
0 704 3268
0 700 3392
90 547 0
0 556 0
0 563 174
0 573 280
0 592 391
0 612 508
0 634 634
0 657 769
0 680 909
0 701 1055
0 723 1209
0 742 1365
0 760 1527
0 777 1690
0 792 1856
0 805 2023
0 817 2190
0 827 2356
0 835 2520
0 842 2680
0 846 2836
0 849 2986
0 849 3129
0 847 3263
0 842 3386
97 676 0
0 682 0
0 689 180
0 699 291
0 716 404
0 735 522
0 758 648
0 782 782
0 804 921
0 827 1066
0 851 1218
0 872 1374
0 892 1534
0 910 1695
0 928 1861
0 942 2026
0 956 2192
0 967 2357
0 977 2520
0 983 2679
0 988 2834
0 991 2983
0 990 3123
0 987 3256
0 982 3379
100 811 0
0 817 0
0 821 189
0 831 304
0 846 417
0 865 537
0 886 662
0 909 794
0 933 933
0 958 1079
0 981 1228
0 1004 1383
0 1025 1540
0 1046 1702
0 1064 1865
0 1080 2030
0 1095 2194
0 1107 2357
0 1117 2519
0 1124 2677
0 1129 2830
0 1131 2977
0 1131 3117
0 1127 3248
0 1120 3369
107 950 0
0 955 0
0 960 195
0 969 314
0 982 431
0 999 552
0 1020 677
0 1043 809
0 1067 947
0 1091 1091
0 1115 1239
0 1138 1393
0 1161 1549
0 1182 1710
0 1201 1871
0 1219 2034
0 1234 2197
0 1247 2358
0 1257 2518
0 1264 2674
0 1269 2825
0 1271 2972
0 1270 3109
0 1265 3238
0 1257 3358
110 1095 0
0 1100 0
0 1104 203
0 1111 324
0 1124 443
0 1140 566
0 1159 692
0 1180 824
0 1203 961
0 1228 1105
0 1251 1251
0 1275 1403
0 1298 1559
0 1320 1717
0 1340 1877
0 1357 2038
0 1373 2199
0 1386 2359
0 1396 2517
0 1404 2671
0 1408 2820
0 1409 2964
0 1407 3099
0 1401 3227
0 1392 3345
