Examples/Volume - Contrast.3dl
#25pt 3DLUT created by 3D LUT Creator Pro (c) Oleg Sharonov
#Copyright Oleg Sharonov
0 256 512 768 1023
0 0 0
0 0 596
0 0 1507
0 0 2519
0 0 3401
0 548 0
0 633 633
0 762 1524
0 839 2518
0 846 3386
0 1396 0
0 1446 724
0 1577 1577
0 1674 2510
0 1654 3309
0 2329 0
0 2353 784
0 2422 1615
0 2454 2454
0 2353 3137
0 3140 0
0 3141 785
0 3131 1565
0 3052 2289
0 2855 2855
518 0 0
580 0 580
741 0 1482
834 0 2501
850 0 3401
558 558 0
622 622 622
694 694 1543
719 719 2549
0 0 3485
691 1382 0
648 1479 648
699 1580 1580
620 1652 2551
0 1579 3394
774 2323 0
637 2401 637
565 2471 1595
0 2494 2494
0 2365 3204
788 3149 0
0 3244 0
0 3218 1497
0 3120 2303
0 2913 2913
1366 0 0
1389 0 695
1530 0 1530
1688 0 2532
1735 0 3469
1374 687 0
1458 633 633
1562 686 1562
1675 644 2582
1646 0 3538
1472 1472 0
1519 1519 655
1603 1603 1603
1655 1655 2595
1397 1397 3601
1597 2395 0
1592 2468 563
1607 2532 1607
1517 2567 2567
174 2396 3564
1629 3259 0
1553 3338 0
1286 3475 1286
0 3490 2344
0 3191 3191
2605 0 0
2615 0 871
2687 0 1791
2804 0 2804
2840 0 3787
2608 869 0
2659 780 780
2732 751 1786
2836 554 2836
2832 0 3835
2648 1765 0
2703 1764 730
2769 1791 1791
2837 1778 2837
2767 1396 3907
2724 2724 0
2771 2771 379
2798 2798 1738
2788 2788 2788
2526 2526 3897
2736 3647 0
2734 3703 0
2685 3842 1211
2471 3866 2471
0 3826 3826
4095 1144 1144
4095 1178 1461
4095 1335 2277
4095 1648 3210
4095 2055 4095
4095 1456 1170
4095 1481 1481
4095 1601 2289
4095 1850 3215
4095 2195 4095
4095 2261 1293
4095 2275 1574
4095 2339 2339
4095 2474 3236
4095 2676 4095
4095 3189 1537
4095 3195 1764
4095 3221 2439
4095 3273 3273
4095 3354 4095
4095 4095 1804
4095 4095 1978
4095 4095 2544
4095 4095 3300
4095 4095 4095
