Examples/WB - Cooler without blues.3dl
#25pt 3DLUT created by 3D LUT Creator Pro (c) Oleg Sharonov
#Copyright Oleg Sharonov
#IMAGEPROFILE sRGB IEC61966-2.1 v.2.10
#INPUTGAMMA sRGB IEC61966-2.1 v.2.10
#OUTPUTGAMMA sRGB IEC61966-2.1 v.2.10
0 43 86 128 171 214 256 299 341 384 427 469 512 555 597 640 682 725 768 810 853 896 938 981 1023 
0 0 0
23 13 26
52 32 65
100 61 123
168 100 201
243 155 282
318 217 363
391 276 443
464 334 522
538 394 603
612 454 683
683 512 760
755 571 838
825 628 914
893 683 988
959 736 1060
1022 788 1128
1082 836 1193
1138 883 1254
1190 924 1311
1238 963 1362
1283 999 1411
1325 1034 1457
1369 1070 1505
1418 1109 1558
0 171 0
84 155 152
136 161 220
203 180 284
269 212 336
330 252 396
394 297 460
457 345 525
522 396 595
591 448 667
658 501 739
725 554 811
793 609 884
859 662 955
924 714 1026
988 766 1095
1049 815 1161
1108 862 1224
1163 907 1284
1213 947 1338
1260 985 1389
1304 1021 1436
1346 1055 1482
1389 1090 1528
1437 1128 1581
0 339 0
61 336 168
195 318 314
267 326 384
326 339 457
401 362 513
464 391 563
526 428 619
587 470 679
648 514 742
712 560 807
776 610 874
838 658 941
902 708 1009
965 757 1076
1026 805 1141
1085 852 1205
1142 897 1265
1194 939 1322
1244 979 1375
1289 1015 1424
1332 1049 1470
1373 1082 1515
1415 1116 1560
1462 1154 1611
0 512 0
16 510 206
180 497 334
320 481 475
394 488 548
454 500 615
522 516 696
595 540 739
659 571 789
720 605 843
780 644 901
840 685 960
900 728 1022
961 773 1084
1020 818 1146
1078 862 1207
1134 905 1267
1188 947 1324
1239 987 1378
1287 1024 1429
1330 1058 1475
1372 1091 1520
1412 1123 1562
1453 1155 1607
1498 1192 1655
0 682 0
0 682 228
97 678 354
330 657 504
448 646 639
521 649 710
585 661 779
641 679 846
719 694 921
788 718 964
852 748 1013
912 782 1066
971 818 1121
1030 856 1178
1087 896 1235
1142 935 1291
1196 975 1346
1247 1013 1399
1296 1050 1451
1342 1084 1498
1384 1117 1543
1423 1147 1585
1462 1177 1625
1502 1208 1668
1546 1242 1714
0 853 0
0 852 228
29 852 398
240 842 509
481 815 678
573 809 801
649 813 873
713 822 942
771 837 1009
837 852 1091
913 871 1145
980 896 1189
1043 925 1237
1102 957 1287
1158 990 1338
1213 1025 1390
1265 1060 1441
1315 1094 1491
1363 1128 1539
1406 1159 1583
1447 1188 1625
1485 1217 1665
1522 1244 1703
1560 1273 1743
1603 1305 1788
0 1023 0
0 1023 228
0 1024 422
145 1020 543
388 1006 671
633 973 858
700 973 963
775 977 1035
843 984 1105
902 997 1172
957 1015 1238
1030 1027 1330
1103 1048 1368
1169 1073 1411
1229 1101 1457
1285 1129 1503
1338 1159 1550
1387 1189 1595
1434 1219 1640
1477 1247 1681
1517 1274 1721
1553 1299 1757
1589 1325 1793
1627 1351 1831
1668 1380 1873
0 1195 0
0 1195 228
0 1194 422
45 1194 591
297 1185 695
537 1167 836
778 1131 1035
827 1136 1125
901 1139 1197
971 1147 1267
1032 1159 1334
1088 1174 1400
1147 1190 1473
1220 1203 1551
1289 1223 1589
1351 1247 1629
1407 1272 1670
1458 1297 1712
1506 1322 1752
1549 1347 1790
1589 1371 1827
1625 1394 1861
1661 1416 1895
1697 1440 1930
1738 1467 1970
0 1365 0
0 1365 228
0 1365 422
0 1365 617
195 1361 735
448 1350 851
687 1328 1005
906 1295 1199
953 1300 1287
1027 1303 1359
1097 1309 1428
1160 1319 1496
1216 1333 1561
1270 1350 1624
1333 1363 1705
1403 1377 1769
1467 1396 1804
1523 1417 1840
1573 1438 1875
1619 1459 1911
1660 1479 1944
1698 1499 1976
1733 1519 2007
1770 1541 2040
1810 1565 2077
0 1535 0
0 1536 228
0 1536 422
0 1536 616
65 1535 783
354 1528 883
596 1513 1011
836 1488 1176
1033 1458 1361
1079 1463 1449
1151 1467 1520
1223 1472 1589
1286 1481 1655
1344 1493 1720
1397 1508 1783
1446 1525 1842
1509 1535 1926
1573 1548 1981
1631 1564 2011
1681 1582 2041
1725 1599 2071
1765 1616 2100
1802 1633 2128
1840 1651 2158
1881 1673 2193
0 1707 0
0 1707 228
0 1707 422
0 1707 617
0 1706 811
243 1703 926
506 1693 1036
744 1676 1174
986 1647 1348
1159 1621 1523
1205 1627 1610
1276 1630 1681
1348 1635 1749
1412 1643 1815
1469 1654 1878
1521 1667 1939
1570 1681 1996
1614 1697 2050
1672 1705 2127
1727 1714 2186
1778 1728 2210
1823 1742 2235
1864 1756 2260
1904 1771 2287
1948 1790 2318
0 1877 0
0 1877 228
0 1877 422
0 1877 617
0 1877 811
90 1876 977
408 1869 1073
655 1858 1193
892 1838 1339
1135 1806 1521
1285 1784 1684
1330 1790 1770
1399 1794 1841
1471 1798 1908
1535 1804 1972
1592 1814 2033
1643 1825 2092
1690 1838 2147
1732 1851 2197
1771 1865 2244
1819 1872 2306
1865 1879 2369
1911 1888 2404
1957 1901 2427
2005 1916 2453
0 2048 0
0 2047 228
0 2048 422
0 2047 616
0 2048 811
0 2048 1006
289 2044 1118
563 2035 1223
802 2021 1351
1039 1999 1505
1283 1965 1696
1410 1948 1845
1455 1954 1929
1520 1957 2000
1592 1961 2065
1655 1966 2127
1712 1975 2187
1762 1984 2242
1807 1995 2294
1847 2006 2341
1883 2017 2384
1916 2028 2424
1951 2039 2468
1998 2045 2529
2048 2052 2598
0 2218 0
0 2218 228
0 2218 422
0 2218 617
0 2218 811
0 2218 1006
116 2217 1169
460 2211 1264
713 2201 1377
948 2185 1512
1185 2160 1671
1428 2123 1869
1535 2111 2004
1579 2117 2087
1639 2121 2157
1710 2124 2220
1772 2129 2280
1827 2135 2336
1876 2143 2388
1919 2152 2437
1958 2161 2481
1992 2170 2521
2025 2180 2560
2058 2191 2600
2093 2204 2643
0 2389 0
0 2389 228
0 2389 422
0 2389 617
0 2389 811
0 2389 1006
0 2389 1201
334 2385 1310
616 2377 1412
859 2365 1533
1094 2347 1673
1330 2321 1838
1571 2282 2041
1660 2274 2162
1702 2280 2243
1756 2284 2311
1825 2287 2372
1885 2290 2429
1939 2296 2482
1985 2302 2530
2026 2309 2575
2063 2316 2616
2098 2324 2656
2133 2333 2696
2170 2344 2740
0 2559 0
0 2559 228
0 2559 422
0 2559 617
0 2559 811
0 2559 1006
0 2559 1201
145 2558 1362
508 2552 1454
767 2543 1563
1004 2529 1690
1237 2510 1835
1471 2481 2004
1709 2442 2209
1782 2438 2317
1824 2443 2396
1869 2448 2464
1936 2449 2521
1994 2452 2574
2045 2457 2623
2090 2461 2669
2130 2467 2710
2167 2473 2750
2203 2480 2791
2243 2489 2836
0 2730 3
0 2730 228
0 2730 422
0 2730 617
0 2730 811
0 2730 1006
0 2730 1201
0 2730 1395
374 2726 1502
668 2719 1601
914 2708 1716
1147 2693 1847
1377 2672 1996
1608 2643 2166
1841 2603 2372
1904 2601 2470
1944 2605 2546
1979 2612 2613
2042 2613 2666
2098 2615 2716
2146 2618 2761
2190 2622 2804
2230 2626 2844
2269 2631 2885
2311 2638 2931
0 2900 3
0 2900 228
0 2901 422
0 2901 617
0 2901 811
0 2900 1006
0 2900 1201
0 2901 1395
177 2899 1554
554 2894 1645
819 2885 1750
1058 2873 1869
1287 2857 2004
1514 2834 2154
1740 2804 2325
1965 2765 2527
2023 2764 2619
2062 2767 2692
2094 2773 2755
2143 2776 2807
2196 2777 2853
2243 2779 2895
2286 2782 2936
2329 2786 2978
2374 2791 3024
0 3071 3
0 3071 228
0 3071 422
0 3071 617
0 3071 811
0 3071 1006
0 3071 1201
0 3071 1395
0 3071 1589
414 3068 1694
716 3061 1790
966 3051 1900
1198 3038 2023
1423 3020 2159
1644 2997 2310
1864 2967 2478
2080 2929 2672
2140 2926 2764
2177 2930 2833
2208 2934 2893
2239 2939 2945
2290 2940 2987
2336 2941 3029
2382 2943 3070
2431 2947 3117
0 3242 3
0 3242 228
0 3242 423
0 3242 617
0 3242 811
0 3242 1006
0 3242 1201
0 3242 1395
0 3242 1589
206 3241 1746
596 3235 1835
868 3228 1937
1108 3217 2050
1334 3203 2175
1553 3184 2312
1768 3160 2460
1979 3131 2623
2183 3096 2806
2255 3089 2904
2290 3092 2969
2320 3095 3026
2345 3100 3076
2380 3103 3120
2429 3104 3162
2482 3106 3209
0 3412 3
0 3412 230
0 3412 423
0 3412 617
0 3412 811
0 3412 1006
0 3412 1201
0 3412 1395
0 3412 1589
0 3412 1781
449 3409 1885
760 3403 1979
1013 3394 2084
1244 3382 2199
1464 3367 2325
1676 3348 2460
1883 3325 2605
2083 3297 2759
2274 3264 2928
2366 3252 3039
2399 3253 3100
2428 3256 3154
2454 3260 3203
2478 3265 3252
2527 3267 3300
0 3583 3
0 3583 230
0 3583 423
0 3583 617
0 3583 812
0 3583 1006
0 3583 1201
0 3583 1395
0 3583 1589
0 3583 1781
230 3582 1938
635 3577 2025
912 3570 2123
1152 3560 2230
1375 3548 2347
1587 3532 2471
1790 3513 2603
1986 3491 2741
2173 3465 2885
2349 3436 3037
2474 3414 3168
2506 3416 3225
2546 3416 3278
2591 3415 3328
2639 3417 3380
0 3754 3
0 3754 230
0 3754 423
0 3754 617
0 3754 812
0 3754 1006
0 3754 1201
0 3754 1395
0 3754 1589
0 3754 1782
0 3754 1973
479 3750 2075
799 3744 2167
1055 3736 2267
1284 3726 2375
1498 3713 2491
1700 3698 2613
1893 3680 2738
2077 3659 2868
2345 3617 3025
2571 3577 3168
2751 3541 3299
2808 3536 3357
2849 3536 3402
2891 3537 3449
0 3924 3
0 3924 230
0 3924 423
0 3924 617
0 3924 812
0 3924 1006
0 3924 1201
0 3924 1395
0 3924 1589
0 3924 1782
0 3924 1973
245 3923 2128
668 3918 2214
950 3912 2308
1189 3903 2409
1408 3892 2517
1736 3864 2670
2085 3823 2842
2355 3785 2991
2568 3751 3120
2742 3721 3231
2887 3693 3331
3013 3669 3424
3101 3654 3499
3137 3656 3540
3 4095 6
0 4095 230
0 4095 423
0 4095 618
0 4095 812
0 4095 1006
3 4095 1202
0 4095 1395
0 4095 1589
3 4095 1782
3 4095 1974
0 4095 2163
968 4071 2343
1464 4039 2514
1823 4007 2674
2112 3974 2824
2352 3943 2960
2556 3913 3081
2729 3886 3190
2874 3862 3284
2999 3840 3367
3105 3822 3441
3201 3805 3509
3291 3789 3578
3382 3773 3653
123 0 0
90 23 84
119 48 123
161 78 180
220 119 245
280 171 314
349 228 391
419 287 467
489 345 543
558 403 619
629 461 697
698 518 773
769 577 849
838 633 925
905 688 998
970 741 1069
1033 793 1137
1091 840 1201
1147 886 1262
1199 928 1318
1247 967 1370
1290 1003 1417
1333 1037 1463
1377 1073 1512
1425 1112 1564
123 171 0
145 171 174
206 174 240
257 195 295
306 225 351
362 264 411
420 310 474
479 356 538
541 404 606
607 457 677
672 509 749
738 562 819
805 615 892
871 668 963
935 720 1033
998 771 1102
1058 820 1167
1116 867 1230
1171 911 1289
1221 952 1344
1267 989 1394
1311 1024 1441
1352 1058 1486
1395 1093 1533
1444 1131 1586
126 343 0
139 339 209
243 330 326
302 336 396
369 347 470
433 370 518
489 399 571
547 437 628
605 478 689
664 521 751
725 568 815
788 615 882
851 664 949
913 713 1015
975 762 1082
1035 810 1147
1094 856 1210
1149 901 1271
1201 943 1327
1251 982 1380
1296 1018 1429
1339 1053 1475
1379 1086 1519
1421 1119 1564
1468 1156 1616
123 512 0
126 513 228
240 503 354
354 490 486
420 494 557
475 508 625
551 522 696
617 546 743
677 577 794
735 611 849
794 650 907
853 691 967
912 734 1028
971 777 1090
1030 822 1151
1087 866 1212
1143 909 1272
1197 951 1329
1247 990 1383
1294 1028 1433
1338 1063 1480
1379 1095 1524
1418 1126 1567
1459 1159 1611
1505 1194 1661
123 682 0
123 683 228
180 680 379
369 661 517
472 651 646
542 656 717
602 667 786
663 682 864
739 698 921
805 723 967
865 752 1018
925 787 1071
982 823 1126
1039 861 1183
1096 900 1239
1150 940 1296
1204 979 1351
1255 1017 1405
1304 1053 1455
1349 1088 1503
1391 1120 1547
1431 1150 1589
1469 1180 1630
1508 1211 1671
1552 1244 1720
123 853 0
123 852 228
123 853 422
293 844 526
509 819 688
593 813 807
665 818 878
729 827 948
784 842 1015
853 855 1106
928 874 1146
993 899 1191
1053 928 1240
1112 961 1291
1168 994 1343
1221 1028 1394
1273 1063 1446
1323 1097 1495
1369 1131 1542
1413 1162 1587
1453 1192 1628
1491 1219 1668
1528 1247 1706
1566 1276 1746
1609 1307 1792
123 1023 0
123 1024 228
123 1024 422
222 1021 562
425 1008 683
654 975 865
716 976 968
789 980 1039
855 988 1109
914 1001 1177
968 1019 1244
1044 1030 1330
1115 1051 1369
1179 1076 1413
1239 1103 1459
1294 1132 1506
1346 1162 1553
1395 1192 1599
1441 1221 1643
1483 1250 1684
1523 1276 1724
1560 1302 1761
1596 1327 1797
1632 1353 1834
1674 1383 1878
123 1195 0
123 1194 228
123 1194 422
136 1194 610
347 1186 708
563 1169 845
796 1134 1041
840 1139 1129
913 1143 1201
981 1150 1271
1041 1162 1338
1097 1177 1404
1158 1192 1482
1232 1206 1552
1299 1226 1589
1360 1250 1631
1415 1274 1672
1466 1299 1714
1513 1325 1755
1556 1350 1793
1595 1373 1829
1632 1396 1864
1667 1419 1898
1703 1442 1933
1744 1469 1974
123 1365 0
123 1365 228
123 1365 422
123 1365 616
264 1362 748
482 1351 862
707 1330 1011
919 1297 1203
964 1302 1291
1037 1305 1362
1106 1312 1431
1168 1322 1499
1225 1336 1565
1276 1353 1628
1342 1364 1714
1412 1379 1769
1475 1398 1804
1531 1419 1841
1581 1440 1877
1625 1461 1912
1666 1482 1946
1704 1502 1978
1739 1521 2009
1775 1543 2042
1816 1566 2080
123 1536 0
123 1536 228
123 1536 422
123 1536 616
155 1535 798
398 1528 894
620 1515 1019
852 1490 1181
1044 1460 1365
1088 1465 1451
1161 1469 1523
1232 1474 1592
1295 1484 1659
1351 1495 1723
1403 1510 1786
1451 1528 1845
1518 1536 1933
1582 1550 1981
1638 1566 2011
1688 1583 2042
1732 1600 2072
1771 1618 2101
1809 1634 2130
1846 1653 2160
1888 1674 2197
123 1707 0
123 1707 228
123 1706 422
123 1706 616
123 1706 811
304 1703 937
537 1694 1045
764 1677 1180
999 1649 1352
1169 1623 1527
1213 1629 1612
1284 1632 1684
1355 1637 1752
1418 1645 1817
1476 1655 1881
1528 1669 1942
1575 1683 1999
1621 1699 2055
1680 1706 2134
1735 1716 2186
1785 1729 2210
1829 1743 2235
1870 1757 2261
1910 1773 2288
1954 1791 2321
