Examples/WB - Cooler.3dl
#25pt 3DLUT created by 3D LUT Creator Pro (c) Oleg Sharonov
#Copyright Oleg Sharonov
#IMAGEPROFILE sRGB IEC61966-2.1 v.2.10
#INPUTGAMMA sRGB IEC61966-2.1 v.2.10
#OUTPUTGAMMA sRGB IEC61966-2.1 v.2.10
0 256 512 768 1023
0 0 0
0 0 1203
0 0 2351
0 0 3360
0 0 4095
0 1023 0
0 1024 1201
0 1023 2351
0 1024 3359
0 1024 4095
0 2048 0
0 2048 1201
0 2048 2351
0 2048 3359
0 2048 4095
0 3071 0
0 3071 1201
0 3071 2351
0 3071 3359
0 3071 4095
3 4095 3
6 4095 1201
0 4095 2351
6 4095 3359
3 4095 4095
869 0 0
870 0 1201
869 0 2351
869 0 3360
869 0 4095
869 1023 0
869 1024 1201
869 1023 2351
869 1024 3359
869 1023 4095
869 2048 0
869 2048 1201
869 2048 2351
869 2048 3359
869 2048 4095
869 3071 0
869 3071 1201
869 3071 2351
869 3071 3359
869 3071 4095
869 4095 3
870 4095 1201
869 4095 2351
871 4095 3359
870 4095 4095
1785 0 0
1785 0 1200
1785 0 2350
1785 0 3359
1785 0 4095
1785 1024 0
1785 1023 1200
1785 1024 2351
1785 1023 3359
1785 1023 4095
1785 2047 0
1785 2048 1201
1785 2048 2351
1785 2048 3359
1785 2047 4095
1785 3071 0
1785 3071 1201
1785 3071 2351
1785 3071 3359
1785 3071 4095
1785 4095 0
1785 4095 1201
1785 4095 2351
1785 4095 3359
1785 4095 4095
2838 0 0
2837 0 1200
2838 0 2351
2837 0 3359
2838 3 4095
2838 1024 0
2837 1023 1200
2838 1024 2351
2837 1023 3359
2838 1024 4095
2838 2048 0
2837 2047 1201
2838 2048 2351
2837 2048 3359
2838 2048 4095
2838 3071 0
2838 3071 1201
2838 3071 2351
2838 3071 3359
2838 3071 4095
2838 4095 0
2837 4095 1200
2837 4095 2350
2837 4095 3359
2837 4095 4095
4095 0 0
4095 0 1201
4095 0 2351
4095 0 3359
4095 0 4095
4095 1023 0
4095 1023 1200
4095 1023 2351
4095 1023 3359
4095 1023 4095
4095 2048 0
4095 2048 1201
4095 2047 2351
4095 2048 3359
4095 2047 4095
4095 3071 0
4095 3071 1201
4095 3071 2351
4095 3071 3359
4095 3071 4095
4095 4095 0
4095 4095 1202
4095 4095 2351
4095 4095 3360
4095 4095 4095
