Examples/WB - Cooler without warms.3dl
#25pt 3DLUT created by 3D LUT Creator Pro (c) Oleg Sharonov
#Copyright Oleg Sharonov
#IMAGEPROFILE sRGB IEC61966-2.1 v.2.10
#INPUTGAMMA sRGB IEC61966-2.1 v.2.10
#OUTPUTGAMMA sRGB IEC61966-2.1 v.2.10
0 43 86 128 171 214 256 299 341 384 427 469 512 555 597 640 682 725 768 810 853 896 938 981 1023 
0 0 0
0 0 248
0 0 448
0 3 646
0 3 860
0 6 1060
0 10 1263
3 13 1462
3 16 1666
3 23 1868
3 29 2067
3 36 2261
6 42 2456
6 48 2644
6 55 2825
10 65 3000
10 71 3164
10 81 3315
13 87 3451
13 94 3573
13 100 3679
13 107 3772
16 113 3857
16 116 3945
16 126 4051
19 165 58
0 177 250
0 174 455
0 177 664
0 177 868
0 177 1068
0 180 1271
0 183 1474
3 186 1673
3 192 1874
3 195 2073
3 201 2267
3 206 2461
6 212 2648
6 217 2830
6 225 3004
10 230 3167
10 238 3319
10 243 3456
13 248 3576
13 252 3682
13 257 3775
13 262 3859
16 267 3948
16 271 4054
42 334 136
0 349 250
0 349 455
0 349 662
0 349 867
0 349 1071
0 349 1276
0 351 1479
0 352 1678
0 354 1879
3 358 2078
3 360 2274
3 363 2466
6 367 2653
6 370 2836
6 376 3009
10 379 3171
10 383 3322
10 388 3460
10 391 3579
13 394 3686
13 398 3778
13 399 3863
13 403 3951
16 406 4057
81 503 245
0 521 280
0 522 457
0 522 661
0 522 866
0 522 1073
0 522 1278
0 522 1481
0 522 1686
0 523 1887
0 525 2083
3 526 2279
3 528 2473
3 531 2660
3 533 2841
6 536 3015
6 538 3178
6 541 3327
10 545 3464
10 547 3586
10 550 3690
13 551 3784
13 553 3868
13 556 3955
13 558 4062
132 670 352
16 687 374
0 696 457
0 696 662
0 695 867
0 695 1071
0 695 1277
0 696 1482
0 695 1685
0 695 1888
0 696 2089
0 696 2287
0 697 2477
3 698 2665
3 700 2847
3 702 3021
6 704 3183
6 706 3334
6 708 3471
10 710 3592
10 712 3696
10 713 3789
10 714 3873
10 715 3962
13 717 4067
195 838 461
84 852 478
0 865 509
0 868 662
0 868 868
0 868 1072
0 868 1277
0 868 1481
0 868 1686
0 868 1889
0 868 2090
0 868 2287
0 868 2483
0 868 2672
3 869 2854
3 871 3026
3 872 3189
3 874 3340
6 875 3476
6 876 3597
6 877 3703
6 878 3795
10 880 3880
10 880 3968
10 882 4074
262 1007 570
168 1018 584
16 1033 603
0 1041 662
0 1041 867
0 1041 1072
0 1041 1277
0 1041 1482
0 1041 1685
0 1041 1888
0 1041 2090
0 1041 2289
0 1041 2483
0 1041 2673
0 1041 2857
0 1042 3033
3 1042 3197
3 1043 3347
3 1044 3483
3 1045 3602
3 1046 3708
6 1047 3801
6 1047 3885
6 1049 3974
6 1049 4079
330 1176 678
250 1185 690
113 1197 706
0 1210 740
0 1214 868
0 1214 1072
0 1214 1277
0 1214 1481
0 1214 1686
0 1214 1887
0 1214 2089
0 1214 2288
0 1214 2483
0 1214 2674
0 1214 2858
0 1214 3033
0 1214 3198
0 1214 3350
3 1214 3488
3 1215 3611
3 1215 3716
3 1215 3808
3 1216 3893
3 1217 3979
6 1218 4085
396 1344 787
330 1352 797
225 1363 811
3 1379 831
0 1386 881
0 1387 1073
0 1387 1277
0 1387 1481
3 1387 1685
0 1387 1888
0 1387 2089
0 1387 2287
0 1387 2483
0 1387 2674
0 1387 2858
0 1387 3033
0 1387 3199
0 1387 3351
0 1387 3489
0 1387 3612
3 1387 3718
3 1387 3812
3 1387 3897
3 1387 3986
3 1388 4093
462 1512 896
406 1519 904
322 1528 917
136 1542 933
0 1554 969
0 1560 1073
0 1560 1277
3 1560 1481
3 1560 1685
3 1560 1888
3 1560 2089
0 1560 2287
0 1560 2483
0 1560 2673
0 1560 2857
0 1560 3033
0 1560 3199
0 1560 3351
0 1560 3490
0 1560 3612
0 1560 3719
0 1560 3813
0 1560 3898
3 1560 3987
3 1560 4094
528 1680 1004
481 1686 1011
408 1694 1022
269 1707 1037
0 1722 1061
0 1730 1110
0 1732 1278
0 1732 1481
3 1732 1685
3 1732 1888
3 1732 2088
3 1732 2288
0 1733 2483
0 1732 2673
0 1732 2857
0 1732 3033
0 1732 3199
0 1732 3351
0 1732 3490
0 1732 3612
0 1732 3719
0 1732 3813
0 1732 3899
0 1732 3987
3 1732 4095
595 1848 1112
552 1854 1119
489 1861 1128
379 1872 1142
149 1887 1161
0 1898 1199
0 1905 1278
0 1905 1482
0 1905 1685
3 1905 1888
3 1905 2089
3 1905 2287
3 1905 2483
3 1905 2673
0 1905 2856
0 1905 3032
0 1905 3198
0 1905 3351
0 1905 3490
0 1905 3612
0 1905 3719
0 1905 3813
0 1905 3899
0 1905 3988
3 1905 4095
662 2016 1220
624 2021 1226
568 2027 1234
475 2037 1248
306 2051 1264
0 2066 1291
0 2074 1339
0 2077 1482
0 2078 1686
0 2077 1887
0 2077 2089
6 2077 2287
6 2077 2482
3 2077 2673
3 2077 2857
0 2078 3032
0 2078 3198
0 2077 3350
0 2077 3489
0 2078 3612
0 2077 3719
0 2077 3812
0 2077 3899
0 2077 3988
3 2077 4095
728 2183 1328
694 2187 1333
644 2193 1341
564 2202 1353
427 2215 1368
152 2230 1388
0 2241 1428
0 2249 1482
0 2249 1686
0 2249 1888
3 2249 2089
0 2249 2288
6 2249 2482
6 2249 2672
6 2249 2857
3 2249 3032
3 2249 3197
0 2249 3350
0 2249 3489
0 2249 3611
0 2249 3718
0 2249 3812
0 2249 3898
0 2249 3987
0 2249 4095
794 2349 1436
763 2354 1441
718 2359 1447
644 2368 1457
532 2379 1472
332 2393 1491
0 2408 1519
0 2416 1567
0 2420 1686
0 2420 1889
0 2420 2089
3 2420 2287
0 2420 2483
10 2420 2673
6 2420 2856
6 2420 3032
6 2420 3198
3 2420 3350
3 2420 3489
0 2421 3611
0 2420 3718
0 2420 3811
0 2421 3898
0 2420 3987
0 2421 4095
859 2515 1543
831 2519 1547
790 2524 1553
725 2532 1562
628 2542 1577
465 2556 1593
139 2572 1614
0 2582 1656
0 2590 1708
0 2591 1889
0 2591 2089
0 2591 2287
3 2591 2482
3 2591 2673
10 2591 2857
10 2591 3032
6 2591 3197
6 2591 3351
3 2591 3489
3 2591 3611
3 2591 3718
0 2591 3811
0 2591 3897
0 2591 3986
0 2591 4094
925 2681 1650
899 2685 1654
862 2689 1659
802 2697 1668
718 2706 1681
579 2718 1696
347 2734 1715
0 2748 1747
0 2755 1794
0 2761 1889
0 2761 2090
0 2761 2288
0 2762 2482
6 2761 2673
3 2761 2857
10 2761 3032
13 2761 3197
10 2761 3350
10 2761 3489
6 2761 3611
6 2761 3718
3 2761 3812
3 2761 3898
3 2762 3986
0 2762 4094
990 2846 1756
966 2849 1760
932 2854 1765
877 2860 1773
798 2869 1784
682 2880 1799
496 2895 1817
107 2911 1839
0 2920 1882
0 2928 1934
0 2931 2090
0 2931 2289
0 2931 2482
3 2931 2672
6 2930 2857
3 2931 3032
10 2931 3197
16 2931 3350
10 2931 3488
10 2931 3611
10 2931 3718
10 2931 3812
6 2931 3898
6 2931 3987
3 2931 4094
1055 3010 1861
1033 3013 1865
1001 3017 1870
950 3023 1877
877 3031 1887
777 3042 1902
618 3055 1918
354 3071 1938
0 3084 1972
0 3092 2019
0 3099 2090
0 3099 2289
0 3099 2483
0 3099 2672
3 3099 2856
6 3099 3033
3 3099 3197
10 3099 3350
16 3099 3488
16 3099 3611
13 3099 3717
10 3099 3811
10 3099 3898
10 3099 3987
10 3099 4094
1119 3172 1966
1098 3175 1970
1069 3179 1974
1023 3184 1981
955 3192 1990
866 3202 2005
726 3215 2019
516 3229 2038
55 3246 2061
0 3254 2106
0 3262 2156
0 3266 2289
0 3266 2484
0 3266 2673
0 3266 2856
6 3266 3032
6 3266 3198
3 3266 3350
6 3266 3488
16 3266 3611
19 3265 3717
16 3266 3811
13 3266 3897
13 3266 3986
13 3266 4094
1184 3334 2071
1164 3336 2074
1137 3340 2078
1093 3346 2084
1030 3353 2093
947 3362 2106
827 3374 2121
648 3388 2138
345 3404 2159
0 3416 2194
0 3423 2241
0 3432 2295
0 3432 2484
0 3432 2674
0 3432 2857
0 3432 3032
6 3432 3197
6 3432 3350
3 3432 3489
3 3432 3611
13 3432 3717
19 3432 3811
23 3432 3897
19 3432 3986
16 3432 4093
1248 3495 2175
1229 3498 2178
1203 3501 2182
1163 3506 2188
1105 3513 2196
1024 3522 2207
921 3533 2222
764 3546 2238
527 3561 2258
0 3578 2282
0 3585 2328
0 3592 2377
0 3598 2484
0 3598 2674
0 3598 2858
0 3598 3032
0 3598 3197
6 3598 3350
10 3598 3489
6 3598 3611
3 3598 3718
6 3598 3811
16 3598 3897
23 3597 3986
23 3598 4093
1311 3656 2278
1294 3658 2281
1269 3661 2285
1232 3666 2290
1177 3673 2298
1102 3681 2308
1010 3691 2323
870 3704 2338
670 3718 2356
326 3734 2378
0 3746 2415
0 3753 2462
0 3761 2513
0 3762 2674
0 3763 2858
0 3762 3033
0 3763 3197
0 3763 3350
6 3763 3488
10 3762 3611
6 3763 3718
6 3763 3812
3 3763 3897
6 3763 3986
19 3762 4093
1375 3817 2382
1358 3819 2385
1336 3822 2389
1300 3827 2394
1249 3833 2401
1179 3841 2411
1094 3850 2425
969 3862 2439
796 3876 2456
532 3892 2476
0 3907 2503
0 3914 2548
0 3922 2596
0 3928 2674
0 3928 2858
0 3928 3034
0 3928 3198
0 3928 3350
0 3928 3488
6 3928 3610
13 3928 3717
10 3928 3812
10 3928 3898
6 3928 3987
6 3928 4094
1859 3930 2639
1840 3933 2638
1813 3937 2636
1770 3944 2632
1709 3954 2627
1623 3966 2620
1508 3981 2614
1349 4000 2605
1100 4023 2590
691 4050 2576
302 4067 2598
0 4077 2637
0 4084 2682
0 4092 2731
0 4095 2858
0 4095 3034
0 4095 3199
0 4095 3351
6 4095 3489
16 4095 3610
23 4095 3717
55 4095 3811
68 4095 3897
45 4095 3986
42 4095 4094
29 23 16
100 3 252
100 0 460
97 0 660
97 0 865
97 0 1076
94 3 1281
90 3 1482
87 3 1688
84 3 1892
81 3 2090
74 6 2290
71 6 2484
65 6 2677
58 10 2860
55 10 3036
48 10 3202
42 13 3353
36 13 3492
32 13 3616
26 13 3721
23 16 3815
16 16 3902
16 19 3989
19 29 4094
90 174 65
103 177 250
100 177 451
100 177 651
103 183 856
103 186 1057
103 189 1258
103 195 1457
103 198 1661
103 203 1863
103 206 2060
107 212 2257
107 217 2452
107 225 2640
110 230 2822
110 235 2997
110 243 3161
113 248 3313
113 255 3448
113 260 3570
116 264 3675
116 269 3769
116 271 3854
116 276 3942
19 201 4094
94 343 129
100 349 252
103 349 455
103 351 662
103 351 863
103 351 1066
103 352 1270
103 354 1472
103 358 1669
103 360 1870
103 363 2069
107 367 2266
107 370 2458
107 374 2646
107 377 2827
110 383 3001
110 386 3165
110 391 3317
113 394 3454
113 398 3574
113 401 3680
116 404 3773
116 408 3858
116 411 3946
23 363 4094
129 509 240
97 520 320
103 523 457
103 522 661
103 522 865
103 523 1072
103 523 1273
103 523 1478
103 525 1682
103 525 1880
103 528 2077
103 531 2272
107 532 2464
107 536 2654
107 538 2835
110 541 3009
110 543 3171
110 546 3322
110 550 3459
113 552 3581
113 554 3685
113 556 3778
113 558 3863
116 560 3951
26 531 4094
183 675 351
136 684 408
103 695 455
103 696 662
103 696 867
103 695 1071
103 696 1276
103 696 1480
103 696 1682
103 696 1885
103 696 2086
103 697 2283
103 699 2474
107 701 2660
107 703 2841
107 705 3015
107 707 3178
110 710 3329
110 712 3466
110 713 3586
113 714 3692
113 716 3785
113 717 3869
113 719 3958
36 701 4095
238 842 461
195 850 504
90 865 532
103 868 661
103 868 866
103 868 1072
103 868 1277
103 868 1481
103 868 1685
103 869 1887
103 868 2086
103 868 2285
103 869 2481
103 869 2670
107 871 2851
107 873 3023
107 874 3185
107 876 3335
110 877 3472
110 879 3593
110 880 3698
110 881 3792
110 882 3876
113 883 3963
45 873 4095
297 1010 569
260 1017 605
132 1031 624
97 1041 672
103 1041 867
103 1041 1072
103 1041 1276
103 1041 1482
103 1041 1685
103 1041 1888
103 1042 2088
103 1042 2287
103 1042 2481
103 1042 2671
103 1042 2854
107 1042 3030
107 1043 3195
107 1044 3344
107 1046 3480
107 1047 3599
107 1048 3705
110 1049 3797
110 1049 3882
110 1050 3970
55 1044 4095
358 1178 678
324 1183 707
220 1196 724
81 1210 754
103 1214 867
103 1214 1071
103 1214 1276
103 1214 1481
103 1214 1685
103 1214 1887
103 1214 2089
103 1214 2288
103 1214 2481
103 1214 2673
103 1214 2856
103 1215 3032
103 1214 3196
107 1215 3348
107 1215 3487
107 1215 3609
107 1216 3714
107 1216 3806
107 1217 3890
107 1218 3977
65 1215 4095
422 1346 787
389 1351 811
306 1361 826
119 1377 846
87 1386 894
100 1387 1073
103 1387 1277
103 1387 1481
107 1387 1685
103 1387 1888
103 1387 2088
103 1387 2287
103 1387 2482
103 1387 2673
103 1387 2856
103 1387 3032
103 1387 3197
103 1387 3349
103 1387 3488
107 1388 3610
107 1387 3716
107 1388 3810
107 1388 3896
107 1388 3984
97 1387 4095
485 1514 895
454 1519 915
386 1527 930
238 1541 946
71 1555 979
103 1560 1073
100 1560 1277
103 1560 1481
103 1560 1685
107 1560 1887
103 1560 2089
103 1560 2287
103 1560 2482
103 1560 2673
103 1560 2857
103 1560 3032
103 1560 3197
103 1560 3350
103 1560 3489
103 1560 3611
103 1560 3717
103 1560 3811
107 1560 3896
107 1561 3986
100 1560 4095
548 1682 1004
521 1686 1021
460 1694 1033
341 1706 1049
97 1722 1071
78 1731 1119
100 1732 1277
103 1732 1481
103 1732 1685
107 1732 1887
107 1732 2088
107 1732 2287
103 1732 2482
103 1733 2673
103 1732 2857
103 1732 3033
103 1733 3198
103 1732 3350
103 1732 3489
103 1733 3612
103 1732 3718
103 1732 3811
103 1733 3898
103 1733 3986
107 1732 4095
