Examples/WB - Cooler.3dl
#25pt 3DLUT created by 3D LUT Creator Pro (c) Oleg Sharonov
#Copyright Oleg Sharonov
#IMAGEPROFILE sRGB IEC61966-2.1 v.2.10
#INPUTGAMMA sRGB IEC61966-2.1 v.2.10
#OUTPUTGAMMA sRGB IEC61966-2.1 v.2.10
0 43 86 128 171 214 256 299 341 384 427 469 512 555 597 640 682 725 768 810 853 896 938 981 1023 
0 0 0
0 0 217
0 0 412
0 0 612
0 0 806
0 0 1004
0 0 1203
0 0 1393
0 0 1587
0 0 1782
0 0 1974
0 0 2162
0 0 2351
0 0 2536
0 0 2713
0 0 2888
0 0 3053
0 0 3211
0 0 3360
0 0 3496
0 0 3621
0 0 3738
0 0 3851
0 0 3966
0 0 4095
0 171 0
0 171 228
0 171 420
0 171 615
0 171 810
0 171 1006
0 171 1203
0 171 1394
0 171 1588
0 171 1783
0 171 1975
0 171 2163
0 171 2351
0 171 2534
0 171 2713
0 171 2889
0 171 3054
0 171 3212
0 171 3360
0 171 3495
0 171 3621
0 171 3739
0 171 3851
0 171 3966
0 171 4095
0 339 0
0 341 228
0 341 422
0 341 617
0 341 812
0 341 1008
0 341 1200
0 341 1396
0 341 1589
0 341 1781
0 341 1973
0 341 2164
0 341 2350
0 341 2535
0 341 2715
0 341 2888
0 341 3055
0 341 3213
0 341 3359
0 341 3496
0 341 3622
0 341 3740
0 341 3852
0 341 3967
0 341 4095
0 512 0
0 512 228
0 513 422
0 510 616
0 513 812
0 512 1005
0 512 1201
0 513 1396
0 512 1590
0 512 1782
0 512 1973
0 512 2162
0 512 2351
0 512 2535
0 512 2715
0 512 2888
0 512 3055
0 512 3211
0 512 3359
0 512 3496
0 512 3621
0 512 3738
0 512 3851
0 512 3967
0 512 4095
0 682 0
0 682 228
0 683 422
0 683 617
0 683 811
0 682 1006
0 683 1201
0 683 1396
0 683 1589
0 683 1781
0 683 1973
0 682 2163
0 682 2350
0 683 2535
0 683 2715
0 683 2888
0 683 3055
0 682 3211
0 683 3359
0 683 3496
0 683 3622
0 682 3738
0 682 3851
0 683 3967
0 683 4095
0 853 0
0 852 228
0 852 422
0 852 616
0 852 811
0 853 1006
0 853 1201
0 852 1394
0 852 1588
0 853 1782
0 853 1973
0 853 2163
0 853 2351
0 853 2535
0 853 2714
0 853 2888
0 853 3054
0 853 3211
0 853 3360
0 853 3496
0 853 3621
0 853 3739
0 853 3851
0 853 3966
0 853 4095
0 1023 0
0 1023 228
0 1024 422
0 1024 617
0 1024 811
0 1023 1006
0 1024 1201
0 1024 1395
0 1024 1589
0 1024 1781
0 1024 1973
0 1023 2163
0 1023 2351
0 1024 2535
0 1024 2715
0 1024 2888
0 1024 3055
0 1023 3211
0 1024 3359
0 1024 3496
0 1024 3622
0 1023 3738
0 1023 3851
0 1024 3967
0 1024 4095
0 1195 0
0 1195 228
0 1194 422
0 1194 616
0 1194 811
0 1195 1006
0 1194 1200
0 1194 1395
0 1194 1589
0 1195 1782
0 1195 1974
0 1195 2163
0 1195 2351
0 1194 2534
0 1194 2714
0 1195 2888
0 1194 3054
0 1195 3212
0 1194 3359
0 1194 3495
0 1195 3621
0 1195 3739
0 1195 3852
0 1195 3967
0 1195 4095
0 1365 0
0 1365 228
0 1365 422
0 1365 616
0 1365 811
0 1365 1006
0 1365 1201
0 1365 1395
0 1365 1589
0 1365 1781
0 1365 1973
0 1365 2164
0 1365 2351
0 1365 2535
0 1365 2714
0 1365 2888
0 1365 3054
0 1365 3212
0 1365 3359
0 1365 3496
0 1365 3622
0 1365 3739
0 1365 3852
0 1365 3967
0 1365 4095
0 1535 0
0 1536 228
0 1536 422
0 1536 616
0 1536 811
0 1536 1006
0 1536 1200
0 1536 1395
0 1536 1589
0 1535 1781
0 1536 1973
0 1536 2163
0 1535 2351
0 1536 2535
0 1536 2714
0 1536 2888
0 1536 3054
0 1536 3212
0 1536 3359
0 1536 3496
0 1536 3622
0 1536 3739
0 1536 3852
0 1536 3967
0 1536 4095
0 1707 0
0 1707 228
0 1707 422
0 1707 616
0 1707 811
0 1707 1006
0 1706 1200
0 1707 1395
0 1707 1589
0 1706 1781
0 1706 1973
0 1707 2163
0 1707 2351
0 1706 2535
0 1706 2714
0 1706 2888
0 1706 3054
0 1707 3212
0 1706 3359
0 1706 3496
0 1707 3622
0 1707 3739
0 1707 3852
0 1707 3967
0 1706 4095
0 1877 0
0 1877 228
0 1877 422
0 1877 616
0 1877 811
0 1877 1006
0 1877 1201
0 1877 1395
0 1877 1589
0 1877 1781
0 1877 1973
0 1877 2163
0 1877 2351
0 1877 2535
0 1877 2714
0 1877 2888
0 1877 3054
0 1877 3212
0 1877 3359
0 1877 3496
0 1877 3622
0 1877 3739
0 1877 3852
0 1877 3967
0 1877 4095
0 2048 0
0 2047 228
0 2048 422
0 2047 616
0 2048 811
0 2048 1006
0 2048 1201
0 2047 1395
0 2047 1589
0 2048 1781
0 2048 1973
0 2047 2163
0 2048 2351
0 2048 2535
0 2048 2714
0 2048 2888
0 2048 3055
0 2048 3212
0 2048 3359
0 2048 3496
0 2047 3621
0 2048 3739
0 2048 3851
0 2048 3967
0 2048 4095
0 2218 0
0 2218 228
0 2218 422
0 2218 616
0 2218 811
0 2218 1006
0 2218 1201
0 2218 1395
0 2218 1589
0 2218 1781
0 2218 1973
0 2218 2163
0 2218 2351
0 2218 2535
0 2218 2714
0 2218 2888
0 2218 3054
0 2218 3212
0 2218 3359
0 2218 3496
0 2218 3622
0 2218 3739
0 2218 3851
0 2218 3967
0 2218 4095
0 2389 0
0 2389 228
0 2389 422
0 2389 616
0 2389 811
0 2389 1006
0 2389 1201
0 2389 1395
0 2389 1589
0 2389 1781
0 2389 1973
0 2389 2163
0 2389 2351
0 2389 2535
0 2389 2714
0 2389 2888
0 2389 3054
0 2389 3212
0 2389 3359
0 2389 3496
0 2389 3622
0 2389 3739
0 2389 3852
0 2389 3967
0 2389 4095
0 2559 0
0 2559 228
0 2559 422
0 2559 616
0 2559 811
0 2559 1006
0 2559 1200
0 2559 1395
0 2559 1589
0 2560 1782
0 2560 1973
0 2559 2163
0 2559 2351
0 2559 2535
0 2559 2714
0 2559 2888
0 2559 3054
0 2559 3212
0 2559 3359
0 2559 3496
0 2559 3622
0 2559 3739
0 2559 3852
0 2559 3967
0 2559 4095
0 2730 0
0 2730 228
0 2730 422
0 2730 616
0 2730 811
0 2730 1006
0 2730 1201
0 2730 1395
0 2730 1589
0 2730 1781
0 2730 1973
0 2730 2163
0 2730 2351
0 2730 2535
0 2730 2714
0 2730 2888
0 2730 3054
0 2730 3212
0 2730 3359
0 2730 3496
0 2730 3622
0 2730 3739
0 2730 3852
0 2730 3967
3 2730 4095
0 2900 0
0 2900 228
0 2901 422
0 2901 616
0 2901 811
0 2900 1006
0 2900 1201
0 2901 1395
0 2901 1589
0 2900 1781
0 2900 1973
0 2900 2163
0 2900 2351
0 2900 2535
0 2901 2714
0 2900 2888
0 2901 3054
0 2900 3212
0 2900 3359
0 2901 3496
0 2901 3622
0 2900 3739
0 2900 3851
0 2901 3967
0 2900 4095
0 3071 0
0 3071 228
0 3071 422
0 3071 616
0 3071 811
0 3071 1006
0 3071 1201
0 3071 1395
0 3071 1589
0 3071 1782
0 3071 1973
0 3071 2163
0 3071 2351
0 3071 2535
0 3071 2714
0 3071 2888
0 3071 3054
0 3071 3212
0 3071 3359
0 3071 3496
0 3071 3622
0 3071 3739
0 3071 3852
0 3071 3967
0 3071 4095
0 3242 0
0 3242 228
0 3242 422
0 3242 616
0 3242 811
0 3242 1006
0 3242 1201
0 3242 1395
0 3242 1589
0 3242 1781
0 3242 1973
0 3242 2163
0 3242 2351
0 3242 2535
0 3242 2714
0 3242 2888
0 3242 3054
0 3242 3212
0 3242 3359
0 3242 3496
0 3242 3622
0 3242 3739
0 3242 3852
0 3242 3967
0 3242 4095
0 3412 0
0 3412 228
0 3412 422
0 3412 616
0 3412 811
0 3412 1006
0 3412 1201
0 3412 1395
0 3412 1589
0 3412 1781
0 3412 1973
0 3412 2163
0 3412 2351
0 3412 2535
0 3412 2714
0 3412 2888
0 3412 3054
0 3412 3212
0 3412 3359
0 3412 3496
0 3412 3622
0 3412 3739
0 3412 3852
0 3412 3967
0 3412 4095
0 3583 0
0 3583 228
0 3583 422
0 3583 616
0 3583 811
0 3583 1006
0 3583 1201
0 3583 1395
0 3583 1589
0 3583 1781
0 3583 1973
0 3583 2163
0 3583 2351
0 3583 2535
0 3583 2714
0 3583 2888
0 3583 3054
0 3583 3212
0 3583 3359
0 3583 3496
0 3583 3622
0 3583 3739
0 3583 3852
0 3583 3967
3 3583 4095
0 3754 0
0 3754 228
0 3754 422
0 3754 616
0 3754 811
0 3754 1006
0 3754 1201
0 3754 1395
0 3754 1589
0 3754 1781
0 3754 1973
0 3754 2163
0 3754 2351
0 3754 2535
0 3754 2714
0 3754 2888
0 3754 3054
0 3754 3212
0 3754 3359
0 3754 3496
0 3754 3622
0 3754 3739
0 3754 3852
0 3754 3967
0 3754 4095
0 3924 0
0 3924 228
0 3924 422
0 3924 616
0 3924 811
0 3924 1006
0 3924 1201
0 3924 1395
0 3924 1589
0 3924 1781
0 3924 1973
0 3924 2163
0 3924 2351
0 3924 2535
0 3924 2714
0 3924 2888
0 3924 3054
0 3924 3212
0 3924 3359
0 3924 3496
0 3924 3622
0 3924 3739
0 3924 3852
0 3924 3967
0 3924 4095
3 4095 3
0 4095 228
0 4095 422
0 4095 616
0 4095 811
0 4095 1006
6 4095 1201
0 4095 1395
0 4095 1589
3 4095 1782
3 4095 1973
0 4095 2163
0 4095 2351
0 4095 2535
0 4095 2714
3 4095 2888
0 4095 3054
0 4095 3212
6 4095 3359
0 4095 3496
0 4095 3622
0 4095 3739
0 4095 3852
0 4095 3967
3 4095 4095
123 0 0
119 0 220
126 0 427
126 0 622
126 0 815
123 0 1003
126 0 1201
126 0 1397
126 0 1591
123 0 1781
123 0 1973
123 0 2162
123 0 2350
123 0 2535
123 0 2715
123 0 2888
123 0 3055
123 0 3211
123 0 3359
123 0 3496
123 0 3622
123 0 3738
123 0 3851
123 0 3967
123 0 4095
123 171 0
123 171 225
123 171 420
123 171 615
123 171 809
123 171 1005
126 171 1202
123 171 1393
123 171 1587
123 171 1782
123 171 1974
123 171 2163
123 171 2351
123 171 2536
123 171 2713
123 171 2888
123 171 3053
123 171 3211
123 171 3360
123 171 3496
123 171 3621
123 171 3738
123 171 3851
123 171 3966
126 171 4095
126 343 0
126 341 228
123 341 422
126 341 617
123 341 811
126 341 1007
123 341 1200
123 341 1395
123 341 1589
123 341 1780
123 341 1972
123 341 2164
126 341 2352
123 341 2535
123 341 2714
123 341 2887
123 341 3054
123 341 3212
123 341 3359
123 341 3495
123 341 3622
123 341 3739
123 341 3852
123 341 3967
123 339 4095
123 512 0
126 513 228
126 512 422
126 512 617
126 512 811
123 512 1005
123 512 1200
126 512 1396
126 512 1589
123 512 1781
123 512 1973
126 512 2164
123 512 2350
123 512 2535
123 512 2715
123 512 2888
123 512 3055
123 512 3213
123 512 3359
123 512 3496
123 512 3622
123 512 3739
123 512 3852
123 512 3967
123 512 4095
123 682 0
126 683 228
123 683 422
123 683 617
123 683 811
126 683 1006
123 682 1200
123 683 1395
123 683 1589
123 682 1781
123 682 1973
123 683 2164
123 682 2350
123 683 2535
123 683 2715
123 682 2888
123 683 3055
123 683 3212
123 683 3359
123 683 3496
123 683 3622
123 683 3739
123 683 3852
123 683 3967
123 682 4095
123 853 0
123 852 228
126 853 422
123 852 616
123 853 811
123 852 1006
123 853 1201
126 853 1396
123 852 1588
123 853 1782
123 853 1973
123 852 2163
123 853 2351
123 853 2535
123 853 2715
123 853 2888
123 853 3055
123 853 3211
123 853 3359
123 853 3496
123 853 3621
123 853 3738
123 853 3851
123 853 3967
123 853 4095
123 1023 0
123 1024 228
123 1024 422
123 1024 617
123 1024 811
123 1023 1006
123 1023 1201
123 1024 1395
123 1024 1589
123 1023 1781
123 1023 1973
123 1024 2164
123 1023 2350
123 1024 2535
123 1024 2715
123 1023 2888
123 1024 3055
123 1024 3212
123 1024 3359
123 1024 3496
123 1024 3622
123 1024 3739
123 1024 3852
123 1024 3967
123 1023 4095
123 1195 0
123 1194 228
123 1194 422
123 1194 616
123 1194 811
123 1194 1006
123 1195 1201
123 1194 1395
123 1194 1588
123 1195 1782
123 1195 1973
123 1194 2163
123 1195 2351
123 1195 2535
123 1194 2714
123 1195 2888
123 1194 3054
123 1195 3212
123 1195 3360
123 1195 3496
123 1194 3621
123 1195 3739
123 1195 3851
123 1194 3966
126 1195 4095
123 1365 0
123 1365 228
123 1365 422
123 1365 616
123 1365 811
123 1365 1006
123 1365 1200
123 1365 1395
123 1365 1589
123 1365 1781
123 1365 1973
123 1365 2163
123 1365 2351
123 1365 2535
123 1365 2714
123 1365 2888
123 1365 3054
123 1365 3212
123 1365 3359
123 1365 3496
123 1365 3622
123 1365 3739
123 1365 3852
123 1365 3967
123 1365 4095
123 1536 0
123 1536 228
123 1536 422
123 1536 616
123 1536 811
123 1536 1006
123 1535 1200
123 1536 1395
123 1536 1589
123 1535 1781
123 1535 1973
123 1536 2163
123 1536 2351
123 1536 2535
123 1536 2714
123 1535 2888
123 1536 3054
123 1536 3212
123 1536 3359
123 1536 3495
123 1536 3622
123 1536 3739
123 1536 3852
123 1536 3967
126 1536 4095
123 1707 0
123 1707 228
123 1706 422
123 1706 616
123 1706 811
123 1707 1006
123 1706 1200
123 1706 1395
123 1706 1589
123 1707 1782
123 1706 1973
123 1707 2163
123 1707 2351
123 1706 2535
123 1706 2714
123 1707 2888
123 1706 3054
123 1707 3212
123 1706 3359
123 1706 3495
123 1706 3622
123 1707 3739
123 1707 3852
123 1706 3967
126 1707 4095
