Examples/WB - Warmer.3dl
#25pt 3DLUT created by 3D LUT Creator Pro (c) Oleg Sharonov
#Copyright Oleg Sharonov
#IMAGEPROFILE sRGB IEC61966-2.1 v.2.10
#INPUTGAMMA sRGB IEC61966-2.1 v.2.10
#OUTPUTGAMMA sRGB IEC61966-2.1 v.2.10
0 128 256 384 512 640 768 896 1023
0 0 0
0 0 412
0 0 871
0 0 1318
0 0 1787
0 0 2280
0 0 2837
0 0 3464
0 0 4095
0 512 0
0 510 419
0 512 869
0 512 1322
0 512 1786
0 512 2280
0 512 2837
0 512 3464
0 512 4095
0 1023 0
0 1023 420
0 1024 869
0 1024 1321
0 1024 1785
0 1023 2281
0 1023 2837
0 1024 3464
0 1024 4095
0 1535 0
0 1536 420
0 1535 869
0 1536 1321
0 1536 1785
0 1536 2281
0 1536 2838
0 1535 3464
0 1536 4095
0 2048 0
0 2047 420
0 2048 869
0 2048 1321
0 2048 1785
0 2047 2281
0 2048 2838
0 2048 3464
0 2048 4095
0 2559 0
0 2559 420
0 2560 869
0 2559 1321
0 2559 1785
0 2559 2281
0 2559 2838
0 2559 3464
0 2559 4095
0 3071 0
0 3071 420
0 3071 869
0 3071 1321
0 3071 1785
0 3071 2281
0 3071 2838
0 3071 3464
0 3071 4095
0 3583 0
0 3583 420
0 3583 869
0 3583 1321
0 3583 1785
0 3583 2281
0 3583 2838
0 3583 3464
3 3583 4095
3 4095 3
0 4095 420
3 4095 870
0 4095 1321
0 4095 1785
0 4095 2281
0 4095 2838
3 4095 3464
3 4095 4095
618 0 0
616 0 420
618 0 871
616 0 1320
616 0 1784
616 0 2281
616 0 2838
617 0 3465
617 0 4095
617 512 0
616 512 420
617 512 869
616 512 1320
617 512 1786
616 512 2281
616 512 2838
616 512 3465
617 512 4095
616 1024 0
616 1023 420
617 1024 869
616 1023 1321
617 1024 1786
616 1023 2281
616 1024 2838
616 1024 3464
617 1024 4095
616 1536 0
616 1536 420
616 1536 869
616 1536 1321
616 1536 1785
616 1535 2281
616 1535 2837
616 1536 3464
616 1536 4095
616 2048 0
616 2048 420
616 2048 869
616 2047 1321
616 2047 1785
616 2048 2281
616 2048 2838
616 2048 3464
617 2048 4095
616 2560 0
616 2559 420
616 2559 869
616 2559 1321
616 2559 1785
616 2559 2281
616 2559 2838
616 2559 3464
616 2559 4095
616 3071 0
616 3071 420
616 3071 869
616 3071 1321
616 3071 1785
616 3071 2281
616 3071 2838
616 3071 3464
617 3071 4095
616 3583 0
616 3583 420
616 3583 869
616 3583 1321
616 3583 1785
616 3583 2281
616 3583 2838
616 3583 3464
616 3583 4095
618 4095 3
617 4095 420
615 4095 868
616 4095 1321
616 4095 1785
617 4095 2281
618 4095 2838
614 4095 3464
619 4095 4095
1202 0 0
1201 0 420
1200 0 868
1201 0 1321
1200 0 1785
1201 0 2282
1201 0 2838
1200 0 3464
1200 0 4094
1201 512 0
1200 512 420
1201 512 870
1200 512 1321
1200 512 1785
1201 512 2281
1201 512 2838
1201 512 3465
1201 513 4095
1201 1024 0
1201 1023 420
1201 1024 869
1200 1023 1321
1200 1023 1785
1201 1024 2281
1201 1024 2838
1201 1024 3465
1201 1024 4095
1201 1536 0
1200 1535 420
1201 1536 869
1200 1535 1321
1201 1536 1785
1200 1536 2281
1201 1536 2838
1201 1536 3464
1201 1536 4095
1201 2048 0
1201 2048 420
1200 2047 869
1201 2048 1321
1201 2048 1785
1201 2048 2281
1201 2048 2838
1201 2048 3464
1201 2048 4095
1201 2559 0
1201 2559 420
1201 2559 869
1201 2559 1321
1201 2559 1785
1201 2560 2281
1201 2559 2837
1201 2559 3464
1200 2559 4095
1201 3071 0
1201 3071 420
1201 3071 869
1201 3071 1321
1201 3071 1785
1201 3071 2281
1201 3071 2838
1201 3071 3464
1200 3071 4095
1201 3583 0
1201 3583 420
1201 3583 869
1201 3583 1321
1201 3583 1785
1201 3583 2281
1201 3583 2838
1201 3583 3464
1200 3583 4095
1201 4095 0
1201 4095 422
1200 4095 868
1201 4095 1321
1201 4095 1785
1201 4095 2281
1202 4095 2838
1200 4095 3464
1200 4095 4095
1781 0 0
1781 0 420
1782 0 869
1782 0 1321
1782 0 1785
1781 0 2281
1781 0 2837
1781 0 3464
1781 0 4095
1781 512 0
1782 512 420
1781 512 869
1782 512 1321
1782 512 1785
1781 512 2281
1781 512 2837
1781 512 3464
1781 512 4095
1781 1023 0
1782 1024 420
1781 1024 869
1782 1024 1321
1782 1024 1785
1781 1023 2281
1781 1023 2837
1781 1024 3464
1781 1023 4095
1782 1536 0
1782 1536 420
1781 1535 869
1781 1536 1321
1781 1536 1785
1782 1536 2281
1782 1536 2838
1781 1536 3464
1781 1535 4095
1781 2048 0
1781 2047 420
1781 2048 869
1782 2048 1321
1782 2048 1785
1781 2047 2281
1781 2048 2837
1781 2048 3464
1781 2048 4095
1781 2559 0
1781 2559 420
1782 2559 869
1781 2559 1321
1781 2559 1785
1781 2559 2281
1781 2559 2838
1782 2559 3464
1782 2559 4095
1781 3071 0
1781 3071 420
1782 3071 869
1781 3071 1321
1781 3071 1785
1781 3071 2281
1781 3071 2838
1781 3071 3464
1782 3071 4095
1781 3583 0
1781 3583 420
1782 3583 869
1781 3583 1321
1781 3583 1785
1781 3583 2281
1781 3583 2838
1782 3583 3464
1782 3583 4095
1782 4095 0
1781 4095 419
1782 4095 870
1781 4095 1320
1782 4095 1786
1781 4095 2281
1781 4095 2838
1782 4095 3464
1782 4095 4095
2351 0 0
2352 0 420
2351 0 869
2351 0 1321
2351 0 1785
2351 0 2281
2351 0 2837
2351 0 3464
2351 0 4095
2351 512 0
2351 512 420
2351 512 869
2351 512 1321
2351 512 1785
2351 512 2282
2351 512 2837
2351 512 3464
2351 512 4095
2351 1023 0
2351 1024 420
2351 1023 869
2351 1024 1321
2351 1024 1785
2351 1024 2281
2351 1023 2837
2351 1023 3464
2351 1023 4095
2351 1536 0
2351 1536 420
2351 1535 869
2351 1536 1321
2351 1536 1785
2351 1536 2281
2351 1536 2838
2351 1536 3464
2351 1536 4095
2351 2048 0
2351 2048 420
2351 2048 869
2351 2048 1321
2351 2048 1785
2351 2047 2281
2351 2048 2837
2351 2048 3464
2351 2048 4095
2351 2559 0
2351 2559 420
2351 2559 869
2351 2559 1321
2351 2559 1785
2351 2559 2281
2351 2559 2838
2351 2559 3464
2351 2559 4095
2351 3071 0
2351 3071 420
2351 3071 869
2351 3071 1321
2351 3071 1785
2351 3071 2281
2351 3071 2838
2351 3071 3464
2351 3071 4095
2351 3583 0
2351 3583 420
2351 3583 869
2351 3583 1321
2351 3583 1785
2351 3583 2281
2351 3583 2838
2351 3583 3464
2351 3583 4095
2351 4095 0
2351 4095 417
2351 4095 870
2351 4095 1320
2351 4095 1786
2351 4095 2281
2351 4095 2838
2351 4095 3464
2351 4095 4095
2888 0 0
2888 0 420
2888 0 869
2888 0 1321
2888 0 1785
2888 0 2281
2888 0 2838
2888 0 3464
2888 0 4095
2888 512 0
2888 512 420
2888 512 869
2888 512 1321
2888 512 1785
2888 512 2281
2888 512 2838
2888 512 3464
2888 512 4095
2888 1024 0
2888 1023 420
2888 1024 869
2888 1023 1321
2888 1023 1785
2888 1024 2281
2888 1024 2838
2888 1024 3464
2888 1024 4095
2888 1536 0
2888 1536 420
2888 1536 869
2888 1536 1321
2888 1536 1785
2888 1536 2281
2888 1536 2838
2888 1536 3464
2888 1536 4095
2888 2048 0
2888 2048 420
2888 2048 869
2888 2048 1321
2888 2048 1785
2888 2048 2281
2888 2048 2838
2888 2048 3464
2888 2048 4095
2888 2559 0
2888 2559 420
2888 2559 869
2888 2559 1321
2888 2559 1785
2888 2559 2281
2888 2559 2838
2888 2559 3464
2888 2559 4095
2888 3071 0
2888 3071 420
2888 3071 869
2888 3071 1321
2888 3071 1785
2888 3071 2281
2888 3071 2838
2888 3071 3464
2888 3071 4095
2888 3583 0
2888 3583 420
2888 3583 869
2888 3583 1321
2888 3583 1785
2888 3583 2281
2888 3583 2837
2888 3583 3464
2888 3583 4095
2888 4095 10
2888 4095 422
2888 4095 868
2888 4095 1321
2888 4095 1785
2888 4095 2281
2888 4095 2838
2888 4095 3464
2888 4095 4095
3359 0 0
3360 0 420
3359 0 869
3359 0 1321
3359 0 1785
3359 0 2281
3359 0 2837
3359 0 3464
3359 0 4095
3359 512 0
3359 512 420
3359 512 869
3359 512 1321
3359 512 1785
3359 512 2281
3359 512 2837
3359 512 3464
3359 512 4095
3359 1023 0
3359 1024 420
3359 1024 869
3359 1024 1321
3359 1024 1785
3359 1024 2281
3359 1023 2837
3359 1023 3464
3359 1023 4095
3359 1536 0
3359 1536 420
3359 1536 869
3359 1536 1321
3359 1536 1785
3359 1536 2281
3359 1536 2838
3359 1536 3464
3359 1536 4095
3359 2048 0
3359 2048 420
3359 2048 869
3359 2048 1321
3359 2048 1785
3359 2048 2281
3359 2048 2837
3359 2048 3464
3359 2048 4095
3359 2559 0
3359 2559 420
3359 2559 869
3359 2559 1321
3359 2559 1785
3359 2559 2281
3359 2559 2838
3359 2559 3464
3359 2559 4095
3359 3071 0
3359 3071 420
3359 3071 869
3359 3071 1321
3359 3071 1785
3359 3071 2281
3359 3071 2838
3359 3071 3464
3359 3071 4095
3359 3583 0
3359 3583 420
3359 3583 869
3359 3583 1321
3359 3583 1785
3359 3583 2281
3359 3583 2838
3359 3583 3464
3359 3583 4095
3359 4095 0
3359 4095 416
3359 4095 870
3359 4095 1319
3359 4095 1786
3359 4095 2281
3359 4095 2837
3359 4095 3464
3359 4095 4095
3739 0 0
3739 0 420
3739 0 869
3739 0 1321
3739 0 1785
3739 0 2281
3739 0 2837
3739 0 3464
3739 0 4095
3739 512 0
3739 512 420
3739 512 869
3739 512 1321
3739 512 1785
3739 512 2281
3739 512 2838
3739 512 3464
3739 512 4095
3739 1024 0
3739 1024 420
3739 1023 869
3739 1024 1321
3739 1024 1785
3739 1024 2281
3739 1024 2838
3739 1023 3464
3739 1023 4095
3739 1536 0
3739 1536 420
3739 1536 869
3739 1536 1321
3739 1536 1785
3739 1536 2281
3739 1536 2838
3739 1536 3464
3739 1536 4095
3739 2048 0
3739 2048 420
3739 2048 869
3739 2048 1321
3739 2048 1785
3739 2048 2281
3739 2048 2838
3739 2047 3464
3739 2047 4095
3739 2559 0
3739 2559 420
3739 2559 869
3739 2559 1321
3739 2559 1785
3739 2559 2281
3739 2559 2838
3739 2559 3464
3739 2559 4095
3739 3071 0
3739 3071 420
3739 3071 869
3739 3071 1321
3739 3071 1785
3739 3071 2281
3739 3071 2838
3739 3071 3464
3739 3071 4095
3739 3583 0
3739 3583 420
3739 3583 869
3739 3583 1321
3739 3583 1785
3739 3583 2281
3739 3583 2838
3739 3583 3464
3739 3583 4095
3739 4095 0
3739 4095 427
3739 4095 869
3739 4095 1322
3739 4095 1786
3739 4095 2280
3739 4095 2837
3739 4095 3464
3739 4095 4095
4095 0 0
4095 3 420
4095 0 869
4095 0 1321
4095 0 1785
4095 0 2281
4095 0 2837
4095 0 3464
4095 0 4095
4095 512 0
4095 512 420
4095 512 869
4095 512 1321
4095 512 1785
4095 513 2281
4095 510 2838
4095 512 3464
4095 512 4095
4095 1023 0
4095 1024 420
4095 1023 869
4095 1024 1321
4095 1024 1785
4095 1024 2281
4095 1024 2838
4095 1023 3464
4095 1023 4095
4095 1536 0
4095 1536 420
4095 1536 870
4095 1536 1321
4095 1535 1785
4095 1536 2281
4095 1536 2838
4095 1536 3464
4095 1536 4095
4095 2048 0
4095 2048 420
4095 2048 869
4095 2048 1321
4095 2048 1785
4095 2048 2281
4095 2047 2838
4095 2048 3464
4095 2047 4095
4095 2559 0
4095 2559 419
4095 2559 869
4095 2559 1320
4095 2559 1785
4095 2559 2281
4095 2559 2838
4095 2559 3464
4095 2559 4095
4095 3071 0
4095 3071 419
4095 3071 869
4095 3071 1321
4095 3071 1785
4095 3071 2281
4095 3071 2838
4095 3071 3464
4095 3071 4095
4095 3583 0
4095 3583 419
4095 3583 870
4095 3583 1320
4095 3583 1786
4095 3583 2281
4095 3583 2838
4095 3583 3464
4095 3583 4095
4095 4095 0
4095 4095 411
4095 4095 870
4095 4095 1324
4095 4095 1787
4095 4095 2280
4095 4095 2837
4095 4095 3464
4095 4095 4095
