Examples/WB - Cooler without warms.3dl
#25pt 3DLUT created by 3D LUT Creator Pro (c) Oleg Sharonov
#Copyright Oleg Sharonov
#IMAGEPROFILE sRGB IEC61966-2.1 v.2.10
#INPUTGAMMA sRGB IEC61966-2.1 v.2.10
#OUTPUTGAMMA sRGB IEC61966-2.1 v.2.10
0 256 512 768 1023
0 0 0
0 10 1263
6 42 2456
13 87 3451
16 126 4051
262 1007 570
0 1041 1277
0 1041 2483
3 1044 3483
6 1049 4079
662 2016 1220
0 2074 1339
6 2077 2482
0 2077 3489
3 2077 4095
1055 3010 1861
618 3055 1918
0 3099 2483
16 3099 3488
10 3099 4094
1859 3930 2639
1508 3981 2614
0 4084 2682
6 4095 3489
42 4095 4094
358 295 233
762 29 1269
769 16 2485
762 19 3492
756 32 4094
727 1035 599
784 1043 1270
780 1051 2454
781 1063 3443
768 1045 4095
874 2037 1209
749 2069 1468
787 2078 2480
788 2078 3486
786 2077 4095
1197 3022 1859
1051 3048 2004
783 3099 2482
789 3099 3487
783 3099 4095
2078 3916 2708
1794 3967 2684
384 4095 2691
788 4095 3489
793 4095 4094
852 737 622
1275 576 1183
1601 142 2466
1615 78 3490
1614 90 4093
1141 1206 796
1445 1110 1446
1594 1069 2474
1602 1063 3490
1626 1051 4094
1538 2065 1281
1421 2099 1646
1643 2079 2469
1637 2085 3459
1644 2077 4095
1578 3064 1819
1610 3064 2118
1625 3099 2520
1645 3099 3483
1643 3099 4095
2586 3885 2901
2467 3920 2904
1552 4083 2828
1645 4095 3489
1649 4095 4094
1472 1290 1107
1716 1230 1388
2414 800 2331
2621 455 3435
2653 343 4070
1641 1587 1205
1929 1500 1600
2477 1251 2437
2621 1148 3444
2670 1094 4084
2084 2248 1488
2178 2234 1773
2463 2151 2680
2640 2114 3468
2699 2087 4091
2537 3089 2007
2307 3152 2118
2446 3125 2929
2706 3104 3477
2720 3099 4095
3278 3868 3258
3262 3886 3278
3131 3959 3329
2720 4095 3490
2721 4095 4094
2265 1998 1730
2446 1956 1863
2783 1860 2430
3443 1472 3269
3807 1081 3884
2374 2182 1802
2519 2153 1930
2935 2021 2526
3625 1602 3435
3912 1343 3988
2667 2678 1944
2738 2676 2032
3311 2502 2573
3801 2248 3595
3945 2199 4007
3133 3364 2268
3157 3375 2291
3288 3388 2409
3777 3217 3563
4006 3143 4043
3922 3988 3816
3936 3997 3839
3979 4024 3910
4043 4063 4013
4095 4095 4095
