Examples/WB - Cooler without blues.3dl
#25pt 3DLUT created by 3D LUT Creator Pro (c) Oleg Sharonov
#Copyright Oleg Sharonov
#IMAGEPROFILE sRGB IEC61966-2.1 v.2.10
#INPUTGAMMA sRGB IEC61966-2.1 v.2.10
#OUTPUTGAMMA sRGB IEC61966-2.1 v.2.10
0 256 512 768 1023
0 0 0
318 217 363
755 571 838
1138 883 1254
1418 1109 1558
0 1023 0
700 973 963
1103 1048 1368
1434 1219 1640
1668 1380 1873
0 2048 0
289 2044 1118
1455 1954 1929
1807 1995 2294
2048 2052 2598
0 3071 3
0 3071 1201
1198 3038 2023
2177 2930 2833
2431 2947 3117
3 4095 6
3 4095 1202
968 4071 2343
2729 3886 3190
3382 3773 3653
869 0 0
750 326 718
967 649 1017
1275 937 1370
1524 1153 1648
869 1023 0
946 1023 1034
1278 1092 1399
1542 1262 1689
1765 1411 1946
869 2048 0
868 2048 1200
1564 1978 1959
1883 2021 2324
2145 2066 2636
869 3071 0
868 3071 1200
1377 3046 2078
2247 2944 2854
2468 2964 3156
870 4095 10
870 4095 1202
1017 4088 2349
2761 3900 3207
3412 3785 3671
1784 0 0
1785 0 1201
1570 766 1504
1693 1062 1719
1856 1266 1927
1785 1024 0
1784 1024 1201
1778 1161 1740
1912 1346 1959
2082 1486 2188
1785 2047 0
1785 2047 1201
1913 2046 2066
2239 2064 2411
2472 2091 2784
1785 3071 3
1785 3071 1200
1858 3066 2267
2470 2989 2909
2604 3014 3303
1786 4095 10
1786 4095 1202
1785 4095 2351
2861 3946 3261
3509 3826 3728
2837 3 3
2837 3 1201
2838 0 2351
2566 1109 2412
2519 1421 2467
2837 1024 3
2838 1023 1200
2838 1023 2351
2682 1402 2544
2734 1579 2691
2838 2048 0
2838 2047 1200
2837 2048 2351
2887 2116 2820
3230 2036 3253
2838 3071 3
2838 3071 1200
2838 3071 2352
2923 3076 3097
3179 3047 3543
2838 4095 13
2838 4095 1203
2838 4095 2351
3031 4059 3349
3717 3918 3855
4094 3 3
4094 6 1201
4094 3 2351
4095 0 3359
3962 994 3581
4094 1025 6
4095 1024 1201
4095 1023 2351
4095 1023 3359
4009 1347 3641
4094 2048 3
4095 2048 1201
4095 2048 2351
4095 2048 3359
4024 2180 3725
4095 3071 0
4095 3071 1200
4095 3071 2351
4095 3071 3359
4052 3120 3876
4095 4095 39
4095 4095 1209
4095 4095 2353
4095 4095 3360
4095 4095 4095
