Examples/WB - Cooler without blues.3dl
#25pt 3DLUT created by 3D LUT Creator Pro (c) Oleg Sharonov
#Copyright Oleg Sharonov
#IMAGEPROFILE sRGB IEC61966-2.1 v.2.10
#INPUTGAMMA sRGB IEC61966-2.1 v.2.10
#OUTPUTGAMMA sRGB IEC61966-2.1 v.2.10
0 128 256 384 512 640 768 896 1023
0 0 0
100 61 123
318 217 363
538 394 603
755 571 838
959 736 1060
1138 883 1254
1283 999 1411
1418 1109 1558
0 512 0
320 481 475
522 516 696
720 605 843
900 728 1022
1078 862 1207
1239 987 1378
1372 1091 1520
1498 1192 1655
0 1023 0
145 1020 543
700 973 963
902 997 1172
1103 1048 1368
1285 1129 1503
1434 1219 1640
1553 1299 1757
1668 1380 1873
0 1535 0
0 1536 616
596 1513 1011
1079 1463 1449
1286 1481 1655
1446 1525 1842
1631 1564 2011
1765 1616 2100
1881 1673 2193
0 2048 0
0 2047 616
289 2044 1118
1039 1999 1505
1455 1954 1929
1655 1966 2127
1807 1995 2294
1916 2028 2424
2048 2052 2598
0 2559 0
0 2559 617
0 2559 1201
767 2543 1563
1471 2481 2004
1824 2443 2396
1994 2452 2574
2130 2467 2710
2243 2489 2836
0 3071 3
0 3071 617
0 3071 1201
414 3068 1694
1198 3038 2023
1864 2967 2478
2177 2930 2833
2290 2940 2987
2431 2947 3117
0 3583 3
0 3583 617
0 3583 1201
0 3583 1781
912 3570 2123
1587 3532 2471
2173 3465 2885
2506 3416 3225
2639 3417 3380
3 4095 6
0 4095 618
3 4095 1202
3 4095 1782
968 4071 2343
2112 3974 2824
2729 3886 3190
3105 3822 3441
3382 3773 3653
417 0 0
351 107 332
452 264 478
625 430 676
815 595 890
1006 756 1100
1177 899 1287
1317 1014 1440
1448 1122 1583
420 512 0
465 512 518
637 540 707
788 631 871
951 751 1049
1118 881 1231
1273 1003 1399
1401 1106 1539
1527 1202 1679
420 1023 0
420 1024 616
771 988 982
950 1014 1192
1156 1061 1374
1323 1142 1515
1465 1231 1653
1581 1311 1771
1695 1389 1893
420 1536 0
420 1536 616
702 1519 1046
1123 1474 1462
1320 1492 1668
1482 1531 1868
1665 1572 2013
1793 1624 2106
1908 1679 2209
420 2047 0
420 2048 616
493 2046 1157
1095 2004 1524
1486 1960 1939
1680 1974 2136
1828 2002 2303
1936 2036 2434
2075 2055 2611
420 2559 0
420 2559 617
419 2559 1200
857 2546 1587
1508 2485 2016
1848 2448 2404
2015 2458 2581
2148 2473 2717
2256 2494 2852
420 3071 0
420 3071 617
420 3071 1201
578 3069 1718
1251 3040 2039
1891 2970 2487
2197 2934 2839
2307 2944 2993
2442 2952 3128
419 3583 0
420 3583 617
420 3583 1201
419 3583 1781
990 3571 2140
1623 3534 2483
2195 3468 2893
2528 3418 3231
2651 3420 3386
420 4095 3
423 4095 619
420 4095 1201
420 4095 1782
982 4076 2345
2121 3979 2827
2738 3890 3195
3114 3825 3446
3391 3776 3658
869 0 0
868 0 616
750 326 718
830 492 848
967 649 1017
1124 801 1199
1275 937 1370
1402 1047 1512
1524 1153 1648
868 512 0
869 513 617
885 571 871
967 671 999
1086 792 1150
1226 919 1314
1364 1037 1471
1481 1137 1602
1601 1230 1740
869 1023 0
869 1024 617
946 1023 1034
1133 1035 1235
1278 1092 1399
1415 1174 1550
1542 1262 1689
1649 1340 1805
1765 1411 1946
869 1535 0
869 1536 616
928 1531 1137
1233 1498 1485
1404 1518 1694
1587 1545 1910
1747 1592 2023
1862 1644 2122
1974 1694 2251
869 2048 0
868 2047 616
868 2048 1200
1230 2016 1572
1564 1978 1959
1743 1993 2155
1883 2021 2324
2004 2045 2486
2145 2066 2636
869 2559 0
868 2559 616
868 2560 1200
1053 2551 1647
1598 2496 2047
1908 2461 2420
2066 2472 2596
2194 2487 2733
2291 2507 2893
869 3071 0
868 3071 616
868 3071 1200
870 3071 1780
1377 3046 2078
1959 2979 2510
2247 2944 2854
2352 2955 3006
2468 2964 3156
868 3583 0
868 3583 616
868 3583 1201
868 3583 1781
1166 3574 2183
1714 3539 2512
2252 3474 2911
2603 3419 3245
2681 3430 3403
870 4095 10
869 4095 617
870 4095 1202
870 4095 1782
1017 4088 2349
2144 3990 2837
2761 3900 3207
3137 3834 3460
3412 3785 3671
1321 0 0
1320 0 616
1312 52 1147
1153 548 1107
1219 713 1226
1325 864 1368
1443 994 1512
1550 1101 1637
1657 1202 1760
1321 512 0
1321 512 616
1319 520 1180
1250 717 1214
1320 841 1336
1416 971 1467
1525 1087 1602
1624 1185 1719
1731 1274 1846
1321 1024 0
1321 1023 616
1321 1024 1201
1405 1055 1392
1491 1124 1528
1586 1213 1661
1687 1302 1788
1779 1380 1896
1891 1444 2042
1321 1535 0
1321 1536 616
1321 1536 1201
1426 1534 1550
1618 1539 1747
1766 1574 1919
1884 1626 2052
1979 1679 2158
2097 1716 2330
1321 2048 0
1321 2048 616
1321 2048 1201
1447 2034 1664
1704 2009 1983
1854 2026 2179
1994 2046 2378
2141 2062 2515
2271 2080 2688
1321 2560 0
1321 2559 616
1320 2559 1200
1341 2558 1757
1751 2512 2105
2015 2484 2446
2156 2497 2618
2275 2512 2757
2357 2528 2971
1321 3071 3
1321 3071 616
1320 3071 1200
1320 3071 1781
1579 3055 2150
2076 2993 2551
2335 2962 2878
2430 2974 3025
2519 2986 3210
1321 3583 3
1321 3583 617
1320 3583 1200
1320 3583 1781
1426 3579 2261
1865 3548 2564
2351 3486 2945
2725 3423 3269
2735 3447 3433
1322 4095 13
1322 4095 619
1321 4095 1201
1320 4095 1781
1322 4095 2351
2181 4010 2851
2801 3917 3229
3178 3851 3483
3451 3801 3693
1784 0 0
1785 0 617
1785 0 1201
1724 337 1546
1570 766 1504
1614 931 1605
1693 1062 1719
1771 1168 1822
1856 1266 1927
1785 512 0
1785 512 616
1785 512 1200
1739 630 1577
1641 891 1583
1693 1025 1690
1764 1146 1796
1838 1244 1895
1926 1331 2006
1785 1024 0
1785 1024 616
1784 1024 1201
1761 1063 1640
1778 1161 1740
1845 1250 1857
1912 1346 1959
1980 1426 2052
2082 1486 2188
1785 1536 0
1785 1536 616
1785 1536 1201
1780 1544 1731
1923 1550 1918
2013 1600 2048
2091 1661 2167
2163 1718 2264
2292 1739 2460
1785 2047 0
1785 2048 616
1785 2047 1201
1785 2047 1782
1913 2046 2066
2088 2048 2265
2239 2064 2411
2337 2093 2528
2472 2091 2784
1785 2559 3
1785 2560 616
1785 2559 1200
1785 2559 1782
1969 2536 2197
2178 2519 2478
2293 2536 2637
2401 2550 2784
2499 2540 3153
1785 3071 3
1785 3071 617
1785 3071 1200
1786 3071 1782
1858 3066 2267
2249 3014 2619
2470 2989 2909
2547 3005 3049
2604 3014 3303
1785 3583 3
1785 3583 617
1785 3583 1200
1784 3583 1781
1785 3583 2351
2081 3561 2647
2569 3488 3023
2887 3433 3306
2828 3472 3479
1786 4095 10
1786 4095 623
1786 4095 1202
1785 4095 1782
1785 4095 2351
2232 4043 2870
2861 3946 3261
3239 3876 3520
3509 3826 3728
2281 0 0
2280 0 617
2281 0 1201
2281 0 1782
2175 571 1972
2026 965 1929
2026 1136 1988
2082 1238 2078
2139 1338 2162
2281 512 0
2281 512 616
2281 512 1201
2281 512 1782
2196 768 2003
2078 1064 1987
2087 1212 2053
2141 1306 2141
2206 1394 2234
2281 1024 0
2281 1023 616
2282 1023 1200
2282 1023 1782
2235 1127 2068
2183 1292 2109
2218 1396 2195
2267 1476 2278
2357 1531 2402
2281 1536 0
2281 1536 616
2281 1536 1201
2281 1536 1781
2274 1570 2157
2319 1632 2274
2390 1689 2387
2436 1753 2466
2574 1758 2658
2281 2048 0
2281 2047 616
2281 2048 1201
2281 2048 1782
2303 2050 2263
2449 2051 2445
2539 2083 2559
2613 2113 2678
2786 2081 2963
2281 2559 0
2281 2559 616
2281 2559 1200
2282 2559 1782
2281 2559 2351
2411 2559 2579
2551 2560 2771
2702 2553 2936
2851 2521 3286
2281 3071 3
2281 3071 617
2281 3071 1200
2282 3071 1783
2282 3071 2351
2487 3042 2719
2659 3027 2972
2694 3050 3118
2800 3042 3401
2281 3583 3
2281 3583 617
2281 3583 1200
2281 3583 1781
2283 3583 2352
2439 3562 2809
2854 3491 3140
3032 3467 3365
2995 3500 3540
2282 4095 19
2282 4095 622
2282 4095 1204
2282 4095 1783
2281 4095 2351
2292 4094 2888
2939 3989 3303
3327 3915 3572
3594 3863 3780
2837 3 3
2837 3 617
2837 3 1201
2837 0 1781
2838 0 2351
2721 705 2465
2566 1109 2412
2506 1303 2412
2519 1421 2467
2837 513 3
2837 512 617
2837 512 1201
2838 512 1782
2838 512 2351
2736 874 2487
2603 1196 2453
2548 1373 2458
2583 1467 2533
2837 1024 3
2837 1024 617
2838 1023 1200
2838 1023 1782
2838 1023 2351
2764 1199 2536
2682 1402 2544
2641 1541 2563
2734 1579 2691
2837 1536 3
2837 1536 616
2838 1536 1200
2837 1536 1782
2837 1536 2351
2798 1617 2608
2786 1718 2674
2786 1803 2726
2965 1765 2942
2838 2048 0
2838 2048 616
2838 2047 1200
2837 2048 1782
2837 2048 2351
2829 2080 2697
2887 2116 2820
2971 2135 2937
3230 2036 3253
2838 2559 0
2838 2559 616
2838 2559 1200
2837 2559 1782
2837 2559 2351
2852 2564 2801
2989 2557 2974
3185 2512 3202
3379 2447 3517
2838 3071 3
2838 3071 617
2838 3071 1200
2838 3071 1782
2838 3071 2352
2838 3071 2888
2923 3076 3097
3033 3073 3271
3179 3047 3543
2838 3583 3
2838 3583 617
2838 3583 1200
2838 3583 1781
2838 3583 2353
2838 3583 2889
3052 3545 3239
3215 3522 3453
3236 3539 3635
2838 4095 13
2838 4095 625
2838 4095 1203
2838 4095 1783
2838 4095 2351
2837 4095 2888
3031 4059 3349
3448 3973 3646
3717 3918 3855
3464 3 3
3464 3 617
3464 3 1201
3464 3 1782
3464 0 2351
3464 0 2888
3392 662 3040
3241 1122 2983
3137 1383 2951
3464 513 3
3464 513 617
3464 513 1201
3464 513 1782
3464 512 2351
3465 510 2888
3398 850 3052
3261 1217 3008
3196 1420 3009
3464 1025 3
3464 1024 617
3464 1023 1201
3464 1023 1782
3464 1023 2351
3465 1023 2888
3410 1195 3083
3307 1434 3066
3338 1513 3149
3464 1536 3
3464 1536 617
3464 1536 1200
3465 1535 1781
3465 1535 2351
3465 1535 2888
3427 1623 3131
3370 1758 3153
3560 1673 3372
3464 2048 3
3464 2048 617
3464 2048 1200
3464 2048 1781
3463 2048 2351
3463 2048 2888
3442 2090 3196
3486 2122 3297
3768 1970 3600
3464 2560 0
3464 2559 616
3464 2559 1200
3464 2559 1781
3463 2560 2352
3464 2559 2888
3455 2575 3275
3588 2549 3446
3761 2495 3662
3464 3071 0
3464 3071 615
3464 3071 1200
3464 3071 1781
3464 3071 2352
3464 3071 2888
3464 3071 3359
3587 3054 3531
3777 3000 3770
3464 3583 0
3464 3583 617
3464 3583 1200
3464 3583 1781
3464 3583 2353
3464 3583 2889
3464 3583 3359
3508 3585 3597
3613 3573 3803
3465 4095 32
3465 4095 625
3464 4095 1203
3464 4095 1783
3465 4095 2352
3465 4095 2889
3464 4095 3359
3588 4065 3730
3889 3997 3963
4094 3 3
4095 3 618
4094 6 1201
4094 6 1782
4094 3 2351
4095 3 2888
4095 0 3359
4074 398 3611
3962 994 3581
4094 514 3
4095 513 617
4095 512 1201
4095 512 1782
4095 512 2351
4095 512 2888
4095 512 3359
4079 669 3620
4006 1049 3623
4094 1025 6
4095 1024 617
4095 1024 1201
4095 1024 1782
4095 1023 2351
4095 1023 2888
4095 1023 3359
4081 1094 3639
4009 1347 3641
4095 1536 6
4095 1536 616
4095 1536 1200
4095 1536 1782
4095 1536 2351
4095 1536 2888
4095 1535 3359
4086 1565 3672
4015 1740 3675
4094 2048 3
4095 2048 617
4095 2048 1201
4095 2048 1781
4095 2048 2351
4095 2048 2888
4095 2048 3359
4093 2053 3720
4024 2180 3725
4095 2560 3
4095 2559 615
4095 2560 1201
4095 2560 1781
4095 2559 2351
4095 2559 2888
4095 2559 3359
4095 2559 3739
4036 2644 3791
4095 3071 0
4095 3071 614
4095 3071 1200
4095 3071 1781
4095 3071 2351
4095 3071 2888
4095 3071 3359
4095 3071 3739
4052 3120 3876
4095 3583 0
4095 3583 615
4095 3583 1201
4095 3583 1782
4095 3583 2351
4095 3583 2888
4095 3583 3359
4095 3583 3739
4072 3605 3977
4095 4095 39
4095 4095 625
4095 4095 1209
4095 4095 1786
4095 4095 2353
4095 4095 2890
4095 4095 3360
4095 4095 3739
4095 4095 4095
