Examples/WB - Warmer.3dl
#25pt 3DLUT created by 3D LUT Creator Pro (c) Oleg Sharonov
#Copyright Oleg Sharonov
#IMAGEPROFILE sRGB IEC61966-2.1 v.2.10
#INPUTGAMMA sRGB IEC61966-2.1 v.2.10
#OUTPUTGAMMA sRGB IEC61966-2.1 v.2.10
0 256 512 768 1023
0 0 0
0 0 871
0 0 1787
0 0 2837
0 0 4095
0 1023 0
0 1024 869
0 1024 1785
0 1023 2837
0 1024 4095
0 2048 0
0 2048 869
0 2048 1785
0 2048 2838
0 2048 4095
0 3071 0
0 3071 869
0 3071 1785
0 3071 2838
0 3071 4095
3 4095 3
3 4095 870
0 4095 1785
0 4095 2838
3 4095 4095
1202 0 0
1200 0 868
1200 0 1785
1201 0 2838
1200 0 4094
1201 1024 0
1201 1024 869
1200 1023 1785
1201 1024 2838
1201 1024 4095
1201 2048 0
1200 2047 869
1201 2048 1785
1201 2048 2838
1201 2048 4095
1201 3071 0
1201 3071 869
1201 3071 1785
1201 3071 2838
1200 3071 4095
1201 4095 0
1200 4095 868
1201 4095 1785
1202 4095 2838
1200 4095 4095
2351 0 0
2351 0 869
2351 0 1785
2351 0 2837
2351 0 4095
2351 1023 0
2351 1023 869
2351 1024 1785
2351 1023 2837
2351 1023 4095
2351 2048 0
2351 2048 869
2351 2048 1785
2351 2048 2837
2351 2048 4095
2351 3071 0
2351 3071 869
2351 3071 1785
2351 3071 2838
2351 3071 4095
2351 4095 0
2351 4095 870
2351 4095 1786
2351 4095 2838
2351 4095 4095
3359 0 0
3359 0 869
3359 0 1785
3359 0 2837
3359 0 4095
3359 1023 0
3359 1024 869
3359 1024 1785
3359 1023 2837
3359 1023 4095
3359 2048 0
3359 2048 869
3359 2048 1785
3359 2048 2837
3359 2048 4095
3359 3071 0
3359 3071 869
3359 3071 1785
3359 3071 2838
3359 3071 4095
3359 4095 0
3359 4095 870
3359 4095 1786
3359 4095 2837
3359 4095 4095
4095 0 0
4095 0 869
4095 0 1785
4095 0 2837
4095 0 4095
4095 1023 0
4095 1023 869
4095 1024 1785
4095 1024 2838
4095 1023 4095
4095 2048 0
4095 2048 869
4095 2048 1785
4095 2047 2838
4095 2047 4095
4095 3071 0
4095 3071 869
4095 3071 1785
4095 3071 2838
4095 3071 4095
4095 4095 0
4095 4095 870
4095 4095 1787
4095 4095 2837
4095 4095 4095
