Examples/WB - Cooler without warms.3dl
#25pt 3DLUT created by 3D LUT Creator Pro (c) Oleg Sharonov
#Copyright Oleg Sharonov
#IMAGEPROFILE sRGB IEC61966-2.1 v.2.10
#INPUTGAMMA sRGB IEC61966-2.1 v.2.10
#OUTPUTGAMMA sRGB IEC61966-2.1 v.2.10
0 128 256 384 512 640 768 896 1023
0 0 0
0 3 646
0 10 1263
3 23 1868
6 42 2456
10 65 3000
13 87 3451
13 107 3772
16 126 4051
81 503 245
0 522 661
0 522 1278
0 523 1887
3 528 2473
6 536 3015
10 545 3464
13 551 3784
13 558 4062
262 1007 570
0 1041 662
0 1041 1277
0 1041 1888
0 1041 2483
0 1042 3033
3 1044 3483
6 1047 3801
6 1049 4079
462 1512 896
136 1542 933
0 1560 1277
3 1560 1888
0 1560 2483
0 1560 3033
0 1560 3490
0 1560 3813
3 1560 4094
662 2016 1220
475 2037 1248
0 2074 1339
0 2077 1887
6 2077 2482
0 2078 3032
0 2077 3489
0 2077 3812
3 2077 4095
859 2515 1543
725 2532 1562
139 2572 1614
0 2591 1889
3 2591 2482
10 2591 3032
3 2591 3489
0 2591 3811
0 2591 4094
1055 3010 1861
950 3023 1877
618 3055 1918
0 3092 2019
0 3099 2483
6 3099 3033
16 3099 3488
10 3099 3811
10 3099 4094
1248 3495 2175
1163 3506 2188
921 3533 2222
0 3578 2282
0 3598 2484
0 3598 3032
10 3598 3489
6 3598 3811
23 3598 4093
1859 3930 2639
1770 3944 2632
1508 3981 2614
691 4050 2576
0 4084 2682
0 4095 3034
6 4095 3489
55 4095 3811
42 4095 4094
123 94 68
356 10 654
362 3 1280
358 6 1891
351 6 2486
339 10 3036
330 13 3492
320 16 3816
318 29 4094
337 518 260
370 522 657
367 527 1262
369 533 1864
369 545 2445
370 557 2988
372 565 3441
374 573 3762
326 532 4094
398 1021 562
352 1038 735
370 1041 1275
372 1041 1886
372 1044 2474
372 1045 3023
374 1049 3471
374 1053 3787
339 1044 4095
557 1520 894
467 1537 992
370 1560 1276
372 1560 1887
372 1560 2481
372 1561 3029
372 1561 3484
374 1562 3807
369 1560 4095
729 2021 1219
657 2034 1288
334 2073 1374
370 2077 1887
374 2077 2481
372 2078 3031
372 2078 3488
372 2077 3811
370 2077 4095
912 2520 1542
848 2530 1592
461 2570 1644
369 2591 1888
372 2591 2482
377 2591 3032
374 2591 3488
372 2591 3811
362 2591 4095
1097 3013 1861
1038 3022 1898
768 3053 1943
293 3092 2038
367 3099 2483
374 3099 3032
381 3099 3488
377 3099 3811
367 3099 4095
1281 3498 2174
1233 3505 2205
1024 3531 2243
389 3576 2301
369 3598 2483
367 3598 3032
376 3598 3488
374 3598 3811
363 3598 4094
1925 3926 2659
1842 3940 2652
1593 3977 2632
879 4046 2595
0 4089 2681
369 4095 3034
374 4095 3489
399 4095 3811
393 4095 4094
358 295 233
649 155 612
762 29 1269
769 16 1889
769 16 2485
766 16 3036
762 19 3492
758 23 3815
756 32 4094
543 592 347
694 551 735
759 535 1273
760 532 1889
757 533 2485
750 535 3037
744 536 3495
741 536 3817
759 533 4094
727 1035 599
693 1046 851
784 1043 1270
781 1046 1872
780 1051 2454
781 1057 2995
781 1063 3443
782 1068 3761
768 1045 4095
746 1541 871
776 1540 1070
784 1560 1273
786 1560 1885
787 1561 2478
786 1562 3022
785 1565 3470
786 1566 3792
783 1560 4095
874 2037 1209
899 2037 1343
749 2069 1468
785 2078 1885
787 2078 2480
787 2078 3029
788 2078 3486
788 2078 3807
786 2077 4095
1033 2531 1538
1054 2531 1638
883 2561 1726
783 2591 1887
786 2591 2481
788 2591 3031
788 2591 3486
788 2592 3809
783 2591 4095
1197 3022 1859
1209 3023 1935
1051 3048 2004
730 3090 2095
783 3099 2482
786 3099 3031
789 3099 3487
789 3099 3810
783 3099 4095
1365 3505 2173
1370 3507 2233
1243 3527 2293
848 3571 2354
774 3597 2500
783 3598 3032
787 3598 3488
788 3598 3810
781 3598 4094
2078 3916 2708
2008 3930 2702
1794 3967 2684
1251 4034 2648
384 4095 2691
786 4095 3034
788 4095 3489
797 4095 3811
793 4095 4094
599 510 422
767 467 649
1121 186 1218
1173 71 1877
1183 42 2483
1182 36 3035
1182 36 3493
1182 36 3815
1181 45 4094
727 727 489
901 673 798
1142 575 1238
1169 552 1879
1176 543 2483
1177 541 3034
1176 541 3493
1174 541 3816
1184 538 4094
981 1088 669
989 1092 883
1102 1067 1345
1171 1053 1885
1169 1053 2483
1162 1055 3036
1163 1055 3491
1161 1055 3814
1190 1047 4094
1123 1550 937
984 1585 1033
1139 1558 1461
1204 1562 1878
1201 1564 2465
1196 1570 2999
1197 1573 3449
1198 1576 3767
1198 1561 4095
1097 2064 1168
1093 2066 1324
1196 2056 1623
1205 2078 1881
1206 2078 2477
1207 2078 3026
1207 2079 3481
1206 2080 3799
1206 2077 4095
1214 2552 1518
1219 2553 1625
1288 2550 1851
1173 2588 1984
1206 2591 2479
1206 2592 3029
1207 2592 3484
1207 2592 3806
1204 2591 4095
1350 3039 1846
1361 3039 1930
1406 3039 2108
1166 3084 2198
1204 3099 2479
1207 3099 3030
1206 3099 3486
1208 3099 3808
1203 3099 4095
1502 3519 2167
1507 3520 2231
1533 3521 2376
1296 3561 2447
1170 3594 2580
1204 3598 3030
1206 3598 3486
1207 3598 3809
1202 3598 4094
2311 3901 2792
2260 3913 2788
2097 3947 2773
1705 4013 2742
950 4095 2736
1204 4095 3034
1207 4095 3489
1212 4095 3811
1210 4095 4094
852 737 622
993 702 765
1275 576 1183
1557 271 1831
1601 142 2466
1615 87 3029
1615 78 3490
1615 71 3816
1614 90 4093
943 899 674
1113 846 881
1345 757 1269
1564 617 1841
1597 578 2468
1609 562 3030
1611 557 3490
1611 554 3814
1618 552 4093
1141 1206 796
1228 1188 968
1445 1110 1446
1583 1077 1859
1594 1069 2474
1599 1064 3031
1602 1063 3490
1602 1062 3814
1626 1051 4094
1423 1593 1009
1388 1607 1146
1383 1607 1574
1551 1582 1936
1606 1572 2479
1602 1574 3032
1596 1574 3491
1593 1575 3814
1635 1563 4094
1538 2065 1281
1399 2100 1314
1421 2099 1646
1561 2083 2020
1643 2079 2469
1643 2080 3016
1637 2085 3459
1634 2088 3772
1644 2077 4095
1463 2585 1455
1450 2588 1583
1497 2583 1860
1586 2581 2156
1645 2592 2473
1645 2592 3024
1647 2592 3480
1646 2593 3802
1644 2591 4095
1578 3064 1819
1569 3066 1906
1610 3064 2118
1640 3071 2350
1625 3099 2520
1646 3099 3026
1645 3099 3483
1647 3099 3806
1643 3099 4095
1690 3541 2145
1698 3541 2218
1723 3541 2385
1740 3549 2580
1589 3589 2703
1644 3598 3026
1646 3598 3484
1645 3598 3807
1643 3598 4094
2586 3885 2901
2558 3894 2903
2467 3920 2904
2194 3982 2878
1552 4083 2828
1645 4095 3034
1645 4095 3489
1648 4095 3811
1649 4095 4094
1136 990 843
1257 960 931
1428 911 1241
1851 635 1771
2029 389 2414
2074 262 3006
2090 195 3477
2096 161 3806
2098 155 4090
1206 1110 888
1343 1070 1026
1509 1022 1323
1884 814 1820
2034 681 2422
2071 626 3009
2085 601 3479
2093 586 3807
2100 576 4090
1358 1366 963
1449 1343 1123
1654 1274 1498
1938 1160 1920
2045 1114 2437
2070 1094 3012
2078 1085 3479
2082 1081 3807
2106 1064 4091
1593 1714 1126
1633 1708 1238
1766 1673 1570
1926 1623 2052
2068 1593 2455
2074 1589 3022
2076 1587 3484
2076 1586 3810
2117 1568 4093
1878 2111 1359
1843 2123 1458
1759 2152 1683
1873 2117 2228
2027 2106 2511
2095 2090 3026
2088 2094 3479
2095 2090 3808
2129 2079 4094
2001 2577 1637
1904 2603 1668
1748 2642 1811
1914 2609 2281
2029 2602 2611
2132 2594 3014
2135 2594 3470
2122 2595 3809
2136 2591 4095
1960 3085 1829
1842 3110 1831
1842 3111 2075
1980 3091 2446
2052 3095 2721
2138 3100 3018
2134 3100 3477
2129 3100 3810
2134 3099 4095
1963 3574 2091
1954 3576 2173
1958 3577 2360
2061 3565 2658
2074 3579 2884
2112 3599 3066
2137 3598 3479
2122 3600 3810
2134 3598 4095
2920 3869 3057
2903 3876 3060
2853 3897 3067
2736 3938 3075
2370 4029 3040
2100 4095 3099
2136 4095 3490
2137 4095 3811
2137 4095 4094
1472 1290 1107
1558 1271 1173
1716 1230 1388
1962 1137 1774
2414 800 2331
2571 577 2933
2621 455 3435
2641 388 3777
2653 343 4070
1525 1380 1143
1628 1352 1245
1784 1311 1454
2018 1225 1834
2432 952 2361
2577 798 2941
2620 727 3438
2640 689 3779
2662 640 4082
1641 1587 1205
1726 1564 1329
1929 1500 1600
2128 1433 1962
2477 1251 2437
2590 1181 2955
2621 1148 3444
2638 1130 3783
2670 1094 4084
1833 1888 1318
1882 1880 1395
2065 1824 1706
2253 1757 2151
2520 1658 2549
2611 1634 2975
2627 1622 3456
2635 1616 3789
2683 1584 4088
2084 2248 1488
2107 2245 1571
2178 2234 1773
2360 2164 2358
2463 2151 2680
2639 2116 2996
2640 2114 3468
2656 2106 3800
2699 2087 4091
2374 2642 1721
2346 2652 1794
2308 2668 1976
2259 2686 2318
2391 2648 2847
2543 2633 3121
2673 2607 3479
2687 2602 3807
2714 2593 4094
2537 3089 2007
2469 3108 2039
2307 3152 2118
2268 3165 2427
2446 3125 2929
2599 3109 3223
2706 3104 3477
2716 3100 3809
2720 3099 4095
2544 3577 2226
2472 3594 2249
2376 3616 2372
2466 3600 2712
2597 3584 3019
2594 3607 3222
2723 3598 3476
2711 3600 3810
2720 3598 4095
3278 3868 3258
3273 3873 3262
3262 3886 3278
3237 3909 3309
3131 3959 3329
2757 4070 3292
2720 4095 3490
2720 4095 3812
2721 4095 4094
1868 1644 1418
1930 1631 1467
2107 1583 1593
2244 1548 1909
2536 1423 2322
2974 1094 2853
3179 849 3325
3226 758 3691
3260 679 4005
1909 1712 1446
1986 1690 1522
2163 1643 1643
2294 1608 1958
2572 1494 2362
2992 1201 2880
3187 1004 3333
3230 935 3697
3295 795 4052
2000 1875 1501
2070 1855 1592
2271 1794 1770
2404 1758 2071
2661 1658 2463
3036 1434 2945
3206 1312 3351
3239 1273 3709
3304 1183 4056
2153 2128 1572
2199 2117 1660
2369 2066 1895
2558 2003 2246
2778 1926 2614
3089 1779 3042
3234 1715 3377
3255 1697 3726
3319 1638 4062
2354 2448 1708
2395 2440 1769
2492 2418 1956
2745 2332 2380
2895 2279 2814
3129 2198 3166
3261 2170 3411
3298 2146 3767
3341 2119 4072
2611 2808 1879
2627 2807 1941
2678 2799 2094
2786 2778 2361
2927 2712 3036
3093 2678 3310
3216 2670 3468
3328 2629 3782
3368 2610 4082
2898 3192 2097
2885 3198 2153
2880 3204 2300
2878 3212 2553
2868 3214 2997
3048 3173 3387
3226 3150 3545
3366 3114 3800
3396 3103 4092
3157 3590 2538
3142 3593 2618
3105 3603 2778
3086 3613 2992
3133 3617 3194
3205 3620 3395
3316 3607 3641
3402 3599 3808
3407 3598 4095
3658 3897 3535
3661 3900 3542
3666 3908 3559
3674 3923 3590
3675 3947 3630
3650 3984 3671
3475 4063 3676
3406 4095 3813
3407 4095 4095
2265 1998 1730
2312 1988 1768
2446 1956 1863
2603 1914 2096
2783 1860 2430
3084 1721 2835
3443 1472 3269
3691 1232 3585
3807 1081 3884
2297 2052 1752
2337 2045 1787
2470 2013 1886
2650 1962 2113
2828 1906 2461
3131 1765 2875
3496 1509 3318
3751 1259 3642
3869 1102 3947
2374 2182 1802
2406 2178 1834
2519 2153 1930
2763 2080 2138
2935 2021 2526
3242 1875 2965
3625 1602 3435
3898 1326 3782
3912 1343 3988
2490 2398 1861
2517 2396 1893
2604 2381 1984
2845 2315 2178
3099 2221 2595
3417 2062 3096
3806 1790 3596
3938 1705 3822
3925 1749 3996
2667 2678 1944
2687 2678 1962
2738 2676 2032
2884 2649 2200
3311 2502 2573
3565 2373 3182
3801 2248 3595
3946 2174 3834
3945 2199 4007
2878 3007 2099
2888 3009 2108
2926 3012 2138
3005 3012 2196
3228 2963 2470
3562 2829 3129
3793 2727 3590
3957 2657 3850
3972 2668 4023
3133 3364 2268
3140 3367 2274
3157 3375 2291
3202 3384 2330
3288 3388 2409
3524 3320 2946
3777 3217 3563
3957 3150 3859
4006 3143 4043
3481 3690 2931
3486 3693 2941
3499 3699 2965
3523 3710 3009
3559 3725 3074
3615 3739 3171
3749 3720 3384
3945 3645 3851
4047 3618 4067
3922 3988 3816
3926 3991 3823
3936 3997 3839
3954 4008 3868
3979 4024 3910
4011 4043 3961
4043 4063 4013
4070 4079 4055
4095 4095 4095
