Examples/WB - Warmer.3dl
#25pt 3DLUT created by 3D LUT Creator Pro (c) Oleg Sharonov
#Copyright Oleg Sharonov
#IMAGEPROFILE sRGB IEC61966-2.1 v.2.10
#INPUTGAMMA sRGB IEC61966-2.1 v.2.10
#OUTPUTGAMMA sRGB IEC61966-2.1 v.2.10
0 43 86 128 171 214 256 299 341 384 427 469 512 555 597 640 682 725 768 810 853 896 938 981 1023 
0 0 0
0 0 136
0 0 284
0 0 412
0 0 564
0 0 722
0 0 871
0 0 1022
0 0 1166
0 0 1318
0 0 1474
0 0 1627
0 0 1787
0 0 1946
0 0 2109
0 0 2280
0 0 2458
0 0 2644
0 0 2837
0 0 3040
0 0 3249
0 0 3464
0 0 3681
0 0 3894
0 0 4095
0 171 0
0 171 126
0 168 269
0 171 419
0 171 569
0 171 722
0 171 871
0 171 1017
0 171 1168
0 171 1319
0 171 1475
0 171 1628
0 171 1783
0 171 1947
0 171 2110
0 171 2281
0 171 2458
0 171 2645
0 171 2838
0 171 3040
0 171 3249
0 171 3465
0 171 3680
0 171 3893
0 171 4095
0 339 0
0 341 123
0 341 271
0 341 420
0 341 571
0 341 719
0 341 868
0 341 1019
0 341 1170
0 341 1322
0 341 1473
0 341 1629
0 341 1785
0 341 1945
0 341 2111
0 341 2282
0 341 2459
0 341 2643
0 341 2837
0 341 3039
0 341 3250
0 341 3464
0 341 3681
0 341 3893
0 341 4095
0 512 0
0 512 123
0 513 271
0 510 419
0 510 569
0 512 719
0 512 869
0 512 1020
0 513 1170
0 512 1322
0 512 1474
0 512 1627
0 512 1786
0 512 1946
0 512 2112
0 512 2280
0 512 2460
0 512 2644
0 512 2837
0 512 3039
0 512 3249
0 512 3464
0 512 3681
0 512 3893
0 512 4095
0 682 0
0 683 123
0 683 271
0 683 420
0 683 570
0 683 719
0 683 869
0 683 1019
0 683 1170
0 683 1321
0 682 1474
0 682 1627
0 683 1785
0 683 1946
0 683 2111
0 682 2280
0 683 2459
0 683 2644
0 682 2837
0 682 3039
0 682 3249
0 683 3464
0 683 3681
0 683 3893
0 683 4095
0 853 0
0 853 123
0 853 271
0 852 420
0 852 570
0 853 720
0 853 869
0 853 1020
0 852 1169
0 852 1320
0 853 1474
0 853 1628
0 853 1786
0 853 1946
0 852 2110
0 853 2281
0 853 2458
0 853 2644
0 853 2837
0 853 3040
0 853 3249
0 853 3464
0 853 3680
0 853 3893
0 853 4095
0 1023 0
0 1024 123
0 1024 271
0 1023 420
0 1024 570
0 1024 719
0 1024 869
0 1024 1019
0 1024 1170
0 1024 1321
0 1023 1474
0 1023 1628
0 1024 1785
0 1024 1946
0 1024 2111
0 1023 2281
0 1024 2459
0 1023 2644
0 1023 2837
0 1023 3040
0 1023 3249
0 1024 3464
0 1024 3681
0 1024 3893
0 1024 4095
0 1195 0
0 1195 123
0 1194 271
0 1194 420
0 1194 570
0 1195 720
0 1195 869
0 1194 1019
0 1194 1169
0 1194 1321
0 1195 1474
0 1195 1628
0 1194 1785
0 1195 1946
0 1194 2111
0 1195 2281
0 1194 2458
0 1195 2644
0 1195 2838
0 1195 3040
0 1195 3249
0 1195 3465
0 1194 3680
0 1194 3893
0 1195 4095
0 1365 0
0 1365 123
0 1365 271
0 1365 420
0 1365 570
0 1365 719
0 1365 869
0 1365 1019
0 1365 1170
0 1365 1321
0 1365 1474
0 1365 1628
0 1365 1785
0 1365 1946
0 1365 2111
0 1365 2282
0 1365 2459
0 1365 2644
0 1365 2837
0 1365 3039
0 1365 3250
0 1365 3464
0 1365 3680
0 1365 3893
0 1365 4095
0 1535 0
0 1535 123
0 1536 271
0 1536 420
0 1536 570
0 1535 719
0 1535 869
0 1536 1019
0 1536 1169
0 1536 1321
0 1535 1474
0 1536 1628
0 1536 1785
0 1535 1946
0 1536 2111
0 1536 2281
0 1536 2459
0 1535 2644
0 1536 2838
0 1535 3039
0 1536 3249
0 1535 3464
0 1536 3680
0 1536 3893
0 1536 4095
0 1707 0
0 1706 123
0 1706 271
0 1707 420
0 1707 570
0 1706 719
0 1706 869
0 1706 1019
0 1707 1169
0 1707 1321
0 1706 1474
0 1707 1628
0 1706 1785
0 1706 1946
0 1707 2111
0 1707 2281
0 1707 2459
0 1706 2644
0 1707 2838
0 1707 3040
0 1707 3249
0 1706 3464
0 1706 3680
0 1706 3893
0 1706 4095
0 1877 0
0 1877 123
0 1877 271
0 1877 420
0 1877 570
0 1877 719
0 1877 869
0 1877 1019
0 1877 1169
0 1877 1321
0 1877 1474
0 1877 1628
0 1877 1785
0 1877 1946
0 1877 2111
0 1877 2281
0 1877 2459
0 1877 2644
0 1877 2838
0 1877 3040
0 1877 3249
0 1877 3464
0 1877 3680
0 1877 3893
0 1877 4095
0 2048 0
0 2048 123
0 2048 271
0 2047 420
0 2047 570
0 2048 719
0 2048 869
0 2048 1019
0 2048 1170
0 2048 1321
0 2048 1474
0 2047 1628
0 2048 1785
0 2048 1946
0 2048 2111
0 2047 2281
0 2047 2458
0 2048 2644
0 2048 2838
0 2048 3040
0 2047 3249
0 2048 3464
0 2048 3681
0 2048 3893
0 2048 4095
0 2218 0
0 2218 123
0 2218 271
0 2218 420
0 2218 570
0 2218 719
0 2218 869
0 2218 1019
0 2218 1169
0 2218 1321
0 2218 1474
0 2218 1628
0 2218 1785
0 2218 1946
0 2218 2111
0 2218 2281
0 2218 2459
0 2218 2644
0 2218 2837
0 2218 3040
0 2218 3249
0 2218 3464
0 2218 3680
0 2218 3893
0 2218 4095
0 2389 0
0 2389 123
0 2389 271
0 2389 420
0 2389 570
0 2389 719
0 2389 869
0 2389 1019
0 2389 1169
0 2389 1321
0 2389 1474
0 2389 1628
0 2389 1785
0 2389 1946
0 2389 2111
0 2389 2281
0 2389 2459
0 2389 2644
0 2389 2838
0 2389 3040
0 2389 3249
0 2389 3464
0 2389 3680
0 2389 3893
0 2389 4095
0 2559 0
0 2560 123
0 2559 271
0 2559 420
0 2559 570
0 2560 719
0 2560 869
0 2559 1019
0 2559 1169
0 2559 1321
0 2559 1474
0 2559 1628
0 2559 1785
0 2559 1946
0 2559 2111
0 2559 2281
0 2559 2459
0 2559 2644
0 2559 2838
0 2559 3040
0 2559 3249
0 2559 3464
0 2559 3680
0 2559 3893
0 2559 4095
0 2730 0
0 2730 123
0 2730 271
0 2730 420
0 2730 570
0 2730 719
0 2730 869
0 2730 1019
0 2730 1169
0 2730 1321
0 2730 1474
0 2730 1628
0 2730 1785
0 2730 1946
0 2730 2111
0 2730 2281
0 2730 2459
0 2730 2644
0 2730 2838
0 2730 3040
0 2730 3249
0 2730 3464
0 2730 3680
0 2730 3893
3 2730 4095
0 2900 0
0 2900 123
0 2901 271
0 2901 420
0 2901 570
0 2900 719
0 2900 869
0 2900 1019
0 2901 1169
0 2901 1321
0 2900 1474
0 2900 1628
0 2900 1785
0 2900 1946
0 2901 2111
0 2900 2281
0 2901 2459
0 2900 2644
0 2900 2838
0 2900 3040
0 2900 3249
0 2900 3464
0 2901 3680
0 2901 3893
0 2900 4095
0 3071 0
0 3071 123
0 3071 271
0 3071 420
0 3071 570
0 3071 719
0 3071 869
0 3071 1019
0 3071 1169
0 3071 1321
0 3071 1474
0 3071 1628
0 3071 1785
0 3071 1946
0 3071 2111
0 3071 2281
0 3071 2459
0 3071 2644
0 3071 2838
0 3071 3040
0 3071 3249
0 3071 3464
0 3071 3680
0 3071 3893
0 3071 4095
0 3242 0
0 3242 123
0 3242 271
0 3242 420
0 3242 570
0 3242 719
0 3242 869
0 3242 1019
0 3242 1169
0 3242 1321
0 3242 1474
0 3242 1628
0 3242 1785
0 3242 1946
0 3242 2111
0 3242 2281
0 3242 2459
0 3242 2644
0 3242 2838
0 3242 3040
0 3242 3249
0 3242 3464
0 3242 3680
0 3242 3893
0 3242 4095
0 3412 0
0 3412 123
0 3412 271
0 3412 420
0 3412 570
0 3412 719
0 3412 869
0 3412 1019
0 3412 1169
0 3412 1321
0 3412 1474
0 3412 1628
0 3412 1785
0 3412 1946
0 3412 2111
0 3412 2281
0 3412 2459
0 3412 2644
0 3412 2838
0 3412 3040
0 3412 3249
0 3412 3464
0 3412 3680
0 3412 3893
0 3412 4095
0 3583 0
0 3583 123
0 3583 271
0 3583 420
0 3583 570
0 3583 719
0 3583 869
0 3583 1019
0 3583 1169
0 3583 1321
0 3583 1474
0 3583 1628
0 3583 1785
0 3583 1946
0 3583 2111
0 3583 2281
0 3583 2459
0 3583 2644
0 3583 2838
0 3583 3040
0 3583 3249
0 3583 3464
0 3583 3680
0 3583 3893
3 3583 4095
0 3754 0
0 3754 123
0 3754 271
0 3754 420
0 3754 570
0 3754 719
0 3754 869
0 3754 1019
0 3754 1169
0 3754 1321
0 3754 1474
0 3754 1628
0 3754 1785
0 3754 1946
0 3754 2111
0 3754 2281
0 3754 2459
0 3754 2644
0 3754 2838
0 3754 3040
0 3754 3249
0 3754 3464
0 3754 3680
0 3754 3893
0 3754 4095
0 3924 0
0 3924 123
0 3924 271
0 3924 420
0 3924 570
0 3924 719
0 3924 869
0 3924 1019
0 3924 1169
0 3924 1321
0 3924 1474
0 3924 1628
0 3924 1785
0 3924 1946
0 3924 2111
0 3924 2281
0 3924 2459
0 3924 2644
0 3924 2838
0 3924 3040
0 3924 3249
0 3924 3464
0 3924 3680
0 3924 3893
0 3924 4095
3 4095 3
3 4095 129
0 4095 271
0 4095 420
0 4095 570
3 4095 721
3 4095 870
0 4095 1019
0 4095 1169
0 4095 1321
3 4095 1474
0 4095 1628
0 4095 1785
3 4095 1946
0 4095 2111
0 4095 2281
0 4095 2459
3 4095 2644
0 4095 2838
3 4095 3040
0 4095 3249
3 4095 3464
0 4095 3680
0 4095 3893
3 4095 4095
222 0 0
225 0 123
228 0 271
228 0 422
228 0 571
225 0 717
225 0 867
228 0 1018
228 0 1170
228 0 1321
228 0 1472
228 0 1630
228 0 1785
228 0 1945
228 0 2111
228 0 2282
228 0 2459
228 0 2643
228 0 2839
228 0 3039
228 0 3250
228 0 3463
228 0 3680
228 0 3893
228 0 4094
225 171 0
228 171 123
228 171 271
228 171 422
228 171 571
228 171 719
228 171 868
228 171 1019
228 171 1170
228 171 1322
228 171 1473
228 171 1626
228 171 1785
228 171 1945
228 171 2112
228 171 2283
228 171 2460
228 171 2643
228 171 2837
228 171 3039
228 171 3250
228 171 3464
228 171 3681
228 171 3893
228 171 4095
228 341 0
228 341 126
228 341 271
228 341 420
228 341 569
228 341 721
228 341 870
228 341 1018
228 341 1169
228 341 1320
228 341 1474
228 341 1628
228 341 1784
228 341 1947
228 341 2110
228 341 2281
228 341 2458
228 341 2644
228 341 2838
228 341 3040
228 341 3249
228 341 3465
228 341 3680
228 341 3893
228 341 4095
228 513 0
228 512 123
228 512 271
228 512 420
228 512 570
228 512 719
228 512 868
228 512 1018
228 512 1169
228 512 1321
228 512 1475
228 512 1629
228 512 1785
228 512 1945
228 512 2111
228 512 2282
228 512 2459
228 512 2645
228 512 2838
228 512 3040
228 512 3249
228 512 3465
228 512 3680
228 512 3893
228 513 4095
228 683 0
228 682 123
228 682 271
228 683 420
228 683 570
228 682 719
228 683 870
228 682 1018
228 682 1169
228 682 1321
228 683 1474
228 683 1628
228 682 1785
228 683 1947
228 683 2111
228 683 2281
228 683 2458
228 683 2645
228 683 2838
228 683 3040
228 683 3249
228 683 3465
228 683 3680
228 683 3893
228 683 4095
228 852 0
228 853 123
228 853 271
228 853 420
228 853 570
228 853 719
228 852 869
228 853 1019
228 853 1170
228 853 1321
228 852 1473
228 853 1629
228 853 1785
228 853 1946
228 853 2111
228 853 2282
228 853 2459
228 853 2643
228 853 2838
228 853 3039
228 853 3250
228 853 3464
228 853 3680
228 853 3893
225 852 4095
228 1024 0
228 1023 123
228 1023 271
228 1024 420
228 1024 570
228 1023 719
228 1023 868
228 1023 1019
228 1023 1169
228 1023 1321
228 1024 1474
228 1024 1628
228 1023 1785
228 1023 1945
228 1023 2111
228 1024 2281
228 1024 2459
228 1024 2644
228 1024 2838
228 1024 3040
228 1024 3249
228 1024 3465
228 1023 3680
228 1023 3893
228 1024 4095
228 1194 0
228 1195 123
228 1195 271
228 1195 420
228 1195 570
228 1195 719
228 1195 869
228 1195 1019
228 1195 1170
228 1195 1321
228 1194 1474
228 1194 1628
228 1195 1785
228 1195 1946
228 1195 2111
228 1194 2281
228 1195 2459
228 1194 2644
228 1194 2837
228 1194 3040
228 1194 3249
228 1195 3464
228 1195 3681
228 1195 3893
228 1194 4095
228 1365 0
228 1365 123
228 1365 271
228 1365 420
228 1365 570
228 1365 719
228 1365 869
228 1365 1019
228 1365 1169
228 1365 1321
228 1365 1474
228 1365 1628
228 1365 1785
228 1365 1946
228 1365 2111
228 1365 2281
228 1365 2458
228 1365 2644
228 1365 2838
228 1365 3040
228 1365 3249
228 1365 3464
228 1365 3680
228 1365 3893
228 1365 4095
228 1536 0
228 1536 123
228 1535 271
228 1535 420
228 1535 570
228 1536 719
228 1536 869
228 1536 1019
228 1535 1169
228 1535 1321
228 1536 1474
228 1536 1628
228 1536 1785
228 1536 1946
228 1535 2111
228 1536 2281
228 1535 2458
228 1536 2644
228 1536 2838
228 1536 3040
228 1536 3249
228 1536 3464
228 1535 3680
228 1535 3893
228 1536 4095
228 1707 0
228 1707 123
228 1707 271
228 1706 420
228 1706 570
228 1707 719
228 1707 869
228 1707 1019
228 1706 1169
228 1706 1321
228 1707 1474
228 1706 1628
228 1707 1785
228 1707 1946
228 1706 2111
228 1706 2281
228 1706 2458
228 1707 2644
228 1706 2838
228 1706 3040
228 1706 3249
228 1707 3464
228 1706 3680
228 1707 3893
228 1707 4095
