Examples/WB - Cooler.3dl
#25pt 3DLUT created by 3D LUT Creator Pro (c) Oleg Sharonov
#Copyright Oleg Sharonov
#IMAGEPROFILE sRGB IEC61966-2.1 v.2.10
#INPUTGAMMA sRGB IEC61966-2.1 v.2.10
#OUTPUTGAMMA sRGB IEC61966-2.1 v.2.10
0 128 256 384 512 640 768 896 1023
0 0 0
0 0 612
0 0 1203
0 0 1782
0 0 2351
0 0 2888
0 0 3360
0 0 3738
0 0 4095
0 512 0
0 510 616
0 512 1201
0 512 1782
0 512 2351
0 512 2888
0 512 3359
0 512 3738
0 512 4095
0 1023 0
0 1024 617
0 1024 1201
0 1024 1781
0 1023 2351
0 1024 2888
0 1024 3359
0 1023 3738
0 1024 4095
0 1535 0
0 1536 616
0 1536 1200
0 1535 1781
0 1535 2351
0 1536 2888
0 1536 3359
0 1536 3739
0 1536 4095
0 2048 0
0 2047 616
0 2048 1201
0 2048 1781
0 2048 2351
0 2048 2888
0 2048 3359
0 2048 3739
0 2048 4095
0 2559 0
0 2559 616
0 2559 1200
0 2560 1782
0 2559 2351
0 2559 2888
0 2559 3359
0 2559 3739
0 2559 4095
0 3071 0
0 3071 616
0 3071 1201
0 3071 1782
0 3071 2351
0 3071 2888
0 3071 3359
0 3071 3739
0 3071 4095
0 3583 0
0 3583 616
0 3583 1201
0 3583 1781
0 3583 2351
0 3583 2888
0 3583 3359
0 3583 3739
3 3583 4095
3 4095 3
0 4095 616
6 4095 1201
3 4095 1782
0 4095 2351
3 4095 2888
6 4095 3359
0 4095 3739
3 4095 4095
417 0 0
422 0 618
420 0 1200
420 0 1781
420 0 2350
420 0 2888
420 0 3359
420 0 3740
420 0 4095
419 512 0
420 512 617
420 512 1200
420 512 1781
420 512 2352
420 512 2887
420 512 3359
420 512 3739
419 512 4095
420 1023 0
420 1024 616
420 1023 1200
420 1023 1781
420 1024 2352
420 1023 2888
420 1023 3359
420 1024 3739
419 1023 4095
420 1536 0
420 1536 616
420 1536 1201
420 1536 1782
420 1536 2351
420 1536 2888
420 1535 3359
420 1536 3739
420 1536 4095
420 2047 0
420 2048 616
420 2048 1201
420 2048 1781
420 2047 2351
420 2048 2888
420 2048 3359
420 2048 3739
419 2047 4095
420 2559 0
420 2559 616
420 2559 1201
420 2559 1781
420 2559 2351
420 2559 2888
420 2559 3359
420 2559 3739
420 2559 4095
420 3071 0
420 3071 616
420 3071 1201
420 3071 1781
420 3071 2351
420 3071 2888
420 3071 3359
420 3071 3739
420 3071 4095
420 3583 0
420 3583 616
420 3583 1201
420 3583 1781
420 3583 2351
420 3583 2888
420 3583 3359
420 3583 3739
420 3583 4095
420 4095 0
423 4095 618
420 4095 1201
420 4095 1781
419 4095 2351
420 4095 2888
420 4095 3359
417 4095 3739
419 4095 4095
869 0 0
868 0 616
870 0 1201
869 0 1782
869 0 2351
869 0 2888
869 0 3360
869 0 3738
869 0 4095
869 512 0
870 512 617
869 512 1201
869 512 1781
869 512 2351
869 512 2888
869 512 3359
869 512 3738
869 512 4095
869 1023 0
869 1024 617
869 1024 1201
869 1024 1781
869 1023 2351
869 1024 2888
869 1024 3359
869 1023 3738
869 1023 4095
869 1535 0
869 1536 616
869 1536 1200
869 1535 1781
869 1536 2351
869 1536 2888
869 1536 3359
869 1536 3739
868 1535 4095
869 2048 0
869 2047 616
869 2048 1201
869 2048 1781
869 2048 2351
869 2048 2888
869 2048 3359
869 2048 3739
869 2048 4095
869 2559 0
869 2559 616
869 2560 1201
869 2559 1782
869 2559 2351
869 2559 2888
869 2559 3359
869 2559 3739
869 2559 4095
869 3071 0
869 3071 616
869 3071 1201
869 3071 1782
869 3071 2351
869 3071 2888
869 3071 3359
869 3071 3739
869 3071 4095
869 3583 0
869 3583 616
869 3583 1201
869 3583 1782
869 3583 2351
869 3583 2888
869 3583 3359
869 3583 3739
870 3583 4095
869 4095 3
868 4095 616
870 4095 1201
870 4095 1782
869 4095 2351
870 4095 2888
871 4095 3359
868 4095 3739
870 4095 4095
1321 0 0
1321 0 616
1320 0 1200
1321 0 1782
1321 0 2351
1321 0 2889
1321 0 3359
1321 0 3739
1321 0 4095
1321 512 0
1320 512 616
1321 512 1201
1321 512 1782
1321 512 2351
1321 512 2888
1321 512 3360
1321 512 3739
1321 512 4095
1321 1024 0
1321 1023 616
1321 1024 1201
1321 1024 1782
1321 1024 2351
1321 1024 2888
1321 1024 3360
1321 1023 3739
1321 1024 4095
1321 1536 0
1321 1536 616
1321 1536 1201
1321 1536 1781
1321 1536 2351
1321 1536 2888
1321 1536 3359
1321 1535 3739
1321 1536 4095
1321 2048 0
1321 2048 616
1321 2048 1201
1321 2048 1782
1321 2048 2351
1321 2048 2888
1321 2048 3359
1321 2048 3739
1321 2048 4095
1321 2560 0
1321 2559 616
1321 2559 1201
1321 2559 1781
1321 2559 2351
1321 2559 2888
1321 2559 3359
1321 2559 3739
1321 2559 4095
1321 3071 0
1321 3071 616
1321 3071 1201
1321 3071 1781
1321 3071 2351
1321 3071 2888
1321 3071 3359
1321 3071 3739
1321 3071 4095
1321 3583 0
1321 3583 616
1321 3583 1201
1321 3583 1781
1321 3583 2351
1321 3583 2888
1321 3583 3359
1321 3583 3739
1320 3583 4095
1322 4095 3
1321 4095 617
1320 4095 1200
1320 4095 1781
1322 4095 2351
1320 4095 2888
1320 4095 3359
1321 4095 3739
1322 4095 4095
1785 0 0
1786 0 617
1785 0 1200
1785 0 1781
1785 0 2350
1785 0 2888
1785 0 3359
1785 0 3739
1785 0 4095
1786 512 0
1785 512 616
1785 512 1200
1785 512 1781
1785 512 2351
1785 512 2888
1785 512 3359
1785 512 3739
1785 512 4095
1785 1024 0
1785 1024 616
1785 1023 1200
1785 1023 1781
1785 1024 2351
1785 1023 2888
1785 1023 3359
1785 1024 3739
1785 1023 4095
1785 1536 0
1785 1536 616
1785 1536 1201
1785 1536 1782
1785 1536 2351
1785 1536 2888
1785 1536 3359
1785 1536 3739
1785 1536 4095
1785 2047 0
1785 2048 616
1785 2048 1201
1785 2048 1781
1785 2048 2351
1785 2048 2888
1785 2048 3359
1785 2048 3739
1785 2047 4095
1785 2559 0
1785 2560 616
1785 2559 1201
1785 2559 1781
1785 2559 2351
1785 2559 2888
1785 2559 3359
1785 2559 3739
1785 2559 4095
1785 3071 0
1785 3071 616
1785 3071 1201
1785 3071 1781
1785 3071 2351
1785 3071 2888
1785 3071 3359
1785 3071 3739
1785 3071 4095
1785 3583 0
1785 3583 616
1785 3583 1201
1785 3583 1781
1785 3583 2351
1785 3583 2888
1785 3583 3359
1785 3583 3739
1785 3583 4095
1785 4095 0
1786 4095 618
1785 4095 1201
1785 4095 1781
1785 4095 2351
1785 4095 2888
1785 4095 3359
1784 4095 3739
1785 4095 4095
2281 0 0
2281 0 616
2282 0 1201
2281 0 1782
2281 0 2351
2281 0 2888
2281 0 3360
2281 0 3739
2281 0 4095
2281 512 0
2281 512 616
2281 512 1201
2281 512 1782
2281 512 2351
2281 512 2888
2281 512 3359
2281 512 3739
2281 512 4095
2281 1023 0
2281 1023 616
2281 1024 1201
2281 1024 1781
2281 1023 2351
2281 1024 2888
2281 1024 3359
2281 1023 3739
2281 1023 4095
2281 1535 0
2281 1536 616
2281 1536 1201
2281 1536 1781
2281 1535 2351
2281 1536 2888
2281 1536 3359
2281 1536 3739
2281 1535 4095
2281 2048 0
2281 2047 616
2281 2048 1201
2281 2048 1781
2281 2048 2351
2281 2048 2888
2281 2048 3359
2281 2048 3739
2281 2048 4095
2281 2559 0
2281 2559 616
2281 2559 1201
2281 2559 1782
2281 2559 2351
2281 2559 2888
2281 2559 3359
2281 2559 3739
2281 2559 4095
2281 3071 0
2281 3071 616
2281 3071 1201
2281 3071 1782
2281 3071 2351
2281 3071 2888
2281 3071 3359
2281 3071 3739
2281 3071 4095
2281 3583 0
2281 3583 616
2281 3583 1201
2281 3583 1781
2281 3583 2351
2281 3583 2888
2281 3583 3359
2281 3583 3739
2281 3583 4095
2281 4095 3
2281 4095 616
2282 4095 1202
2282 4095 1782
2281 4095 2351
2282 4095 2888
2281 4095 3359
2281 4095 3739
2282 4095 4095
2838 0 0
2838 0 616
2837 0 1200
2837 0 1781
2838 0 2351
2837 0 2888
2837 0 3359
2838 0 3739
2838 3 4095
2838 512 0
2838 512 616
2837 512 1200
2838 512 1782
2838 512 2351
2838 512 2888
2837 512 3359
2838 512 3739
2838 512 4095
2838 1024 0
2838 1024 616
2837 1023 1200
2838 1024 1782
2838 1024 2351
2838 1024 2888
2837 1023 3359
2838 1024 3739
2838 1024 4095
2838 1536 0
2837 1536 616
2838 1536 1201
2838 1536 1781
2838 1536 2351
2838 1536 2888
2838 1536 3359
2837 1536 3739
2838 1536 4095
2838 2048 0
2838 2048 616
2837 2047 1201
2838 2048 1782
2838 2048 2351
2838 2048 2888
2837 2048 3359
2838 2048 3739
2838 2048 4095
2837 2559 0
2838 2559 616
2838 2559 1201
2838 2559 1781
2837 2559 2351
2838 2559 2888
2838 2559 3359
2838 2559 3739
2838 2559 4095
2838 3071 0
2838 3071 616
2838 3071 1201
2838 3071 1781
2838 3071 2351
2838 3071 2888
2838 3071 3359
2838 3071 3739
2838 3071 4095
2838 3583 0
2838 3583 616
2838 3583 1201
2838 3583 1781
2838 3583 2351
2838 3583 2888
2838 3583 3359
2838 3583 3739
2838 3583 4095
2838 4095 0
2838 4095 617
2837 4095 1200
2837 4095 1781
2837 4095 2350
2837 4095 2888
2837 4095 3359
2838 4095 3739
2837 4095 4095
3464 0 0
3464 0 616
3465 0 1201
3464 0 1782
3464 0 2351
3464 0 2888
3464 0 3359
3464 0 3739
3464 0 4095
3464 512 0
3464 512 616
3464 512 1201
3464 512 1782
3464 512 2351
3464 512 2888
3464 512 3359
3464 512 3739
3464 512 4095
3464 1024 0
3464 1023 616
3464 1024 1201
3464 1024 1782
3464 1024 2351
3464 1024 2888
3464 1024 3359
3464 1024 3739
3464 1024 4095
3464 1536 0
3464 1536 616
3464 1536 1201
3464 1536 1781
3464 1536 2351
3464 1536 2888
3464 1536 3359
3464 1536 3739
3464 1536 4095
3464 2048 0
3464 2048 616
3464 2048 1201
3464 2048 1782
3464 2048 2351
3464 2048 2888
3464 2048 3359
3464 2048 3739
3464 2048 4095
3464 2559 0
3464 2559 616
3464 2559 1201
3464 2559 1781
3464 2559 2351
3464 2559 2888
3464 2559 3359
3464 2559 3739
3464 2560 4095
3464 3071 0
3464 3071 616
3464 3071 1201
3464 3071 1781
3464 3071 2351
3464 3071 2888
3464 3071 3359
3464 3071 3739
3464 3071 4095
3464 3583 0
3464 3583 616
3464 3583 1201
3464 3583 1781
3464 3583 2351
3464 3583 2888
3464 3583 3359
3464 3583 3739
3464 3583 4095
3464 4095 6
3464 4095 616
3464 4095 1199
3464 4095 1780
3464 4095 2351
3464 4095 2889
3464 4095 3359
3464 4095 3739
3464 4095 4095
4095 0 0
4095 3 617
4095 0 1201
4095 0 1781
4095 0 2351
4095 0 2888
4095 0 3359
4095 0 3739
4095 0 4095
4095 512 0
4095 512 617
4095 512 1201
4095 512 1781
4095 512 2351
4095 512 2888
4095 512 3359
4095 513 3739
4095 512 4095
4095 1023 0
4095 1024 617
4095 1023 1200
4095 1023 1781
4095 1023 2351
4095 1023 2888
4095 1023 3359
4095 1024 3739
4095 1023 4095
4095 1536 0
4095 1536 616
4095 1535 1200
4095 1536 1782
4095 1536 2351
4095 1536 2888
4095 1535 3359
4095 1536 3739
4095 1536 4095
4095 2048 0
4095 2048 617
4095 2048 1201
4095 2048 1781
4095 2047 2351
4095 2048 2888
4095 2048 3359
4095 2048 3739
4095 2047 4095
4095 2559 0
4095 2559 616
4095 2559 1201
4095 2559 1782
4095 2559 2351
4095 2559 2888
4095 2559 3359
4095 2559 3739
4095 2559 4095
4095 3071 0
4095 3071 615
4095 3071 1201
4095 3071 1782
4095 3071 2351
4095 3071 2888
4095 3071 3359
4095 3071 3739
4095 3071 4095
4095 3583 0
4095 3583 615
4095 3583 1201
4095 3583 1782
4095 3583 2351
4095 3583 2888
4095 3583 3359
4095 3583 3739
4095 3583 4095
4095 4095 0
4095 4095 611
4095 4095 1202
4095 4095 1782
4095 4095 2351
4095 4095 2888
4095 4095 3360
4095 4095 3738
4095 4095 4095
