Black & White/BW - Green channel & soft contrast.3dl
#25pt 3DLUT created by 3D LUT Creator Pro (c) Oleg Sharonov
#Copyright Oleg Sharonov
#IMAGEPROFILE sRGB IEC61966-2.1 v.2.10
#INPUTGAMMA sRGB IEC61966-2.1 v.2.10
#OUTPUTGAMMA sRGB IEC61966-2.1 v.2.10
0 256 512 768 1023
184 184 184
184 184 184
184 184 184
184 184 184
184 184 184
820 820 820
820 820 820
820 820 820
820 820 820
820 820 820
2277 2277 2277
2277 2277 2277
2277 2277 2277
2277 2277 2277
2277 2277 2277
3364 3364 3364
3364 3364 3364
3364 3364 3364
3364 3364 3364
3364 3364 3364
3630 3630 3630
3630 3630 3630
3630 3630 3630
3630 3630 3630
3630 3630 3630
184 184 184
184 184 184
184 184 184
184 184 184
184 184 184
820 820 820
820 820 820
820 820 820
820 820 820
820 820 820
2277 2277 2277
2277 2277 2277
2277 2277 2277
2277 2277 2277
2277 2277 2277
3364 3364 3364
3364 3364 3364
3364 3364 3364
3364 3364 3364
3364 3364 3364
3630 3630 3630
3630 3630 3630
3630 3630 3630
3630 3630 3630
3630 3630 3630
184 184 184
184 184 184
184 184 184
184 184 184
184 184 184
820 820 820
820 820 820
820 820 820
820 820 820
820 820 820
2277 2277 2277
2277 2277 2277
2277 2277 2277
2277 2277 2277
2277 2277 2277
3364 3364 3364
3364 3364 3364
3364 3364 3364
3364 3364 3364
3364 3364 3364
3630 3630 3630
3630 3630 3630
3630 3630 3630
3630 3630 3630
3630 3630 3630
184 184 184
184 184 184
184 184 184
184 184 184
184 184 184
820 820 820
820 820 820
820 820 820
820 820 820
820 820 820
2277 2277 2277
2277 2277 2277
2277 2277 2277
2277 2277 2277
2277 2277 2277
3364 3364 3364
3364 3364 3364
3364 3364 3364
3364 3364 3364
3364 3364 3364
3630 3630 3630
3630 3630 3630
3630 3630 3630
3630 3630 3630
3630 3630 3630
184 184 184
184 184 184
184 184 184
184 184 184
184 184 184
820 820 820
820 820 820
820 820 820
820 820 820
820 820 820
2277 2277 2277
2277 2277 2277
2277 2277 2277
2277 2277 2277
2277 2277 2277
3364 3364 3364
3364 3364 3364
3364 3364 3364
3364 3364 3364
3364 3364 3364
3630 3630 3630
3630 3630 3630
3630 3630 3630
3630 3630 3630
3630 3630 3630
