Black & White/BW - HiFi.3dl
#25pt 3DLUT created by 3D LUT Creator Pro (c) Oleg Sharonov
#Copyright Oleg Sharonov
#INPUTGAMMA sRGB IEC61966-2.1 v.2.10
#IMAGEPROFILE sRGB IEC61966-2.1 v.2.10
#OUTPUTGAMMA sRGB IEC61966-2.1 v.2.10
0 43 86 128 171 214 256 299 341 384 427 469 512 555 597 640 682 725 768 810 853 896 938 981 1023 
0 0 0
20 20 20
42 42 42
64 64 64
88 88 88
117 117 117
155 155 155
207 207 207
267 267 267
343 343 343
436 436 436
559 559 559
697 697 697
845 845 845
1002 1002 1002
1144 1144 1144
1276 1276 1276
1404 1404 1404
1526 1526 1526
1645 1645 1645
1762 1762 1762
1888 1888 1888
1993 1993 1993
2074 2074 2074
2155 2155 2155
45 45 45
53 53 53
62 62 62
84 84 84
112 112 112
148 148 148
193 193 193
245 245 245
313 313 313
397 397 397
497 497 497
626 626 626
766 766 766
915 915 915
1041 1041 1041
1170 1170 1170
1301 1301 1301
1432 1432 1432
1560 1560 1560
1682 1682 1682
1799 1799 1799
1900 1900 1900
1992 1992 1992
2076 2076 2076
2159 2159 2159
94 94 94
106 106 106
118 118 118
132 132 132
148 148 148
185 185 185
234 234 234
299 299 299
380 380 380
475 475 475
586 586 586
723 723 723
856 856 856
980 980 980
1107 1107 1107
1235 1235 1235
1364 1364 1364
1494 1494 1494
1621 1621 1621
1735 1735 1735
1829 1829 1829
1929 1929 1929
2017 2017 2017
2098 2098 2098
2179 2179 2179
172 172 172
193 193 193
216 216 216
242 242 242
259 259 259
277 277 277
296 296 296
364 364 364
456 456 456
561 561 561
681 681 681
799 799 799
924 924 924
1054 1054 1054
1185 1185 1185
1318 1318 1318
1449 1449 1449
1577 1577 1577
1680 1680 1680
1771 1771 1771
1864 1864 1864
1963 1963 1963
2053 2053 2053
2137 2137 2137
2218 2218 2218
309 309 309
350 350 350
384 384 384
410 410 410
436 436 436
464 464 464
496 496 496
535 535 535
576 576 576
664 664 664
764 764 764
884 884 884
1010 1010 1010
1139 1139 1139
1271 1271 1271
1403 1403 1403
1528 1528 1528
1624 1624 1624
1717 1717 1717
1807 1807 1807
1898 1898 1898
1994 1994 1994
2081 2081 2081
2167 2167 2167
2232 2232 2232
534 534 534
570 570 570
612 612 612
656 656 656
700 700 700
746 746 746
793 793 793
841 841 841
865 865 865
884 884 884
909 909 909
1008 1008 1008
1136 1136 1136
1265 1265 1265
1394 1394 1394
1503 1503 1503
1597 1597 1597
1689 1689 1689
1777 1777 1777
1861 1861 1861
1947 1947 1947
2037 2037 2037
2111 2111 2111
2173 2173 2173
2236 2236 2236
834 834 834
882 882 882
931 931 931
981 981 981
1031 1031 1031
1082 1082 1082
1126 1126 1126
1145 1145 1145
1165 1165 1165
1185 1185 1185
1212 1212 1212
1254 1254 1254
1297 1297 1297
1391 1391 1391
1488 1488 1488
1582 1582 1582
1674 1674 1674
1763 1763 1763
1848 1848 1848
1928 1928 1928
2010 2010 2010
2076 2076 2076
2138 2138 2138
2203 2203 2203
2268 2268 2268
1153 1153 1153
1207 1207 1207
1260 1260 1260
1313 1313 1313
1367 1367 1367
1399 1399 1399
1421 1421 1421
1442 1442 1442
1464 1464 1464
1485 1485 1485
1514 1514 1514
1557 1557 1557
1584 1584 1584
1594 1594 1594
1605 1605 1605
1660 1660 1660
1749 1749 1749
1836 1836 1836
1920 1920 1920
1992 1992 1992
2049 2049 2049
2113 2113 2113
2178 2178 2178
2243 2243 2243
2308 2308 2308
1472 1472 1472
1524 1524 1524
1575 1575 1575
1623 1623 1623
1644 1644 1644
1664 1664 1664
1684 1684 1684
1704 1704 1704
1724 1724 1724
1744 1744 1744
1771 1771 1771
1786 1786 1786
1803 1803 1803
1825 1825 1825
1847 1847 1847
1868 1868 1868
1889 1889 1889
1938 1938 1938
1996 1996 1996
2044 2044 2044
2098 2098 2098
2160 2160 2160
2223 2223 2223
2286 2286 2286
2350 2350 2350
1781 1781 1781
1823 1823 1823
1850 1850 1850
1868 1868 1868
1886 1886 1886
1904 1904 1904
1921 1921 1921
1945 1945 1945
1972 1972 1972
1989 1989 1989
1999 1999 1999
2017 2017 2017
2035 2035 2035
2053 2053 2053
2071 2071 2071
2088 2088 2088
2103 2103 2103
2097 2097 2097
2092 2092 2092
2108 2108 2108
2163 2163 2163
2226 2226 2226
2290 2290 2290
2353 2353 2353
2395 2395 2395
2031 2031 2031
2045 2045 2045
2065 2065 2065
2086 2086 2086
2107 2107 2107
2132 2132 2132
2157 2157 2157
2183 2183 2183
2191 2191 2191
2194 2194 2194
2204 2204 2204
2221 2221 2221
2239 2239 2239
2257 2257 2257
2275 2275 2275
2279 2279 2279
2274 2274 2274
2269 2269 2269
2264 2264 2264
2258 2258 2258
2263 2263 2263
2293 2293 2293
2347 2347 2347
2388 2388 2388
2429 2429 2429
2244 2244 2244
2266 2266 2266
2287 2287 2287
2308 2308 2308
2329 2329 2329
2351 2351 2351
2367 2367 2367
2370 2370 2370
2374 2374 2374
2377 2377 2377
2389 2389 2389
2408 2408 2408
2427 2427 2427
2446 2446 2446
2442 2442 2442
2438 2438 2438
2435 2435 2435
2431 2431 2431
2427 2427 2427
2424 2424 2424
2430 2430 2430
2425 2425 2425
2416 2416 2416
2426 2426 2426
2469 2469 2469
2467 2467 2467
2488 2488 2488
2508 2508 2508
2529 2529 2529
2550 2550 2550
2557 2557 2557
2556 2556 2556
2556 2556 2556
2555 2555 2555
2558 2558 2558
2569 2569 2569
2588 2588 2588
2597 2597 2597
2593 2593 2593
2590 2590 2590
2586 2586 2586
2582 2582 2582
2579 2579 2579
2582 2582 2582
2582 2582 2582
2577 2577 2577
2577 2577 2577
2577 2577 2577
2578 2578 2578
2578 2578 2578
2671 2671 2671
2693 2693 2693
2715 2715 2715
2734 2734 2734
2735 2735 2735
2736 2736 2736
2737 2737 2737
2738 2738 2738
2737 2737 2737
2737 2737 2737
2745 2745 2745
2743 2743 2743
2740 2740 2740
2744 2744 2744
2748 2748 2748
2753 2753 2753
2757 2757 2757
2762 2762 2762
2754 2754 2754
2740 2740 2740
2736 2736 2736
2736 2736 2736
2736 2736 2736
2736 2736 2736
2736 2736 2736
2854 2854 2854
2874 2874 2874
2884 2884 2884
2885 2885 2885
2886 2886 2886
2887 2887 2887
2888 2888 2888
2889 2889 2889
2898 2898 2898
2900 2900 2900
2897 2897 2897
2899 2899 2899
2901 2901 2901
2905 2905 2905
2911 2911 2911
2917 2917 2917
2920 2920 2920
2909 2909 2909
2897 2897 2897
2886 2886 2886
2884 2884 2884
2885 2885 2885
2886 2886 2886
2886 2886 2886
2868 2868 2868
3021 3021 3021
3023 3023 3023
3026 3026 3026
3033 3033 3033
3041 3041 3041
3048 3048 3048
3056 3056 3056
3063 3063 3063
3057 3057 3057
3046 3046 3046
3044 3044 3044
3046 3046 3046
3048 3048 3048
3050 3050 3050
3052 3052 3052
3047 3047 3047
3037 3037 3037
3026 3026 3026
3015 3015 3015
3005 3005 3005
3003 3003 3003
3005 3005 3005
3000 3000 3000
2982 2982 2982
2965 2965 2965
3163 3163 3163
3171 3171 3171
3178 3178 3178
3185 3185 3185
3192 3192 3192
3199 3199 3199
3203 3203 3203
3194 3194 3194
3185 3185 3185
3176 3176 3176
3175 3175 3175
3176 3176 3176
3178 3178 3178
3180 3180 3180
3168 3168 3168
3156 3156 3156
3144 3144 3144
3133 3133 3133
3124 3124 3124
3114 3114 3114
3113 3113 3113
3101 3101 3101
3085 3085 3085
3070 3070 3070
3060 3060 3060
3287 3287 3287
3290 3290 3290
3294 3294 3294
3300 3300 3300
3306 3306 3306
3304 3304 3304
3298 3298 3298
3291 3291 3291
3284 3284 3284
3278 3278 3278
3277 3277 3277
3279 3279 3279
3277 3277 3277
3268 3268 3268
3258 3258 3258
3249 3249 3249
3239 3239 3239
3229 3229 3229
3221 3221 3221
3214 3214 3214
3205 3205 3205
3197 3197 3197
3188 3188 3188
3180 3180 3180
3172 3172 3172
3385 3385 3385
3388 3388 3388
3391 3391 3391
3394 3394 3394
3387 3387 3387
3381 3381 3381
3375 3375 3375
3370 3370 3370
3364 3364 3364
3358 3358 3358
3358 3358 3358
3352 3352 3352
3344 3344 3344
3338 3338 3338
3334 3334 3334
3330 3330 3330
3327 3327 3327
3323 3323 3323
3311 3311 3311
3295 3295 3295
3286 3286 3286
3278 3278 3278
3272 3272 3272
3265 3265 3265
3259 3259 3259
3472 3472 3472
3475 3475 3475
3474 3474 3474
3468 3468 3468
3461 3461 3461
3454 3454 3454
3447 3447 3447
3442 3442 3442
3439 3439 3439
3434 3434 3434
3430 3430 3430
3426 3426 3426
3423 3423 3423
3419 3419 3419
3416 3416 3416
3412 3412 3412
3407 3407 3407
3393 3393 3393
3379 3379 3379
3365 3365 3365
3357 3357 3357
3349 3349 3349
3342 3342 3342
3335 3335 3335
3320 3320 3320
3545 3545 3545
3540 3540 3540
3534 3534 3534
3531 3531 3531
3528 3528 3528
3526 3526 3526
3523 3523 3523
3521 3521 3521
3512 3512 3512
3503 3503 3503
3499 3499 3499
3496 3496 3496
3494 3494 3494
3491 3491 3491
3488 3488 3488
3481 3481 3481
3468 3468 3468
3456 3456 3456
3443 3443 3443
3429 3429 3429
3422 3422 3422
3415 3415 3415
3404 3404 3404
3388 3388 3388
3371 3371 3371
3609 3609 3609
3607 3607 3607
3605 3605 3605
3603 3603 3603
3601 3601 3601
3599 3599 3599
3595 3595 3595
3585 3585 3585
3575 3575 3575
3564 3564 3564
3559 3559 3559
3557 3557 3557
3554 3554 3554
3552 3552 3552
3541 3541 3541
3529 3529 3529
3518 3518 3518
3506 3506 3506
3494 3494 3494
3481 3481 3481
3475 3475 3475
3462 3462 3462
3447 3447 3447
3432 3432 3432
3418 3418 3418
3674 3674 3674
3673 3673 3673
3671 3671 3671
3669 3669 3669
3667 3667 3667
3661 3661 3661
3651 3651 3651
3642 3642 3642
3632 3632 3632
3623 3623 3623
3619 3619 3619
3615 3615 3615
3608 3608 3608
3597 3597 3597
3586 3586 3586
3575 3575 3575
3564 3564 3564
3553 3553 3553
3541 3541 3541
3531 3531 3531
3520 3520 3520
3509 3509 3509
3499 3499 3499
3488 3488 3488
3476 3476 3476
3726 3726 3726
3725 3725 3725
3723 3723 3723
3722 3722 3722
3714 3714 3714
3706 3706 3706
3698 3698 3698
3690 3690 3690
3681 3681 3681
3673 3673 3673
3670 3670 3670
3660 3660 3660
3650 3650 3650
3639 3639 3639
3631 3631 3631
3624 3624 3624
3617 3617 3617
3610 3610 3610
3597 3597 3597
3582 3582 3582
3572 3572 3572
3562 3562 3562
3552 3552 3552
3542 3542 3542
3531 3531 3531
3773 3773 3773
3772 3772 3772
3768 3768 3768
3761 3761 3761
3754 3754 3754
3746 3746 3746
3739 3739 3739
3731 3731 3731
3723 3723 3723
3716 3716 3716
3709 3709 3709
3702 3702 3702
3695 3695 3695
3688 3688 3688
3681 3681 3681
3673 3673 3673
3665 3665 3665
3651 3651 3651
3637 3637 3637
3624 3624 3624
3615 3615 3615
3606 3606 3606
3597 3597 3597
3588 3588 3588
3571 3571 3571
42 42 42
37 37 37
57 57 57
80 80 80
107 107 107
143 143 143
190 190 190
255 255 255
332 332 332
421 421 421
524 524 524
639 639 639
784 784 784
938 938 938
1098 1098 1098
1243 1243 1243
1371 1371 1371
1493 1493 1493
1613 1613 1613
1728 1728 1728
1837 1837 1837
1942 1942 1942
2042 2042 2042
2121 2121 2121
2203 2203 2203
74 74 74
55 55 55
78 78 78
104 104 104
138 138 138
182 182 182
240 240 240
307 307 307
389 389 389
486 486 486
594 594 594
714 714 714
861 861 861
1015 1015 1015
1143 1143 1143
1271 1271 1271
1399 1399 1399
1528 1528 1528
1651 1651 1651
1765 1765 1765
1875 1875 1875
1960 1960 1960
2048 2048 2048
2130 2130 2130
2213 2213 2213
135 135 135
109 109 109
122 122 122
136 136 136
178 178 178
229 229 229
293 293 293
373 373 373
467 467 467
573 573 573
689 689 689
816 816 816
955 955 955
1081 1081 1081
1212 1212 1212
1344 1344 1344
1475 1475 1475
1603 1603 1603
1725 1725 1725
1834 1834 1834
1916 1916 1916
1992 1992 1992
2075 2075 2075
2155 2155 2155
2237 2237 2237
246 246 246
199 199 199
223 223 223
251 251 251
268 268 268
286 286 286
356 356 356
448 448 448
552 552 552
669 669 669
795 795 795
905 905 905
1034 1034 1034
1165 1165 1165
1298 1298 1298
1429 1429 1429
1558 1558 1558
1683 1683 1683
1782 1782 1782
1869 1869 1869
1950 1950 1950
2029 2029 2029
2114 2114 2114
2195 2195 2195
2276 2276 2276
434 434 434
359 359 359
394 394 394
420 420 420
455 455 455
493 493 493
532 532 532
573 573 573
675 675 675
790 790 790
890 890 890
998 998 998
1126 1126 1126
1255 1255 1255
1384 1384 1384
1514 1514 1514
1636 1636 1636
1729 1729 1729
1818 1818 1818
1902 1902 1902
1981 1981 1981
2058 2058 2058
2144 2144 2144
2230 2230 2230
2295 2295 2295
686 686 686
609 609 609
652 652 652
697 697 697
743 743 743
789 789 789
837 837 837
885 885 885
912 912 912
931 931 931
1012 1012 1012
1124 1124 1124
1253 1253 1253
1382 1382 1382
1509 1509 1509
1617 1617 1617
1707 1707 1707
1795 1795 1795
1878 1878 1878
1956 1956 1956
2029 2029 2029
2102 2102 2102
2178 2178 2178
2240 2240 2240
2303 2303 2303
1007 1007 1007
927 927 927
977 977 977
1027 1027 1027
1078 1078 1078
1129 1129 1129
1174 1174 1174
1194 1194 1194
1213 1213 1213
1233 1233 1233
1253 1253 1253
1279 1279 1279
1380 1380 1380
1507 1507 1507
1602 1602 1602
1693 1693 1693
1781 1781 1781
1865 1865 1865
1944 1944 1944
2017 2017 2017
2088 2088 2088
2147 2147 2147
2212 2212 2212
2277 2277 2277
2341 2341 2341
1324 1324 1324
1251 1251 1251
1304 1304 1304
1357 1357 1357
1410 1410 1410
1443 1443 1443
1465 1465 1465
1486 1486 1486
1507 1507 1507
1529 1529 1529
1550 1550 1550
1578 1578 1578
1607 1607 1607
1619 1619 1619
1679 1679 1679
1771 1771 1771
1859 1859 1859
1941 1941 1941
2018 2018 2018
2083 2083 2083
2131 2131 2131
2186 2186 2186
2251 2251 2251
2316 2316 2316
2381 2381 2381
1630 1630 1630
1566 1566 1566
1617 1617 1617
1665 1665 1665
1685 1685 1685
1705 1705 1705
1725 1725 1725
1745 1745 1745
1764 1764 1764
1785 1785 1785
1815 1815 1815
1828 1828 1828
1850 1850 1850
1871 1871 1871
1892 1892 1892
1913 1913 1913
1964 1964 1964
2037 2037 2037
2090 2090 2090
2136 2136 2136
2183 2183 2183
2237 2237 2237
2300 2300 2300
2363 2363 2363
2426 2426 2426
1910 1910 1910
1856 1856 1856
1887 1887 1887
1905 1905 1905
1926 1926 1926
1952 1952 1952
1978 1978 1978
2004 2004 2004
2028 2028 2028
2046 2046 2046
2047 2047 2047
2056 2056 2056
2073 2073 2073
2091 2091 2091
2108 2108 2108
2126 2126 2126
2141 2141 2141
2136 2136 2136
2156 2156 2156
2202 2202 2202
2248 2248 2248
2303 2303 2303
2366 2366 2366
2429 2429 2429
2471 2471 2471
2126 2126 2126
2091 2091 2091
2112 2112 2112
2133 2133 2133
2158 2158 2158
2183 2183 2183
2209 2209 2209
2234 2234 2234
2243 2243 2243
2247 2247 2247
2250 2250 2250
2260 2260 2260
2277 2277 2277
2295 2295 2295
2313 2313 2313
2318 2318 2318
2313 2313 2313
2308 2308 2308
2303 2303 2303
2297 2297 2297
2314 2314 2314
2369 2369 2369
2424 2424 2424
2465 2465 2465
2506 2506 2506
