Black & White/BW - HiFi.3dl
#25pt 3DLUT created by 3D LUT Creator Pro (c) Oleg Sharonov
#Copyright Oleg Sharonov
#INPUTGAMMA sRGB IEC61966-2.1 v.2.10
#IMAGEPROFILE sRGB IEC61966-2.1 v.2.10
#OUTPUTGAMMA sRGB IEC61966-2.1 v.2.10
0 128 256 384 512 640 768 896 1023
0 0 0
64 64 64
155 155 155
343 343 343
697 697 697
1144 1144 1144
1526 1526 1526
1888 1888 1888
2155 2155 2155
172 172 172
242 242 242
296 296 296
561 561 561
924 924 924
1318 1318 1318
1680 1680 1680
1963 1963 1963
2218 2218 2218
834 834 834
981 981 981
1126 1126 1126
1185 1185 1185
1297 1297 1297
1582 1582 1582
1848 1848 1848
2076 2076 2076
2268 2268 2268
1781 1781 1781
1868 1868 1868
1921 1921 1921
1989 1989 1989
2035 2035 2035
2088 2088 2088
2092 2092 2092
2226 2226 2226
2395 2395 2395
2467 2467 2467
2529 2529 2529
2556 2556 2556
2558 2558 2558
2597 2597 2597
2586 2586 2586
2582 2582 2582
2577 2577 2577
2578 2578 2578
3021 3021 3021
3033 3033 3033
3056 3056 3056
3046 3046 3046
3048 3048 3048
3047 3047 3047
3015 3015 3015
3005 3005 3005
2965 2965 2965
3385 3385 3385
3394 3394 3394
3375 3375 3375
3358 3358 3358
3344 3344 3344
3330 3330 3330
3311 3311 3311
3278 3278 3278
3259 3259 3259
3609 3609 3609
3603 3603 3603
3595 3595 3595
3564 3564 3564
3554 3554 3554
3529 3529 3529
3494 3494 3494
3462 3462 3462
3418 3418 3418
3773 3773 3773
3761 3761 3761
3739 3739 3739
3716 3716 3716
3695 3695 3695
3673 3673 3673
3637 3637 3637
3606 3606 3606
3571 3571 3571
153 153 153
126 126 126
288 288 288
606 606 606
991 991 991
1427 1427 1427
1779 1779 1779
2077 2077 2077
2311 2311 2311
532 532 532
268 268 268
542 542 542
917 917 917
1279 1279 1279
1646 1646 1646
1969 1969 1969
2176 2176 2176
2391 2391 2391
1436 1436 1436
1121 1121 1121
1271 1271 1271
1330 1330 1330
1625 1625 1625
1902 1902 1902
2125 2125 2125
2322 2322 2322
2488 2488 2488
2208 2208 2208
2017 2017 2017
2088 2088 2088
2154 2154 2154
2159 2159 2159
2202 2202 2202
2343 2343 2343
2481 2481 2481
2622 2622 2622
2814 2814 2814
2666 2666 2666
2698 2698 2698
2708 2708 2708
2732 2732 2732
2737 2737 2737
2750 2750 2750
2724 2724 2724
2798 2798 2798
3253 3253 3253
3182 3182 3182
3201 3201 3201
3195 3195 3195
3170 3170 3170
3172 3172 3172
3144 3144 3144
3121 3121 3121
3091 3091 3091
3522 3522 3522
3480 3480 3480
3470 3470 3470
3465 3465 3465
3444 3444 3444
3431 3431 3431
3417 3417 3417
3380 3380 3380
3356 3356 3356
3710 3710 3710
3688 3688 3688
3682 3682 3682
3657 3657 3657
3633 3633 3633
3609 3609 3609
3585 3585 3585
3556 3556 3556
3519 3519 3519
3846 3846 3846
3830 3830 3830
3817 3817 3817
3803 3803 3803
3772 3772 3772
3755 3755 3755
3726 3726 3726
3688 3688 3688
3653 3653 3653
773 773 773
665 665 665
568 568 568
937 937 937
1344 1344 1344
1726 1726 1726
2019 2019 2019
2287 2287 2287
2505 2505 2505
1161 1161 1161
1000 1000 1000
923 923 923
1318 1318 1318
1676 1676 1676
1957 1957 1957
2202 2202 2202
2398 2398 2398
2597 2597 2597
2003 2003 2003
1730 1730 1730
1415 1415 1415
1731 1731 1731
2005 2005 2005
2196 2196 2196
2395 2395 2395
2592 2592 2592
2722 2722 2722
2622 2622 2622
2417 2417 2417
2249 2249 2249
2318 2318 2318
2323 2323 2323
2473 2473 2473
2623 2623 2623
2762 2762 2762
2880 2880 2880
3137 3137 3137
2999 2999 2999
2877 2877 2877
2908 2908 2908
2934 2934 2934
2905 2905 2905
2909 2909 2909
2979 2979 2979
3044 3044 3044
3436 3436 3436
3373 3373 3373
3318 3318 3318
3317 3317 3317
3302 3302 3302
3296 3296 3296
3283 3283 3283
3275 3275 3275
3238 3238 3238
3652 3652 3652
3603 3603 3603
3577 3577 3577
3573 3573 3573
3556 3556 3556
3528 3528 3528
3516 3516 3516
3484 3484 3484
3453 3453 3453
3799 3799 3799
3777 3777 3777
3759 3759 3759
3742 3742 3742
3729 3729 3729
3704 3704 3704
3683 3683 3683
3660 3660 3660
3621 3621 3621
3906 3906 3906
3893 3893 3893
3886 3886 3886
3875 3875 3875
3851 3851 3851
3827 3827 3827
3802 3802 3802
3775 3775 3775
3745 3745 3745
1761 1761 1761
1644 1644 1644
1497 1497 1497
1374 1374 1374
1707 1707 1707
2029 2029 2029
2248 2248 2248
2496 2496 2496
2708 2708 2708
2013 2013 2013
1888 1888 1888
1819 1819 1819
1752 1752 1752
2018 2018 2018
2240 2240 2240
2453 2453 2453
2634 2634 2634
2824 2824 2824
2443 2443 2443
2215 2215 2215
2130 2130 2130
2103 2103 2103
2322 2322 2322
2515 2515 2515
2675 2675 2675
2838 2838 2838
2949 2949 2949
2996 2996 2996
2814 2814 2814
2651 2651 2651
2481 2481 2481
2645 2645 2645
2801 2801 2801
2913 2913 2913
3022 3022 3022
3124 3124 3124
3360 3360 3360
3269 3269 3269
3173 3173 3173
3089 3089 3089
3113 3113 3113
3089 3089 3089
3150 3150 3150
3212 3212 3212
3265 3265 3265
3585 3585 3585
3532 3532 3532
3480 3480 3480
3438 3438 3438
3438 3438 3438
3435 3435 3435
3405 3405 3405
3394 3394 3394
3404 3404 3404
3756 3756 3756
3717 3717 3717
3691 3691 3691
3668 3668 3668
3655 3655 3655
3634 3634 3634
3618 3618 3618
3595 3595 3595
3576 3576 3576
3873 3873 3873
3855 3855 3855
3837 3837 3837
3829 3829 3829
3818 3818 3818
3798 3798 3798
3769 3769 3769
3751 3751 3751
3718 3718 3718
3955 3955 3955
3945 3945 3945
3939 3939 3939
3935 3935 3935
3919 3919 3919
3904 3904 3904
3881 3881 3881
3860 3860 3860
3836 3836 3836
2424 2424 2424
2346 2346 2346
2228 2228 2228
2134 2134 2134
2072 2072 2072
2297 2297 2297
2510 2510 2510
2716 2716 2716
2891 2891 2891
2623 2623 2623
2548 2548 2548
2486 2486 2486
2408 2408 2408
2348 2348 2348
2533 2533 2533
2734 2734 2734
2875 2875 2875
3029 3029 3029
2836 2836 2836
2788 2788 2788
2710 2710 2710
2682 2682 2682
2659 2659 2659
2819 2819 2819
2956 2956 2956
3075 3075 3075
3160 3160 3160
3267 3267 3267
3146 3146 3146
3015 3015 3015
2969 2969 2969
2967 2967 2967
3092 3092 3092
3183 3183 3183
3246 3246 3246
3308 3308 3308
3517 3517 3517
3455 3455 3455
3385 3385 3385
3327 3327 3327
3262 3262 3262
3317 3317 3317
3366 3366 3366
3395 3395 3395
3428 3428 3428
3697 3697 3697
3661 3661 3661
3618 3618 3618
3582 3582 3582
3558 3558 3558
3556 3556 3556
3530 3530 3530
3539 3539 3539
3550 3550 3550
3835 3835 3835
3809 3809 3809
3788 3788 3788
3768 3768 3768
3755 3755 3755
3745 3745 3745
3733 3733 3733
3702 3702 3702
3682 3682 3682
3926 3926 3926
3916 3916 3916
3902 3902 3902
3897 3897 3897
3891 3891 3891
3876 3876 3876
3855 3855 3855
3837 3837 3837
3813 3813 3813
3991 3991 3991
3986 3986 3986
3982 3982 3982
3978 3978 3978
3980 3980 3980
3969 3969 3969
3952 3952 3952
3929 3929 3929
3911 3911 3911
2978 2978 2978
2906 2906 2906
2833 2833 2833
2744 2744 2744
2686 2686 2686
2613 2613 2613
2775 2775 2775
2955 2955 2955
3086 3086 3086
3127 3127 3127
3056 3056 3056
3015 3015 3015
2940 2940 2940
2882 2882 2882
2850 2850 2850
2998 2998 2998
3113 3113 3113
3216 3216 3216
3251 3251 3251
3224 3224 3224
3191 3191 3191
3168 3168 3168
3133 3133 3133
3109 3109 3109
3201 3201 3201
3289 3289 3289
3333 3333 3333
3440 3440 3440
3364 3364 3364
3352 3352 3352
3325 3325 3325
3323 3323 3323
3323 3323 3323
3377 3377 3377
3419 3419 3419
3456 3456 3456
3644 3644 3644
3596 3596 3596
3547 3547 3547
3497 3497 3497
3484 3484 3484
3494 3494 3494
3533 3533 3533
3558 3558 3558
3571 3571 3571
3785 3785 3785
3760 3760 3760
3733 3733 3733
3703 3703 3703
3682 3682 3682
3661 3661 3661
3674 3674 3674
3686 3686 3686
3685 3685 3685
3896 3896 3896
3877 3877 3877
3865 3865 3865
3850 3850 3850
3840 3840 3840
3836 3836 3836
3827 3827 3827
3802 3802 3802
3792 3792 3792
3966 3966 3966
3962 3962 3962
3954 3954 3954
3950 3950 3950
3947 3947 3947
3947 3947 3947
3935 3935 3935
3922 3922 3922
3896 3896 3896
4016 4016 4016
4014 4014 4014
4014 4014 4014
4012 4012 4012
4014 4014 4014
4016 4016 4016
4005 4005 4005
3989 3989 3989
3974 3974 3974
3357 3357 3357
3313 3313 3313
3268 3268 3268
3216 3216 3216
3157 3157 3157
3089 3089 3089
3054 3054 3054
3163 3163 3163
3268 3268 3268
3425 3425 3425
3382 3382 3382
3353 3353 3353
3325 3325 3325
3288 3288 3288
3268 3268 3268
3239 3239 3239
3309 3309 3309
3377 3377 3377
3508 3508 3508
3483 3483 3483
3453 3453 3453
3442 3442 3442
3415 3415 3415
3396 3396 3396
3391 3391 3391
3447 3447 3447
3482 3482 3482
3592 3592 3592
3570 3570 3570
3565 3565 3565
3556 3556 3556
3552 3552 3552
3542 3542 3542
3539 3539 3539
3569 3569 3569
3599 3599 3599
3748 3748 3748
3705 3705 3705
3669 3669 3669
3670 3670 3670
3659 3659 3659
3666 3666 3666
3675 3675 3675
3693 3693 3693
3702 3702 3702
3861 3861 3861
3839 3839 3839
3820 3820 3820
3801 3801 3801
3784 3784 3784
3783 3783 3783
3796 3796 3796
3805 3805 3805
3805 3805 3805
3944 3944 3944
3929 3929 3929
3922 3922 3922
3916 3916 3916
3907 3907 3907
3905 3905 3905
3903 3903 3903
3898 3898 3898
3893 3893 3893
4000 4000 4000
3996 3996 3996
3991 3991 3991
3990 3990 3990
3989 3989 3989
3990 3990 3990
3994 3994 3994
3985 3985 3985
3966 3966 3966
4040 4040 4040
4038 4038 4038
4040 4040 4040
4041 4041 4041
4044 4044 4044
4047 4047 4047
4052 4052 4052
4041 4041 4041
4029 4029 4029
3582 3582 3582
3548 3548 3548
3506 3506 3506
3471 3471 3471
3447 3447 3447
3400 3400 3400
3378 3378 3378
3356 3356 3356
3405 3405 3405
3628 3628 3628
3599 3599 3599
3575 3575 3575
3552 3552 3552
3528 3528 3528
3503 3503 3503
3476 3476 3476
3467 3467 3467
3511 3511 3511
3676 3676 3676
3662 3662 3662
3639 3639 3639
3627 3627 3627
3616 3616 3616
3601 3601 3601
3597 3597 3597
3588 3588 3588
3616 3616 3616
3743 3743 3743
3733 3733 3733
3723 3723 3723
3710 3710 3710
3710 3710 3710
3698 3698 3698
3694 3694 3694
3700 3700 3700
3722 3722 3722
3826 3826 3826
3801 3801 3801
3793 3793 3793
3795 3795 3795
3796 3796 3796
3801 3801 3801
3801 3801 3801
3806 3806 3806
3812 3812 3812
3918 3918 3918
3903 3903 3903
3885 3885 3885
3873 3873 3873
3879 3879 3879
3878 3878 3878
3888 3888 3888
3899 3899 3899
3898 3898 3898
3981 3981 3981
3973 3973 3973
3967 3967 3967
3964 3964 3964
3960 3960 3960
3958 3958 3958
3961 3961 3961
3972 3972 3972
3968 3968 3968
4024 4024 4024
4021 4021 4021
4018 4018 4018
4020 4020 4020
4021 4021 4021
4022 4022 4022
4027 4027 4027
4031 4031 4031
4022 4022 4022
4062 4062 4062
4061 4061 4061
4063 4063 4063
4065 4065 4065
4069 4069 4069
4073 4073 4073
4078 4078 4078
4084 4084 4084
4077 4077 4077
3737 3737 3737
3714 3714 3714
3691 3691 3691
3661 3661 3661
3639 3639 3639
3617 3617 3617
3592 3592 3592
3566 3566 3566
3550 3550 3550
3776 3776 3776
3751 3751 3751
3732 3732 3732
3708 3708 3708
3690 3690 3690
3681 3681 3681
3656 3656 3656
3648 3648 3648
3642 3642 3642
3800 3800 3800
3794 3794 3794
3780 3780 3780
3769 3769 3769
3761 3761 3761
3752 3752 3752
3741 3741 3741
3729 3729 3729
3731 3731 3731
3847 3847 3847
3837 3837 3837
3833 3833 3833
3823 3823 3823
3821 3821 3821
3820 3820 3820
3816 3816 3816
3821 3821 3821
3822 3822 3822
3892 3892 3892
3891 3891 3891
3889 3889 3889
3887 3887 3887
3884 3884 3884
3890 3890 3890
3889 3889 3889
3891 3891 3891
3899 3899 3899
3959 3959 3959
3949 3949 3949
3941 3941 3941
3940 3940 3940
3947 3947 3947
3951 3951 3951
3958 3958 3958
3962 3962 3962
3968 3968 3968
4010 4010 4010
4005 4005 4005
4002 4002 4002
3998 3998 3998
3996 3996 3996
4003 4003 4003
4005 4005 4005
4013 4013 4013
4022 4022 4022
4045 4045 4045
4045 4045 4045
4044 4044 4044
4046 4046 4046
4049 4049 4049
4052 4052 4052
4056 4056 4056
4061 4061 4061
4071 4071 4071
4078 4078 4078
4078 4078 4078
4081 4081 4081
4082 4082 4082
4087 4087 4087
4090 4090 4090
4093 4093 4093
4095 4095 4095
4095 4095 4095
