Black & White/BW - HiFi.3dl
#25pt 3DLUT created by 3D LUT Creator Pro (c) Oleg Sharonov
#Copyright Oleg Sharonov
#INPUTGAMMA sRGB IEC61966-2.1 v.2.10
#IMAGEPROFILE sRGB IEC61966-2.1 v.2.10
#OUTPUTGAMMA sRGB IEC61966-2.1 v.2.10
0 256 512 768 1023
0 0 0
155 155 155
697 697 697
1526 1526 1526
2155 2155 2155
834 834 834
1126 1126 1126
1297 1297 1297
1848 1848 1848
2268 2268 2268
2467 2467 2467
2556 2556 2556
2597 2597 2597
2582 2582 2582
2578 2578 2578
3385 3385 3385
3375 3375 3375
3344 3344 3344
3311 3311 3311
3259 3259 3259
3773 3773 3773
3739 3739 3739
3695 3695 3695
3637 3637 3637
3571 3571 3571
773 773 773
568 568 568
1344 1344 1344
2019 2019 2019
2505 2505 2505
2003 2003 2003
1415 1415 1415
2005 2005 2005
2395 2395 2395
2722 2722 2722
3137 3137 3137
2877 2877 2877
2934 2934 2934
2909 2909 2909
3044 3044 3044
3652 3652 3652
3577 3577 3577
3556 3556 3556
3516 3516 3516
3453 3453 3453
3906 3906 3906
3886 3886 3886
3851 3851 3851
3802 3802 3802
3745 3745 3745
2424 2424 2424
2228 2228 2228
2072 2072 2072
2510 2510 2510
2891 2891 2891
2836 2836 2836
2710 2710 2710
2659 2659 2659
2956 2956 2956
3160 3160 3160
3517 3517 3517
3385 3385 3385
3262 3262 3262
3366 3366 3366
3428 3428 3428
3835 3835 3835
3788 3788 3788
3755 3755 3755
3733 3733 3733
3682 3682 3682
3991 3991 3991
3982 3982 3982
3980 3980 3980
3952 3952 3952
3911 3911 3911
3357 3357 3357
3268 3268 3268
3157 3157 3157
3054 3054 3054
3268 3268 3268
3508 3508 3508
3453 3453 3453
3415 3415 3415
3391 3391 3391
3482 3482 3482
3748 3748 3748
3669 3669 3669
3659 3659 3659
3675 3675 3675
3702 3702 3702
3944 3944 3944
3922 3922 3922
3907 3907 3907
3903 3903 3903
3893 3893 3893
4040 4040 4040
4040 4040 4040
4044 4044 4044
4052 4052 4052
4029 4029 4029
3737 3737 3737
3691 3691 3691
3639 3639 3639
3592 3592 3592
3550 3550 3550
3800 3800 3800
3780 3780 3780
3761 3761 3761
3741 3741 3741
3731 3731 3731
3892 3892 3892
3889 3889 3889
3884 3884 3884
3889 3889 3889
3899 3899 3899
4010 4010 4010
4002 4002 4002
3996 3996 3996
4005 4005 4005
4022 4022 4022
4078 4078 4078
4081 4081 4081
4087 4087 4087
4093 4093 4093
4095 4095 4095
