Black & White/BW - Green channel & soft contrast.3dl
#25pt 3DLUT created by 3D LUT Creator Pro (c) Oleg Sharonov
#Copyright Oleg Sharonov
#IMAGEPROFILE sRGB IEC61966-2.1 v.2.10
#INPUTGAMMA sRGB IEC61966-2.1 v.2.10
#OUTPUTGAMMA sRGB IEC61966-2.1 v.2.10
0 43 86 128 171 214 256 299 341 384 427 469 512 555 597 640 682 725 768 810 853 896 938 981 1023 
184 184 184
184 184 184
184 184 184
184 184 184
184 184 184
184 184 184
184 184 184
184 184 184
184 184 184
184 184 184
184 184 184
184 184 184
184 184 184
184 184 184
184 184 184
184 184 184
184 184 184
184 184 184
184 184 184
184 184 184
184 184 184
184 184 184
184 184 184
184 184 184
184 184 184
193 193 193
193 193 193
193 193 193
193 193 193
193 193 193
193 193 193
193 193 193
193 193 193
193 193 193
193 193 193
193 193 193
193 193 193
193 193 193
193 193 193
193 193 193
193 193 193
193 193 193
193 193 193
193 193 193
193 193 193
193 193 193
193 193 193
193 193 193
193 193 193
193 193 193
247 247 247
247 247 247
247 247 247
247 247 247
247 247 247
247 247 247
247 247 247
247 247 247
247 247 247
247 247 247
247 247 247
247 247 247
247 247 247
247 247 247
247 247 247
247 247 247
247 247 247
247 247 247
247 247 247
247 247 247
247 247 247
247 247 247
247 247 247
247 247 247
247 247 247
338 338 338
338 338 338
338 338 338
338 338 338
338 338 338
338 338 338
338 338 338
338 338 338
338 338 338
338 338 338
338 338 338
338 338 338
338 338 338
338 338 338
338 338 338
338 338 338
338 338 338
338 338 338
338 338 338
338 338 338
338 338 338
338 338 338
338 338 338
338 338 338
338 338 338
465 465 465
465 465 465
465 465 465
465 465 465
465 465 465
465 465 465
465 465 465
465 465 465
465 465 465
465 465 465
465 465 465
465 465 465
465 465 465
465 465 465
465 465 465
465 465 465
465 465 465
465 465 465
465 465 465
465 465 465
465 465 465
465 465 465
465 465 465
465 465 465
465 465 465
627 627 627
627 627 627
627 627 627
627 627 627
627 627 627
627 627 627
627 627 627
627 627 627
627 627 627
627 627 627
627 627 627
627 627 627
627 627 627
627 627 627
627 627 627
627 627 627
627 627 627
627 627 627
627 627 627
627 627 627
627 627 627
627 627 627
627 627 627
627 627 627
627 627 627
820 820 820
820 820 820
820 820 820
820 820 820
820 820 820
820 820 820
820 820 820
820 820 820
820 820 820
820 820 820
820 820 820
820 820 820
820 820 820
820 820 820
820 820 820
820 820 820
820 820 820
820 820 820
820 820 820
820 820 820
820 820 820
820 820 820
820 820 820
820 820 820
820 820 820
1036 1036 1036
1036 1036 1036
1036 1036 1036
1036 1036 1036
1036 1036 1036
1036 1036 1036
1036 1036 1036
1036 1036 1036
1036 1036 1036
1036 1036 1036
1036 1036 1036
1036 1036 1036
1036 1036 1036
1036 1036 1036
1036 1036 1036
1036 1036 1036
1036 1036 1036
1036 1036 1036
1036 1036 1036
1036 1036 1036
1036 1036 1036
1036 1036 1036
1036 1036 1036
1036 1036 1036
1036 1036 1036
1270 1270 1270
1270 1270 1270
1270 1270 1270
1270 1270 1270
1270 1270 1270
1270 1270 1270
1270 1270 1270
1270 1270 1270
1270 1270 1270
1270 1270 1270
1270 1270 1270
1270 1270 1270
1270 1270 1270
1270 1270 1270
1270 1270 1270
1270 1270 1270
1270 1270 1270
1270 1270 1270
1271 1271 1271
1271 1271 1271
1271 1271 1271
1271 1271 1271
1271 1271 1271
1271 1271 1271
1271 1271 1271
1518 1518 1518
1518 1518 1518
1518 1518 1518
1518 1518 1518
1518 1518 1518
1518 1518 1518
1518 1518 1518
1518 1518 1518
1518 1518 1518
1518 1518 1518
1518 1518 1518
1518 1518 1518
1518 1518 1518
1518 1518 1518
1518 1518 1518
1518 1518 1518
1518 1518 1518
1518 1518 1518
1518 1518 1518
1518 1518 1518
1518 1518 1518
1518 1518 1518
1518 1518 1518
1518 1518 1518
1518 1518 1518
1772 1772 1772
1772 1772 1772
1772 1772 1772
1772 1772 1772
1772 1772 1772
1772 1772 1772
1772 1772 1772
1772 1772 1772
1772 1772 1772
1772 1772 1772
1772 1772 1772
1772 1772 1772
1772 1772 1772
1772 1772 1772
1772 1772 1772
1772 1772 1772
1772 1772 1772
1772 1772 1772
1772 1772 1772
1772 1772 1772
1772 1772 1772
1772 1772 1772
1772 1772 1772
1772 1772 1772
1772 1772 1772
2027 2027 2027
2027 2027 2027
2027 2027 2027
2027 2027 2027
2027 2027 2027
2027 2027 2027
2027 2027 2027
2027 2027 2027
2027 2027 2027
2027 2027 2027
2027 2027 2027
2027 2027 2027
2027 2027 2027
2027 2027 2027
2027 2027 2027
2027 2027 2027
2027 2027 2027
2027 2027 2027
2027 2027 2027
2027 2027 2027
2027 2027 2027
2027 2027 2027
2027 2027 2027
2027 2027 2027
2027 2027 2027
2277 2277 2277
2277 2277 2277
2277 2277 2277
2277 2277 2277
2277 2277 2277
2277 2277 2277
2277 2277 2277
2277 2277 2277
2277 2277 2277
2277 2277 2277
2277 2277 2277
2277 2277 2277
2277 2277 2277
2277 2277 2277
2277 2277 2277
2277 2277 2277
2277 2277 2277
2277 2277 2277
2277 2277 2277
2277 2277 2277
2277 2277 2277
2277 2277 2277
2277 2277 2277
2277 2277 2277
2277 2277 2277
2517 2517 2517
2517 2517 2517
2517 2517 2517
2517 2517 2517
2517 2517 2517
2517 2517 2517
2517 2517 2517
2517 2517 2517
2517 2517 2517
2517 2517 2517
2517 2517 2517
2517 2517 2517
2517 2517 2517
2517 2517 2517
2517 2517 2517
2517 2517 2517
2517 2517 2517
2517 2517 2517
2517 2517 2517
2517 2517 2517
2517 2517 2517
2517 2517 2517
2517 2517 2517
2517 2517 2517
2517 2517 2517
2741 2741 2741
2741 2741 2741
2741 2741 2741
2741 2741 2741
2741 2741 2741
2741 2741 2741
2741 2741 2741
2741 2741 2741
2741 2741 2741
2741 2741 2741
2741 2741 2741
2741 2741 2741
2741 2741 2741
2741 2741 2741
2741 2741 2741
2741 2741 2741
2741 2741 2741
2741 2741 2741
2741 2741 2741
2741 2741 2741
2741 2741 2741
2741 2741 2741
2741 2741 2741
2741 2741 2741
2741 2741 2741
2943 2943 2943
2943 2943 2943
2943 2943 2943
2943 2943 2943
2943 2943 2943
2943 2943 2943
2943 2943 2943
2943 2943 2943
2943 2943 2943
2943 2943 2943
2943 2943 2943
2943 2943 2943
2943 2943 2943
2943 2943 2943
2943 2943 2943
2943 2943 2943
2943 2943 2943
2943 2943 2943
2943 2943 2943
2943 2943 2943
2943 2943 2943
2943 2943 2943
2943 2943 2943
2943 2943 2943
2943 2943 2943
3118 3118 3118
3118 3118 3118
3118 3118 3118
3118 3118 3118
3118 3118 3118
3118 3118 3118
3118 3118 3118
3118 3118 3118
3118 3118 3118
3118 3118 3118
3118 3118 3118
3118 3118 3118
3118 3118 3118
3118 3118 3118
3118 3118 3118
3118 3118 3118
3118 3118 3118
3118 3118 3118
3118 3118 3118
3118 3118 3118
3118 3118 3118
3118 3118 3118
3118 3118 3118
3118 3118 3118
3118 3118 3118
3259 3259 3259
3259 3259 3259
3259 3259 3259
3259 3259 3259
3259 3259 3259
3259 3259 3259
3259 3259 3259
3259 3259 3259
3259 3259 3259
3259 3259 3259
3259 3259 3259
3259 3259 3259
3259 3259 3259
3259 3259 3259
3259 3259 3259
3259 3259 3259
3259 3259 3259
3259 3259 3259
3259 3259 3259
3259 3259 3259
3259 3259 3259
3259 3259 3259
3259 3259 3259
3259 3259 3259
3259 3259 3259
3364 3364 3364
3364 3364 3364
3364 3364 3364
3364 3364 3364
3364 3364 3364
3364 3364 3364
3364 3364 3364
3364 3364 3364
3364 3364 3364
3364 3364 3364
3364 3364 3364
3364 3364 3364
3364 3364 3364
3364 3364 3364
3364 3364 3364
3364 3364 3364
3364 3364 3364
3364 3364 3364
3364 3364 3364
3364 3364 3364
3364 3364 3364
3364 3364 3364
3364 3364 3364
3364 3364 3364
3364 3364 3364
3452 3452 3452
3452 3452 3452
3452 3452 3452
3452 3452 3452
3452 3452 3452
3452 3452 3452
3452 3452 3452
3452 3452 3452
3452 3452 3452
3452 3452 3452
3452 3452 3452
3452 3452 3452
3452 3452 3452
3452 3452 3452
3452 3452 3452
3452 3452 3452
3452 3452 3452
3452 3452 3452
3452 3452 3452
3452 3452 3452
3452 3452 3452
3452 3452 3452
3452 3452 3452
3452 3452 3452
3452 3452 3452
3524 3524 3524
3524 3524 3524
3524 3524 3524
3524 3524 3524
3524 3524 3524
3524 3524 3524
3524 3524 3524
3524 3524 3524
3524 3524 3524
3524 3524 3524
3524 3524 3524
3524 3524 3524
3524 3524 3524
3524 3524 3524
3524 3524 3524
3524 3524 3524
3524 3524 3524
3524 3524 3524
3524 3524 3524
3524 3524 3524
3524 3524 3524
3524 3524 3524
3524 3524 3524
3524 3524 3524
3524 3524 3524
3581 3581 3581
3581 3581 3581
3581 3581 3581
3581 3581 3581
3581 3581 3581
3581 3581 3581
3581 3581 3581
3581 3581 3581
3581 3581 3581
3581 3581 3581
3581 3581 3581
3581 3581 3581
3581 3581 3581
3581 3581 3581
3581 3581 3581
3581 3581 3581
3581 3581 3581
3581 3581 3581
3581 3581 3581
3581 3581 3581
3581 3581 3581
3581 3581 3581
3581 3581 3581
3581 3581 3581
3581 3581 3581
3618 3618 3618
3618 3618 3618
3618 3618 3618
3618 3618 3618
3618 3618 3618
3618 3618 3618
3618 3618 3618
3618 3618 3618
3618 3618 3618
3618 3618 3618
3618 3618 3618
3618 3618 3618
3618 3618 3618
3618 3618 3618
3618 3618 3618
3618 3618 3618
3618 3618 3618
3618 3618 3618
3618 3618 3618
3618 3618 3618
3618 3618 3618
3618 3618 3618
3618 3618 3618
3618 3618 3618
3618 3618 3618
3636 3636 3636
3636 3636 3636
3636 3636 3636
3636 3636 3636
3636 3636 3636
3636 3636 3636
3636 3636 3636
3636 3636 3636
3636 3636 3636
3636 3636 3636
3636 3636 3636
3636 3636 3636
3636 3636 3636
3636 3636 3636
3636 3636 3636
3636 3636 3636
3636 3636 3636
3636 3636 3636
3636 3636 3636
3636 3636 3636
3636 3636 3636
3636 3636 3636
3636 3636 3636
3636 3636 3636
3636 3636 3636
3630 3630 3630
3630 3630 3630
3630 3630 3630
3630 3630 3630
3630 3630 3630
3630 3630 3630
3630 3630 3630
3630 3630 3630
3630 3630 3630
3630 3630 3630
3630 3630 3630
3630 3630 3630
3630 3630 3630
3630 3630 3630
3630 3630 3630
3630 3630 3630
3630 3630 3630
3630 3630 3630
3630 3630 3630
3630 3630 3630
3630 3630 3630
3630 3630 3630
3630 3630 3630
3630 3630 3630
3630 3630 3630
184 184 184
184 184 184
184 184 184
184 184 184
184 184 184
184 184 184
184 184 184
184 184 184
184 184 184
184 184 184
184 184 184
184 184 184
184 184 184
184 184 184
184 184 184
184 184 184
184 184 184
184 184 184
184 184 184
184 184 184
184 184 184
184 184 184
184 184 184
184 184 184
184 184 184
193 193 193
193 193 193
193 193 193
193 193 193
193 193 193
193 193 193
193 193 193
193 193 193
193 193 193
193 193 193
193 193 193
193 193 193
193 193 193
193 193 193
193 193 193
193 193 193
193 193 193
193 193 193
193 193 193
193 193 193
193 193 193
193 193 193
193 193 193
193 193 193
193 193 193
247 247 247
247 247 247
247 247 247
247 247 247
247 247 247
247 247 247
247 247 247
247 247 247
247 247 247
247 247 247
247 247 247
247 247 247
247 247 247
247 247 247
247 247 247
247 247 247
247 247 247
247 247 247
247 247 247
247 247 247
247 247 247
247 247 247
247 247 247
247 247 247
247 247 247
338 338 338
338 338 338
338 338 338
338 338 338
338 338 338
338 338 338
338 338 338
338 338 338
338 338 338
338 338 338
338 338 338
338 338 338
338 338 338
338 338 338
338 338 338
338 338 338
338 338 338
338 338 338
338 338 338
338 338 338
338 338 338
338 338 338
338 338 338
338 338 338
338 338 338
465 465 465
465 465 465
465 465 465
465 465 465
465 465 465
465 465 465
465 465 465
465 465 465
465 465 465
465 465 465
465 465 465
465 465 465
465 465 465
465 465 465
465 465 465
465 465 465
465 465 465
465 465 465
465 465 465
465 465 465
465 465 465
465 465 465
465 465 465
465 465 465
465 465 465
627 627 627
627 627 627
627 627 627
627 627 627
627 627 627
627 627 627
627 627 627
627 627 627
627 627 627
627 627 627
627 627 627
627 627 627
627 627 627
627 627 627
627 627 627
627 627 627
627 627 627
627 627 627
627 627 627
627 627 627
627 627 627
627 627 627
627 627 627
627 627 627
627 627 627
820 820 820
820 820 820
820 820 820
820 820 820
820 820 820
820 820 820
820 820 820
820 820 820
820 820 820
820 820 820
820 820 820
820 820 820
820 820 820
820 820 820
820 820 820
820 820 820
820 820 820
820 820 820
820 820 820
820 820 820
820 820 820
820 820 820
820 820 820
820 820 820
820 820 820
1036 1036 1036
1036 1036 1036
1036 1036 1036
1036 1036 1036
1036 1036 1036
1036 1036 1036
1036 1036 1036
1036 1036 1036
1036 1036 1036
1036 1036 1036
1036 1036 1036
1036 1036 1036
1036 1036 1036
1036 1036 1036
1036 1036 1036
1036 1036 1036
1036 1036 1036
1036 1036 1036
1036 1036 1036
1036 1036 1036
1036 1036 1036
1036 1036 1036
1036 1036 1036
1036 1036 1036
1036 1036 1036
1270 1270 1270
1270 1270 1270
1270 1270 1270
1270 1270 1270
1270 1270 1270
1270 1270 1270
1270 1270 1270
1270 1270 1270
1270 1270 1270
1270 1270 1270
1270 1270 1270
1270 1270 1270
1270 1270 1270
1270 1270 1270
1270 1270 1270
1270 1270 1270
1270 1270 1270
1270 1270 1270
1271 1271 1271
1271 1271 1271
1271 1271 1271
1271 1271 1271
1271 1271 1271
1271 1271 1271
1271 1271 1271
1518 1518 1518
1518 1518 1518
1518 1518 1518
1518 1518 1518
1518 1518 1518
1518 1518 1518
1518 1518 1518
1518 1518 1518
1518 1518 1518
1518 1518 1518
1518 1518 1518
1518 1518 1518
1518 1518 1518
1518 1518 1518
1518 1518 1518
1518 1518 1518
1518 1518 1518
1518 1518 1518
1518 1518 1518
1518 1518 1518
1518 1518 1518
1518 1518 1518
1518 1518 1518
1518 1518 1518
1518 1518 1518
1772 1772 1772
1772 1772 1772
1772 1772 1772
1772 1772 1772
1772 1772 1772
1772 1772 1772
1772 1772 1772
1772 1772 1772
1772 1772 1772
1772 1772 1772
1772 1772 1772
1772 1772 1772
1772 1772 1772
1772 1772 1772
1772 1772 1772
1772 1772 1772
1772 1772 1772
1772 1772 1772
1772 1772 1772
1772 1772 1772
1772 1772 1772
1772 1772 1772
1772 1772 1772
1772 1772 1772
1772 1772 1772
