Tools/BW - CMYK Black Channel Lighter.3dl
#25pt 3DLUT created by 3D LUT Creator Pro (c) Oleg Sharonov
#Copyright Oleg Sharonov
#IMAGEPROFILE sRGB
#INPUTGAMMA sRGB
#OUTPUTGAMMA sRGB
0 43 86 128 171 214 256 299 341 384 427 469 512 555 597 640 682 725 768 810 853 896 938 981 1023 
0 0 0
493 493 493
946 946 946
1358 1358 1358
1733 1733 1733
2073 2073 2073
2378 2378 2378
2651 2651 2651
2894 2894 2894
3108 3108 3108
3295 3295 3295
3457 3457 3457
3595 3595 3595
3712 3712 3712
3810 3810 3810
3889 3889 3889
3953 3953 3953
4002 4002 4002
4039 4039 4039
4064 4064 4064
4081 4081 4081
4091 4091 4091
4095 4095 4095
4095 4095 4095
4095 4095 4095
493 493 493
493 493 493
946 946 946
1358 1358 1358
1733 1733 1733
2073 2073 2073
2378 2378 2378
2651 2651 2651
2894 2894 2894
3108 3108 3108
3295 3295 3295
3457 3457 3457
3595 3595 3595
3712 3712 3712
3810 3810 3810
3889 3889 3889
3953 3953 3953
4002 4002 4002
4039 4039 4039
4064 4064 4064
4081 4081 4081
4091 4091 4091
4095 4095 4095
4095 4095 4095
4095 4095 4095
946 946 946
946 946 946
946 946 946
1358 1358 1358
1733 1733 1733
2073 2073 2073
2378 2378 2378
2651 2651 2651
2894 2894 2894
3108 3108 3108
3295 3295 3295
3457 3457 3457
3595 3595 3595
3712 3712 3712
3810 3810 3810
3889 3889 3889
3953 3953 3953
4002 4002 4002
4039 4039 4039
4064 4064 4064
4081 4081 4081
4091 4091 4091
4095 4095 4095
4095 4095 4095
4095 4095 4095
1358 1358 1358
1358 1358 1358
1358 1358 1358
1358 1358 1358
1733 1733 1733
2073 2073 2073
2378 2378 2378
2651 2651 2651
2894 2894 2894
3108 3108 3108
3295 3295 3295
3457 3457 3457
3595 3595 3595
3712 3712 3712
3810 3810 3810
3889 3889 3889
3953 3953 3953
4002 4002 4002
4039 4039 4039
4064 4064 4064
4081 4081 4081
4091 4091 4091
4095 4095 4095
4095 4095 4095
4095 4095 4095
1733 1733 1733
1733 1733 1733
1733 1733 1733
1733 1733 1733
1733 1733 1733
2073 2073 2073
2378 2378 2378
2651 2651 2651
2894 2894 2894
3108 3108 3108
3295 3295 3295
3457 3457 3457
3595 3595 3595
3712 3712 3712
3810 3810 3810
3889 3889 3889
3953 3953 3953
4002 4002 4002
4039 4039 4039
4064 4064 4064
4081 4081 4081
4091 4091 4091
4095 4095 4095
4095 4095 4095
4095 4095 4095
2073 2073 2073
2073 2073 2073
2073 2073 2073
2073 2073 2073
2073 2073 2073
2073 2073 2073
2378 2378 2378
2651 2651 2651
2894 2894 2894
3108 3108 3108
3295 3295 3295
3457 3457 3457
3595 3595 3595
3712 3712 3712
3810 3810 3810
3889 3889 3889
3953 3953 3953
4002 4002 4002
4039 4039 4039
4064 4064 4064
4081 4081 4081
4091 4091 4091
4095 4095 4095
4095 4095 4095
4095 4095 4095
2378 2378 2378
2378 2378 2378
2378 2378 2378
2378 2378 2378
2378 2378 2378
2378 2378 2378
2378 2378 2378
2651 2651 2651
2894 2894 2894
3108 3108 3108
3295 3295 3295
3457 3457 3457
3595 3595 3595
3712 3712 3712
3810 3810 3810
3889 3889 3889
3953 3953 3953
4002 4002 4002
4039 4039 4039
4064 4064 4064
4081 4081 4081
4091 4091 4091
4095 4095 4095
4095 4095 4095
4095 4095 4095
2651 2651 2651
2651 2651 2651
2651 2651 2651
2651 2651 2651
2651 2651 2651
2651 2651 2651
2651 2651 2651
2651 2651 2651
2894 2894 2894
3108 3108 3108
3295 3295 3295
3457 3457 3457
3595 3595 3595
3712 3712 3712
3810 3810 3810
3889 3889 3889
3953 3953 3953
4002 4002 4002
4039 4039 4039
4064 4064 4064
4081 4081 4081
4091 4091 4091
4095 4095 4095
4095 4095 4095
4095 4095 4095
2894 2894 2894
2894 2894 2894
2894 2894 2894
2894 2894 2894
2894 2894 2894
2894 2894 2894
2894 2894 2894
2894 2894 2894
2894 2894 2894
3108 3108 3108
3295 3295 3295
3457 3457 3457
3595 3595 3595
3712 3712 3712
3810 3810 3810
3889 3889 3889
3953 3953 3953
4002 4002 4002
4039 4039 4039
4064 4064 4064
4081 4081 4081
4091 4091 4091
4095 4095 4095
4095 4095 4095
4095 4095 4095
3108 3108 3108
3108 3108 3108
3108 3108 3108
3108 3108 3108
3108 3108 3108
3108 3108 3108
3108 3108 3108
3108 3108 3108
3108 3108 3108
3108 3108 3108
3295 3295 3295
3457 3457 3457
3595 3595 3595
3712 3712 3712
3810 3810 3810
3889 3889 3889
3953 3953 3953
4002 4002 4002
4039 4039 4039
4064 4064 4064
4081 4081 4081
4091 4091 4091
4095 4095 4095
4095 4095 4095
4095 4095 4095
3295 3295 3295
3295 3295 3295
3295 3295 3295
3295 3295 3295
3295 3295 3295
3295 3295 3295
3295 3295 3295
3295 3295 3295
3295 3295 3295
3295 3295 3295
3295 3295 3295
3457 3457 3457
3595 3595 3595
3712 3712 3712
3810 3810 3810
3889 3889 3889
3953 3953 3953
4002 4002 4002
4039 4039 4039
4064 4064 4064
4081 4081 4081
4091 4091 4091
4095 4095 4095
4095 4095 4095
4095 4095 4095
3457 3457 3457
3457 3457 3457
3457 3457 3457
3457 3457 3457
3457 3457 3457
3457 3457 3457
3457 3457 3457
3457 3457 3457
3457 3457 3457
3457 3457 3457
3457 3457 3457
3457 3457 3457
3595 3595 3595
3712 3712 3712
3810 3810 3810
3889 3889 3889
3953 3953 3953
4002 4002 4002
4039 4039 4039
4064 4064 4064
4081 4081 4081
4091 4091 4091
4095 4095 4095
4095 4095 4095
4095 4095 4095
3595 3595 3595
3595 3595 3595
3595 3595 3595
3595 3595 3595
3595 3595 3595
3595 3595 3595
3595 3595 3595
3595 3595 3595
3595 3595 3595
3595 3595 3595
3595 3595 3595
3595 3595 3595
3595 3595 3595
3712 3712 3712
3810 3810 3810
3889 3889 3889
3953 3953 3953
4002 4002 4002
4039 4039 4039
4064 4064 4064
4081 4081 4081
4091 4091 4091
4095 4095 4095
4095 4095 4095
4095 4095 4095
3712 3712 3712
3712 3712 3712
3712 3712 3712
3712 3712 3712
3712 3712 3712
3712 3712 3712
3712 3712 3712
3712 3712 3712
3712 3712 3712
3712 3712 3712
3712 3712 3712
3712 3712 3712
3712 3712 3712
3712 3712 3712
3810 3810 3810
3889 3889 3889
3953 3953 3953
4002 4002 4002
4039 4039 4039
4064 4064 4064
4081 4081 4081
4091 4091 4091
4095 4095 4095
4095 4095 4095
4095 4095 4095
3810 3810 3810
3810 3810 3810
3810 3810 3810
3810 3810 3810
3810 3810 3810
3810 3810 3810
3810 3810 3810
3810 3810 3810
3810 3810 3810
3810 3810 3810
3810 3810 3810
3810 3810 3810
3810 3810 3810
3810 3810 3810
3810 3810 3810
3889 3889 3889
3953 3953 3953
4002 4002 4002
4039 4039 4039
4064 4064 4064
4081 4081 4081
4091 4091 4091
4095 4095 4095
4095 4095 4095
4095 4095 4095
3889 3889 3889
3889 3889 3889
3889 3889 3889
3889 3889 3889
3889 3889 3889
3889 3889 3889
3889 3889 3889
3889 3889 3889
3889 3889 3889
3889 3889 3889
3889 3889 3889
3889 3889 3889
3889 3889 3889
3889 3889 3889
3889 3889 3889
3889 3889 3889
3953 3953 3953
4002 4002 4002
4039 4039 4039
4064 4064 4064
4081 4081 4081
4091 4091 4091
4095 4095 4095
4095 4095 4095
4095 4095 4095
3953 3953 3953
3953 3953 3953
3953 3953 3953
3953 3953 3953
3953 3953 3953
3953 3953 3953
3953 3953 3953
3953 3953 3953
3953 3953 3953
3953 3953 3953
3953 3953 3953
3953 3953 3953
3953 3953 3953
3953 3953 3953
3953 3953 3953
3953 3953 3953
3953 3953 3953
4002 4002 4002
4039 4039 4039
4064 4064 4064
4081 4081 4081
4091 4091 4091
4095 4095 4095
4095 4095 4095
4095 4095 4095
4002 4002 4002
4002 4002 4002
4002 4002 4002
4002 4002 4002
4002 4002 4002
4002 4002 4002
4002 4002 4002
4002 4002 4002
4002 4002 4002
4002 4002 4002
4002 4002 4002
4002 4002 4002
4002 4002 4002
4002 4002 4002
4002 4002 4002
4002 4002 4002
4002 4002 4002
4002 4002 4002
4039 4039 4039
4064 4064 4064
4081 4081 4081
4091 4091 4091
4095 4095 4095
4095 4095 4095
4095 4095 4095
4039 4039 4039
4039 4039 4039
4039 4039 4039
4039 4039 4039
4039 4039 4039
4039 4039 4039
4039 4039 4039
4039 4039 4039
4039 4039 4039
4039 4039 4039
4039 4039 4039
4039 4039 4039
4039 4039 4039
4039 4039 4039
4039 4039 4039
4039 4039 4039
4039 4039 4039
4039 4039 4039
4039 4039 4039
4064 4064 4064
4081 4081 4081
4091 4091 4091
4095 4095 4095
4095 4095 4095
4095 4095 4095
4064 4064 4064
4064 4064 4064
4064 4064 4064
4064 4064 4064
4064 4064 4064
4064 4064 4064
4064 4064 4064
4064 4064 4064
4064 4064 4064
4064 4064 4064
4064 4064 4064
4064 4064 4064
4064 4064 4064
4064 4064 4064
4064 4064 4064
4064 4064 4064
4064 4064 4064
4064 4064 4064
4064 4064 4064
4064 4064 4064
4081 4081 4081
4091 4091 4091
4095 4095 4095
4095 4095 4095
4095 4095 4095
4081 4081 4081
4081 4081 4081
4081 4081 4081
4081 4081 4081
4081 4081 4081
4081 4081 4081
4081 4081 4081
4081 4081 4081
4081 4081 4081
4081 4081 4081
4081 4081 4081
4081 4081 4081
4081 4081 4081
4081 4081 4081
4081 4081 4081
4081 4081 4081
4081 4081 4081
4081 4081 4081
4081 4081 4081
4081 4081 4081
4081 4081 4081
4091 4091 4091
4095 4095 4095
4095 4095 4095
4095 4095 4095
4091 4091 4091
4091 4091 4091
4091 4091 4091
4091 4091 4091
4091 4091 4091
4091 4091 4091
4091 4091 4091
4091 4091 4091
4091 4091 4091
4091 4091 4091
4091 4091 4091
4091 4091 4091
4091 4091 4091
4091 4091 4091
4091 4091 4091
4091 4091 4091
4091 4091 4091
4091 4091 4091
4091 4091 4091
4091 4091 4091
4091 4091 4091
4091 4091 4091
4095 4095 4095
4095 4095 4095
4095 4095 4095
4095 4095 4095
4095 4095 4095
4095 4095 4095
4095 4095 4095
4095 4095 4095
4095 4095 4095
4095 4095 4095
4095 4095 4095
4095 4095 4095
4095 4095 4095
4095 4095 4095
4095 4095 4095
4095 4095 4095
4095 4095 4095
4095 4095 4095
4095 4095 4095
4095 4095 4095
4095 4095 4095
4095 4095 4095
4095 4095 4095
4095 4095 4095
4095 4095 4095
4095 4095 4095
4095 4095 4095
4095 4095 4095
4095 4095 4095
4095 4095 4095
4095 4095 4095
4095 4095 4095
4095 4095 4095
4095 4095 4095
4095 4095 4095
4095 4095 4095
4095 4095 4095
4095 4095 4095
4095 4095 4095
4095 4095 4095
4095 4095 4095
4095 4095 4095
4095 4095 4095
4095 4095 4095
4095 4095 4095
4095 4095 4095
4095 4095 4095
4095 4095 4095
4095 4095 4095
4095 4095 4095
4095 4095 4095
4095 4095 4095
4095 4095 4095
4095 4095 4095
4095 4095 4095
4095 4095 4095
4095 4095 4095
4095 4095 4095
4095 4095 4095
4095 4095 4095
4095 4095 4095
4095 4095 4095
4095 4095 4095
4095 4095 4095
4095 4095 4095
4095 4095 4095
4095 4095 4095
4095 4095 4095
4095 4095 4095
4095 4095 4095
4095 4095 4095
4095 4095 4095
4095 4095 4095
4095 4095 4095
4095 4095 4095
4095 4095 4095
4095 4095 4095
4095 4095 4095
493 493 493
493 493 493
946 946 946
1358 1358 1358
1733 1733 1733
2073 2073 2073
2378 2378 2378
2651 2651 2651
2894 2894 2894
3108 3108 3108
3295 3295 3295
3457 3457 3457
3595 3595 3595
3712 3712 3712
3810 3810 3810
3889 3889 3889
3953 3953 3953
4002 4002 4002
4039 4039 4039
4064 4064 4064
4081 4081 4081
4091 4091 4091
4095 4095 4095
4095 4095 4095
4095 4095 4095
493 493 493
171 171 171
946 946 946
1358 1358 1358
1733 1733 1733
2073 2073 2073
2378 2378 2378
2651 2651 2651
2894 2894 2894
3108 3108 3108
3295 3295 3295
3457 3457 3457
3595 3595 3595
3712 3712 3712
3810 3810 3810
3889 3889 3889
3953 3953 3953
4002 4002 4002
4039 4039 4039
4064 4064 4064
4081 4081 4081
4091 4091 4091
4095 4095 4095
4095 4095 4095
4095 4095 4095
946 946 946
946 946 946
946 946 946
1358 1358 1358
1733 1733 1733
2073 2073 2073
2378 2378 2378
2651 2651 2651
2894 2894 2894
3108 3108 3108
3295 3295 3295
3457 3457 3457
3595 3595 3595
3712 3712 3712
3810 3810 3810
3889 3889 3889
3953 3953 3953
4002 4002 4002
4039 4039 4039
4064 4064 4064
4081 4081 4081
4091 4091 4091
4095 4095 4095
4095 4095 4095
4095 4095 4095
1358 1358 1358
1358 1358 1358
1358 1358 1358
1358 1358 1358
1733 1733 1733
2073 2073 2073
2378 2378 2378
2651 2651 2651
2894 2894 2894
3108 3108 3108
3295 3295 3295
3457 3457 3457
3595 3595 3595
3712 3712 3712
3810 3810 3810
3889 3889 3889
3953 3953 3953
4002 4002 4002
4039 4039 4039
4064 4064 4064
4081 4081 4081
4091 4091 4091
4095 4095 4095
4095 4095 4095
4095 4095 4095
1733 1733 1733
1733 1733 1733
1733 1733 1733
1733 1733 1733
1733 1733 1733
2073 2073 2073
2378 2378 2378
2651 2651 2651
2894 2894 2894
3108 3108 3108
3295 3295 3295
3457 3457 3457
3595 3595 3595
3712 3712 3712
3810 3810 3810
3889 3889 3889
3953 3953 3953
4002 4002 4002
4039 4039 4039
4064 4064 4064
4081 4081 4081
4091 4091 4091
4095 4095 4095
4095 4095 4095
4095 4095 4095
2073 2073 2073
2073 2073 2073
2073 2073 2073
2073 2073 2073
2073 2073 2073
2073 2073 2073
2378 2378 2378
2651 2651 2651
2894 2894 2894
3108 3108 3108
3295 3295 3295
3457 3457 3457
3595 3595 3595
3712 3712 3712
3810 3810 3810
3889 3889 3889
3953 3953 3953
4002 4002 4002
4039 4039 4039
4064 4064 4064
4081 4081 4081
4091 4091 4091
4095 4095 4095
4095 4095 4095
4095 4095 4095
2378 2378 2378
2378 2378 2378
2378 2378 2378
2378 2378 2378
2378 2378 2378
2378 2378 2378
2378 2378 2378
2651 2651 2651
2894 2894 2894
3108 3108 3108
3295 3295 3295
3457 3457 3457
3595 3595 3595
3712 3712 3712
3810 3810 3810
3889 3889 3889
3953 3953 3953
4002 4002 4002
4039 4039 4039
4064 4064 4064
4081 4081 4081
4091 4091 4091
4095 4095 4095
4095 4095 4095
4095 4095 4095
2651 2651 2651
2651 2651 2651
2651 2651 2651
2651 2651 2651
2651 2651 2651
2651 2651 2651
2651 2651 2651
2651 2651 2651
2894 2894 2894
3108 3108 3108
3295 3295 3295
3457 3457 3457
3595 3595 3595
3712 3712 3712
3810 3810 3810
3889 3889 3889
3953 3953 3953
4002 4002 4002
4039 4039 4039
4064 4064 4064
4081 4081 4081
4091 4091 4091
4095 4095 4095
4095 4095 4095
4095 4095 4095
2894 2894 2894
2894 2894 2894
2894 2894 2894
2894 2894 2894
2894 2894 2894
2894 2894 2894
2894 2894 2894
2894 2894 2894
2894 2894 2894
3108 3108 3108
3295 3295 3295
3457 3457 3457
3595 3595 3595
3712 3712 3712
3810 3810 3810
3889 3889 3889
3953 3953 3953
4002 4002 4002
4039 4039 4039
4064 4064 4064
4081 4081 4081
4091 4091 4091
4095 4095 4095
4095 4095 4095
4095 4095 4095
3108 3108 3108
3108 3108 3108
3108 3108 3108
3108 3108 3108
3108 3108 3108
3108 3108 3108
3108 3108 3108
3108 3108 3108
3108 3108 3108
3108 3108 3108
3295 3295 3295
3457 3457 3457
3595 3595 3595
3712 3712 3712
3810 3810 3810
3889 3889 3889
3953 3953 3953
4002 4002 4002
4039 4039 4039
4064 4064 4064
4081 4081 4081
4091 4091 4091
4095 4095 4095
4095 4095 4095
4095 4095 4095
3295 3295 3295
3295 3295 3295
3295 3295 3295
3295 3295 3295
3295 3295 3295
3295 3295 3295
3295 3295 3295
3295 3295 3295
3295 3295 3295
3295 3295 3295
3295 3295 3295
3457 3457 3457
3595 3595 3595
3712 3712 3712
3810 3810 3810
3889 3889 3889
3953 3953 3953
4002 4002 4002
4039 4039 4039
4064 4064 4064
4081 4081 4081
4091 4091 4091
4095 4095 4095
4095 4095 4095
4095 4095 4095
