Tools/BW - CMYK Black Channel.3dl
#25pt 3DLUT created by 3D LUT Creator Pro (c) Oleg Sharonov
#Copyright Oleg Sharonov
#IMAGEPROFILE sRGB
#INPUTGAMMA sRGB
#OUTPUTGAMMA sRGB
0 256 512 768 1023
0 0 0
1024 1024 1024
2048 2048 2048
3071 3071 3071
4095 4095 4095
1024 1024 1024
1024 1024 1024
2048 2048 2048
3071 3071 3071
4095 4095 4095
2048 2048 2048
2048 2048 2048
2048 2048 2048
3071 3071 3071
4095 4095 4095
3071 3071 3071
3071 3071 3071
3071 3071 3071
3071 3071 3071
4095 4095 4095
4095 4095 4095
4095 4095 4095
4095 4095 4095
4095 4095 4095
4095 4095 4095
1024 1024 1024
1024 1024 1024
2048 2048 2048
3071 3071 3071
4095 4095 4095
1024 1024 1024
1024 1024 1024
2048 2048 2048
3071 3071 3071
4095 4095 4095
2048 2048 2048
2048 2048 2048
2048 2048 2048
3071 3071 3071
4095 4095 4095
3071 3071 3071
3071 3071 3071
3071 3071 3071
3071 3071 3071
4095 4095 4095
4095 4095 4095
4095 4095 4095
4095 4095 4095
4095 4095 4095
4095 4095 4095
2048 2048 2048
2048 2048 2048
2048 2048 2048
3071 3071 3071
4095 4095 4095
2048 2048 2048
2048 2048 2048
2048 2048 2048
3071 3071 3071
4095 4095 4095
2048 2048 2048
2048 2048 2048
2048 2048 2048
3071 3071 3071
4095 4095 4095
3071 3071 3071
3071 3071 3071
3071 3071 3071
3071 3071 3071
4095 4095 4095
4095 4095 4095
4095 4095 4095
4095 4095 4095
4095 4095 4095
4095 4095 4095
3071 3071 3071
3071 3071 3071
3071 3071 3071
3071 3071 3071
4095 4095 4095
3071 3071 3071
3071 3071 3071
3071 3071 3071
3071 3071 3071
4095 4095 4095
3071 3071 3071
3071 3071 3071
3071 3071 3071
3071 3071 3071
4095 4095 4095
3071 3071 3071
3071 3071 3071
3071 3071 3071
3071 3071 3071
4095 4095 4095
4095 4095 4095
4095 4095 4095
4095 4095 4095
4095 4095 4095
4095 4095 4095
4095 4095 4095
4095 4095 4095
4095 4095 4095
4095 4095 4095
4095 4095 4095
4095 4095 4095
4095 4095 4095
4095 4095 4095
4095 4095 4095
4095 4095 4095
4095 4095 4095
4095 4095 4095
4095 4095 4095
4095 4095 4095
4095 4095 4095
4095 4095 4095
4095 4095 4095
4095 4095 4095
4095 4095 4095
4095 4095 4095
4095 4095 4095
4095 4095 4095
4095 4095 4095
4095 4095 4095
4095 4095 4095
