Tools/BW - CMYK Black Channel Lighter.3dl
#25pt 3DLUT created by 3D LUT Creator Pro (c) Oleg Sharonov
#Copyright Oleg Sharonov
#IMAGEPROFILE sRGB
#INPUTGAMMA sRGB
#OUTPUTGAMMA sRGB
0 128 256 384 512 640 768 896 1023
0 0 0
1358 1358 1358
2378 2378 2378
3108 3108 3108
3595 3595 3595
3889 3889 3889
4039 4039 4039
4091 4091 4091
4095 4095 4095
1358 1358 1358
1358 1358 1358
2378 2378 2378
3108 3108 3108
3595 3595 3595
3889 3889 3889
4039 4039 4039
4091 4091 4091
4095 4095 4095
2378 2378 2378
2378 2378 2378
2378 2378 2378
3108 3108 3108
3595 3595 3595
3889 3889 3889
4039 4039 4039
4091 4091 4091
4095 4095 4095
3108 3108 3108
3108 3108 3108
3108 3108 3108
3108 3108 3108
3595 3595 3595
3889 3889 3889
4039 4039 4039
4091 4091 4091
4095 4095 4095
3595 3595 3595
3595 3595 3595
3595 3595 3595
3595 3595 3595
3595 3595 3595
3889 3889 3889
4039 4039 4039
4091 4091 4091
4095 4095 4095
3889 3889 3889
3889 3889 3889
3889 3889 3889
3889 3889 3889
3889 3889 3889
3889 3889 3889
4039 4039 4039
4091 4091 4091
4095 4095 4095
4039 4039 4039
4039 4039 4039
4039 4039 4039
4039 4039 4039
4039 4039 4039
4039 4039 4039
4039 4039 4039
4091 4091 4091
4095 4095 4095
4091 4091 4091
4091 4091 4091
4091 4091 4091
4091 4091 4091
4091 4091 4091
4091 4091 4091
4091 4091 4091
4091 4091 4091
4095 4095 4095
4095 4095 4095
4095 4095 4095
4095 4095 4095
4095 4095 4095
4095 4095 4095
4095 4095 4095
4095 4095 4095
4095 4095 4095
4095 4095 4095
1358 1358 1358
1358 1358 1358
2378 2378 2378
3108 3108 3108
3595 3595 3595
3889 3889 3889
4039 4039 4039
4091 4091 4091
4095 4095 4095
1358 1358 1358
512 512 512
2378 2378 2378
3108 3108 3108
3595 3595 3595
3889 3889 3889
4039 4039 4039
4091 4091 4091
4095 4095 4095
2378 2378 2378
2378 2378 2378
2378 2378 2378
3108 3108 3108
3595 3595 3595
3889 3889 3889
4039 4039 4039
4091 4091 4091
4095 4095 4095
3108 3108 3108
3108 3108 3108
3108 3108 3108
3108 3108 3108
3595 3595 3595
3889 3889 3889
4039 4039 4039
4091 4091 4091
4095 4095 4095
3595 3595 3595
3595 3595 3595
3595 3595 3595
3595 3595 3595
3595 3595 3595
3889 3889 3889
4039 4039 4039
4091 4091 4091
4095 4095 4095
3889 3889 3889
3889 3889 3889
3889 3889 3889
3889 3889 3889
3889 3889 3889
3889 3889 3889
4039 4039 4039
4091 4091 4091
4095 4095 4095
4039 4039 4039
4039 4039 4039
4039 4039 4039
4039 4039 4039
4039 4039 4039
4039 4039 4039
4039 4039 4039
4091 4091 4091
4095 4095 4095
4091 4091 4091
4091 4091 4091
4091 4091 4091
4091 4091 4091
4091 4091 4091
4091 4091 4091
4091 4091 4091
4091 4091 4091
4095 4095 4095
4095 4095 4095
4095 4095 4095
4095 4095 4095
4095 4095 4095
4095 4095 4095
4095 4095 4095
4095 4095 4095
4095 4095 4095
4095 4095 4095
2378 2378 2378
2378 2378 2378
2378 2378 2378
3108 3108 3108
3595 3595 3595
3889 3889 3889
4039 4039 4039
4091 4091 4091
4095 4095 4095
2378 2378 2378
2378 2378 2378
2378 2378 2378
3108 3108 3108
3595 3595 3595
3889 3889 3889
4039 4039 4039
4091 4091 4091
4095 4095 4095
2378 2378 2378
2378 2378 2378
1024 1024 1024
3103 3103 3103
3595 3595 3595
3889 3889 3889
4039 4039 4039
4091 4091 4091
4095 4095 4095
3108 3108 3108
3108 3108 3108
3108 3108 3108
3108 3108 3108
3595 3595 3595
3889 3889 3889
4039 4039 4039
4091 4091 4091
4095 4095 4095
3595 3595 3595
3595 3595 3595
3595 3595 3595
3595 3595 3595
3595 3595 3595
3889 3889 3889
4039 4039 4039
4091 4091 4091
4095 4095 4095
3889 3889 3889
3889 3889 3889
3889 3889 3889
3889 3889 3889
3889 3889 3889
3889 3889 3889
4039 4039 4039
4091 4091 4091
4095 4095 4095
4039 4039 4039
4039 4039 4039
4039 4039 4039
4039 4039 4039
4039 4039 4039
4039 4039 4039
4039 4039 4039
4091 4091 4091
4095 4095 4095
4091 4091 4091
4091 4091 4091
4091 4091 4091
4091 4091 4091
4091 4091 4091
4091 4091 4091
4091 4091 4091
4091 4091 4091
4095 4095 4095
4095 4095 4095
4095 4095 4095
4095 4095 4095
4095 4095 4095
4095 4095 4095
4095 4095 4095
4095 4095 4095
4095 4095 4095
4095 4095 4095
3108 3108 3108
3108 3108 3108
3108 3108 3108
3108 3108 3108
3595 3595 3595
3889 3889 3889
4039 4039 4039
4091 4091 4091
4095 4095 4095
3108 3108 3108
3108 3108 3108
3108 3108 3108
3108 3108 3108
3595 3595 3595
3889 3889 3889
4039 4039 4039
4091 4091 4091
4095 4095 4095
3108 3108 3108
3108 3108 3108
3108 3108 3108
3108 3108 3108
3595 3595 3595
3889 3889 3889
4039 4039 4039
4091 4091 4091
4095 4095 4095
3108 3108 3108
3108 3108 3108
3103 3103 3103
1536 1536 1536
3205 3205 3205
3889 3889 3889
4039 4039 4039
4091 4091 4091
4095 4095 4095
3595 3595 3595
3595 3595 3595
3595 3595 3595
3290 3290 3290
3290 3290 3290
3889 3889 3889
4039 4039 4039
4091 4091 4091
4095 4095 4095
3889 3889 3889
3889 3889 3889
3889 3889 3889
3889 3889 3889
3889 3889 3889
3889 3889 3889
4039 4039 4039
4091 4091 4091
4095 4095 4095
4039 4039 4039
4039 4039 4039
4039 4039 4039
4039 4039 4039
4039 4039 4039
4039 4039 4039
4039 4039 4039
4091 4091 4091
4095 4095 4095
4091 4091 4091
4091 4091 4091
4091 4091 4091
4091 4091 4091
4091 4091 4091
4091 4091 4091
4091 4091 4091
4091 4091 4091
4095 4095 4095
4095 4095 4095
4095 4095 4095
4095 4095 4095
4095 4095 4095
4095 4095 4095
4095 4095 4095
4095 4095 4095
4095 4095 4095
4095 4095 4095
3595 3595 3595
3595 3595 3595
3595 3595 3595
3595 3595 3595
3595 3595 3595
3889 3889 3889
4039 4039 4039
4091 4091 4091
4095 4095 4095
3595 3595 3595
3595 3595 3595
3595 3595 3595
3595 3595 3595
3595 3595 3595
3889 3889 3889
4039 4039 4039
4091 4091 4091
4095 4095 4095
3595 3595 3595
3595 3595 3595
3595 3595 3595
3595 3595 3595
3595 3595 3595
3889 3889 3889
4039 4039 4039
4091 4091 4091
4095 4095 4095
3595 3595 3595
3595 3595 3595
3595 3595 3595
3290 3290 3290
3290 3290 3290
3889 3889 3889
4039 4039 4039
4091 4091 4091
4095 4095 4095
3595 3595 3595
3595 3595 3595
3595 3595 3595
3205 3205 3205
2048 2048 2048
3355 3355 3355
4036 4036 4036
4091 4091 4091
4095 4095 4095
3889 3889 3889
3889 3889 3889
3889 3889 3889
3889 3889 3889
3413 3413 3413
3413 3413 3413
3968 3968 3968
4091 4091 4091
4095 4095 4095
4039 4039 4039
4039 4039 4039
4039 4039 4039
4039 4039 4039
4039 4039 4039
3907 3907 3907
4039 4039 4039
4091 4091 4091
4095 4095 4095
4091 4091 4091
4091 4091 4091
4091 4091 4091
4091 4091 4091
4091 4091 4091
4091 4091 4091
4091 4091 4091
4091 4091 4091
4095 4095 4095
4095 4095 4095
4095 4095 4095
4095 4095 4095
4095 4095 4095
4095 4095 4095
4095 4095 4095
4095 4095 4095
4095 4095 4095
4095 4095 4095
3889 3889 3889
3889 3889 3889
3889 3889 3889
3889 3889 3889
3889 3889 3889
3889 3889 3889
4039 4039 4039
4091 4091 4091
4095 4095 4095
3889 3889 3889
3889 3889 3889
3889 3889 3889
3889 3889 3889
3889 3889 3889
3889 3889 3889
4039 4039 4039
4091 4091 4091
4095 4095 4095
3889 3889 3889
3889 3889 3889
3889 3889 3889
3889 3889 3889
3889 3889 3889
3889 3889 3889
4039 4039 4039
4091 4091 4091
4095 4095 4095
3889 3889 3889
3889 3889 3889
3889 3889 3889
3889 3889 3889
3889 3889 3889
3889 3889 3889
4039 4039 4039
4091 4091 4091
4095 4095 4095
3889 3889 3889
3889 3889 3889
3889 3889 3889
3889 3889 3889
3413 3413 3413
3413 3413 3413
3968 3968 3968
4091 4091 4091
4095 4095 4095
3889 3889 3889
3889 3889 3889
3889 3889 3889
3889 3889 3889
3355 3355 3355
2559 2559 2559
3554 3554 3554
4017 4017 4017
4095 4095 4095
4039 4039 4039
4039 4039 4039
4039 4039 4039
4039 4039 4039
3968 3968 3968
3589 3589 3589
3589 3589 3589
3987 3987 3987
4095 4095 4095
4091 4091 4091
4091 4091 4091
4091 4091 4091
4091 4091 4091
4091 4091 4091
4049 4049 4049
3959 3959 3959
4049 4049 4049
4095 4095 4095
4095 4095 4095
4095 4095 4095
4095 4095 4095
4095 4095 4095
4095 4095 4095
4095 4095 4095
4095 4095 4095
4095 4095 4095
4095 4095 4095
4039 4039 4039
4039 4039 4039
4039 4039 4039
4039 4039 4039
4039 4039 4039
4039 4039 4039
4039 4039 4039
4091 4091 4091
4095 4095 4095
4039 4039 4039
4039 4039 4039
4039 4039 4039
4039 4039 4039
4039 4039 4039
4039 4039 4039
4039 4039 4039
4091 4091 4091
4095 4095 4095
4039 4039 4039
4039 4039 4039
4039 4039 4039
4039 4039 4039
4039 4039 4039
4039 4039 4039
4039 4039 4039
4091 4091 4091
4095 4095 4095
4039 4039 4039
4039 4039 4039
4039 4039 4039
4039 4039 4039
4039 4039 4039
4039 4039 4039
4039 4039 4039
4091 4091 4091
4095 4095 4095
4039 4039 4039
4039 4039 4039
4039 4039 4039
4039 4039 4039
4039 4039 4039
3907 3907 3907
4039 4039 4039
4091 4091 4091
4095 4095 4095
4039 4039 4039
4039 4039 4039
4039 4039 4039
4039 4039 4039
3968 3968 3968
3589 3589 3589
3589 3589 3589
3987 3987 3987
4095 4095 4095
4039 4039 4039
4039 4039 4039
4039 4039 4039
4039 4039 4039
4036 4036 4036
3554 3554 3554
3071 3071 3071
3800 3800 3800
4095 4095 4095
4091 4091 4091
4091 4091 4091
4091 4091 4091
4091 4091 4091
4091 4091 4091
3987 3987 3987
3816 3816 3816
3816 3816 3816
4095 4095 4095
4095 4095 4095
4095 4095 4095
4095 4095 4095
4095 4095 4095
4095 4095 4095
4095 4095 4095
4095 4095 4095
4095 4095 4095
4095 4095 4095
4091 4091 4091
4091 4091 4091
4091 4091 4091
4091 4091 4091
4091 4091 4091
4091 4091 4091
4091 4091 4091
4091 4091 4091
4095 4095 4095
4091 4091 4091
4091 4091 4091
4091 4091 4091
4091 4091 4091
4091 4091 4091
4091 4091 4091
4091 4091 4091
4091 4091 4091
4095 4095 4095
4091 4091 4091
4091 4091 4091
4091 4091 4091
4091 4091 4091
4091 4091 4091
4091 4091 4091
4091 4091 4091
4091 4091 4091
4095 4095 4095
4091 4091 4091
4091 4091 4091
4091 4091 4091
4091 4091 4091
4091 4091 4091
4091 4091 4091
4091 4091 4091
4091 4091 4091
4095 4095 4095
4091 4091 4091
4091 4091 4091
4091 4091 4091
4091 4091 4091
4091 4091 4091
4091 4091 4091
4091 4091 4091
4091 4091 4091
4095 4095 4095
4091 4091 4091
4091 4091 4091
4091 4091 4091
4091 4091 4091
4091 4091 4091
4049 4049 4049
3959 3959 3959
4049 4049 4049
4095 4095 4095
4091 4091 4091
4091 4091 4091
4091 4091 4091
4091 4091 4091
4091 4091 4091
3987 3987 3987
3816 3816 3816
3816 3816 3816
4095 4095 4095
4091 4091 4091
4091 4091 4091
4091 4091 4091
4091 4091 4091
4091 4091 4091
4017 4017 4017
3800 3800 3800
3583 3583 3583
4095 4095 4095
4095 4095 4095
4095 4095 4095
4095 4095 4095
4095 4095 4095
4095 4095 4095
4095 4095 4095
4095 4095 4095
4095 4095 4095
4095 4095 4095
4095 4095 4095
4095 4095 4095
4095 4095 4095
4095 4095 4095
4095 4095 4095
4095 4095 4095
4095 4095 4095
4095 4095 4095
4095 4095 4095
4095 4095 4095
4095 4095 4095
4095 4095 4095
4095 4095 4095
4095 4095 4095
4095 4095 4095
4095 4095 4095
4095 4095 4095
4095 4095 4095
4095 4095 4095
4095 4095 4095
4095 4095 4095
4095 4095 4095
4095 4095 4095
4095 4095 4095
4095 4095 4095
4095 4095 4095
4095 4095 4095
4095 4095 4095
4095 4095 4095
4095 4095 4095
4095 4095 4095
4095 4095 4095
4095 4095 4095
4095 4095 4095
4095 4095 4095
4095 4095 4095
4095 4095 4095
4095 4095 4095
4095 4095 4095
4095 4095 4095
4095 4095 4095
4095 4095 4095
4095 4095 4095
4095 4095 4095
4095 4095 4095
4095 4095 4095
4095 4095 4095
4095 4095 4095
4095 4095 4095
4095 4095 4095
4095 4095 4095
4095 4095 4095
4095 4095 4095
4095 4095 4095
4095 4095 4095
4095 4095 4095
4095 4095 4095
4095 4095 4095
4095 4095 4095
4095 4095 4095
4095 4095 4095
4095 4095 4095
4095 4095 4095
4095 4095 4095
4095 4095 4095
4095 4095 4095
4095 4095 4095
4095 4095 4095
4095 4095 4095
4095 4095 4095
4095 4095 4095
4095 4095 4095
4095 4095 4095
4095 4095 4095
4095 4095 4095
4095 4095 4095
4095 4095 4095
4095 4095 4095
4095 4095 4095
4095 4095 4095
4095 4095 4095
