Tools/BW - CMYK Black Channel Lighter.3dl
#25pt 3DLUT created by 3D LUT Creator Pro (c) Oleg Sharonov
#Copyright Oleg Sharonov
#IMAGEPROFILE sRGB
#INPUTGAMMA sRGB
#OUTPUTGAMMA sRGB
0 256 512 768 1023
0 0 0
2378 2378 2378
3595 3595 3595
4039 4039 4039
4095 4095 4095
2378 2378 2378
2378 2378 2378
3595 3595 3595
4039 4039 4039
4095 4095 4095
3595 3595 3595
3595 3595 3595
3595 3595 3595
4039 4039 4039
4095 4095 4095
4039 4039 4039
4039 4039 4039
4039 4039 4039
4039 4039 4039
4095 4095 4095
4095 4095 4095
4095 4095 4095
4095 4095 4095
4095 4095 4095
4095 4095 4095
2378 2378 2378
2378 2378 2378
3595 3595 3595
4039 4039 4039
4095 4095 4095
2378 2378 2378
1024 1024 1024
3595 3595 3595
4039 4039 4039
4095 4095 4095
3595 3595 3595
3595 3595 3595
3595 3595 3595
4039 4039 4039
4095 4095 4095
4039 4039 4039
4039 4039 4039
4039 4039 4039
4039 4039 4039
4095 4095 4095
4095 4095 4095
4095 4095 4095
4095 4095 4095
4095 4095 4095
4095 4095 4095
3595 3595 3595
3595 3595 3595
3595 3595 3595
4039 4039 4039
4095 4095 4095
3595 3595 3595
3595 3595 3595
3595 3595 3595
4039 4039 4039
4095 4095 4095
3595 3595 3595
3595 3595 3595
2048 2048 2048
4036 4036 4036
4095 4095 4095
4039 4039 4039
4039 4039 4039
4039 4039 4039
4039 4039 4039
4095 4095 4095
4095 4095 4095
4095 4095 4095
4095 4095 4095
4095 4095 4095
4095 4095 4095
4039 4039 4039
4039 4039 4039
4039 4039 4039
4039 4039 4039
4095 4095 4095
4039 4039 4039
4039 4039 4039
4039 4039 4039
4039 4039 4039
4095 4095 4095
4039 4039 4039
4039 4039 4039
4039 4039 4039
4039 4039 4039
4095 4095 4095
4039 4039 4039
4039 4039 4039
4036 4036 4036
3071 3071 3071
4095 4095 4095
4095 4095 4095
4095 4095 4095
4095 4095 4095
4095 4095 4095
4095 4095 4095
4095 4095 4095
4095 4095 4095
4095 4095 4095
4095 4095 4095
4095 4095 4095
4095 4095 4095
4095 4095 4095
4095 4095 4095
4095 4095 4095
4095 4095 4095
4095 4095 4095
4095 4095 4095
4095 4095 4095
4095 4095 4095
4095 4095 4095
4095 4095 4095
4095 4095 4095
4095 4095 4095
4095 4095 4095
4095 4095 4095
4095 4095 4095
4095 4095 4095
4095 4095 4095
4095 4095 4095
4095 4095 4095
