Tools/BW - CMYK Black Channel.3dl
#25pt 3DLUT created by 3D LUT Creator Pro (c) Oleg Sharonov
#Copyright Oleg Sharonov
#IMAGEPROFILE sRGB
#INPUTGAMMA sRGB
#OUTPUTGAMMA sRGB
0 43 86 128 171 214 256 299 341 384 427 469 512 555 597 640 682 725 768 810 853 896 938 981 1023 
0 0 0
171 171 171
341 341 341
512 512 512
683 683 683
853 853 853
1024 1024 1024
1194 1194 1194
1365 1365 1365
1536 1536 1536
1706 1706 1706
1877 1877 1877
2048 2048 2048
2218 2218 2218
2389 2389 2389
2559 2559 2559
2730 2730 2730
2901 2901 2901
3071 3071 3071
3242 3242 3242
3412 3412 3412
3583 3583 3583
3754 3754 3754
3924 3924 3924
4095 4095 4095
171 171 171
171 171 171
341 341 341
512 512 512
683 683 683
853 853 853
1024 1024 1024
1194 1194 1194
1365 1365 1365
1536 1536 1536
1706 1706 1706
1877 1877 1877
2048 2048 2048
2218 2218 2218
2389 2389 2389
2559 2559 2559
2730 2730 2730
2901 2901 2901
3071 3071 3071
3242 3242 3242
3412 3412 3412
3583 3583 3583
3754 3754 3754
3924 3924 3924
4095 4095 4095
341 341 341
341 341 341
341 341 341
512 512 512
683 683 683
853 853 853
1024 1024 1024
1194 1194 1194
1365 1365 1365
1536 1536 1536
1706 1706 1706
1877 1877 1877
2048 2048 2048
2218 2218 2218
2389 2389 2389
2559 2559 2559
2730 2730 2730
2901 2901 2901
3071 3071 3071
3242 3242 3242
3412 3412 3412
3583 3583 3583
3754 3754 3754
3924 3924 3924
4095 4095 4095
512 512 512
512 512 512
512 512 512
512 512 512
683 683 683
853 853 853
1024 1024 1024
1194 1194 1194
1365 1365 1365
1536 1536 1536
1706 1706 1706
1877 1877 1877
2048 2048 2048
2218 2218 2218
2389 2389 2389
2559 2559 2559
2730 2730 2730
2901 2901 2901
3071 3071 3071
3242 3242 3242
3412 3412 3412
3583 3583 3583
3754 3754 3754
3924 3924 3924
4095 4095 4095
683 683 683
683 683 683
683 683 683
683 683 683
683 683 683
853 853 853
1024 1024 1024
1194 1194 1194
1365 1365 1365
1536 1536 1536
1706 1706 1706
1877 1877 1877
2048 2048 2048
2218 2218 2218
2389 2389 2389
2559 2559 2559
2730 2730 2730
2901 2901 2901
3071 3071 3071
3242 3242 3242
3412 3412 3412
3583 3583 3583
3754 3754 3754
3924 3924 3924
4095 4095 4095
853 853 853
853 853 853
853 853 853
853 853 853
853 853 853
853 853 853
1024 1024 1024
1194 1194 1194
1365 1365 1365
1536 1536 1536
1706 1706 1706
1877 1877 1877
2048 2048 2048
2218 2218 2218
2389 2389 2389
2559 2559 2559
2730 2730 2730
2901 2901 2901
3071 3071 3071
3242 3242 3242
3412 3412 3412
3583 3583 3583
3754 3754 3754
3924 3924 3924
4095 4095 4095
1024 1024 1024
1024 1024 1024
1024 1024 1024
1024 1024 1024
1024 1024 1024
1024 1024 1024
1024 1024 1024
1194 1194 1194
1365 1365 1365
1536 1536 1536
1706 1706 1706
1877 1877 1877
2048 2048 2048
2218 2218 2218
2389 2389 2389
2559 2559 2559
2730 2730 2730
2901 2901 2901
3071 3071 3071
3242 3242 3242
3412 3412 3412
3583 3583 3583
3754 3754 3754
3924 3924 3924
4095 4095 4095
1194 1194 1194
1194 1194 1194
1194 1194 1194
1194 1194 1194
1194 1194 1194
1194 1194 1194
1194 1194 1194
1194 1194 1194
1365 1365 1365
1536 1536 1536
1706 1706 1706
1877 1877 1877
2048 2048 2048
2218 2218 2218
2389 2389 2389
2559 2559 2559
2730 2730 2730
2901 2901 2901
3071 3071 3071
3242 3242 3242
3412 3412 3412
3583 3583 3583
3754 3754 3754
3924 3924 3924
4095 4095 4095
1365 1365 1365
1365 1365 1365
1365 1365 1365
1365 1365 1365
1365 1365 1365
1365 1365 1365
1365 1365 1365
1365 1365 1365
1365 1365 1365
1536 1536 1536
1706 1706 1706
1877 1877 1877
2048 2048 2048
2218 2218 2218
2389 2389 2389
2559 2559 2559
2730 2730 2730
2901 2901 2901
3071 3071 3071
3242 3242 3242
3412 3412 3412
3583 3583 3583
3754 3754 3754
3924 3924 3924
4095 4095 4095
1536 1536 1536
1536 1536 1536
1536 1536 1536
1536 1536 1536
1536 1536 1536
1536 1536 1536
1536 1536 1536
1536 1536 1536
1536 1536 1536
1536 1536 1536
1706 1706 1706
1877 1877 1877
2048 2048 2048
2218 2218 2218
2389 2389 2389
2559 2559 2559
2730 2730 2730
2901 2901 2901
3071 3071 3071
3242 3242 3242
3412 3412 3412
3583 3583 3583
3754 3754 3754
3924 3924 3924
4095 4095 4095
1706 1706 1706
1706 1706 1706
1706 1706 1706
1706 1706 1706
1706 1706 1706
1706 1706 1706
1706 1706 1706
1706 1706 1706
1706 1706 1706
1706 1706 1706
1706 1706 1706
1877 1877 1877
2048 2048 2048
2218 2218 2218
2389 2389 2389
2559 2559 2559
2730 2730 2730
2901 2901 2901
3071 3071 3071
3242 3242 3242
3412 3412 3412
3583 3583 3583
3754 3754 3754
3924 3924 3924
4095 4095 4095
1877 1877 1877
1877 1877 1877
1877 1877 1877
1877 1877 1877
1877 1877 1877
1877 1877 1877
1877 1877 1877
1877 1877 1877
1877 1877 1877
1877 1877 1877
1877 1877 1877
1877 1877 1877
2048 2048 2048
2218 2218 2218
2389 2389 2389
2559 2559 2559
2730 2730 2730
2901 2901 2901
3071 3071 3071
3242 3242 3242
3412 3412 3412
3583 3583 3583
3754 3754 3754
3924 3924 3924
4095 4095 4095
2048 2048 2048
2048 2048 2048
2048 2048 2048
2048 2048 2048
2048 2048 2048
2048 2048 2048
2048 2048 2048
2048 2048 2048
2048 2048 2048
2048 2048 2048
2048 2048 2048
2048 2048 2048
2048 2048 2048
2218 2218 2218
2389 2389 2389
2559 2559 2559
2730 2730 2730
2901 2901 2901
3071 3071 3071
3242 3242 3242
3412 3412 3412
3583 3583 3583
3754 3754 3754
3924 3924 3924
4095 4095 4095
2218 2218 2218
2218 2218 2218
2218 2218 2218
2218 2218 2218
2218 2218 2218
2218 2218 2218
2218 2218 2218
2218 2218 2218
2218 2218 2218
2218 2218 2218
2218 2218 2218
2218 2218 2218
2218 2218 2218
2218 2218 2218
2389 2389 2389
2559 2559 2559
2730 2730 2730
2901 2901 2901
3071 3071 3071
3242 3242 3242
3412 3412 3412
3583 3583 3583
3754 3754 3754
3924 3924 3924
4095 4095 4095
2389 2389 2389
2389 2389 2389
2389 2389 2389
2389 2389 2389
2389 2389 2389
2389 2389 2389
2389 2389 2389
2389 2389 2389
2389 2389 2389
2389 2389 2389
2389 2389 2389
2389 2389 2389
2389 2389 2389
2389 2389 2389
2389 2389 2389
2559 2559 2559
2730 2730 2730
2901 2901 2901
3071 3071 3071
3242 3242 3242
3412 3412 3412
3583 3583 3583
3754 3754 3754
3924 3924 3924
4095 4095 4095
2559 2559 2559
2559 2559 2559
2559 2559 2559
2559 2559 2559
2559 2559 2559
2559 2559 2559
2559 2559 2559
2559 2559 2559
2559 2559 2559
2559 2559 2559
2559 2559 2559
2559 2559 2559
2559 2559 2559
2559 2559 2559
2559 2559 2559
2559 2559 2559
2730 2730 2730
2901 2901 2901
3071 3071 3071
3242 3242 3242
3412 3412 3412
3583 3583 3583
3754 3754 3754
3924 3924 3924
4095 4095 4095
2730 2730 2730
2730 2730 2730
2730 2730 2730
2730 2730 2730
2730 2730 2730
2730 2730 2730
2730 2730 2730
2730 2730 2730
2730 2730 2730
2730 2730 2730
2730 2730 2730
2730 2730 2730
2730 2730 2730
2730 2730 2730
2730 2730 2730
2730 2730 2730
2730 2730 2730
2901 2901 2901
3071 3071 3071
3242 3242 3242
3412 3412 3412
3583 3583 3583
3754 3754 3754
3924 3924 3924
4095 4095 4095
2901 2901 2901
2901 2901 2901
2901 2901 2901
2901 2901 2901
2901 2901 2901
2901 2901 2901
2901 2901 2901
2901 2901 2901
2901 2901 2901
2901 2901 2901
2901 2901 2901
2901 2901 2901
2901 2901 2901
2901 2901 2901
2901 2901 2901
2901 2901 2901
2901 2901 2901
2901 2901 2901
3071 3071 3071
3242 3242 3242
3412 3412 3412
3583 3583 3583
3754 3754 3754
3924 3924 3924
4095 4095 4095
3071 3071 3071
3071 3071 3071
3071 3071 3071
3071 3071 3071
3071 3071 3071
3071 3071 3071
3071 3071 3071
3071 3071 3071
3071 3071 3071
3071 3071 3071
3071 3071 3071
3071 3071 3071
3071 3071 3071
3071 3071 3071
3071 3071 3071
3071 3071 3071
3071 3071 3071
3071 3071 3071
3071 3071 3071
3242 3242 3242
3412 3412 3412
3583 3583 3583
3754 3754 3754
3924 3924 3924
4095 4095 4095
3242 3242 3242
3242 3242 3242
3242 3242 3242
3242 3242 3242
3242 3242 3242
3242 3242 3242
3242 3242 3242
3242 3242 3242
3242 3242 3242
3242 3242 3242
3242 3242 3242
3242 3242 3242
3242 3242 3242
3242 3242 3242
3242 3242 3242
3242 3242 3242
3242 3242 3242
3242 3242 3242
3242 3242 3242
3242 3242 3242
3412 3412 3412
3583 3583 3583
3754 3754 3754
3924 3924 3924
4095 4095 4095
3412 3412 3412
3412 3412 3412
3412 3412 3412
3412 3412 3412
3412 3412 3412
3412 3412 3412
3412 3412 3412
3412 3412 3412
3412 3412 3412
3412 3412 3412
3412 3412 3412
3412 3412 3412
3412 3412 3412
3412 3412 3412
3412 3412 3412
3412 3412 3412
3412 3412 3412
3412 3412 3412
3412 3412 3412
3412 3412 3412
3412 3412 3412
3583 3583 3583
3754 3754 3754
3924 3924 3924
4095 4095 4095
3583 3583 3583
3583 3583 3583
3583 3583 3583
3583 3583 3583
3583 3583 3583
3583 3583 3583
3583 3583 3583
3583 3583 3583
3583 3583 3583
3583 3583 3583
3583 3583 3583
3583 3583 3583
3583 3583 3583
3583 3583 3583
3583 3583 3583
3583 3583 3583
3583 3583 3583
3583 3583 3583
3583 3583 3583
3583 3583 3583
3583 3583 3583
3583 3583 3583
3754 3754 3754
3924 3924 3924
4095 4095 4095
3754 3754 3754
3754 3754 3754
3754 3754 3754
3754 3754 3754
3754 3754 3754
3754 3754 3754
3754 3754 3754
3754 3754 3754
3754 3754 3754
3754 3754 3754
3754 3754 3754
3754 3754 3754
3754 3754 3754
3754 3754 3754
3754 3754 3754
3754 3754 3754
3754 3754 3754
3754 3754 3754
3754 3754 3754
3754 3754 3754
3754 3754 3754
3754 3754 3754
3754 3754 3754
3924 3924 3924
4095 4095 4095
3924 3924 3924
3924 3924 3924
3924 3924 3924
3924 3924 3924
3924 3924 3924
3924 3924 3924
3924 3924 3924
3924 3924 3924
3924 3924 3924
3924 3924 3924
3924 3924 3924
3924 3924 3924
3924 3924 3924
3924 3924 3924
3924 3924 3924
3924 3924 3924
3924 3924 3924
3924 3924 3924
3924 3924 3924
3924 3924 3924
3924 3924 3924
3924 3924 3924
3924 3924 3924
3924 3924 3924
4095 4095 4095
4095 4095 4095
4095 4095 4095
4095 4095 4095
4095 4095 4095
4095 4095 4095
4095 4095 4095
4095 4095 4095
4095 4095 4095
4095 4095 4095
4095 4095 4095
4095 4095 4095
4095 4095 4095
4095 4095 4095
4095 4095 4095
4095 4095 4095
4095 4095 4095
4095 4095 4095
4095 4095 4095
4095 4095 4095
4095 4095 4095
4095 4095 4095
4095 4095 4095
4095 4095 4095
4095 4095 4095
4095 4095 4095
171 171 171
171 171 171
341 341 341
512 512 512
683 683 683
853 853 853
1024 1024 1024
1194 1194 1194
1365 1365 1365
1536 1536 1536
1706 1706 1706
1877 1877 1877
2048 2048 2048
2218 2218 2218
2389 2389 2389
2559 2559 2559
2730 2730 2730
2901 2901 2901
3071 3071 3071
3242 3242 3242
3412 3412 3412
3583 3583 3583
3754 3754 3754
3924 3924 3924
4095 4095 4095
171 171 171
171 171 171
341 341 341
512 512 512
683 683 683
853 853 853
1024 1024 1024
1194 1194 1194
1365 1365 1365
1536 1536 1536
1706 1706 1706
1877 1877 1877
2048 2048 2048
2218 2218 2218
2389 2389 2389
2559 2559 2559
2730 2730 2730
2901 2901 2901
3071 3071 3071
3242 3242 3242
3412 3412 3412
3583 3583 3583
3754 3754 3754
3924 3924 3924
4095 4095 4095
341 341 341
341 341 341
341 341 341
512 512 512
683 683 683
853 853 853
1024 1024 1024
1194 1194 1194
1365 1365 1365
1536 1536 1536
1706 1706 1706
1877 1877 1877
2048 2048 2048
2218 2218 2218
2389 2389 2389
2559 2559 2559
2730 2730 2730
2901 2901 2901
3071 3071 3071
3242 3242 3242
3412 3412 3412
3583 3583 3583
3754 3754 3754
3924 3924 3924
4095 4095 4095
512 512 512
512 512 512
512 512 512
512 512 512
683 683 683
853 853 853
1024 1024 1024
1194 1194 1194
1365 1365 1365
1536 1536 1536
1706 1706 1706
1877 1877 1877
2048 2048 2048
2218 2218 2218
2389 2389 2389
2559 2559 2559
2730 2730 2730
2901 2901 2901
3071 3071 3071
3242 3242 3242
3412 3412 3412
3583 3583 3583
3754 3754 3754
3924 3924 3924
4095 4095 4095
683 683 683
683 683 683
683 683 683
683 683 683
683 683 683
853 853 853
1024 1024 1024
1194 1194 1194
1365 1365 1365
1536 1536 1536
1706 1706 1706
1877 1877 1877
2048 2048 2048
2218 2218 2218
2389 2389 2389
2559 2559 2559
2730 2730 2730
2901 2901 2901
3071 3071 3071
3242 3242 3242
3412 3412 3412
3583 3583 3583
3754 3754 3754
3924 3924 3924
4095 4095 4095
853 853 853
853 853 853
853 853 853
853 853 853
853 853 853
853 853 853
1024 1024 1024
1194 1194 1194
1365 1365 1365
1536 1536 1536
1706 1706 1706
1877 1877 1877
2048 2048 2048
2218 2218 2218
2389 2389 2389
2559 2559 2559
2730 2730 2730
2901 2901 2901
3071 3071 3071
3242 3242 3242
3412 3412 3412
3583 3583 3583
3754 3754 3754
3924 3924 3924
4095 4095 4095
1024 1024 1024
1024 1024 1024
1024 1024 1024
1024 1024 1024
1024 1024 1024
1024 1024 1024
1024 1024 1024
1194 1194 1194
1365 1365 1365
1536 1536 1536
1706 1706 1706
1877 1877 1877
2048 2048 2048
2218 2218 2218
2389 2389 2389
2559 2559 2559
2730 2730 2730
2901 2901 2901
3071 3071 3071
3242 3242 3242
3412 3412 3412
3583 3583 3583
3754 3754 3754
3924 3924 3924
4095 4095 4095
1194 1194 1194
1194 1194 1194
1194 1194 1194
1194 1194 1194
1194 1194 1194
1194 1194 1194
1194 1194 1194
1194 1194 1194
1365 1365 1365
1536 1536 1536
1706 1706 1706
1877 1877 1877
2048 2048 2048
2218 2218 2218
2389 2389 2389
2559 2559 2559
2730 2730 2730
2901 2901 2901
3071 3071 3071
3242 3242 3242
3412 3412 3412
3583 3583 3583
3754 3754 3754
3924 3924 3924
4095 4095 4095
1365 1365 1365
1365 1365 1365
1365 1365 1365
1365 1365 1365
1365 1365 1365
1365 1365 1365
1365 1365 1365
1365 1365 1365
1365 1365 1365
1536 1536 1536
1706 1706 1706
1877 1877 1877
2048 2048 2048
2218 2218 2218
2389 2389 2389
2559 2559 2559
2730 2730 2730
2901 2901 2901
3071 3071 3071
3242 3242 3242
3412 3412 3412
3583 3583 3583
3754 3754 3754
3924 3924 3924
4095 4095 4095
1536 1536 1536
1536 1536 1536
1536 1536 1536
1536 1536 1536
1536 1536 1536
1536 1536 1536
1536 1536 1536
1536 1536 1536
1536 1536 1536
1536 1536 1536
1706 1706 1706
1877 1877 1877
2048 2048 2048
2218 2218 2218
2389 2389 2389
2559 2559 2559
2730 2730 2730
2901 2901 2901
3071 3071 3071
3242 3242 3242
3412 3412 3412
3583 3583 3583
3754 3754 3754
3924 3924 3924
4095 4095 4095
1706 1706 1706
1706 1706 1706
1706 1706 1706
1706 1706 1706
1706 1706 1706
1706 1706 1706
1706 1706 1706
1706 1706 1706
1706 1706 1706
1706 1706 1706
1706 1706 1706
1877 1877 1877
2048 2048 2048
2218 2218 2218
2389 2389 2389
2559 2559 2559
2730 2730 2730
2901 2901 2901
3071 3071 3071
3242 3242 3242
3412 3412 3412
3583 3583 3583
3754 3754 3754
3924 3924 3924
4095 4095 4095
