Tools/False Colors - Saturation.3dl
#25pt 3DLUT created by 3D LUT Creator Pro (c) Oleg Sharonov
#Copyright Oleg Sharonov
#IMAGEPROFILE sRGB IEC61966-2.1 v.2.10
#INPUTGAMMA sRGB IEC61966-2.1 v.2.10
#OUTPUTGAMMA sRGB IEC61966-2.1 v.2.10
0 128 256 384 512 640 768 896 1023
0 0 0
4095 56 56
4095 56 56
4095 56 56
4095 56 56
4095 56 56
4095 56 56
4095 56 56
4095 56 56
4095 56 56
4095 56 56
4095 56 56
4095 56 56
4095 56 56
4095 56 56
4095 56 56
4095 56 56
4095 56 56
4095 56 56
4095 56 56
4095 56 56
4095 56 56
4095 56 56
4095 56 56
4095 56 56
4095 56 56
4095 56 56
4095 56 56
4095 56 56
4095 56 56
4095 56 56
4095 56 56
4095 56 56
4095 56 56
4095 56 56
4095 56 56
4095 56 56
4095 56 56
4095 56 56
4095 56 56
4095 56 56
4095 56 56
4095 56 56
4095 56 56
4095 56 56
4095 56 56
4095 56 56
4095 56 56
4095 56 56
4095 56 56
4095 56 56
4095 56 56
4095 56 56
4095 56 56
4095 56 56
4095 56 56
4095 56 56
4095 56 56
4095 56 56
4095 56 56
4095 56 56
4095 56 56
4095 56 56
4095 56 56
4095 56 56
4095 56 56
4095 56 56
4095 56 56
4095 56 56
4095 56 56
4095 56 56
4095 56 56
4095 56 56
4095 56 56
4095 56 56
4095 56 56
4095 56 56
4095 56 56
4095 56 56
4095 56 56
4095 56 56
4095 56 56
4095 56 56
4095 56 56
4095 56 56
4095 56 56
4095 56 56
4095 56 56
4095 56 56
4095 56 56
4095 56 56
0 0 0
4088 4088 627
4095 2347 27
4095 1301 40
4095 798 47
4095 528 50
4095 372 52
4095 273 53
4095 56 56
4088 4088 627
4088 4088 627
4095 2347 27
4095 1301 40
4095 798 47
4095 528 50
4095 372 52
4095 273 53
4095 56 56
4095 2347 27
4095 2347 27
4095 2347 27
4095 1301 40
4095 798 47
4095 528 50
4095 372 52
4095 273 53
4095 56 56
4095 1301 40
4095 1301 40
4095 1301 40
4095 1301 40
4095 798 47
4095 528 50
4095 372 52
4095 273 53
4095 56 56
4095 798 47
4095 798 47
4095 798 47
4095 798 47
4095 798 47
4095 528 50
4095 372 52
4095 273 53
4095 56 56
4095 528 50
4095 528 50
4095 528 50
4095 528 50
4095 528 50
4095 528 50
4095 372 52
4095 273 53
4095 56 56
4095 372 52
4095 372 52
4095 372 52
4095 372 52
4095 372 52
4095 372 52
4095 372 52
4095 273 53
4095 56 56
4095 273 53
4095 273 53
4095 273 53
4095 273 53
4095 273 53
4095 273 53
4095 273 53
4095 273 53
4095 56 56
4095 56 56
4095 56 56
4095 56 56
4095 56 56
4095 56 56
4095 56 56
4095 56 56
4095 56 56
4095 56 56
4088 4088 627
4088 4088 627
4095 2347 27
4095 1301 40
4095 798 47
4095 528 50
4095 372 52
4095 273 53
4095 56 56
4088 4088 627
0 0 0
3456 3532 3511
4095 3888 3
4095 2721 22
4095 1875 33
4095 1337 40
4095 988 44
4095 56 56
4095 2347 27
3456 3532 3511
3456 3532 3511
4095 3888 3
4095 2721 22
4095 1875 33
4095 1337 40
4095 988 44
4095 56 56
4095 1301 40
4095 3888 3
4095 3888 3
4095 3888 3
4095 2721 22
4095 1875 33
4095 1337 40
4095 988 44
4095 56 56
4095 798 47
4095 2721 22
4095 2721 22
4095 2721 22
4095 2721 22
4095 1875 33
4095 1337 40
4095 988 44
4095 56 56
4095 528 50
4095 1875 33
4095 1875 33
4095 1875 33
4095 1875 33
4095 1875 33
4095 1337 40
4095 988 44
4095 56 56
4095 372 52
4095 1337 40
4095 1337 40
4095 1337 40
4095 1337 40
4095 1337 40
4095 1337 40
4095 988 44
4095 56 56
4095 273 53
4095 988 44
4095 988 44
4095 988 44
4095 988 44
4095 988 44
4095 988 44
4095 988 44
4095 56 56
4095 56 56
4095 56 56
4095 56 56
4095 56 56
4095 56 56
4095 56 56
4095 56 56
4095 56 56
4095 56 56
4095 2347 27
4095 2347 27
4095 2347 27
4095 1301 40
4095 798 47
4095 528 50
4095 372 52
4095 273 53
4095 56 56
4095 2347 27
3456 3532 3511
3456 3532 3511
4095 3888 3
4095 2721 22
4095 1875 33
4095 1337 40
4095 988 44
4095 56 56
4095 2347 27
3456 3532 3511
0 0 0
2487 2403 4062
4075 4075 1771
4095 3739 6
4095 2895 19
4095 2212 28
4095 56 56
4095 1301 40
4095 3888 3
2487 2403 4062
2487 2403 4062
4075 4075 1771
4095 3739 6
4095 2895 19
4095 2212 28
4095 56 56
4095 798 47
4095 2721 22
4075 4075 1771
4075 4075 1771
4075 4075 1771
4095 3739 6
4095 2895 19
4095 2212 28
4095 56 56
4095 528 50
4095 1875 33
4095 3739 6
4095 3739 6
4095 3739 6
4095 3739 6
4095 2895 19
4095 2212 28
4095 56 56
4095 372 52
4095 1337 40
4095 2895 19
4095 2895 19
4095 2895 19
4095 2895 19
4095 2895 19
4095 2212 28
4095 56 56
4095 273 53
4095 988 44
4095 2212 28
4095 2212 28
4095 2212 28
4095 2212 28
4095 2212 28
4095 2212 28
4095 56 56
4095 56 56
4095 56 56
4095 56 56
4095 56 56
4095 56 56
4095 56 56
4095 56 56
4095 56 56
4095 56 56
4095 1301 40
4095 1301 40
4095 1301 40
4095 1301 40
4095 798 47
4095 528 50
4095 372 52
4095 273 53
4095 56 56
4095 1301 40
4095 3888 3
4095 3888 3
4095 3888 3
4095 2721 22
4095 1875 33
4095 1337 40
4095 988 44
4095 56 56
4095 1301 40
4095 3888 3
2487 2403 4062
2487 2403 4062
4075 4075 1771
4095 3739 6
4095 2895 19
4095 2212 28
4095 56 56
4095 1301 40
4095 3888 3
2487 2403 4062
0 0 0
1777 1644 3863
3695 3775 3143
4086 4086 805
4095 3654 8
4095 56 56
4095 798 47
4095 2721 22
4075 4075 1771
1777 1644 3863
1777 1644 3863
3695 3775 3143
4086 4086 805
4095 3654 8
4095 56 56
4095 528 50
4095 1875 33
4095 3739 6
3695 3775 3143
3695 3775 3143
3695 3775 3143
4086 4086 805
4095 3654 8
4095 56 56
4095 372 52
4095 1337 40
4095 2895 19
4086 4086 805
4086 4086 805
4086 4086 805
4086 4086 805
4095 3654 8
4095 56 56
4095 273 53
4095 988 44
4095 2212 28
4095 3654 8
4095 3654 8
4095 3654 8
4095 3654 8
4095 3654 8
4095 56 56
4095 56 56
4095 56 56
4095 56 56
4095 56 56
4095 56 56
4095 56 56
4095 56 56
4095 56 56
4095 56 56
4095 798 47
4095 798 47
4095 798 47
4095 798 47
4095 798 47
4095 528 50
4095 372 52
4095 273 53
4095 56 56
4095 798 47
4095 2721 22
4095 2721 22
4095 2721 22
4095 2721 22
4095 1875 33
4095 1337 40
4095 988 44
4095 56 56
4095 798 47
4095 2721 22
4075 4075 1771
4075 4075 1771
4075 4075 1771
4095 3739 6
4095 2895 19
4095 2212 28
4095 56 56
4095 798 47
4095 2721 22
4075 4075 1771
1777 1644 3863
1777 1644 3863
3695 3775 3143
4086 4086 805
4095 3654 8
4095 56 56
4095 798 47
4095 2721 22
4075 4075 1771
1777 1644 3863
0 0 0
1266 1273 3529
3159 3215 3818
4071 4071 2090
4095 56 56
4095 528 50
4095 1875 33
4095 3739 6
3695 3775 3143
1266 1273 3529
1266 1273 3529
3159 3215 3818
4071 4071 2090
4095 56 56
4095 372 52
4095 1337 40
4095 2895 19
4086 4086 805
3159 3215 3818
3159 3215 3818
3159 3215 3818
4071 4071 2090
4095 56 56
4095 273 53
4095 988 44
4095 2212 28
4095 3654 8
4071 4071 2090
4071 4071 2090
4071 4071 2090
4071 4071 2090
4095 56 56
4095 56 56
4095 56 56
4095 56 56
4095 56 56
4095 56 56
4095 56 56
4095 56 56
4095 56 56
4095 56 56
4095 528 50
4095 528 50
4095 528 50
4095 528 50
4095 528 50
4095 528 50
4095 372 52
4095 273 53
4095 56 56
4095 528 50
4095 1875 33
4095 1875 33
4095 1875 33
4095 1875 33
4095 1875 33
4095 1337 40
4095 988 44
4095 56 56
4095 528 50
4095 1875 33
4095 3739 6
4095 3739 6
4095 3739 6
4095 3739 6
4095 2895 19
4095 2212 28
4095 56 56
4095 528 50
4095 1875 33
4095 3739 6
3695 3775 3143
3695 3775 3143
3695 3775 3143
4086 4086 805
4095 3654 8
4095 56 56
4095 528 50
4095 1875 33
4095 3739 6
3695 3775 3143
1266 1273 3529
1266 1273 3529
3159 3215 3818
4071 4071 2090
4095 56 56
4095 528 50
4095 1875 33
4095 3739 6
3695 3775 3143
1266 1273 3529
0 0 0
887 1064 3202
2676 2632 4050
4095 56 56
4095 372 52
4095 1337 40
4095 2895 19
4086 4086 805
3159 3215 3818
887 1064 3202
887 1064 3202
2676 2632 4050
4095 56 56
4095 273 53
4095 988 44
4095 2212 28
4095 3654 8
4071 4071 2090
2676 2632 4050
2676 2632 4050
2676 2632 4050
4095 56 56
4095 56 56
4095 56 56
4095 56 56
4095 56 56
4095 56 56
4095 56 56
4095 56 56
4095 56 56
4095 56 56
4095 372 52
4095 372 52
4095 372 52
4095 372 52
4095 372 52
4095 372 52
4095 372 52
4095 273 53
4095 56 56
4095 372 52
4095 1337 40
4095 1337 40
4095 1337 40
4095 1337 40
4095 1337 40
4095 1337 40
4095 988 44
4095 56 56
4095 372 52
4095 1337 40
4095 2895 19
4095 2895 19
4095 2895 19
4095 2895 19
4095 2895 19
4095 2212 28
4095 56 56
4095 372 52
4095 1337 40
4095 2895 19
4086 4086 805
4086 4086 805
4086 4086 805
4086 4086 805
4095 3654 8
4095 56 56
4095 372 52
4095 1337 40
4095 2895 19
4086 4086 805
3159 3215 3818
3159 3215 3818
3159 3215 3818
4071 4071 2090
4095 56 56
4095 372 52
4095 1337 40
4095 2895 19
4086 4086 805
3159 3215 3818
887 1064 3202
887 1064 3202
2676 2632 4050
4095 56 56
4095 372 52
4095 1337 40
4095 2895 19
4086 4086 805
3159 3215 3818
887 1064 3202
0 0 0
596 911 2913
4095 56 56
4095 273 53
4095 988 44
4095 2212 28
4095 3654 8
4071 4071 2090
2676 2632 4050
596 911 2913
596 911 2913
4095 56 56
4095 56 56
4095 56 56
4095 56 56
4095 56 56
4095 56 56
4095 56 56
4095 56 56
4095 56 56
4095 56 56
4095 273 53
4095 273 53
4095 273 53
4095 273 53
4095 273 53
4095 273 53
4095 273 53
4095 273 53
4095 56 56
4095 273 53
4095 988 44
4095 988 44
4095 988 44
4095 988 44
4095 988 44
4095 988 44
4095 988 44
4095 56 56
4095 273 53
4095 988 44
4095 2212 28
4095 2212 28
4095 2212 28
4095 2212 28
4095 2212 28
4095 2212 28
4095 56 56
4095 273 53
4095 988 44
4095 2212 28
4095 3654 8
4095 3654 8
4095 3654 8
4095 3654 8
4095 3654 8
4095 56 56
4095 273 53
4095 988 44
4095 2212 28
4095 3654 8
4071 4071 2090
4071 4071 2090
4071 4071 2090
4071 4071 2090
4095 56 56
4095 273 53
4095 988 44
4095 2212 28
4095 3654 8
4071 4071 2090
2676 2632 4050
2676 2632 4050
2676 2632 4050
4095 56 56
4095 273 53
4095 988 44
4095 2212 28
4095 3654 8
4071 4071 2090
2676 2632 4050
596 911 2913
596 911 2913
4095 56 56
4095 273 53
4095 988 44
4095 2212 28
4095 3654 8
4071 4071 2090
2676 2632 4050
596 911 2913
0 0 0
