Tools/False Colors - Saturation.3dl
#25pt 3DLUT created by 3D LUT Creator Pro (c) Oleg Sharonov
#Copyright Oleg Sharonov
#IMAGEPROFILE sRGB IEC61966-2.1 v.2.10
#INPUTGAMMA sRGB IEC61966-2.1 v.2.10
#OUTPUTGAMMA sRGB IEC61966-2.1 v.2.10
0 43 86 128 171 214 256 299 341 384 427 469 512 555 597 640 682 725 768 810 853 896 938 981 1023 
0 0 0
4095 56 56
4095 56 56
4095 56 56
4095 56 56
4095 56 56
4095 56 56
4095 56 56
4095 56 56
4095 56 56
4095 56 56
4095 56 56
4095 56 56
4095 56 56
4095 56 56
4095 56 56
4095 56 56
4095 56 56
4095 56 56
4095 56 56
4095 56 56
4095 56 56
4095 56 56
4095 56 56
4095 56 56
4095 56 56
4095 56 56
4095 56 56
4095 56 56
4095 56 56
4095 56 56
4095 56 56
4095 56 56
4095 56 56
4095 56 56
4095 56 56
4095 56 56
4095 56 56
4095 56 56
4095 56 56
4095 56 56
4095 56 56
4095 56 56
4095 56 56
4095 56 56
4095 56 56
4095 56 56
4095 56 56
4095 56 56
4095 56 56
4095 56 56
4095 56 56
4095 56 56
4095 56 56
4095 56 56
4095 56 56
4095 56 56
4095 56 56
4095 56 56
4095 56 56
4095 56 56
4095 56 56
4095 56 56
4095 56 56
4095 56 56
4095 56 56
4095 56 56
4095 56 56
4095 56 56
4095 56 56
4095 56 56
4095 56 56
4095 56 56
4095 56 56
4095 56 56
4095 56 56
4095 56 56
4095 56 56
4095 56 56
4095 56 56
4095 56 56
4095 56 56
4095 56 56
4095 56 56
4095 56 56
4095 56 56
4095 56 56
4095 56 56
4095 56 56
4095 56 56
4095 56 56
4095 56 56
4095 56 56
4095 56 56
4095 56 56
4095 56 56
4095 56 56
4095 56 56
4095 56 56
4095 56 56
4095 56 56
4095 56 56
4095 56 56
4095 56 56
4095 56 56
4095 56 56
4095 56 56
4095 56 56
4095 56 56
4095 56 56
4095 56 56
4095 56 56
4095 56 56
4095 56 56
4095 56 56
4095 56 56
4095 56 56
4095 56 56
4095 56 56
4095 56 56
4095 56 56
4095 56 56
4095 56 56
4095 56 56
4095 56 56
4095 56 56
4095 56 56
4095 56 56
4095 56 56
4095 56 56
4095 56 56
4095 56 56
4095 56 56
4095 56 56
4095 56 56
4095 56 56
4095 56 56
4095 56 56
4095 56 56
4095 56 56
4095 56 56
4095 56 56
4095 56 56
4095 56 56
4095 56 56
4095 56 56
4095 56 56
4095 56 56
4095 56 56
4095 56 56
4095 56 56
4095 56 56
4095 56 56
4095 56 56
4095 56 56
4095 56 56
4095 56 56
4095 56 56
4095 56 56
4095 56 56
4095 56 56
4095 56 56
4095 56 56
4095 56 56
4095 56 56
4095 56 56
4095 56 56
4095 56 56
4095 56 56
4095 56 56
4095 56 56
4095 56 56
4095 56 56
4095 56 56
4095 56 56
4095 56 56
4095 56 56
4095 56 56
4095 56 56
4095 56 56
4095 56 56
4095 56 56
4095 56 56
4095 56 56
4095 56 56
4095 56 56
4095 56 56
4095 56 56
4095 56 56
4095 56 56
4095 56 56
4095 56 56
4095 56 56
4095 56 56
4095 56 56
4095 56 56
4095 56 56
4095 56 56
4095 56 56
4095 56 56
4095 56 56
4095 56 56
4095 56 56
4095 56 56
4095 56 56
4095 56 56
4095 56 56
4095 56 56
4095 56 56
4095 56 56
4095 56 56
4095 56 56
4095 56 56
4095 56 56
4095 56 56
4095 56 56
4095 56 56
4095 56 56
4095 56 56
4095 56 56
4095 56 56
4095 56 56
4095 56 56
4095 56 56
4095 56 56
4095 56 56
4095 56 56
4095 56 56
4095 56 56
4095 56 56
4095 56 56
4095 56 56
4095 56 56
4095 56 56
4095 56 56
4095 56 56
4095 56 56
4095 56 56
4095 56 56
4095 56 56
4095 56 56
4095 56 56
4095 56 56
4095 56 56
4095 56 56
4095 56 56
4095 56 56
4095 56 56
4095 56 56
4095 56 56
4095 56 56
4095 56 56
4095 56 56
4095 56 56
4095 56 56
4095 56 56
4095 56 56
4095 56 56
4095 56 56
4095 56 56
4095 56 56
4095 56 56
4095 56 56
4095 56 56
4095 56 56
4095 56 56
4095 56 56
4095 56 56
4095 56 56
4095 56 56
4095 56 56
4095 56 56
4095 56 56
4095 56 56
4095 56 56
4095 56 56
4095 56 56
4095 56 56
4095 56 56
4095 56 56
4095 56 56
4095 56 56
4095 56 56
4095 56 56
4095 56 56
4095 56 56
4095 56 56
4095 56 56
4095 56 56
4095 56 56
4095 56 56
4095 56 56
4095 56 56
4095 56 56
4095 56 56
4095 56 56
4095 56 56
4095 56 56
4095 56 56
4095 56 56
4095 56 56
4095 56 56
4095 56 56
4095 56 56
4095 56 56
4095 56 56
4095 56 56
4095 56 56
4095 56 56
4095 56 56
4095 56 56
4095 56 56
4095 56 56
4095 56 56
4095 56 56
4095 56 56
4095 56 56
4095 56 56
4095 56 56
4095 56 56
4095 56 56
4095 56 56
4095 56 56
4095 56 56
4095 56 56
4095 56 56
4095 56 56
4095 56 56
4095 56 56
4095 56 56
4095 56 56
4095 56 56
4095 56 56
4095 56 56
4095 56 56
4095 56 56
4095 56 56
4095 56 56
4095 56 56
4095 56 56
4095 56 56
4095 56 56
4095 56 56
4095 56 56
4095 56 56
4095 56 56
4095 56 56
4095 56 56
4095 56 56
4095 56 56
4095 56 56
4095 56 56
4095 56 56
4095 56 56
4095 56 56
4095 56 56
4095 56 56
4095 56 56
4095 56 56
4095 56 56
4095 56 56
4095 56 56
4095 56 56
4095 56 56
4095 56 56
4095 56 56
4095 56 56
4095 56 56
4095 56 56
4095 56 56
4095 56 56
4095 56 56
4095 56 56
4095 56 56
4095 56 56
4095 56 56
4095 56 56
4095 56 56
4095 56 56
4095 56 56
4095 56 56
4095 56 56
4095 56 56
4095 56 56
4095 56 56
4095 56 56
4095 56 56
4095 56 56
4095 56 56
4095 56 56
4095 56 56
4095 56 56
4095 56 56
4095 56 56
4095 56 56
4095 56 56
4095 56 56
4095 56 56
4095 56 56
4095 56 56
4095 56 56
4095 56 56
4095 56 56
4095 56 56
4095 56 56
4095 56 56
4095 56 56
4095 56 56
4095 56 56
4095 56 56
4095 56 56
4095 56 56
4095 56 56
4095 56 56
4095 56 56
4095 56 56
4095 56 56
4095 56 56
4095 56 56
4095 56 56
4095 56 56
4095 56 56
4095 56 56
4095 56 56
4095 56 56
4095 56 56
4095 56 56
4095 56 56
4095 56 56
4095 56 56
4095 56 56
4095 56 56
4095 56 56
4095 56 56
4095 56 56
4095 56 56
4095 56 56
4095 56 56
4095 56 56
4095 56 56
4095 56 56
4095 56 56
4095 56 56
4095 56 56
4095 56 56
4095 56 56
4095 56 56
4095 56 56
4095 56 56
4095 56 56
4095 56 56
4095 56 56
4095 56 56
4095 56 56
4095 56 56
4095 56 56
4095 56 56
4095 56 56
4095 56 56
4095 56 56
4095 56 56
4095 56 56
4095 56 56
4095 56 56
4095 56 56
4095 56 56
4095 56 56
4095 56 56
4095 56 56
4095 56 56
4095 56 56
4095 56 56
4095 56 56
4095 56 56
4095 56 56
4095 56 56
4095 56 56
4095 56 56
4095 56 56
4095 56 56
4095 56 56
4095 56 56
4095 56 56
4095 56 56
4095 56 56
4095 56 56
4095 56 56
4095 56 56
4095 56 56
4095 56 56
4095 56 56
4095 56 56
4095 56 56
4095 56 56
4095 56 56
4095 56 56
4095 56 56
4095 56 56
4095 56 56
4095 56 56
4095 56 56
4095 56 56
4095 56 56
4095 56 56
4095 56 56
4095 56 56
4095 56 56
4095 56 56
4095 56 56
4095 56 56
4095 56 56
4095 56 56
4095 56 56
4095 56 56
4095 56 56
4095 56 56
4095 56 56
4095 56 56
4095 56 56
4095 56 56
4095 56 56
4095 56 56
4095 56 56
4095 56 56
4095 56 56
4095 56 56
4095 56 56
4095 56 56
4095 56 56
4095 56 56
4095 56 56
4095 56 56
4095 56 56
4095 56 56
4095 56 56
4095 56 56
4095 56 56
4095 56 56
4095 56 56
4095 56 56
4095 56 56
4095 56 56
4095 56 56
4095 56 56
4095 56 56
4095 56 56
4095 56 56
4095 56 56
4095 56 56
4095 56 56
4095 56 56
4095 56 56
4095 56 56
4095 56 56
4095 56 56
4095 56 56
4095 56 56
4095 56 56
4095 56 56
4095 56 56
4095 56 56
4095 56 56
4095 56 56
4095 56 56
4095 56 56
4095 56 56
4095 56 56
4095 56 56
4095 56 56
4095 56 56
4095 56 56
4095 56 56
4095 56 56
4095 56 56
4095 56 56
4095 56 56
4095 56 56
4095 56 56
4095 56 56
4095 56 56
4095 56 56
4095 56 56
4095 56 56
4095 56 56
4095 56 56
4095 56 56
4095 56 56
4095 56 56
4095 56 56
4095 56 56
4095 56 56
4095 56 56
4095 56 56
4095 56 56
4095 56 56
4095 56 56
4095 56 56
4095 56 56
4095 56 56
4095 56 56
4095 56 56
4095 56 56
4095 56 56
4095 56 56
4095 56 56
4095 56 56
4095 56 56
4095 56 56
4095 56 56
4095 56 56
4095 56 56
4095 56 56
4095 56 56
4095 56 56
4095 56 56
4095 56 56
4095 56 56
4095 56 56
4095 56 56
4095 56 56
4095 56 56
4095 56 56
4095 56 56
4095 56 56
4095 56 56
4095 56 56
4095 56 56
4095 56 56
4095 56 56
4095 56 56
4095 56 56
4095 56 56
4095 56 56
4095 56 56
4095 56 56
4095 56 56
4095 56 56
4095 56 56
4095 56 56
4095 56 56
4095 56 56
4095 56 56
4095 56 56
4095 56 56
4095 56 56
4095 56 56
4095 56 56
4095 56 56
4095 56 56
4095 56 56
4095 56 56
0 0 0
3583 3663 3331
4095 3769 6
4095 2565 24
4095 1743 35
4095 1232 41
4095 905 45
4095 687 48
4095 535 50
4095 428 51
4095 348 52
4095 287 53
4095 239 54
4095 202 54
4095 173 54
4095 149 55
4095 130 55
4095 113 55
4095 99 55
4095 87 55
4095 78 56
4095 69 56
4095 62 56
4095 56 56
4095 56 56
3583 3663 3331
3583 3663 3331
4095 3769 6
4095 2565 24
4095 1743 35
4095 1232 41
4095 905 45
4095 687 48
4095 535 50
4095 428 51
4095 348 52
4095 287 53
4095 239 54
4095 202 54
4095 173 54
4095 149 55
4095 130 55
4095 113 55
4095 99 55
4095 87 55
4095 78 56
4095 69 56
4095 62 56
4095 56 56
4095 56 56
4095 3769 6
4095 3769 6
4095 3769 6
4095 2565 24
4095 1743 35
4095 1232 41
4095 905 45
4095 687 48
4095 535 50
4095 428 51
4095 348 52
4095 287 53
4095 239 54
4095 202 54
4095 173 54
4095 149 55
4095 130 55
4095 113 55
4095 99 55
4095 87 55
4095 78 56
4095 69 56
4095 62 56
4095 56 56
4095 56 56
4095 2565 24
4095 2565 24
4095 2565 24
4095 2565 24
4095 1743 35
4095 1232 41
4095 905 45
4095 687 48
4095 535 50
4095 428 51
4095 348 52
4095 287 53
4095 239 54
4095 202 54
4095 173 54
4095 149 55
4095 130 55
4095 113 55
4095 99 55
4095 87 55
4095 78 56
4095 69 56
4095 62 56
4095 56 56
4095 56 56
4095 1743 35
4095 1743 35
4095 1743 35
4095 1743 35
4095 1743 35
4095 1232 41
4095 905 45
4095 687 48
4095 535 50
4095 428 51
4095 348 52
4095 287 53
4095 239 54
4095 202 54
4095 173 54
4095 149 55
4095 130 55
4095 113 55
4095 99 55
4095 87 55
4095 78 56
4095 69 56
4095 62 56
4095 56 56
4095 56 56
4095 1232 41
4095 1232 41
4095 1232 41
4095 1232 41
4095 1232 41
4095 1232 41
4095 905 45
4095 687 48
4095 535 50
4095 428 51
4095 348 52
4095 287 53
4095 239 54
4095 202 54
4095 173 54
4095 149 55
4095 130 55
4095 113 55
4095 99 55
4095 87 55
4095 78 56
4095 69 56
4095 62 56
4095 56 56
4095 56 56
4095 905 45
4095 905 45
4095 905 45
4095 905 45
4095 905 45
4095 905 45
4095 905 45
4095 687 48
4095 535 50
4095 428 51
4095 348 52
4095 287 53
4095 239 54
4095 202 54
4095 173 54
4095 149 55
4095 130 55
4095 113 55
4095 99 55
4095 87 55
4095 78 56
4095 69 56
4095 62 56
4095 56 56
4095 56 56
4095 687 48
4095 687 48
4095 687 48
4095 687 48
4095 687 48
4095 687 48
4095 687 48
4095 687 48
4095 535 50
4095 428 51
4095 348 52
4095 287 53
4095 239 54
4095 202 54
4095 173 54
4095 149 55
4095 130 55
4095 113 55
4095 99 55
4095 87 55
4095 78 56
4095 69 56
4095 62 56
4095 56 56
4095 56 56
4095 535 50
4095 535 50
4095 535 50
4095 535 50
4095 535 50
4095 535 50
4095 535 50
4095 535 50
4095 535 50
4095 428 51
4095 348 52
4095 287 53
4095 239 54
4095 202 54
4095 173 54
4095 149 55
4095 130 55
4095 113 55
4095 99 55
4095 87 55
4095 78 56
4095 69 56
4095 62 56
4095 56 56
4095 56 56
4095 428 51
4095 428 51
4095 428 51
4095 428 51
4095 428 51
4095 428 51
4095 428 51
4095 428 51
4095 428 51
4095 428 51
4095 348 52
4095 287 53
4095 239 54
4095 202 54
4095 173 54
4095 149 55
4095 130 55
4095 113 55
4095 99 55
4095 87 55
4095 78 56
4095 69 56
4095 62 56
4095 56 56
