Tools/False Colors - Saturation.3dl
#25pt 3DLUT created by 3D LUT Creator Pro (c) Oleg Sharonov
#Copyright Oleg Sharonov
#IMAGEPROFILE sRGB IEC61966-2.1 v.2.10
#INPUTGAMMA sRGB IEC61966-2.1 v.2.10
#OUTPUTGAMMA sRGB IEC61966-2.1 v.2.10
0 256 512 768 1023
0 0 0
4095 56 56
4095 56 56
4095 56 56
4095 56 56
4095 56 56
4095 56 56
4095 56 56
4095 56 56
4095 56 56
4095 56 56
4095 56 56
4095 56 56
4095 56 56
4095 56 56
4095 56 56
4095 56 56
4095 56 56
4095 56 56
4095 56 56
4095 56 56
4095 56 56
4095 56 56
4095 56 56
4095 56 56
4095 56 56
4095 56 56
4095 56 56
4095 56 56
4095 56 56
4095 56 56
0 0 0
4095 3888 3
4095 1875 33
4095 988 44
4095 56 56
4095 3888 3
4095 3888 3
4095 1875 33
4095 988 44
4095 56 56
4095 1875 33
4095 1875 33
4095 1875 33
4095 988 44
4095 56 56
4095 988 44
4095 988 44
4095 988 44
4095 988 44
4095 56 56
4095 56 56
4095 56 56
4095 56 56
4095 56 56
4095 56 56
4095 3888 3
4095 3888 3
4095 1875 33
4095 988 44
4095 56 56
4095 3888 3
0 0 0
3695 3775 3143
4095 3654 8
4095 56 56
4095 1875 33
3695 3775 3143
3695 3775 3143
4095 3654 8
4095 56 56
4095 988 44
4095 3654 8
4095 3654 8
4095 3654 8
4095 56 56
4095 56 56
4095 56 56
4095 56 56
4095 56 56
4095 56 56
4095 1875 33
4095 1875 33
4095 1875 33
4095 988 44
4095 56 56
4095 1875 33
3695 3775 3143
3695 3775 3143
4095 3654 8
4095 56 56
4095 1875 33
3695 3775 3143
0 0 0
2676 2632 4050
4095 56 56
4095 988 44
4095 3654 8
2676 2632 4050
2676 2632 4050
4095 56 56
4095 56 56
4095 56 56
4095 56 56
4095 56 56
4095 56 56
4095 988 44
4095 988 44
4095 988 44
4095 988 44
4095 56 56
4095 988 44
4095 3654 8
4095 3654 8
4095 3654 8
4095 56 56
4095 988 44
4095 3654 8
2676 2632 4050
2676 2632 4050
4095 56 56
4095 988 44
4095 3654 8
2676 2632 4050
0 0 0
