Tools/Reduce Redness.3dl
#25pt 3DLUT created by 3D LUT Creator Pro (c) Oleg Sharonov
#Copyright Oleg Sharonov
#IMAGEPROFILE sRGB IEC61966-2.1 v.2.10
#INPUTGAMMA sRGB IEC61966-2.1 v.2.10
#OUTPUTGAMMA sRGB IEC61966-2.1 v.2.10
0 128 256 384 512 640 768 896 1023
0 0 0
0 0 512
0 0 1024
0 0 1536
0 0 2048
0 0 2559
0 0 3071
0 0 3583
0 0 4095
0 512 0
0 512 512
0 512 1024
0 512 1536
0 512 2048
0 512 2559
0 512 3071
0 512 3583
0 512 4095
0 1024 0
0 1024 512
0 1024 1024
0 1024 1536
0 1024 2048
0 1024 2559
0 1024 3071
0 1024 3583
0 1024 4095
0 1536 0
0 1536 512
0 1536 1024
0 1536 1536
0 1536 2048
0 1536 2559
0 1536 3071
0 1536 3583
0 1536 4095
0 2048 0
0 2048 512
0 2048 1024
0 2048 1536
0 2048 2048
0 2048 2559
0 2048 3071
0 2048 3583
0 2048 4095
0 2559 0
0 2559 512
0 2559 1024
0 2559 1536
0 2559 2048
0 2559 2559
0 2559 3071
0 2559 3583
0 2559 4095
0 3071 0
0 3071 512
0 3071 1024
0 3071 1536
0 3071 2048
0 3071 2559
0 3071 3071
0 3071 3583
0 3071 4095
0 3583 0
0 3583 512
0 3583 1024
0 3583 1536
0 3583 2048
0 3583 2559
0 3583 3071
0 3583 3583
0 3583 4095
0 4095 0
0 4095 512
0 4095 1024
0 4095 1536
0 4095 2048
0 4095 2559
0 4095 3071
0 4095 3583
0 4095 4095
458 0 0
470 0 524
512 0 1024
512 0 1536
512 0 2048
512 0 2559
512 0 3071
512 0 3583
512 0 4095
458 528 0
470 524 524
512 512 1024
512 512 1536
512 512 2048
512 512 2559
512 512 3071
512 512 3583
512 512 4095
512 1024 0
512 1024 512
512 1024 1024
512 1024 1536
512 1024 2048
512 1024 2559
512 1024 3071
512 1024 3583
512 1024 4095
512 1536 0
512 1536 512
512 1536 1024
512 1536 1536
512 1536 2048
512 1536 2559
512 1536 3071
512 1536 3583
512 1536 4095
512 2048 0
512 2048 512
512 2048 1024
512 2048 1536
512 2048 2048
512 2048 2559
512 2048 3071
512 2048 3583
512 2048 4095
512 2559 0
512 2559 512
512 2559 1024
512 2559 1536
512 2559 2048
512 2559 2559
512 2559 3071
512 2559 3583
512 2559 4095
512 3071 0
512 3071 512
512 3071 1024
512 3071 1536
512 3071 2048
512 3071 2559
512 3071 3071
512 3071 3583
512 3071 4095
512 3583 0
512 3583 512
512 3583 1024
512 3583 1536
512 3583 2048
512 3583 2559
512 3583 3071
512 3583 3583
512 3583 4095
512 4095 0
512 4095 512
512 4095 1024
512 4095 1536
512 4095 2048
512 4095 2559
512 4095 3071
512 4095 3583
512 4095 4095
936 0 0
936 0 528
955 0 1048
1024 0 1536
1024 0 2048
1024 0 2559
1024 0 3071
1024 0 3583
1024 0 4095
936 528 0
936 528 528
955 524 1048
1024 512 1536
1024 512 2048
1024 512 2559
1024 512 3071
1024 512 3583
1024 512 4095
936 1055 0
936 1055 528
955 1048 1048
1024 1024 1536
1024 1024 2048
1024 1024 2559
1024 1024 3071
1024 1024 3583
1024 1024 4095
931 1558 0
931 1558 519
931 1558 1039
1024 1536 1536
1024 1536 2048
1024 1536 2559
1024 1536 3071
1024 1536 3583
1024 1536 4095
1024 2048 0
1024 2048 512
1024 2048 1024
1024 2048 1536
1024 2048 2048
1024 2048 2559
1024 2048 3071
1024 2048 3583
1024 2048 4095
1024 2559 0
1024 2559 512
1024 2559 1024
1024 2559 1536
1024 2559 2048
1024 2559 2559
1024 2559 3071
1024 2559 3583
1024 2559 4095
1024 3071 0
1024 3071 512
1024 3071 1024
1024 3071 1536
1024 3071 2048
1024 3071 2559
1024 3071 3071
1024 3071 3583
1024 3071 4095
1024 3583 0
1024 3583 512
1024 3583 1024
1024 3583 1536
1024 3583 2048
1024 3583 2559
1024 3583 3071
1024 3583 3583
1024 3583 4095
1024 4095 0
1024 4095 512
1024 4095 1024
1024 4095 1536
1024 4095 2048
1024 4095 2559
1024 4095 3071
1024 4095 3583
1024 4095 4095
1434 0 0
1434 0 528
1434 0 1055
1456 0 1572
1536 0 2048
1536 0 2559
1536 0 3071
1536 0 3583
1536 0 4095
1434 528 0
1434 528 528
1434 528 1055
1456 524 1572
1536 512 2048
1536 512 2559
1536 512 3071
1536 512 3583
1536 512 4095
1434 1055 0
1434 1055 528
1434 1055 1055
1456 1048 1572
1536 1024 2048
1536 1024 2559
1536 1024 3071
1536 1024 3583
1536 1024 4095
1434 1583 0
1434 1583 528
1434 1583 1055
1456 1572 1572
1536 1536 2048
1536 1536 2559
1536 1536 3071
1536 1536 3583
1536 1536 4095
1345 2110 0
1345 2110 528
1345 2110 1055
1387 2097 1572
1536 2048 2048
1536 2048 2559
1536 2048 3071
1536 2048 3583
1536 2048 4095
1536 2559 0
1536 2559 512
1536 2559 1024
1536 2559 1536
1536 2559 2048
1536 2559 2559
1536 2559 3071
1536 2559 3583
1536 2559 4095
1536 3071 0
1536 3071 512
1536 3071 1024
1536 3071 1536
1536 3071 2048
1536 3071 2559
1536 3071 3071
1536 3071 3583
1536 3071 4095
1536 3583 0
1536 3583 512
1536 3583 1024
1536 3583 1536
1536 3583 2048
1536 3583 2559
1536 3583 3071
1536 3583 3583
1536 3583 4095
1536 4095 0
1536 4095 512
1536 4095 1024
1536 4095 1536
1536 4095 2048
1536 4095 2559
1536 4095 3071
1536 4095 3583
1536 4095 4095
1952 0 0
1952 0 528
1952 0 1055
1952 0 1583
1973 0 2097
2048 0 2559
2048 0 3071
2048 0 3583
2048 0 4095
1952 528 0
1952 528 528
1952 528 1055
1952 528 1583
1973 524 2097
2048 512 2559
2048 512 3071
2048 512 3583
2048 512 4095
1952 1055 0
1952 1055 528
1952 1055 1055
1952 1055 1583
1973 1048 2097
2048 1024 2559
2048 1024 3071
2048 1024 3583
2048 1024 4095
1952 1583 0
1952 1583 528
1952 1583 1055
1952 1583 1583
1973 1572 2097
2048 1536 2559
2048 1536 3071
2048 1536 3583
2048 1536 4095
1952 2110 0
1952 2110 528
1952 2110 1055
1952 2110 1583
1973 2097 2097
2048 2048 2559
2048 2048 3071
2048 2048 3583
2048 2048 4095
1882 2638 0
1882 2638 528
1882 2638 1055
1882 2638 1583
1919 2621 2097
2048 2559 2559
2048 2559 3071
2048 2559 3583
2048 2559 4095
1946 3116 0
1946 3116 519
1946 3116 1039
1946 3116 1558
1946 3116 2077
2048 3071 2559
2048 3071 3071
2048 3071 3583
2048 3071 4095
2048 3583 0
2048 3583 512
2048 3583 1024
2048 3583 1536
2048 3583 2048
2048 3583 2559
2048 3583 3071
2048 3583 3583
2048 3583 4095
2048 4095 0
2048 4095 512
2048 4095 1024
2048 4095 1536
2048 4095 2048
2048 4095 2559
2048 4095 3071
2048 4095 3583
2048 4095 4095
2489 0 0
2489 0 528
2489 0 1055
2489 0 1583
2489 0 2110
2505 0 2621
2559 0 3071
2559 0 3583
2559 0 4095
2489 528 0
2489 528 528
2489 528 1055
2489 528 1583
2489 528 2110
2505 524 2621
2559 512 3071
2559 512 3583
2559 512 4095
2489 1055 0
2489 1055 528
2489 1055 1055
2489 1055 1583
2489 1055 2110
2505 1048 2621
2559 1024 3071
2559 1024 3583
2559 1024 4095
2489 1583 0
2489 1583 528
2489 1583 1055
2489 1583 1583
2489 1583 2110
2505 1572 2621
2559 1536 3071
2559 1536 3583
2559 1536 4095
2489 2110 0
2489 2110 528
2489 2110 1055
2489 2110 1583
2489 2110 2110
2505 2097 2621
2559 2048 3071
2559 2048 3583
2559 2048 4095
2489 2638 0
2489 2638 528
2489 2638 1055
2489 2638 1583
2489 2638 2110
2505 2621 2621
2559 2559 3071
2559 2559 3583
2559 2559 4095
2440 3166 0
2440 3166 528
2440 3166 1055
2440 3166 1583
2440 3166 2110
2466 3145 2621
2559 3071 3071
2559 3071 3583
2559 3071 4095
2392 3635 0
2392 3635 519
2392 3635 1038
2392 3635 1558
2392 3635 2077
2416 3627 2591
2559 3583 3071
2559 3583 3583
2559 3583 4095
2538 4095 0
2538 4095 512
2538 4095 1024
2538 4095 1536
2538 4095 2047
2538 4095 2559
2559 4095 3071
2559 4095 3583
2559 4095 4095
3047 0 0
3047 0 528
3047 0 1055
3047 0 1583
3047 0 2110
3047 0 2638
3052 0 3145
3071 0 3583
3071 0 4095
3047 528 0
3047 528 528
3047 528 1055
3047 528 1583
3047 528 2110
3047 528 2638
3052 524 3145
3071 512 3583
3071 512 4095
3047 1055 0
3047 1055 528
3047 1055 1055
3047 1055 1583
3047 1055 2110
3047 1055 2638
3052 1048 3145
3071 1024 3583
3071 1024 4095
3047 1583 0
3047 1583 528
3047 1583 1055
3047 1583 1583
3047 1583 2110
3047 1583 2638
3052 1572 3145
3071 1536 3583
3071 1536 4095
3047 2110 0
3047 2110 528
3047 2110 1055
3047 2110 1583
3047 2110 2110
3047 2110 2638
3052 2097 3145
3071 2048 3583
3071 2048 4095
3047 2638 0
3047 2638 528
3047 2638 1055
3047 2638 1583
3047 2638 2110
3047 2638 2638
3052 2621 3145
3071 2559 3583
3071 2559 4095
3047 3166 0
3047 3166 528
3047 3166 1055
3047 3166 1583
3047 3166 2110
3047 3166 2638
3052 3145 3145
3071 3071 3583
3071 3071 4095
2973 3640 0
2973 3640 520
2973 3640 1040
2973 3640 1560
2973 3640 2080
2973 3640 2600
2995 3627 3109
3071 3583 3583
3071 3583 4095
2917 4095 0
2917 4095 512
2917 4095 1024
2917 4095 1536
2917 4095 2047
2917 4095 2559
2951 4095 3071
3071 4095 3583
3071 4095 4095
3571 0 0
3571 0 520
3571 0 1040
3571 0 1560
3571 0 2080
3571 0 2600
3571 0 3120
3574 0 3627
3583 0 4095
3571 520 0
3571 520 520
3571 520 1040
3571 520 1560
3571 520 2080
3571 520 2600
3571 520 3120
3574 518 3627
3583 512 4095
3571 1040 0
3571 1040 520
3571 1040 1040
3571 1040 1560
3571 1040 2080
3571 1040 2600
3571 1040 3120
3574 1036 3627
3583 1024 4095
3571 1560 0
3571 1560 520
3571 1560 1040
3571 1560 1560
3571 1560 2080
3571 1560 2600
3571 1560 3120
3574 1555 3627
3583 1536 4095
3571 2080 0
3571 2080 520
3571 2080 1040
3571 2080 1560
3571 2080 2080
3571 2080 2600
3571 2080 3120
3574 2073 3627
3583 2048 4095
3571 2600 0
3571 2600 520
3571 2600 1040
3571 2600 1560
3571 2600 2080
3571 2600 2600
3571 2600 3120
3574 2591 3627
3583 2559 4095
3571 3120 0
3571 3120 520
3571 3120 1040
3571 3120 1560
3571 3120 2080
3571 3120 2600
3571 3120 3120
3574 3109 3627
3583 3071 4095
3571 3640 0
3571 3640 520
3571 3640 1040
3571 3640 1560
3571 3640 2080
3571 3640 2600
3571 3640 3120
3574 3627 3627
3583 3583 4095
3506 4095 0
3506 4095 512
3506 4095 1024
3506 4095 1536
3506 4095 2047
3506 4095 2559
3506 4095 3071
3523 4095 3583
3583 4095 4095
4095 0 0
4095 0 512
4095 0 1024
4095 0 1536
4095 0 2047
4095 0 2559
4095 0 3071
4095 0 3583
4095 0 4095
4095 512 0
4095 512 512
4095 512 1024
4095 512 1536
4095 512 2047
4095 512 2559
4095 512 3071
4095 512 3583
4095 512 4095
4095 1024 0
4095 1024 512
4095 1024 1024
4095 1024 1536
4095 1024 2047
4095 1024 2559
4095 1024 3071
4095 1024 3583
4095 1024 4095
4095 1536 0
4095 1536 512
4095 1536 1024
4095 1536 1536
4095 1536 2047
4095 1536 2559
4095 1536 3071
4095 1536 3583
4095 1536 4095
4095 2047 0
4095 2047 512
4095 2047 1024
4095 2047 1536
4095 2047 2047
4095 2047 2559
4095 2047 3071
4095 2047 3583
4095 2047 4095
4095 2559 0
4095 2559 512
4095 2559 1024
4095 2559 1536
4095 2559 2047
4095 2559 2559
4095 2559 3071
4095 2559 3583
4095 2559 4095
4095 3071 0
4095 3071 512
4095 3071 1024
4095 3071 1536
4095 3071 2047
4095 3071 2559
4095 3071 3071
4095 3071 3583
4095 3071 4095
4095 3583 0
4095 3583 512
4095 3583 1024
4095 3583 1536
4095 3583 2047
4095 3583 2559
4095 3583 3071
4095 3583 3583
4095 3583 4095
4095 4095 0
4095 4095 512
4095 4095 1024
4095 4095 1536
4095 4095 2047
4095 4095 2559
4095 4095 3071
4095 4095 3583
4095 4095 4095
