Tools/Reduce Redness.3dl
#25pt 3DLUT created by 3D LUT Creator Pro (c) Oleg Sharonov
#Copyright Oleg Sharonov
#IMAGEPROFILE sRGB IEC61966-2.1 v.2.10
#INPUTGAMMA sRGB IEC61966-2.1 v.2.10
#OUTPUTGAMMA sRGB IEC61966-2.1 v.2.10
0 256 512 768 1023
0 0 0
0 0 1024
0 0 2048
0 0 3071
0 0 4095
0 1024 0
0 1024 1024
0 1024 2048
0 1024 3071
0 1024 4095
0 2048 0
0 2048 1024
0 2048 2048
0 2048 3071
0 2048 4095
0 3071 0
0 3071 1024
0 3071 2048
0 3071 3071
0 3071 4095
0 4095 0
0 4095 1024
0 4095 2048
0 4095 3071
0 4095 4095
936 0 0
955 0 1048
1024 0 2048
1024 0 3071
1024 0 4095
936 1055 0
955 1048 1048
1024 1024 2048
1024 1024 3071
1024 1024 4095
1024 2048 0
1024 2048 1024
1024 2048 2048
1024 2048 3071
1024 2048 4095
1024 3071 0
1024 3071 1024
1024 3071 2048
1024 3071 3071
1024 3071 4095
1024 4095 0
1024 4095 1024
1024 4095 2048
1024 4095 3071
1024 4095 4095
1952 0 0
1952 0 1055
1973 0 2097
2048 0 3071
2048 0 4095
1952 1055 0
1952 1055 1055
1973 1048 2097
2048 1024 3071
2048 1024 4095
1952 2110 0
1952 2110 1055
1973 2097 2097
2048 2048 3071
2048 2048 4095
1946 3116 0
1946 3116 1039
1946 3116 2077
2048 3071 3071
2048 3071 4095
2048 4095 0
2048 4095 1024
2048 4095 2048
2048 4095 3071
2048 4095 4095
3047 0 0
3047 0 1055
3047 0 2110
3052 0 3145
3071 0 4095
3047 1055 0
3047 1055 1055
3047 1055 2110
3052 1048 3145
3071 1024 4095
3047 2110 0
3047 2110 1055
3047 2110 2110
3052 2097 3145
3071 2048 4095
3047 3166 0
3047 3166 1055
3047 3166 2110
3052 3145 3145
3071 3071 4095
2917 4095 0
2917 4095 1024
2917 4095 2047
2951 4095 3071
3071 4095 4095
4095 0 0
4095 0 1024
4095 0 2047
4095 0 3071
4095 0 4095
4095 1024 0
4095 1024 1024
4095 1024 2047
4095 1024 3071
4095 1024 4095
4095 2047 0
4095 2047 1024
4095 2047 2047
4095 2047 3071
4095 2047 4095
4095 3071 0
4095 3071 1024
4095 3071 2047
4095 3071 3071
4095 3071 4095
4095 4095 0
4095 4095 1024
4095 4095 2047
4095 4095 3071
4095 4095 4095
