Tools/Tools - 8 Zones Rainbow.3dl
#25pt 3DLUT created by 3D LUT Creator Pro (c) Oleg Sharonov
#Copyright Oleg Sharonov
#IMAGEPROFILE sRGB IEC61966-2.1 v.2.10
#INPUTGAMMA sRGB IEC61966-2.1 v.2.10
#OUTPUTGAMMA sRGB IEC61966-2.1 v.2.10
0 256 512 768 1023
4095 0 0
4095 0 0
4095 2044 0
4095 2044 0
4095 4095 0
4095 2044 0
4095 2044 0
4095 4095 0
4095 4095 0
4095 4095 0
0 4095 0
0 4095 0
0 4095 0
0 4095 0
0 4095 4095
0 0 4095
0 0 4095
0 0 4095
0 0 4095
0 0 4095
4095 0 4095
4095 0 4095
4095 4095 4095
4095 4095 4095
4095 4095 4095
4095 0 0
4095 2044 0
4095 2044 0
4095 2044 0
4095 4095 0
4095 2044 0
4095 4095 0
4095 4095 0
4095 4095 0
0 4095 0
0 4095 0
0 4095 0
0 4095 0
0 4095 0
0 4095 4095
0 0 4095
0 0 4095
0 0 4095
0 0 4095
0 0 4095
4095 0 4095
4095 4095 4095
4095 4095 4095
4095 4095 4095
4095 4095 4095
4095 2044 0
4095 2044 0
4095 4095 0
4095 4095 0
4095 4095 0
4095 4095 0
4095 4095 0
4095 4095 0
0 4095 0
0 4095 0
0 4095 0
0 4095 0
0 4095 4095
0 4095 4095
0 4095 4095
0 0 4095
0 0 4095
0 0 4095
0 0 4095
0 0 4095
4095 4095 4095
4095 4095 4095
4095 4095 4095
4095 4095 4095
4095 4095 4095
4095 4095 0
4095 4095 0
0 4095 0
0 4095 0
0 4095 0
0 4095 0
0 4095 0
0 4095 0
0 4095 0
0 4095 4095
0 4095 4095
0 4095 4095
0 4095 4095
0 4095 4095
0 4095 4095
0 0 4095
0 0 4095
0 0 4095
4095 0 4095
4095 0 4095
4095 4095 4095
4095 4095 4095
4095 4095 4095
4095 4095 4095
4095 4095 4095
0 4095 0
0 4095 4095
0 4095 4095
0 4095 4095
0 4095 4095
0 4095 4095
0 4095 4095
0 4095 4095
0 4095 4095
0 4095 4095
0 0 4095
0 0 4095
0 0 4095
0 0 4095
0 0 4095
4095 0 4095
4095 0 4095
4095 0 4095
4095 0 4095
4095 0 4095
4095 4095 4095
4095 4095 4095
4095 4095 4095
4095 4095 4095
4095 4095 4095
