Creative/2D - Moderato.3dl
#25pt 3DLUT created by 3D LUT Creator Pro (c) Oleg Sharonov
#Copyright Oleg Sharonov
#IMAGEPROFILE 
#INPUTGAMMA 
#OUTPUTGAMMA 
0 256 512 768 1023
0 0 0
0 0 894
2 1 1602
8 4 2038
16 8 2272
0 764 0
0 764 848
2 765 1516
8 769 1995
16 775 2291
1 1367 2
2 1365 935
4 1364 1668
10 1368 2122
18 1373 2373
5 1740 6
6 1737 1028
9 1736 1764
15 1739 2242
23 1744 2508
13 1941 17
12 1940 1091
16 1943 1818
23 1947 2309
36 1954 2582
970 0 0
1042 0 894
1217 2 1600
1373 5 2034
1457 12 2273
970 836 0
1008 895 863
1204 1028 1681
1341 1082 2220
1421 1113 2524
971 1493 2
1099 1657 976
1263 1827 1803
1390 1918 2363
1468 1968 2693
976 1950 6
1153 2139 1075
1319 2323 1929
1438 2436 2528
1513 2497 2879
981 2217 13
1178 2411 1136
1351 2609 2005
1473 2733 2623
1549 2799 2989
1735 2 1
1861 2 896
2163 4 1599
2349 9 2033
2454 17 2275
1733 977 2
1875 1083 1000
2148 1236 1863
2344 1325 2436
2460 1377 2769
1732 1737 3
1993 1911 1095
2264 2160 2045
2482 2339 2729
2614 2430 3133
1734 2204 8
2066 2447 1186
2364 2762 2206
2586 2967 2926
2724 3079 3362
1738 2467 15
2103 2752 1248
2427 3113 2314
2652 3335 3058
2788 3457 3510
2208 6 5
2367 6 899
2749 10 1602
2985 16 2035
3116 24 2279
2203 1090 5
2452 1211 1066
2770 1371 1968
3022 1480 2570
3167 1543 2924
2202 1890 8
2571 2096 1187
2934 2400 2234
3209 2603 2965
3373 2718 3406
2202 2399 13
2656 2681 1283
3055 3044 2412
3339 3293 3203
3518 3443 3700
2207 2683 24
2696 3015 1342
3124 3422 2525
3422 3701 3357
3607 3860 3877
2462 13 9
2643 14 905
3073 18 1606
3335 24 2039
3482 33 2283
2459 1167 11
2780 1289 1101
3128 1453 2024
3409 1576 2640
3576 1644 3003
2462 1975 14
2905 2206 1236
3332 2544 2336
3635 2758 3095
3824 2884 3556
2463 2505 20
2995 2818 1341
3462 3214 2533
3790 3489 3374
3996 3652 3898
2467 2801 27
3036 3167 1401
3537 3612 2655
3882 3913 3542
4095 4095 4095
