Creative/2D - Moderato.3dl
#25pt 3DLUT created by 3D LUT Creator Pro (c) Oleg Sharonov
#Copyright Oleg Sharonov
#IMAGEPROFILE 
#INPUTGAMMA 
#OUTPUTGAMMA 
0 128 256 384 512 640 768 896 1023
0 0 0
0 0 453
0 0 894
1 0 1286
2 1 1602
5 2 1846
8 4 2038
12 6 2184
16 8 2272
0 387 0
0 387 402
0 387 794
0 387 1245
2 388 1621
4 390 1917
8 392 2150
12 394 2328
16 397 2432
0 764 0
0 764 431
0 764 848
1 764 1220
2 765 1516
4 767 1762
8 769 1995
12 772 2177
16 775 2291
0 1097 0
0 1097 498
0 1097 897
1 1096 1287
3 1097 1599
5 1099 1843
8 1101 2037
12 1103 2181
16 1106 2275
1 1367 2
2 1366 545
2 1365 935
2 1364 1343
4 1364 1668
6 1366 1921
10 1368 2122
14 1370 2275
18 1373 2373
3 1574 4
3 1573 579
4 1572 974
5 1571 1387
6 1571 1718
9 1572 1981
12 1574 2187
16 1576 2343
20 1579 2446
5 1740 6
5 1738 605
6 1737 1028
7 1736 1423
9 1736 1764
12 1737 2032
15 1739 2242
19 1741 2401
23 1744 2508
7 1866 9
8 1864 623
9 1863 1066
10 1861 1450
13 1862 1796
15 1863 2069
19 1865 2282
23 1867 2444
32 1872 2553
13 1941 17
14 1942 637
12 1940 1091
14 1941 1469
16 1943 1818
19 1944 2094
23 1947 2309
32 1952 2474
36 1954 2582
489 0 0
474 0 453
559 0 894
641 0 1285
702 1 1600
749 3 1844
786 5 2036
815 7 2182
832 9 2273
489 381 0
441 375 379
520 428 829
595 449 1251
655 461 1600
701 469 1873
738 476 2090
767 482 2255
785 486 2360
489 752 0
478 786 414
523 839 821
585 876 1215
637 900 1566
681 916 1857
716 928 2086
744 938 2264
762 944 2377
490 1152 0
512 1168 467
548 1214 869
592 1264 1283
640 1295 1620
680 1317 1887
713 1333 2101
739 1345 2275
757 1354 2395
491 1480 2
528 1474 512
567 1518 922
612 1569 1344
651 1605 1691
687 1632 1972
719 1652 2194
744 1666 2365
762 1676 2480
493 1738 4
538 1715 547
579 1759 985
627 1810 1395
666 1852 1754
700 1881 2043
728 1903 2271
752 1919 2447
771 1930 2567
495 1940 6
545 1908 572
589 1951 1034
637 1999 1435
678 2044 1808
712 2075 2103
740 2099 2338
762 2116 2516
780 2128 2640
498 2095 9
551 2052 595
596 2093 1070
645 2142 1466
687 2188 1844
722 2222 2147
750 2247 2385
773 2265 2569
791 2278 2694
502 2186 17
557 2145 609
602 2188 1094
652 2239 1490
694 2287 1872
729 2323 2178
759 2349 2420
783 2369 2604
800 2382 2733
970 0 0
935 0 453
1042 0 894
1135 0 1285
1217 2 1600
1305 3 1843
1373 5 2034
1425 9 2180
1457 12 2273
970 423 0
911 431 432
995 470 877
1087 504 1299
1191 529 1649
1273 543 1922
1336 554 2138
1386 563 2302
1419 571 2411
970 836 0
956 838 435
1008 895 863
1109 979 1309
1204 1028 1681
1281 1060 1984
1341 1082 2220
1389 1101 2404
1421 1113 2524
971 1204 0
1001 1222 471
1046 1316 910
1144 1402 1352
1234 1468 1723
1305 1515 2030
1364 1548 2285
1411 1573 2482
1443 1590 2615
971 1493 2
1030 1551 510
1099 1657 976
1181 1748 1417
1263 1827 1803
1334 1879 2115
1390 1918 2363
1436 1948 2558
1468 1968 2693
974 1734 4
1051 1822 541
1132 1930 1033
1214 2022 1471
1295 2105 1875
1358 2164 2198
1414 2207 2455
1460 2241 2656
1492 2263 2796
976 1950 6
1065 2032 568
1153 2139 1075
1237 2235 1521
1319 2323 1929
1385 2389 2261
1438 2436 2528
1481 2473 2734
1513 2497 2879
978 2113 9
1073 2190 586
1168 2302 1112
1254 2404 1570
1338 2491 1972
1404 2561 2310
1458 2611 2582
1503 2650 2796
1533 2676 2944
981 2217 13
1080 2295 603
1178 2411 1136
1266 2519 1604
1351 2609 2005
1417 2681 2348
1473 2733 2623
1517 2773 2838
1549 2799 2989
1396 0 0
1347 0 454
1500 0 895
1636 1 1285
1743 2 1599
1827 4 1841
1894 7 2032
1946 10 2178
1980 13 2273
1395 498 0
1374 490 466
1451 519 926
1583 557 1350
1691 587 1700
1778 605 1974
1846 621 2190
1900 635 2358
1937 646 2473
1395 915 0
1416 918 475
1479 997 939
1606 1076 1394
1711 1138 1778
1800 1184 2092
1878 1217 2338
1942 1242 2529
1984 1260 2657
1395 1315 1
1462 1336 502
1537 1429 979
1648 1524 1438
1759 1625 1852
1860 1693 2191
1940 1741 2463
2003 1777 2671
2045 1801 2814
1396 1628 2
1497 1669 529
1589 1782 1036
1692 1909 1511
1812 2014 1931
1912 2092 2276
1991 2150 2557
2054 2194 2780
2098 2223 2937
1397 1878 4
1516 1934 555
1628 2071 1090
1744 2210 1579
1855 2321 2010
1953 2413 2368
2034 2479 2656
2097 2528 2882
2142 2561 3041
1398 2071 7
1528 2140 577
1657 2303 1132
1784 2450 1641
1895 2567 2072
1990 2663 2441
2068 2735 2739
2132 2788 2972
2177 2825 3139
1400 2218 10
1539 2305 598
1678 2482 1167
1812 2636 1691
1923 2757 2125
2020 2854 2499
2099 2930 2804
2161 2986 3043
2207 3025 3217
1403 2313 13
1547 2421 611
1693 2605 1194
1830 2765 1725
1942 2892 2167
2041 2990 2542
2121 3068 2851
2184 3126 3093
2228 3165 3266
1735 2 1
1740 2 455
1861 2 896
2027 2 1285
2163 4 1599
2266 6 1842
2349 9 2033
2414 12 2179
2454 17 2275
1734 549 1
1751 538 484
1817 562 952
1977 605 1389
2113 637 1744
2219 663 2028
2304 681 2249
2370 695 2418
2414 709 2535
1733 977 2
1790 1003 501
1875 1083 1000
2012 1165 1469
2148 1236 1863
2257 1286 2182
2344 1325 2436
2412 1355 2630
2460 1377 2769
1732 1403 2
1828 1431 531
1940 1532 1042
2068 1652 1531
2209 1755 1960
2321 1834 2313
2412 1894 2597
2484 1936 2816
2536 1966 2972
1732 1737 3
1866 1786 556
1993 1911 1095
2128 2045 1604
2264 2160 2045
2381 2264 2425
2482 2339 2729
2560 2393 2965
2614 2430 3133
1733 2000 5
1888 2065 579
2035 2209 1141
2179 2362 1678
2312 2498 2131
2438 2606 2517
2541 2689 2832
2620 2751 3078
2676 2794 3256
1734 2204 8
1903 2284 599
2066 2447 1186
2222 2617 1739
2364 2762 2206
2483 2876 2600
2586 2967 2926
2668 3033 3179
2724 3079 3362
1736 2363 11
1913 2454 616
2088 2627 1221
2253 2815 1787
2402 2968 2270
2522 3085 2667
2624 3180 3000
2704 3250 3261
2761 3299 3449
1738 2467 15
1921 2569 629
2103 2752 1248
2276 2951 1825
2427 3113 2314
2549 3237 2718
2652 3335 3058
2732 3407 3319
2788 3457 3510
2002 4 3
2063 4 456
2144 4 897
2338 5 1287
2493 6 1600
2613 9 1843
2707 12 2034
2779 16 2180
2825 20 2277
2000 586 3
2051 576 495
2108 603 971
2294 642 1414
2448 679 1775
2572 707 2063
2668 727 2287
2742 745 2461
2792 759 2580
1999 1032 3
2086 1077 521
2196 1153 1039
2341 1236 1519
2496 1310 1924
2624 1369 2255
2724 1414 2516
2800 1447 2716
2855 1470 2860
1998 1472 4
2119 1510 551
2264 1625 1091
2417 1758 1610
2571 1862 2051
2703 1948 2413
2809 2012 2707
2888 2062 2933
2946 2095 3096
1998 1823 5
2159 1882 578
2314 2014 1148
2484 2162 1684
2637 2295 2151
2775 2405 2542
2886 2487 2859
2969 2548 3104
3031 2591 3285
1998 2098 7
2182 2173 602
2362 2330 1197
2540 2498 1759
2698 2641 2239
2834 2758 2640
2951 2858 2979
3041 2931 3243
3108 2981 3436
1999 2314 10
2199 2407 624
2395 2577 1236
2586 2760 1820
2748 2916 2319
2885 3048 2735
3006 3152 3080
3099 3230 3351
3167 3286 3554
2000 2479 13
2211 2584 640
2420 2766 1272
2618 2961 1870
2787 3130 2383
2930 3267 2808
3050 3375 3161
3141 3458 3438
3211 3516 3645
2004 2589 21
2220 2706 656
2435 2899 1297
2640 3104 1909
2817 3286 2435
2962 3429 2866
3081 3539 3221
3175 3624 3504
3244 3683 3714
2208 6 5
2317 6 459
2367 6 899
2580 8 1289
2749 10 1602
2882 12 1844
2985 16 2035
3064 19 2181
3116 24 2279
2205 614 5
2288 609 503
2363 634 987
2543 673 1434
2710 711 1796
2847 741 2088
2952 763 2314
3034 783 2489
3089 797 2611
2203 1090 5
2320 1132 535
2452 1211 1066
2601 1296 1558
2770 1371 1968
2912 1433 2305
3022 1480 2570
3107 1517 2776
3167 1543 2924
2202 1525 6
2352 1572 567
2522 1706 1130
2695 1838 1664
2856 1944 2115
3003 2038 2490
3120 2108 2792
3210 2162 3025
3273 2198 3192
2202 1890 8
2391 1957 596
2571 2096 1187
2766 2259 1748
2934 2400 2234
3085 2515 2636
3209 2603 2965
3303 2671 3217
3373 2718 3406
2201 2172 10
2415 2261 622
2621 2425 1239
2822 2605 1827
3001 2756 2328
3152 2889 2748
3282 2992 3099
3381 3072 3371
3454 3126 3572
2202 2399 13
2432 2500 642
2656 2681 1283
2871 2879 1890
3055 3044 2412
3210 3183 2844
3339 3293 3203
3442 3382 3487
3518 3443 3700
2203 2569 17
2445 2683 663
2680 2876 1316
2906 3085 1940
3096 3263 2476
3255 3411 2922
3386 3529 3292
3491 3621 3582
3570 3685 3803
2207 2683 24
2454 2808 677
2696 3015 1342
2928 3233 1976
3124 3422 2525
3289 3579 2983
3422 3701 3357
3528 3794 3652
3607 3860 3877
2367 9 7
2511 10 461
2538 10 902
2764 11 1291
2946 13 1604
3087 16 1846
3197 19 2037
3281 24 2183
3336 28 2281
2364 642 8
2469 636 510
2562 663 1000
2734 698 1448
2913 735 1812
3058 769 2107
3170 793 2335
3257 814 2512
3316 833 2635
2361 1139 8
2498 1178 546
2650 1259 1087
2804 1342 1585
2982 1418 2000
3134 1485 2343
3251 1536 2612
3342 1576 2821
3407 1604 2972
2360 1570 9
2531 1627 580
2721 1767 1158
2910 1900 1703
3076 2013 2164
3235 2108 2546
3359 2181 2852
3457 2239 3091
3526 2280 3263
2359 1941 11
2567 2015 611
2770 2161 1216
2983 2337 1798
3166 2482 2294
3325 2601 2708
3457 2694 3042
3559 2765 3302
3634 2815 3495
2358 2233 14
2593 2327 638
2819 2500 1271
3040 2686 1877
3236 2851 2396
3401 2988 2833
3536 3093 3188
3644 3177 3468
3723 3237 3675
2359 2463 16
2610 2571 659
2857 2764 1318
3090 2966 1943
3291 3142 2481
3462 3288 2932
3598 3405 3300
3710 3497 3593
3792 3563 3814
2361 2639 20
2623 2760 679
2881 2963 1353
3126 3183 1997
3335 3368 2551
3508 3523 3012
3649 3644 3392
3761 3742 3693
3847 3814 3924
2363 2756 23
2629 2886 688
2899 3108 1382
3149 3334 2034
3364 3532 2601
3543 3697 3076
3687 3823 3463
3801 3922 3769
3887 3995 4002
2462 13 9
2627 13 464
2643 14 905
2881 15 1294
3073 18 1606
3220 20 1849
3335 24 2039
3423 28 2185
3482 33 2283
2460 658 11
2581 650 515
2690 679 1009
2859 717 1458
3049 759 1825
3200 790 2120
3317 815 2350
3408 839 2528
3471 853 2649
2459 1167 11
2612 1206 553
2780 1289 1101
2947 1375 1605
3128 1453 2024
3286 1522 2369
3409 1576 2640
3507 1615 2852
3576 1644 3003
2461 1597 12
2648 1666 591
2854 1807 1175
3058 1946 1733
3233 2062 2198
3397 2157 2584
3529 2236 2896
3633 2294 3138
3706 2335 3309
2462 1975 14
2685 2053 622
2905 2206 1236
3135 2390 1831
3332 2544 2336
3496 2662 2755
3635 2758 3095
3744 2832 3360
3824 2884 3556
2462 2272 17
2712 2371 650
2956 2550 1292
3194 2745 1912
3407 2919 2446
3580 3058 2889
3721 3170 3253
3837 3255 3539
3920 3316 3746
2463 2505 20
2730 2620 672
2995 2818 1341
3245 3030 1981
3462 3214 2533
3643 3364 2993
3790 3489 3374
3908 3584 3675
3996 3652 3898
2465 2684 23
2744 2811 693
3020 3024 1378
3282 3249 2036
3508 3446 2605
3692 3603 3078
3842 3732 3468
3963 3833 3778
4053 3907 4012
2467 2801 27
2752 2940 705
3036 3167 1401
3305 3405 2073
3537 3612 2655
3726 3777 3139
3882 3913 3542
4003 4018 3857
4095 4095 4095
