Creative/2D - Moderato Greener.3dl
#25pt 3DLUT created by 3D LUT Creator Pro (c) Oleg Sharonov
#Copyright Oleg Sharonov
#IMAGEPROFILE ProPhoto RGB v.2.10
#INPUTGAMMA ProPhoto RGB v.2.10
#OUTPUTGAMMA ProPhoto RGB v.2.10
0 256 512 768 1023
0 0 0
0 285 1041
2 514 1865
8 653 2376
16 731 2648
0 764 0
0 954 948
2 1105 1694
8 1217 2228
16 1288 2555
1 1367 2
2 1518 1018
4 1642 1813
10 1720 2307
18 1768 2579
5 1741 6
6 1875 1102
9 1975 1891
16 2044 2401
24 2083 2687
13 1943 18
12 2072 1160
17 2162 1934
24 2226 2453
37 2264 2744
970 0 0
1151 286 1041
1343 513 1862
1482 653 2371
1562 734 2648
970 836 0
1138 1076 958
1338 1363 1857
1469 1509 2444
1547 1594 2775
971 1493 2
1175 1794 1050
1361 2059 1927
1489 2209 2514
1566 2288 2861
976 1951 6
1200 2254 1138
1387 2505 2024
1511 2656 2641
1588 2739 3004
981 2218 13
1214 2511 1190
1403 2763 2084
1529 2914 2718
1607 2994 3090
1735 2 2
2057 288 1043
2391 515 1862
2598 655 2369
2714 738 2650
1733 977 2
2060 1275 1099
2381 1568 2038
2592 1740 2653
2714 1838 3008
1732 1737 4
2106 2045 1165
2426 2376 2157
2644 2595 2861
2774 2706 3276
1734 2205 8
2137 2549 1241
2467 2912 2283
2687 3129 3011
2817 3246 3446
1738 2469 15
2155 2836 1292
2494 3222 2370
2715 3444 3114
2846 3560 3568
2208 8 5
2616 293 1047
3039 520 1864
3301 661 2371
3446 744 2653
2204 1091 6
2647 1403 1165
3041 1698 2140
3310 1884 2783
3463 1990 3154
2202 1890 8
2694 2228 1256
3105 2599 2339
3381 2831 3083
3541 2957 3529
2202 2400 13
2728 2773 1331
3151 3166 2473
3432 3415 3266
3599 3554 3762
2208 2684 25
2745 3086 1378
3181 3501 2565
3466 3762 3389
3635 3902 3898
2462 16 11
2922 301 1053
3398 527 1869
3688 668 2375
3851 752 2657
2461 1169 12
2977 1480 1199
3417 1776 2192
3717 1971 2848
3889 2078 3226
2463 1976 15
3029 2335 1305
3499 2732 2436
3804 2966 3203
3988 3100 3666
2464 2507 20
3065 2904 1386
3549 3320 2585
3866 3584 3425
4056 3731 3939
2468 2803 28
3082 3231 1433
3582 3672 2684
3903 3942 3556
4095 4095 4095
