Creative/2D - Shape Reds.3dl
#25pt 3DLUT created by 3D LUT Creator Pro (c) Oleg Sharonov
#Copyright Oleg Sharonov
#INPUTGAMMA sRGB IEC61966-2.1 v.2.10
#IMAGEPROFILE sRGB IEC61966-2.1 v.2.10
#OUTPUTGAMMA sRGB IEC61966-2.1 v.2.10
0 256 512 768 1023
0 0 0
0 0 788
0 0 1544
0 0 2124
0 0 2703
0 738 0
0 829 900
0 875 1929
0 1169 2887
0 1539 3834
0 1474 0
0 1724 898
0 1858 2030
0 2380 2973
0 2958 3979
0 2211 0
0 2672 814
0 2870 2015
0 3321 3015
0 3809 4065
3 2950 2
0 3618 731
0 3848 2003
0 3970 3046
3 4095 4095
1024 0 0
1175 0 743
1319 0 1480
1444 0 2099
1566 0 2703
1010 730 0
1135 905 861
1273 940 1858
1387 1094 2829
1476 1307 3810
1009 1452 0
1098 1823 837
1194 1949 1926
1239 2271 2926
1259 2669 3949
1017 2195 0
1060 2729 761
1104 2932 1904
1118 3238 2968
1108 3594 4042
1025 2948 0
1025 3578 688
1025 3835 1886
1025 3964 3000
1026 4095 4095
2046 0 0
2237 0 707
2419 0 1409
2592 0 2060
2767 0 2702
2024 725 0
2173 963 825
2346 1011 1778
2521 1051 2759
2684 1115 3748
2016 1428 0
2122 1904 789
2232 2054 1807
2332 2199 2859
2417 2380 3919
2030 2177 0
2082 2781 717
2133 3008 1778
2172 3183 2897
2200 3383 4020
2046 2948 0
2046 3549 656
2046 3819 1756
2045 3955 2928
2047 4095 4095
3069 0 0
3209 0 690
3344 0 1377
3476 0 2042
3610 0 2703
3034 897 0
3137 1179 817
3265 1178 1762
3415 1076 2739
3567 985 3704
3036 1647 0
3104 2208 744
3176 2278 1748
3274 2197 2830
3382 2124 3894
3055 2349 0
3085 3007 682
3116 3184 1717
3159 3188 2868
3211 3201 4003
3069 2950 2
3069 3534 640
3069 3812 1698
3069 3952 2896
3069 4095 4095
4095 0 0
4095 0 675
4095 0 1353
4095 0 2027
4095 0 2703
4095 1499 0
4095 1938 750
4095 1942 1718
4095 1658 2786
4095 1174 3768
4095 2154 0
4095 2767 684
4095 2830 1687
4095 2631 2821
4095 2407 3922
4095 2627 0
4095 3295 643
4095 3449 1663
4095 3360 2848
4095 3253 4008
4095 2948 0
4095 3520 625
4095 3806 1651
4095 3948 2869
4095 4095 4095
