Creative/2D - Moderato.3dl
#25pt 3DLUT created by 3D LUT Creator Pro (c) Oleg Sharonov
#Copyright Oleg Sharonov
#IMAGEPROFILE 
#INPUTGAMMA 
#OUTPUTGAMMA 
0 43 86 128 171 214 256 299 341 384 427 469 512 555 597 640 682 725 768 810 853 896 938 981 1023 
0 0 0
0 0 157
0 0 301
0 0 453
0 0 604
0 0 747
0 0 894
0 0 1036
0 0 1161
1 0 1286
1 1 1401
1 1 1507
2 1 1602
3 2 1688
4 2 1770
5 2 1846
5 3 1917
7 4 1980
8 4 2038
9 5 2091
11 5 2140
12 6 2184
13 7 2225
15 7 2261
16 8 2272
0 127 0
0 127 128
0 127 257
0 127 427
0 127 601
0 127 770
0 127 917
0 127 1061
0 127 1192
1 128 1320
1 128 1436
1 128 1545
2 128 1641
3 129 1731
4 129 1814
5 130 1893
5 130 1963
7 131 2031
8 131 2090
9 132 2143
11 133 2194
12 133 2240
13 134 2280
15 135 2317
16 136 2328
0 256 0
0 258 131
0 257 260
0 258 390
0 258 524
0 258 692
0 258 858
0 258 1017
0 258 1171
1 258 1317
1 259 1456
1 259 1579
2 259 1681
3 260 1774
4 260 1858
5 261 1940
5 261 2013
7 262 2079
8 263 2141
9 263 2197
10 264 2247
12 265 2294
13 266 2336
15 266 2374
16 267 2387
0 387 0
0 387 148
0 387 268
0 387 402
0 387 536
0 387 667
0 387 794
0 387 950
0 387 1102
0 387 1245
1 388 1384
1 388 1507
2 388 1621
3 389 1728
4 389 1825
4 390 1917
5 391 2002
7 391 2079
8 392 2150
9 393 2214
10 393 2273
12 394 2328
13 395 2375
15 396 2417
16 397 2432
0 514 0
0 514 161
0 514 275
0 514 411
0 514 549
0 515 684
0 514 811
0 515 936
0 515 1058
0 514 1188
1 515 1322
1 515 1447
2 515 1560
3 516 1668
4 516 1765
4 517 1858
5 518 1941
7 518 2020
8 519 2091
9 520 2156
10 521 2215
12 522 2268
13 523 2315
15 524 2361
16 525 2378
0 640 0
0 640 170
0 640 297
0 640 422
0 640 562
0 640 696
0 640 828
0 640 957
0 640 1079
0 640 1195
1 640 1299
1 641 1394
2 641 1507
3 642 1614
4 642 1712
4 643 1804
5 644 1889
7 644 1967
8 645 2039
9 646 2105
11 647 2165
12 648 2218
13 649 2266
15 650 2309
16 651 2327
0 764 0
0 765 175
0 764 318
0 764 431
0 764 575
0 764 714
0 764 848
0 765 980
0 764 1104
1 764 1220
1 765 1329
1 765 1424
2 765 1516
3 766 1597
4 766 1677
4 767 1762
5 768 1846
7 768 1925
8 769 1995
9 770 2063
10 771 2124
12 772 2177
13 773 2226
15 774 2271
16 775 2291
0 882 0
0 881 179
0 881 334
0 882 455
0 881 587
0 881 728
0 881 865
0 881 1001
0 881 1125
1 881 1243
1 881 1353
2 882 1451
2 882 1544
3 883 1628
4 883 1708
5 884 1782
5 884 1848
7 885 1909
8 886 1966
9 886 2022
10 887 2081
12 888 2137
13 889 2188
15 890 2232
16 891 2252
0 993 0
0 993 182
0 992 347
0 992 478
0 992 595
0 993 741
0 993 882
0 992 1018
1 992 1146
1 992 1265
1 992 1377
2 992 1477
2 993 1571
3 993 1658
4 994 1739
5 995 1813
6 995 1881
7 996 1945
8 996 2001
9 997 2053
11 998 2100
12 999 2144
13 1000 2184
15 1001 2219
16 1002 2236
0 1097 0
0 1097 185
0 1097 360
0 1097 498
0 1097 615
0 1097 754
0 1097 897
1 1096 1036
1 1096 1167
1 1096 1287
1 1096 1402
2 1096 1502
3 1097 1599
3 1098 1685
4 1098 1768
5 1099 1843
6 1099 1911
7 1100 1978
8 1101 2037
9 1101 2088
11 1102 2136
12 1103 2181
13 1104 2221
15 1105 2257
16 1106 2275
1 1195 1
1 1194 187
1 1194 370
1 1194 514
1 1194 638
1 1194 764
1 1194 909
1 1193 1052
1 1193 1184
1 1193 1307
2 1193 1423
2 1193 1526
3 1194 1623
4 1194 1711
5 1194 1794
5 1195 1871
6 1195 1940
8 1196 2006
9 1197 2067
10 1198 2121
11 1199 2169
13 1200 2214
14 1200 2254
15 1201 2291
17 1202 2310
1 1285 1
1 1284 189
1 1284 378
1 1284 529
1 1284 660
1 1284 774
1 1283 922
1 1283 1066
2 1283 1200
2 1282 1326
2 1282 1443
3 1282 1549
4 1283 1646
4 1283 1735
5 1284 1819
6 1284 1896
7 1285 1967
8 1286 2034
9 1286 2094
10 1287 2150
12 1288 2200
13 1288 2246
14 1289 2286
16 1290 2323
17 1291 2342
1 1367 2
1 1366 193
1 1366 385
2 1366 545
2 1365 680
2 1365 799
2 1365 935
2 1365 1080
2 1364 1217
2 1364 1343
3 1364 1462
3 1364 1569
4 1364 1668
5 1365 1758
6 1365 1845
6 1366 1921
7 1366 1992
9 1367 2061
10 1368 2122
11 1368 2177
12 1369 2228
14 1370 2275
15 1371 2317
16 1372 2354
18 1373 2373
2 1441 2
2 1441 197
2 1440 392
2 1440 558
2 1440 697
2 1439 821
2 1439 946
2 1439 1093
3 1438 1232
3 1438 1359
4 1438 1479
4 1438 1586
5 1439 1687
5 1439 1777
6 1439 1864
7 1440 1944
8 1440 2015
9 1441 2083
10 1442 2146
12 1442 2202
13 1443 2252
14 1444 2300
16 1445 2342
17 1446 2381
18 1447 2400
2 1510 3
2 1510 200
3 1509 397
3 1509 569
3 1509 713
3 1508 841
3 1508 957
3 1508 1105
3 1507 1244
4 1507 1373
4 1507 1494
5 1507 1602
6 1508 1704
6 1508 1796
7 1508 1883
8 1509 1964
9 1509 2036
10 1510 2105
11 1511 2167
12 1511 2224
14 1512 2275
15 1513 2322
16 1514 2365
18 1515 2404
19 1516 2425
3 1574 4
3 1574 202
3 1573 400
3 1573 579
3 1572 728
4 1572 857
4 1572 974
4 1572 1115
4 1571 1255
5 1571 1387
5 1571 1507
6 1571 1617
6 1571 1718
7 1571 1813
8 1572 1900
9 1572 1981
10 1573 2055
11 1573 2124
12 1574 2187
13 1575 2244
15 1576 2296
16 1576 2343
17 1577 2386
19 1578 2424
20 1579 2446
4 1633 4
4 1633 204
4 1632 405
4 1632 588
4 1631 742
4 1631 874
4 1631 994
5 1630 1125
5 1630 1267
5 1629 1400
6 1629 1521
6 1629 1632
7 1630 1734
8 1630 1829
9 1630 1918
10 1631 1999
11 1631 2073
12 1632 2143
13 1633 2206
14 1633 2263
16 1634 2316
17 1635 2365
18 1636 2407
20 1636 2446
26 1640 2468
4 1689 5
4 1688 206
5 1688 409
5 1687 597
5 1687 753
5 1686 889
5 1686 1012
5 1686 1135
6 1685 1279
6 1685 1412
7 1685 1536
7 1685 1646
8 1685 1749
9 1685 1844
10 1686 1935
11 1686 2016
12 1687 2091
13 1687 2162
14 1688 2225
15 1689 2282
17 1690 2335
18 1690 2384
19 1691 2428
21 1692 2467
22 1693 2489
5 1740 6
5 1739 208
5 1739 413
5 1738 605
6 1738 763
6 1737 902
6 1737 1028
6 1737 1144
7 1736 1290
7 1736 1423
8 1736 1548
8 1736 1659
9 1736 1764
10 1736 1858
11 1737 1949
12 1737 2032
13 1737 2107
14 1738 2178
15 1739 2242
16 1739 2299
18 1740 2352
19 1741 2401
20 1742 2446
22 1743 2486
23 1744 2508
6 1787 7
6 1786 210
6 1786 417
6 1785 612
7 1784 772
7 1784 915
7 1784 1042
7 1783 1155
8 1782 1298
8 1782 1433
9 1782 1560
9 1782 1670
10 1783 1776
11 1783 1871
12 1783 1962
13 1783 2047
14 1784 2121
15 1785 2192
16 1785 2257
17 1786 2315
19 1787 2367
20 1787 2417
22 1788 2462
23 1789 2502
24 1790 2525
7 1828 8
7 1828 212
7 1827 421
7 1827 617
7 1826 780
8 1826 926
8 1825 1055
8 1825 1170
9 1824 1306
9 1824 1442
10 1824 1569
10 1824 1681
11 1825 1786
12 1825 1883
13 1825 1974
14 1826 2059
15 1826 2135
16 1827 2205
18 1827 2270
19 1828 2329
20 1829 2382
22 1830 2431
23 1831 2476
24 1831 2516
26 1832 2540
7 1866 9
7 1865 214
8 1865 423
8 1864 623
8 1864 787
9 1863 936
9 1863 1066
9 1862 1183
10 1862 1313
10 1861 1450
11 1862 1577
11 1862 1690
13 1862 1796
13 1862 1893
14 1863 1984
15 1863 2069
16 1863 2146
18 1864 2217
19 1865 2282
20 1865 2341
22 1867 2394
23 1867 2444
24 1868 2488
26 1869 2529
32 1872 2553
8 1900 10
8 1899 215
9 1899 425
9 1898 627
9 1898 794
10 1897 944
10 1897 1077
10 1896 1195
11 1896 1319
11 1895 1458
12 1895 1585
13 1895 1699
14 1896 1804
14 1896 1902
16 1897 1994
16 1897 2079
17 1897 2157
19 1898 2228
20 1899 2292
21 1899 2351
23 1900 2406
24 1901 2455
26 1902 2500
27 1902 2540
28 1903 2564
9 1930 12
9 1929 218
10 1929 428
10 1929 633
10 1928 801
11 1927 951
11 1927 1086
11 1926 1206
12 1926 1326
13 1925 1465
13 1926 1592
14 1926 1708
15 1926 1813
16 1926 1911
17 1927 2003
18 1927 2088
19 1927 2166
20 1928 2238
21 1929 2303
23 1929 2362
24 1930 2416
26 1931 2466
27 1932 2511
28 1932 2551
30 1933 2575
13 1941 17
13 1941 223
14 1942 430
14 1942 637
15 1942 804
12 1940 955
12 1940 1091
16 1942 1211
13 1940 1329
14 1941 1469
14 1941 1596
19 1944 1712
16 1943 1818
17 1943 1916
18 1944 2009
19 1944 2094
20 1945 2172
22 1946 2245
23 1947 2309
33 1953 2369
31 1951 2423
32 1952 2474
33 1953 2518
39 1956 2559
36 1954 2582
159 0 0
145 0 152
163 0 298
179 0 451
193 0 601
200 0 753
206 0 893
212 0 1034
221 0 1165
226 0 1285
231 1 1403
236 1 1506
241 1 1601
248 2 1689
252 2 1769
257 2 1846
260 3 1916
265 4 1979
270 4 2037
274 5 2090
278 5 2139
281 6 2183
284 7 2224
287 7 2260
289 8 2272
163 116 0
132 110 118
151 124 262
167 130 415
181 132 574
194 134 728
204 134 885
212 135 1038
221 136 1182
226 136 1314
231 137 1438
236 137 1547
241 138 1644
248 138 1734
252 139 1816
257 140 1896
260 140 1967
265 141 2034
270 142 2093
274 142 2146
278 143 2197
281 144 2244
284 145 2284
287 145 2321
289 146 2333
162 235 0
140 237 122
147 250 244
158 259 375
172 265 531
184 269 687
194 271 843
204 273 993
215 274 1138
223 275 1276
230 276 1407
236 277 1525
241 277 1632
248 278 1730
252 279 1822
257 280 1907
260 280 1988
265 281 2059
270 282 2125
274 283 2185
278 283 2239
281 284 2289
284 285 2333
287 286 2373
289 287 2388
162 379 0
151 371 134
152 377 249
156 388 380
167 395 515
178 400 650
187 405 801
197 406 950
208 409 1097
216 410 1236
223 411 1366
230 412 1484
236 413 1596
244 415 1695
249 416 1791
255 417 1876
259 417 1958
265 418 2031
270 420 2100
274 421 2162
278 421 2217
281 422 2266
284 423 2315
287 424 2358
289 425 2373
162 525 0
158 506 148
158 508 263
161 517 390
166 526 527
176 532 661
184 536 791
192 538 920
202 542 1060
210 544 1198
217 546 1327
224 547 1447
230 549 1557
238 551 1661
244 552 1755
249 554 1845
253 555 1925
259 556 2001
265 557 2071
270 559 2133
273 559 2190
277 560 2242
281 561 2289
284 563 2329
281 563 2348
162 670 0
161 640 157
162 639 282
165 644 401
170 654 538
175 661 675
182 665 807
190 669 937
200 673 1061
207 674 1179
213 677 1294
220 679 1413
226 681 1523
234 683 1627
239 685 1723
244 686 1813
249 688 1896
254 690 1971
260 691 2043
265 693 2106
268 694 2164
272 695 2218
276 697 2265
279 698 2307
281 699 2325
163 798 0
164 773 167
165 769 302
168 772 417
173 779 552
179 787 692
182 792 825
189 796 959
198 801 1083
205 803 1202
211 806 1313
217 808 1409
223 810 1504
230 813 1597
236 815 1696
241 816 1785
245 818 1868
251 819 1945
256 822 2014
261 823 2080
265 824 2141
268 826 2194
272 827 2241
275 829 2285
277 830 2305
163 922 0
166 904 176
168 898 318
170 899 441
176 904 566
181 912 707
185 917 844
190 922 981
197 926 1106
204 929 1226
210 932 1337
216 935 1438
221 937 1532
228 939 1620
234 941 1702
238 943 1777
243 945 1847
248 947 1922
254 950 1993
258 951 2057
262 953 2117
265 954 2172
269 956 2221
272 957 2265
274 958 2287
163 1039 0
167 1027 181
170 1017 332
172 1017 464
178 1021 581
183 1028 722
187 1034 862
192 1039 1000
199 1044 1130
204 1047 1250
209 1050 1365
215 1053 1466
220 1055 1562
228 1058 1650
233 1060 1733
237 1062 1810
242 1064 1880
247 1066 1946
252 1068 2007
257 1070 2059
260 1071 2107
263 1073 2153
267 1075 2203
270 1076 2247
272 1077 2269
163 1148 0
168 1140 186
172 1128 346
174 1126 482
179 1129 605
185 1134 734
189 1141 876
194 1147 1018
201 1152 1149
206 1156 1272
210 1159 1388
215 1162 1491
220 1164 1589
227 1168 1679
232 1170 1762
237 1172 1840
241 1174 1910
246 1176 1976
251 1179 2039
256 1180 2095
259 1182 2143
263 1184 2189
266 1186 2230
269 1187 2268
271 1188 2287
163 1248 1
169 1244 188
173 1231 354
175 1228 498
181 1231 627
187 1235 745
191 1241 890
196 1247 1033
203 1252 1166
208 1256 1292
211 1259 1409
216 1263 1515
220 1265 1613
227 1269 1704
232 1271 1788
237 1273 1866
241 1275 1938
246 1278 2006
251 1281 2068
256 1283 2124
259 1285 2176
262 1286 2223
266 1288 2265
269 1290 2302
270 1291 2322
