Creative/2D - Volumize.3dl
#25pt 3DLUT created by 3D LUT Creator Pro (c) Oleg Sharonov
#Copyright Oleg Sharonov
#IMAGEPROFILE 
#INPUTGAMMA 
#OUTPUTGAMMA 
0 128 256 384 512 640 768 896 1023
0 0 0
0 0 467
0 23 1017
0 52 1581
0 126 2139
0 306 2764
267 543 3450
659 868 4095
1833 1561 4095
0 372 0
0 374 386
0 383 838
0 399 1402
0 457 1983
129 577 2634
406 754 3336
686 1009 4095
1824 1626 4095
0 758 0
0 751 384
0 765 812
0 802 1278
0 874 1877
0 989 2519
293 1142 3214
595 1333 3954
1761 1802 4095
0 1138 71
0 1129 412
0 1152 811
0 1197 1272
0 1284 1780
0 1417 2416
0 1552 3089
337 1698 3773
1636 2072 4095
0 1503 189
0 1510 445
0 1541 818
0 1598 1277
0 1687 1765
0 1813 2322
0 1951 2971
94 2088 3627
1417 2388 4095
0 1871 291
0 1887 504
0 1932 862
0 1992 1277
0 2086 1764
0 2200 2288
0 2328 2874
0 2465 3499
1006 2726 4095
0 2242 443
0 2260 577
0 2311 899
0 2372 1284
0 2466 1752
0 2573 2263
0 2688 2810
0 2822 3404
0 3070 4089
0 2600 550
0 2618 643
0 2662 944
0 2727 1311
0 2830 1753
0 2929 2255
0 3039 2781
0 3157 3341
0 3381 3951
0 2968 639
0 2983 726
0 3032 924
0 3103 1290
0 3200 1689
0 3307 2190
0 3424 2741
0 3542 3320
0 3673 3887
488 0 0
468 0 451
552 0 978
590 0 1543
618 65 2118
703 269 2752
835 526 3440
1021 836 4095
1939 1568 4095
471 363 0
372 372 372
493 394 889
546 414 1426
611 462 2000
718 578 2644
857 756 3342
1046 1000 4095
1930 1637 4095
452 730 0
330 783 264
324 830 807
376 859 1366
492 912 1923
616 1017 2555
768 1157 3236
959 1332 3956
1874 1814 4095
308 1155 0
42 1196 171
139 1231 734
129 1286 1298
245 1351 1860
351 1454 2467
625 1576 3119
774 1712 3791
1758 2085 4095
87 1543 0
0 1574 214
0 1622 725
0 1682 1250
0 1762 1804
158 1866 2386
403 1983 3004
611 2114 3656
1557 2400 4095
0 1920 45
0 1944 312
0 1997 765
0 2059 1231
0 2149 1759
0 2253 2321
100 2366 2917
449 2494 3523
1204 2741 4095
0 2284 276
0 2306 461
0 2357 824
0 2425 1242
0 2518 1727
0 2622 2268
0 2730 2838
0 2852 3442
488 3087 4095
0 2631 458
0 2652 560
0 2701 865
0 2767 1279
0 2876 1725
0 2970 2245
0 3075 2791
0 3192 3369
0 3403 3984
0 2994 547
0 3011 645
0 3055 901
0 3130 1251
0 3228 1662
0 3335 2176
0 3453 2735
0 3567 3329
0 3695 3905
995 0 3
937 0 442
1044 0 922
1153 0 1445
1297 0 2058
1441 132 2720
1577 449 3410
1689 779 4095
2238 1584 4095
966 381 0
897 399 404
1006 409 880
1118 414 1427
1263 452 2010
1413 560 2651
1554 732 3338
1678 964 4071
2227 1650 4095
946 789 0
933 799 316
873 873 872
1090 907 1399
1203 971 1986
1334 1063 2612
1468 1180 3269
1578 1333 3962
2173 1838 4095
907 1182 0
863 1224 119
918 1296 745
920 1385 1298
1018 1449 1973
1186 1533 2566
1341 1630 3187
1446 1754 3846
2076 2111 4095
839 1588 0
713 1650 0
802 1720 676
880 1791 1235
891 1885 1823
940 1973 2482
1128 2056 3092
1282 2166 3723
1915 2433 4095
723 1995 0
528 2044 0
550 2116 578
689 2181 1155
765 2269 1738
793 2362 2354
922 2456 2983
1081 2563 3596
1648 2774 4095
460 2379 0
235 2414 0
0 2490 445
107 2560 1077
379 2641 1654
465 2733 2260
601 2827 2885
894 2930 3492
1170 3120 4095
81 2726 0
0 2751 65
0 2811 597
0 2898 1105
0 2989 1612
0 3082 2191
0 3180 2806
0 3279 3435
852 3442 4013
0 3067 116
0 3085 291
0 3133 682
0 3211 1101
0 3311 1559
0 3416 2095
0 3527 2714
0 3636 3347
0 3750 3961
1489 0 32
1429 0 436
1533 0 909
1690 0 1406
1870 0 1975
2078 0 2662
2228 372 3366
2368 665 4067
2652 1611 4095
1476 386 0
1431 423 427
1503 445 904
1674 439 1417
1857 452 1993
2039 540 2631
2197 713 3322
2338 899 4011
2641 1682 4095
1435 841 0
1426 868 419
1439 950 894
1653 975 1388
1821 1015 1993
1981 1098 2631
2124 1207 3291
2256 1336 3964
2596 1875 4095
1403 1277 0
1433 1304 287
1489 1369 876
1470 1470 1470
1777 1508 1990
1896 1595 2614
2016 1689 3244
2135 1796 3892
2510 2154 4095
1379 1682 0
1373 1725 13
1454 1793 735
1553 1878 1301
1590 1989 1811
1640 2065 2600
1837 2138 3186
1966 2236 3804
2382 2476 4095
1322 2070 0
1276 2119 0
1330 2202 611
1439 2281 1201
1526 2368 1759
1513 2478 2362
1541 2569 3078
1740 2649 3697
2189 2818 4095
1203 2466 0
1138 2506 0
1110 2583 455
1240 2660 1104
1347 2742 1676
1405 2838 2269
1410 2937 2908
1528 3027 3569
1855 3167 4095
1016 2823 0
914 2857 0
716 2943 206
892 3017 997
1028 3098 1591
1118 3188 2183
1152 3285 2811
1238 3375 3466
1484 3502 4059
720 3163 0
596 3188 0
0 3255 0
145 3332 798
566 3415 1431
739 3513 2036
743 3619 2678
735 3721 3350
1012 3811 4002
1981 0 168
1973 0 460
2038 0 926
2219 0 1429
2433 0 1984
2668 0 2616
2865 293 3299
3020 603 4001
3120 1648 4095
2013 320 74
1968 436 454
2016 479 928
2185 512 1434
2407 518 1987
2633 571 2608
2828 703 3280
2984 886 3975
3106 1724 4095
1967 887 0
1948 951 428
2003 1017 928
2166 1057 1431
2392 1087 1996
2593 1139 2618
2761 1228 3275
2904 1346 3950
3060 1926 4095
1891 1370 0
1919 1399 386
1972 1474 960
2043 1576 1446
2352 1597 1939
2530 1650 2601
2661 1735 3256
2791 1830 3906
2987 2207 4095
1857 1800 0
1893 1829 248
1976 1894 882
2069 1970 1467
2080 2080 2079
2434 2106 2575
2528 2201 3221
2640 2295 3852
2878 2536 4095
1812 2193 0
1812 2231 0
1908 2291 728
2021 2367 1312
2149 2456 1869
2200 2568 2354
2217 2655 3192
2425 2724 3779
2724 2877 4095
1730 2574 0
1708 2609 0
1759 2674 551
1881 2753 1183
2008 2839 1750
2101 2929 2302
2071 3042 2921
2130 3127 3656
2492 3220 4095
1609 2937 0
1570 2971 0
1539 3042 312
1667 3116 1053
1795 3202 1643
1893 3286 2213
1923 3379 2818
1929 3472 3490
2071 3570 4095
1404 3268 0
1370 3290 0
1201 3362 0
1366 3425 846
1516 3504 1468
1627 3595 2061
1668 3693 2678
1647 3793 3353
1756 3878 4031
2524 0 308
2541 0 520
2579 81 975
2730 201 1470
2957 217 2005
3204 252 2603
3426 369 3243
3618 595 3930
3611 1695 4095
2578 220 195
2530 448 512
2571 550 977
2710 616 1477
2933 651 2010
3175 678 2597
3394 744 3233
3586 885 3912
3595 1778 4095
2521 944 10
2501 1017 440
2564 1084 952
2702 1136 1466
2919 1174 2010
3144 1206 2603
3345 1262 3238
3519 1360 3907
3546 1986 4095
2407 1466 0
2429 1500 391
2500 1583 955
2617 1661 1456
2851 1691 1965
3090 1721 2579
3268 1777 3228
3413 1863 3892
3469 2273 4095
2330 1921 0
2369 1945 354
2451 2003 958
2528 2089 1533
2630 2189 2010
2992 2199 2496
3163 2255 3192
3272 2343 3858
3362 2607 4095
2275 2325 0
2307 2351 198
2404 2406 874
2517 2477 1458
2630 2556 2047
2661 2661 2661
3025 2684 3148
3092 2779 3800
3235 2944 4095
2206 2703 0
2208 2733 0
2306 2782 712
2433 2850 1307
2567 2926 1872
2698 3009 2423
2740 3123 2916
2759 3203 3741
3056 3283 4095
2109 3061 0
2093 3090 0
2141 3143 485
2268 3209 1149
2400 3289 1728
2518 3370 2285
2595 3458 2846
2558 3560 3492
2755 3623 4095
1958 3374 0
1944 3397 0
1897 3460 0
2026 3519 937
2161 3592 1541
2282 3676 2115
2352 3770 2707
2345 3868 3358
2390 3947 4056
3111 0 414
3125 0 601
3152 291 1030
3268 427 1512
3469 488 2030
3704 509 2598
3936 563 3217
4095 691 3878
4054 1803 4095
3156 192 306
3112 488 582
3144 646 1026
3253 733 1514
3448 789 2034
3679 819 2601
3910 862 3213
4095 953 3868
4035 1885 4095
3098 986 90
3075 1071 484
3126 1154 979
3241 1215 1482
3429 1257 2027
3655 1292 2601
3869 1335 3221
4064 1411 3876
4003 2068 4095
2965 1560 0
2979 1595 372
3047 1661 936
3167 1727 1456
3364 1766 1990
3597 1796 2580
3802 1838 3212
3979 1908 3869
3920 2363 4095
2829 2028 0
2864 2048 330
2934 2105 940
3036 2193 1495
3194 2266 1988
3476 2290 2510
3706 2320 3162
3857 2387 3835
3832 2678 4095
2733 2451 0
2767 2472 302
2851 2520 936
2963 2589 1519
3059 2674 2093
3182 2771 2555
3567 2766 3053
3700 2827 3772
3710 3015 4095
2651 2830 0
2675 2853 100
2768 2895 845
2895 2958 1430
3027 3029 2007
3148 3105 2593
3198 3198 3198
3493 3228 3713
3560 3349 4095
2555 3183 0
2554 3208 0
2646 3252 669
2772 3308 1276
2912 3377 1845
3046 3448 2403
3169 3522 2949
3177 3627 3483
3354 3675 4095
2433 3499 0
2429 3519 0
2452 3562 299
2576 3616 1063
2707 3681 1647
2835 3759 2213
2939 3840 2778
2980 3929 3372
2979 4008 4079
3752 0 494
3727 129 678
3728 484 1071
3801 590 1541
3981 691 2062
4095 888 2603
4095 1333 3089
4095 1707 3512
4095 2252 3893
3753 282 419
3707 572 652
3711 757 1055
3786 838 1535
3963 924 2063
4095 1051 2608
4095 1426 3105
4095 1768 3540
4095 2304 3900
3679 1029 212
3648 1125 531
3673 1215 994
3780 1294 1502
3947 1347 2045
4095 1417 2613
4095 1696 3129
4095 1975 3574
4095 2424 3937
3500 1635 0
3521 1662 330
3588 1730 913
3711 1792 1456
3886 1835 2001
4095 1868 2588
4095 2057 3147
4095 2275 3622
4095 2623 3981
3334 2143 0
3377 2157 209
3445 2211 880
3566 2278 1439
3737 2336 1960
3979 2359 2516
4095 2440 3136
4095 2605 3667
4095 2855 4051
3193 2576 0
3230 2592 222
3305 2636 906
3421 2699 1484
3544 2779 2027
3737 2839 2506
4038 2842 3055
4095 2929 3692
4095 3111 4095
3088 2957 0
3115 2973 201
3203 3014 897
3320 3070 1479
3443 3137 2053
3553 3213 2618
3697 3288 3070
4039 3278 3621
4008 3420 4095
2976 3311 0
2995 3331 0
3083 3364 797
3209 3414 1381
3347 3472 1948
3480 3536 2515
3604 3599 3086
3674 3674 3673
3848 3735 4095
2863 3626 0
2862 3644 0
2926 3675 551
3048 3719 1196
3184 3776 1766
3315 3839 2323
3442 3907 2881
3541 3978 3437
3546 4058 4094
4095 1076 863
4095 1125 981
4095 1273 1307
4095 1465 1752
4095 1679 2224
4095 1904 2683
4095 2160 3088
4095 2411 3450
4095 2689 3742
4095 1186 835
4095 1230 961
4095 1357 1286
4095 1548 1745
4095 1752 2225
4095 1972 2686
4095 2208 3099
4095 2455 3461
4095 2730 3749
4095 1421 637
4095 1472 807
4095 1581 1198
4095 1746 1694
4095 1932 2209
4095 2127 2686
4095 2347 3119
4095 2574 3480
4095 2823 3780
4095 1789 90
4095 1805 388
4095 1898 969
4095 2044 1580
4095 2198 2151
4095 2367 2683
4095 2552 3136
4095 2758 3518
4095 2979 3815
3901 2294 0
3951 2293 78
4000 2339 827
4095 2393 1379
4095 2506 2038
4095 2651 2646
4095 2811 3154
4095 2985 3555
4095 3174 3864
3694 2720 0
3737 2726 0
3799 2762 823
3897 2813 1397
4046 2868 1932
4095 2951 2549
4095 3090 3149
4095 3234 3599
4095 3393 3922
3526 3099 0
3556 3111 68
3626 3138 855
3733 3180 1436
3860 3234 1991
4003 3296 2518
4095 3370 3073
4095 3492 3626
4095 3626 3983
3383 3444 0
3404 3458 39
3484 3480 833
3595 3518 1411
3726 3565 1971
3860 3619 2530
3986 3684 3081
4095 3748 3583
4095 3857 4050
3250 3757 0
3259 3772 0
3336 3793 696
3454 3826 1293
3586 3869 1849
3722 3921 2405
3860 3980 2967
3984 4039 3531
4095 4095 4095
