Creative/2D - Moderato Greener.3dl
#25pt 3DLUT created by 3D LUT Creator Pro (c) Oleg Sharonov
#Copyright Oleg Sharonov
#IMAGEPROFILE ProPhoto RGB v.2.10
#INPUTGAMMA ProPhoto RGB v.2.10
#OUTPUTGAMMA ProPhoto RGB v.2.10
0 128 256 384 512 640 768 896 1023
0 0 0
0 145 528
0 285 1041
1 411 1501
2 514 1865
5 592 2153
8 653 2376
12 701 2546
16 731 2648
0 387 0
0 495 457
0 598 905
0 721 1421
2 823 1848
4 902 2185
8 966 2448
12 1015 2650
16 1047 2770
0 764 0
0 861 479
0 954 948
1 1039 1362
2 1105 1694
5 1164 1968
8 1217 2228
12 1261 2430
16 1288 2555
0 1097 0
0 1191 548
1 1266 987
1 1343 1415
3 1403 1762
5 1451 2028
8 1489 2240
12 1518 2399
17 1539 2502
1 1367 2
2 1454 591
2 1518 1018
3 1587 1460
4 1642 1813
7 1686 2089
10 1720 2307
14 1749 2473
18 1768 2579
3 1575 4
3 1658 620
4 1716 1052
5 1778 1495
7 1829 1854
9 1869 2136
13 1900 2358
17 1926 2528
21 1944 2638
5 1741 6
5 1819 647
6 1875 1102
7 1930 1523
9 1975 1891
12 2015 2176
16 2044 2401
20 2067 2573
24 2083 2687
7 1867 10
8 1942 664
9 1997 1137
11 2046 1544
13 2089 1917
16 2126 2206
19 2155 2432
24 2177 2605
33 2194 2721
13 1943 18
14 2018 677
12 2072 1160
14 2119 1559
17 2162 1934
20 2198 2225
24 2226 2453
33 2249 2628
37 2264 2744
489 0 0
524 145 528
596 286 1041
663 410 1501
716 513 1864
758 591 2151
791 653 2373
818 701 2544
834 732 2648
489 381 0
510 477 431
580 643 942
645 773 1422
696 875 1815
738 953 2124
772 1016 2368
798 1061 2555
815 1091 2673
489 752 0
525 878 460
581 1016 915
641 1136 1350
690 1231 1740
730 1306 2060
763 1362 2314
789 1408 2510
806 1436 2633
490 1152 0
539 1252 513
592 1369 953
644 1489 1400
691 1574 1766
730 1639 2057
762 1689 2288
788 1729 2475
805 1756 2606
491 1480 2
546 1552 552
600 1659 998
653 1770 1449
696 1853 1823
734 1918 2121
766 1965 2358
791 2000 2542
808 2026 2663
493 1738 4
552 1788 585
607 1890 1054
660 1992 1488
704 2075 1873
740 2138 2177
771 2186 2418
795 2219 2603
814 2243 2730
495 1941 7
556 1977 608
612 2074 1099
666 2168 1521
710 2248 1915
747 2309 2225
777 2356 2469
801 2390 2657
820 2412 2788
498 2095 10
560 2117 628
617 2211 1133
671 2299 1548
716 2379 1943
753 2440 2259
784 2486 2507
807 2519 2698
827 2542 2830
502 2187 18
565 2210 643
622 2302 1156
676 2389 1569
721 2468 1967
759 2528 2285
789 2573 2535
815 2608 2727
833 2631 2861
970 0 0
1033 145 528
1151 286 1041
1254 410 1500
1343 513 1862
1421 591 2149
1482 653 2371
1531 702 2541
1562 734 2648
970 423 0
1023 544 490
1133 694 994
1235 833 1472
1333 944 1865
1408 1023 2170
1467 1087 2411
1515 1133 2599
1546 1166 2719
970 836 0
1041 932 483
1138 1076 958
1245 1245 1449
1338 1363 1857
1411 1446 2186
1469 1509 2444
1516 1560 2644
1547 1594 2775
971 1204 0
1059 1305 516
1153 1470 993
1258 1623 1467
1349 1740 1865
1420 1828 2193
1479 1893 2467
1525 1945 2677
1556 1978 2819
971 1493 2
1071 1626 548
1175 1794 1050
1274 1941 1516
1361 2059 1927
1433 2146 2253
1489 2209 2514
1535 2256 2719
1566 2288 2861
974 1734 4
1081 1891 577
1190 2055 1098
1288 2192 1558
1375 2309 1981
1444 2397 2317
1500 2460 2583
1546 2507 2793
1578 2539 2939
976 1951 6
1088 2095 601
1200 2254 1138
1299 2390 1602
1387 2505 2024
1456 2593 2368
1511 2656 2641
1556 2705 2854
1588 2739 3004
978 2114 10
1094 2252 619
1208 2408 1170
1308 2544 1645
1396 2657 2058
1466 2744 2408
1521 2807 2685
1567 2855 2903
1598 2890 3055
981 2218 13
1099 2354 633
1214 2511 1190
1314 2649 1675
1403 2763 2084
1472 2850 2438
1529 2914 2718
1574 2961 2936
1607 2994 3090
1396 1 0
1489 145 528
1658 286 1042
1809 411 1500
1926 514 1861
2020 592 2147
2094 654 2369
2152 702 2539
2190 735 2648
1395 498 0
1499 609 527
1637 751 1048
1786 892 1526
1905 1004 1917
1999 1085 2220
2073 1151 2463
2132 1201 2653
2172 1237 2779
1395 915 0
1516 1017 526
1648 1184 1037
1796 1345 1535
1912 1472 1954
2007 1567 2292
2085 1637 2559
2148 1694 2764
2191 1730 2903
1395 1315 1
1532 1418 545
1671 1584 1062
1811 1744 1554
1931 1895 1993
2030 1998 2351
2110 2074 2638
2172 2132 2858
2213 2170 3009
1396 1629 2
1547 1741 566
1692 1917 1108
1829 2096 1606
1951 2236 2049
2051 2344 2405
2129 2422 2697
2192 2481 2929
2235 2523 3091
1397 1879 4
1556 1999 588
1710 2193 1154
1851 2372 1664
1970 2511 2109
2068 2623 2477
2147 2703 2772
2210 2764 3004
2254 2804 3167
1399 2072 7
1563 2202 610
1723 2411 1192
1868 2591 1716
1987 2732 2158
2084 2841 2535
2162 2923 2837
2225 2984 3074
2268 3024 3242
1401 2218 10
1569 2363 628
1732 2580 1220
1882 2762 1759
2000 2902 2198
2098 3010 2581
2176 3092 2889
2238 3153 3130
2282 3193 3303
1404 2314 14
1573 2475 640
1740 2696 1242
1890 2881 1786
2009 3023 2233
2107 3128 2614
2187 3212 2925
2249 3272 3168
2293 3312 3341
1735 2 2
1875 147 530
2057 288 1043
2241 412 1500
2391 515 1862
2506 593 2148
2598 655 2369
2669 704 2539
2714 738 2650
1734 549 2
1879 659 546
2037 796 1075
2219 941 1565
2370 1056 1962
2484 1142 2274
2577 1209 2522
2650 1258 2711
2697 1297 2839
1733 977 2
1894 1103 553
2060 1275 1099
2231 1435 1611
2381 1568 2038
2498 1667 2381
2592 1740 2653
2665 1798 2862
2714 1838 3008
1732 1403 2
1906 1514 573
2085 1688 1126
2254 1871 1647
2405 2020 2098
2522 2133 2468
2617 2217 2767
2691 2277 2995
2743 2319 3158
1732 1737 4
1922 1857 594
2106 2045 1165
2276 2227 1697
2426 2376 2157
2545 2504 2547
2644 2595 2861
2721 2660 3104
2774 2706 3276
1733 2001 6
1932 2129 612
2125 2327 1205
2298 2517 1758
2446 2676 2225
2568 2798 2618
2667 2891 2937
2745 2959 3186
2798 3006 3367
1734 2205 8
1940 2343 630
2137 2549 1241
2316 2749 1809
2467 2912 2283
2588 3035 2683
2687 3129 3011
2764 3198 3264
2817 3246 3446
1736 2364 12
1945 2507 645
2147 2719 1269
2330 2931 1849
2483 3094 2333
2604 3216 2734
2703 3313 3068
2780 3381 3330
2834 3429 3517
1738 2469 15
1948 2617 656
2155 2836 1292
2340 3054 1878
2494 3222 2370
2615 3348 2774
2715 3444 3114
2792 3513 3376
2846 3560 3568
2002 5 3
2184 149 531
2370 290 1044
2586 414 1502
2756 517 1863
2890 595 2148
2994 658 2370
3073 706 2539
3125 741 2652
2001 587 3
2179 698 557
2353 837 1094
2565 978 1590
2737 1097 1992
2870 1184 2309
2975 1252 2558
3056 1304 2753
3110 1343 2882
1999 1032 4
2192 1177 574
2388 1346 1138
2581 1505 1660
2752 1640 2097
2890 1745 2452
2996 1823 2731
3077 1883 2945
3134 1924 3094
1998 1473 4
2202 1593 593
2414 1782 1175
2612 1974 1725
2782 2123 2187
2918 2240 2564
3027 2326 2871
3109 2393 3105
3168 2436 3275
1998 1824 6
2219 1953 615
2435 2147 1218
2638 2340 1777
2807 2502 2259
2945 2631 2659
3058 2729 2984
3141 2798 3235
3201 2847 3418
1998 2099 8
2229 2237 636
2454 2442 1258
2661 2646 1836
2832 2807 2327
2970 2936 2734
3082 3042 3075
3168 3117 3339
3231 3168 3533
1999 2315 11
2237 2462 653
2467 2673 1288
2681 2884 1886
2851 3052 2388
2991 3189 2807
3105 3294 3153
3192 3369 3423
3255 3421 3624
2001 2481 14
2242 2633 667
2479 2850 1316
2693 3066 1925
2866 3240 2439
3009 3378 2865
3123 3482 3216
3209 3560 3493
3274 3613 3698
2005 2591 22
2248 2751 681
2486 2976 1336
2702 3195 1955
2880 3378 2481
3022 3518 2911
3136 3622 3263
3224 3699 3545
3288 3753 3751
2208 8 5
2428 152 534
2616 293 1047
2853 417 1504
3039 520 1864
3187 598 2149
3301 661 2371
3389 709 2540
3446 744 2653
2205 616 6
2415 731 565
2612 869 1110
2835 1009 1610
3022 1128 2013
3169 1216 2333
3284 1284 2583
3373 1338 2779
3433 1378 2911
2204 1091 6
2426 1232 588
2647 1403 1165
2855 1564 1697
3041 1698 2140
3194 1804 2500
3310 1884 2783
3400 1946 3001
3463 1990 3154
2203 1526 7
2436 1655 607
2673 1860 1213
2894 2052 1777
3075 2201 2248
3227 2322 2637
3347 2413 2951
3439 2483 3192
3504 2529 3365
2202 1890 8
2452 2027 633
2694 2228 1256
2920 2432 1839
3105 2599 2339
3257 2731 2748
3381 2831 3083
3473 2905 3339
3541 2957 3529
2201 2173 10
2463 2323 655
2713 2533 1298
2943 2747 1901
3132 2914 2410
3285 3054 2834
3409 3160 3185
3503 3240 3456
3572 3293 3657
2202 2400 13
2470 2553 671
2728 2773 1331
2964 2996 1951
3151 3166 2473
3308 3310 2908
3432 3415 3266
3528 3498 3550
3599 3554 3762
2204 2570 17
2476 2730 689
2738 2956 1358
2976 3180 1988
3168 3360 2525
3326 3505 2971
3450 3614 3336
3548 3699 3625
3620 3755 3841
2208 2684 25
2481 2852 700
2745 3086 1378
2986 3315 2017
3181 3501 2565
3340 3650 3019
3466 3762 3389
3564 3845 3680
3635 3902 3898
2367 11 8
2613 156 536
2805 297 1050
3058 421 1506
3257 523 1866
3414 602 2151
3535 664 2373
3629 713 2542
3690 748 2655
2364 644 8
2595 759 572
2812 897 1124
3042 1033 1624
3242 1151 2028
3399 1242 2351
3520 1311 2603
3616 1367 2800
3680 1409 2934
2362 1141 9
2604 1277 599
2846 1451 1186
3066 1608 1724
3264 1743 2170
3427 1852 2535
3551 1935 2822
3647 1999 3043
3713 2043 3198
2361 1571 10
2615 1709 621
2873 1920 1239
3109 2111 1815
3301 2265 2294
3463 2386 2690
3591 2479 3007
3690 2551 3253
3759 2599 3431
2360 1942 12
2629 2083 647
2894 2292 1285
3136 2506 1886
3335 2675 2396
3497 2807 2815
3628 2910 3155
3727 2986 3417
3801 3041 3610
2359 2234 14
2641 2388 670
2911 2606 1328
3160 2823 1948
3363 3001 2475
3528 3143 2912
3658 3249 3267
3760 3330 3546
3834 3387 3754
2360 2465 17
2647 2623 687
2927 2852 1365
3179 3076 2000
3382 3255 2538
3552 3401 2989
3683 3511 3357
3787 3595 3648
3862 3656 3865
2362 2640 21
2654 2805 704
2938 3039 1391
3193 3270 2041
3401 3455 2594
3570 3602 3054
3703 3714 3429
3807 3802 3725
3884 3865 3950
2363 2757 24
2655 2927 709
2946 3174 1415
3204 3407 2072
3414 3600 2634
3585 3753 3103
3719 3866 3485
3823 3951 3784
3899 4012 4011
2462 16 11
2724 161 539
2922 301 1053
3187 425 1509
3398 527 1869
3561 606 2153
3688 668 2375
3786 717 2544
3851 752 2657
2461 660 12
2707 773 577
2940 914 1132
3177 1052 1634
3389 1172 2041
3552 1261 2363
3679 1331 2617
3779 1388 2815
3848 1427 2947
2461 1169 12
2718 1305 606
2977 1480 1199
3210 1640 1743
3417 1776 2192
3586 1886 2560
3717 1971 2848
3818 2033 3071
3889 2078 3226
2462 1598 13
2733 1748 633
3006 1959 1256
3257 2155 1843
3460 2311 2326
3628 2431 2725
3763 2528 3047
3867 2598 3295
3941 2647 3473
2463 1976 15
2747 2122 658
3029 2335 1305
3287 2556 1917
3499 2732 2436
3667 2862 2860
3804 2966 3203
3910 3044 3469
3988 3100 3666
2463 2273 18
2760 2431 681
3047 2653 1348
3312 2878 1982
3529 3062 2520
3702 3205 2965
3839 3316 3327
3947 3396 3611
4025 3453 3819
2464 2507 20
2768 2670 699
3065 2904 1386
3331 3134 2035
3549 3320 2585
3727 3467 3046
3866 3584 3425
3976 3669 3721
4056 3731 3939
2466 2685 24
2775 2856 716
3075 3097 1415
3346 3331 2078
3569 3525 2643
3747 3672 3113
3888 3790 3498
3998 3878 3802
4079 3941 4029
2468 2803 28
2777 2978 726
3082 3231 1433
3356 3473 2108
3582 3672 2684
3761 3824 3161
3903 3942 3556
4013 4031 3864
4095 4095 4095
