Creative/2D - Volumize.3dl
#25pt 3DLUT created by 3D LUT Creator Pro (c) Oleg Sharonov
#Copyright Oleg Sharonov
#IMAGEPROFILE 
#INPUTGAMMA 
#OUTPUTGAMMA 
0 43 86 128 171 214 256 299 341 384 427 469 512 555 597 640 682 725 768 810 853 896 938 981 1023 
0 0 0
0 0 168
0 0 337
0 0 467
0 0 594
0 0 740
0 23 1017
0 36 1220
0 45 1401
0 52 1581
0 68 1762
0 94 1949
0 126 2139
0 177 2340
0 240 2550
0 306 2764
23 386 2992
142 460 3216
267 543 3450
370 629 3687
457 711 3920
659 868 4095
1224 1132 4095
1562 1353 4095
1833 1561 4095
0 126 0
0 126 126
0 126 262
0 123 430
0 119 630
0 116 811
0 119 992
0 119 1153
0 123 1317
0 132 1494
0 149 1682
0 174 1875
0 203 2072
0 248 2278
16 302 2492
74 362 2712
177 433 2942
282 503 3170
370 582 3408
457 663 3646
531 743 3883
656 885 4095
1221 1144 4095
1557 1361 4095
1837 1571 4095
0 250 0
0 252 119
0 248 250
0 250 384
0 250 523
0 250 707
0 250 933
0 252 1092
0 257 1265
0 264 1447
0 278 1634
0 297 1829
0 324 2030
16 358 2236
65 403 2452
126 457 2675
230 517 2905
314 580 3135
398 653 3373
484 726 3613
551 802 3852
678 934 4095
1193 1170 4095
1558 1388 4095
1831 1591 4095
0 372 0
0 374 132
0 374 255
0 374 386
0 374 521
0 377 664
0 383 838
0 388 1050
0 393 1224
0 399 1402
0 412 1588
0 433 1783
0 457 1983
13 490 2194
52 532 2413
129 577 2634
235 632 2866
316 690 3098
406 754 3336
490 822 3577
557 891 3816
686 1009 4095
1172 1223 4095
1531 1426 4095
1824 1626 4095
0 496 0
0 499 139
0 497 257
0 496 393
0 496 528
0 505 668
0 512 816
0 520 984
0 527 1182
0 535 1365
0 551 1551
0 571 1744
0 594 1943
0 625 2150
48 663 2368
110 710 2593
195 765 2828
291 816 3059
383 876 3297
465 940 3539
545 1001 3776
670 1106 4063
1115 1290 4095
1514 1486 4095
1805 1672 4095
0 618 0
0 619 152
0 620 276
0 623 393
0 627 531
0 630 668
0 637 811
0 646 963
0 656 1126
0 671 1297
0 689 1506
0 710 1711
0 734 1908
0 766 2116
0 806 2332
58 847 2553
155 897 2785
252 950 3018
343 1008 3258
431 1066 3497
521 1123 3733
642 1216 4011
1063 1375 4095
1472 1556 4095
1784 1730 4095
0 758 0
0 757 110
0 752 264
0 751 384
0 756 528
0 759 672
0 765 812
0 776 963
0 788 1115
0 802 1278
0 822 1462
0 846 1663
0 874 1877
0 908 2084
0 946 2297
0 989 2519
52 1041 2751
177 1088 2979
293 1142 3214
398 1196 3451
490 1251 3687
595 1333 3954
961 1474 4095
1427 1639 4095
1761 1802 4095
0 893 3
0 886 107
0 882 264
0 881 391
0 884 523
0 891 669
0 899 815
0 907 965
0 918 1113
0 935 1270
0 956 1437
0 983 1624
0 1011 1817
0 1049 2050
0 1088 2267
0 1132 2487
0 1179 2712
71 1228 2940
206 1281 3174
343 1330 3405
464 1379 3636
543 1451 3892
855 1585 4095
1375 1734 4095
1721 1886 4095
0 1022 32
0 1014 110
0 1008 269
0 1008 398
0 1010 520
0 1017 667
0 1025 815
0 1035 965
0 1048 1115
0 1068 1269
0 1091 1436
0 1115 1606
0 1149 1798
0 1190 2004
0 1231 2224
0 1275 2456
0 1320 2677
0 1365 2900
139 1412 3127
304 1461 3357
401 1514 3591
451 1575 3834
696 1696 4095
1311 1835 4095
1682 1977 4095
0 1138 71
0 1133 139
0 1131 271
0 1129 412
0 1134 532
0 1142 660
0 1152 811
0 1165 967
0 1180 1117
0 1197 1272
0 1220 1428
0 1249 1599
0 1284 1780
0 1325 1977
0 1369 2184
0 1417 2416
0 1459 2641
0 1505 2864
0 1552 3089
214 1597 3313
351 1646 3542
337 1698 3773
610 1818 4088
1218 1940 4095
1636 2072 4095
0 1261 94
0 1259 142
0 1256 287
0 1258 409
0 1262 542
0 1270 663
0 1280 807
0 1296 963
0 1312 1119
0 1331 1273
0 1354 1431
0 1383 1593
0 1417 1771
0 1460 1957
0 1503 2157
0 1551 2373
0 1597 2601
0 1642 2826
0 1685 3046
94 1732 3271
230 1781 3498
245 1829 3724
514 1941 4025
1102 2050 4095
1583 2171 4095
0 1383 116
0 1383 168
0 1382 295
0 1384 428
0 1390 559
0 1401 680
0 1410 811
0 1428 965
0 1444 1121
0 1463 1277
0 1487 1434
0 1518 1596
0 1551 1762
0 1592 1943
0 1638 2136
0 1682 2341
0 1728 2567
0 1778 2794
0 1821 3008
0 1867 3230
45 1915 3454
230 1960 3676
425 2057 3958
948 2166 4095
1499 2278 4095
0 1503 189
0 1506 201
0 1508 304
0 1510 445
0 1518 572
0 1528 699
0 1541 818
0 1558 964
0 1578 1119
0 1598 1277
0 1623 1436
0 1652 1597
0 1687 1765
0 1725 1935
0 1768 2124
0 1813 2322
0 1858 2532
0 1906 2757
0 1951 2971
0 1997 3187
0 2043 3406
94 2088 3627
209 2179 3897
745 2286 4095
1417 2388 4095
0 1628 220
0 1631 238
0 1632 334
0 1638 458
0 1648 577
0 1661 702
0 1672 831
0 1687 966
0 1710 1120
0 1733 1280
0 1758 1442
0 1788 1601
0 1821 1765
0 1861 1935
0 1899 2112
0 1944 2305
0 1991 2510
0 2035 2724
0 2078 2938
0 2125 3150
0 2170 3363
0 2215 3579
0 2299 3834
377 2406 4095
1306 2499 4095
0 1748 255
0 1747 304
0 1753 367
0 1762 468
0 1772 595
0 1784 725
0 1800 847
0 1816 979
0 1836 1124
0 1864 1281
0 1890 1442
0 1921 1602
0 1955 1763
0 1992 1932
0 2030 2110
0 2072 2294
0 2115 2489
0 2159 2696
0 2203 2904
0 2247 3116
0 2292 3323
0 2339 3536
0 2411 3770
81 2526 4062
1183 2612 4095
0 1871 291
0 1872 339
0 1878 399
0 1887 504
0 1903 606
0 1916 727
0 1932 862
0 1950 986
0 1969 1122
0 1992 1277
0 2020 1441
0 2052 1599
0 2086 1764
0 2122 1931
0 2159 2105
0 2200 2288
0 2239 2474
0 2282 2669
0 2328 2874
0 2370 3083
0 2415 3292
0 2465 3499
0 2524 3711
0 2641 3998
1006 2726 4095
0 1997 326
0 1997 376
0 2002 437
0 2014 512
0 2029 617
0 2042 744
0 2061 865
0 2076 997
0 2097 1127
0 2120 1273
0 2146 1438
0 2182 1590
0 2212 1756
0 2250 1927
0 2286 2100
0 2326 2279
0 2363 2463
0 2404 2651
0 2448 2845
0 2492 3052
0 2538 3266
0 2586 3467
0 2633 3661
0 2748 3936
790 2840 4095
0 2114 406
0 2118 411
0 2123 477
0 2135 543
0 2147 652
0 2167 757
0 2184 885
0 2205 1005
0 2222 1140
0 2248 1270
0 2270 1431
0 2306 1580
0 2338 1752
0 2373 1921
0 2410 2095
0 2449 2270
0 2487 2451
0 2526 2638
0 2566 2823
0 2609 3022
0 2658 3227
0 2704 3436
0 2749 3641
0 2857 3883
304 2960 4095
0 2242 443
0 2245 448
0 2250 513
0 2260 577
0 2277 659
0 2291 791
0 2311 899
0 2330 1024
0 2349 1147
0 2372 1284
0 2400 1423
0 2430 1586
0 2466 1752
0 2500 1918
0 2534 2088
0 2573 2263
0 2612 2440
0 2649 2623
0 2688 2810
0 2728 3003
0 2775 3202
0 2822 3404
0 2867 3616
0 2967 3836
0 3070 4089
0 2367 478
0 2370 488
0 2374 547
0 2384 618
0 2400 693
0 2416 802
0 2434 913
0 2449 1045
0 2470 1167
0 2498 1291
0 2525 1432
0 2557 1580
0 2588 1748
0 2624 1914
0 2656 2083
0 2692 2256
0 2729 2434
0 2770 2617
0 2807 2798
0 2846 2988
0 2889 3181
0 2933 3374
0 2978 3579
0 3068 3793
0 3176 4042
0 2489 520
0 2493 522
0 2497 587
0 2505 656
0 2520 728
0 2535 837
0 2554 948
0 2574 1056
0 2600 1167
0 2620 1313
0 2649 1443
0 2679 1590
0 2707 1751
0 2744 1914
0 2778 2085
0 2812 2254
0 2848 2429
0 2885 2608
0 2925 2787
0 2962 2973
0 3002 3162
0 3044 3355
0 3090 3557
0 3167 3757
0 3279 4001
0 2600 550
0 2603 557
0 2606 613
0 2618 643
0 2632 716
0 2645 830
0 2662 944
0 2680 1059
0 2705 1175
0 2727 1311
0 2761 1446
0 2799 1599
0 2830 1753
0 2862 1918
0 2893 2088
0 2929 2255
0 2965 2423
0 3001 2601
0 3039 2781
0 3076 2967
0 3114 3151
0 3157 3341
0 3201 3537
0 3265 3721
0 3381 3951
0 2728 578
0 2731 586
0 2738 600
0 2745 669
0 2757 747
0 2773 826
0 2792 944
0 2813 1060
0 2837 1176
0 2865 1295
0 2894 1436
0 2918 1591
0 2950 1735
0 2977 1905
0 3004 2075
0 3036 2249
0 3069 2426
0 3113 2600
0 3150 2775
0 3185 2959
0 3226 3143
0 3267 3329
0 3309 3519
0 3361 3695
0 3480 3915
0 2848 612
0 2851 612
0 2857 630
0 2864 701
0 2876 771
0 2892 850
0 2913 935
0 2932 1057
0 2957 1174
0 2986 1292
0 3018 1418
0 3050 1562
0 3083 1708
0 3114 1875
0 3144 2048
0 3179 2221
0 3211 2404
0 3247 2582
0 3283 2765
0 3317 2953
0 3349 3139
0 3384 3329
0 3416 3518
0 3447 3683
0 3578 3887
0 2968 639
0 2971 646
0 2978 656
0 2983 726
0 2998 759
0 3013 838
0 3032 924
0 3053 1046
0 3077 1167
0 3103 1290
0 3133 1415
0 3167 1541
0 3200 1689
0 3231 1855
0 3271 2008
0 3307 2190
0 3345 2371
0 3388 2549
0 3424 2741
0 3462 2931
0 3503 3123
0 3542 3320
0 3583 3519
0 3621 3716
0 3673 3887
168 0 0
158 0 165
165 0 299
177 0 454
171 0 649
155 0 798
61 10 1034
45 23 1213
26 36 1392
0 45 1569
0 68 1756
0 90 1941
0 123 2132
0 177 2337
13 238 2544
87 308 2761
183 386 2988
289 458 3211
374 543 3447
461 629 3683
537 711 3916
728 868 4095
1229 1126 4095
1578 1354 4095
1845 1562 4095
158 113 0
110 110 110
149 110 304
152 110 478
129 110 650
100 110 821
90 113 984
100 113 1144
110 119 1309
94 129 1488
78 145 1677
78 171 1870
87 203 2067
113 248 2275
158 299 2489
222 362 2709
306 434 2940
384 501 3166
457 583 3405
530 663 3644
597 744 3880
716 885 4095
1244 1144 4095
1577 1364 4095
1852 1575 4095
152 228 0
58 250 23
45 260 248
61 255 443
84 252 607
78 252 771
81 252 929
87 255 1092
87 257 1266
87 264 1446
84 278 1633
97 299 1828
113 324 2027
149 358 2234
201 403 2449
257 457 2673
336 517 2903
408 582 3134
478 655 3373
552 727 3611
616 805 3851
735 936 4095
1225 1175 4095
1562 1385 4095
1844 1593 4095
145 365 0
3 388 0
0 391 165
0 394 381
32 391 554
32 389 719
32 391 887
39 391 1054
48 396 1227
58 404 1406
58 417 1593
74 436 1786
107 460 1986
139 494 2197
189 533 2413
260 578 2635
334 633 2865
406 691 3097
484 756 3336
556 823 3575
618 893 3815
739 1009 4095
1194 1223 4095
1546 1427 4095
1837 1628 4095
136 506 0
3 510 0
0 513 149
3 516 351
13 520 525
3 523 690
0 526 854
0 527 1021
0 533 1194
0 542 1372
6 557 1558
32 576 1748
68 599 1947
113 630 2155
171 668 2372
233 714 2597
299 766 2829
383 819 3060
460 879 3299
533 940 3538
605 1002 3775
724 1106 4061
1149 1292 4095
1524 1486 4095
1822 1675 4095
132 649 0
6 637 0
0 637 149
0 640 332
0 647 503
0 652 668
0 655 825
0 662 992
0 670 1163
0 682 1344
0 696 1526
0 714 1716
6 738 1912
58 771 2120
103 809 2336
186 850 2556
264 900 2787
347 953 3020
419 1011 3260
500 1068 3498
580 1124 3733
695 1216 4010
1090 1376 4095
1496 1559 4095
1801 1733 4095
78 774 0
0 766 0
0 765 177
0 765 337
0 771 497
0 779 659
0 785 813
0 791 973
0 802 1137
0 815 1307
0 833 1494
0 854 1685
0 881 1884
0 914 2090
19 950 2302
100 995 2525
174 1045 2755
284 1091 2982
376 1145 3217
468 1198 3452
552 1253 3689
649 1334 3955
1002 1477 4095
1451 1642 4095
1774 1805 4095
32 903 0
0 898 19
0 894 206
0 894 352
0 897 496
0 907 652
0 914 808
0 921 967
0 933 1122
0 948 1286
0 968 1462
0 992 1648
0 1020 1850
0 1055 2060
0 1094 2272
0 1137 2491
74 1184 2717
198 1232 2944
304 1284 3178
422 1332 3407
526 1382 3639
596 1453 3894
888 1586 4095
1389 1736 4095
1741 1889 4095
0 1025 0
0 1022 42
0 1017 225
0 1018 367
0 1023 497
0 1032 648
0 1040 804
0 1052 963
0 1065 1120
0 1081 1278
0 1102 1449
0 1126 1620
0 1159 1822
0 1198 2030
0 1238 2243
0 1281 2461
0 1325 2682
78 1370 2905
255 1416 3131
383 1465 3360
468 1517 3594
517 1578 3837
740 1699 4095
1316 1836 4095
1702 1981 4095
0 1145 29
0 1144 78
0 1139 243
0 1143 377
0 1147 517
0 1156 642
0 1167 801
0 1180 963
0 1194 1118
0 1210 1276
0 1233 1437
0 1261 1610
0 1294 1793
0 1333 1992
0 1378 2210
0 1423 2429
0 1464 2646
0 1510 2869
107 1556 3093
314 1600 3316
419 1650 3547
412 1701 3777
658 1821 4091
1240 1943 4095
1651 2074 4095
0 1267 52
0 1267 100
0 1264 252
0 1268 386
0 1273 526
0 1282 649
0 1293 798
0 1310 959
0 1326 1118
0 1344 1275
0 1365 1437
0 1395 1602
0 1429 1782
0 1468 1969
0 1511 2170
0 1557 2384
0 1602 2611
0 1647 2830
3 1689 3050
212 1736 3275
320 1785 3502
337 1832 3726
569 1944 4028
1141 2053 4095
1588 2174 4095
