Creative/2D - Shape Reds.3dl
#25pt 3DLUT created by 3D LUT Creator Pro (c) Oleg Sharonov
#Copyright Oleg Sharonov
#INPUTGAMMA sRGB IEC61966-2.1 v.2.10
#IMAGEPROFILE sRGB IEC61966-2.1 v.2.10
#OUTPUTGAMMA sRGB IEC61966-2.1 v.2.10
0 43 86 128 171 214 256 299 341 384 427 469 512 555 597 640 682 725 768 810 853 896 938 981 1023 
0 0 0
0 0 137
0 0 265
0 0 397
0 0 528
0 0 655
0 0 788
0 0 921
0 0 1050
0 0 1184
0 0 1314
0 0 1445
0 0 1544
0 0 1641
0 0 1739
0 0 1836
0 0 1934
0 0 2029
0 0 2124
0 0 2219
0 0 2315
0 0 2412
0 0 2509
0 0 2606
0 0 2703
0 122 0
0 127 137
0 128 271
0 129 407
0 133 542
0 135 673
0 138 809
0 142 947
0 142 1079
0 140 1224
0 140 1363
0 140 1499
0 148 1612
0 157 1718
0 168 1831
0 178 1942
0 187 2051
0 196 2164
0 205 2272
0 215 2387
0 225 2499
0 233 2616
0 242 2732
0 252 2850
0 261 2969
0 243 0
0 250 139
0 254 275
0 258 413
0 263 549
0 269 688
0 274 828
0 280 966
0 284 1109
0 281 1258
0 280 1407
0 280 1550
0 296 1674
0 313 1792
0 333 1919
0 353 2041
0 370 2168
0 386 2291
0 404 2415
0 423 2549
0 440 2676
0 456 2811
0 473 2946
0 492 3083
0 510 3222
0 369 0
0 377 143
0 384 282
0 391 423
0 400 564
0 407 702
0 414 843
0 421 990
0 426 1135
0 421 1296
0 420 1454
0 420 1606
0 442 1738
0 466 1868
0 495 2000
0 523 2135
0 549 2277
0 572 2414
0 596 2557
0 622 2703
0 647 2847
0 671 3001
0 695 3151
0 720 3307
0 745 3464
0 492 0
0 503 144
0 512 288
0 522 431
0 533 575
0 546 721
0 553 862
0 561 1010
0 568 1163
0 562 1328
0 559 1498
0 558 1660
0 587 1802
0 618 1939
0 653 2086
0 688 2232
0 722 2383
0 753 2534
0 785 2692
0 817 2851
0 847 3013
0 879 3183
0 912 3349
0 943 3523
0 973 3696
0 615 0
0 630 148
0 641 294
0 653 440
0 666 590
0 678 735
0 693 882
0 701 1034
0 707 1189
0 705 1368
0 699 1540
0 697 1714
0 731 1862
0 769 2010
0 811 2168
0 852 2325
0 891 2490
0 928 2654
0 966 2819
0 1005 2989
0 1052 3148
0 1101 3307
0 1151 3467
0 1201 3631
0 1249 3793
0 738 0
0 755 151
0 771 301
0 784 449
0 799 601
0 813 751
0 829 900
0 842 1057
0 848 1218
0 844 1401
0 841 1587
0 835 1765
0 875 1929
0 920 2084
0 967 2249
0 1013 2417
0 1065 2575
0 1116 2730
0 1169 2887
0 1224 3048
0 1277 3209
0 1340 3366
0 1408 3521
0 1475 3679
0 1539 3834
0 862 0
0 881 156
0 898 308
0 915 460
0 933 613
0 949 765
0 967 920
0 981 1079
0 990 1244
0 985 1439
0 980 1628
0 976 1819
0 1021 1985
0 1075 2142
0 1135 2301
0 1193 2458
0 1251 2617
0 1312 2777
0 1381 2927
0 1448 3076
0 1518 3229
0 1592 3386
0 1668 3544
0 1741 3703
0 1813 3863
0 985 0
0 1007 156
0 1028 311
0 1046 465
0 1069 620
0 1089 775
0 1110 930
0 1124 1094
0 1135 1263
0 1131 1461
0 1129 1660
0 1123 1854
0 1179 2015
0 1239 2172
0 1304 2332
0 1377 2483
0 1449 2634
0 1522 2785
0 1596 2934
0 1671 3087
0 1747 3244
0 1828 3404
0 1910 3563
0 1989 3726
0 2069 3889
0 1107 0
0 1133 156
0 1156 311
0 1180 467
0 1204 624
0 1229 781
0 1255 936
0 1270 1102
0 1282 1276
0 1279 1479
0 1278 1680
0 1277 1881
0 1339 2038
0 1412 2184
0 1491 2335
0 1570 2487
0 1647 2639
0 1725 2793
0 1804 2945
0 1883 3100
0 1963 3257
0 2050 3419
0 2140 3583
0 2227 3748
0 2313 3912
0 1230 0
0 1262 153
0 1293 307
0 1319 462
0 1351 616
0 1381 773
0 1411 926
0 1431 1095
0 1443 1271
0 1443 1475
0 1443 1680
0 1443 1883
0 1514 2036
0 1590 2184
0 1673 2336
0 1756 2489
0 1837 2645
0 1919 2801
0 2002 2956
0 2087 3113
0 2174 3272
0 2265 3437
0 2358 3602
0 2451 3769
0 2544 3936
0 1352 0
0 1388 151
0 1424 302
0 1460 455
0 1495 609
0 1531 762
0 1568 912
0 1590 1079
0 1607 1260
0 1610 1465
0 1612 1671
0 1614 1878
0 1687 2033
0 1766 2183
0 1852 2337
0 1938 2491
0 2022 2648
0 2108 2807
0 2195 2964
0 2284 3124
0 2375 3287
0 2470 3453
0 2566 3619
0 2662 3788
0 2758 3958
0 1474 0
0 1519 149
0 1559 298
0 1600 449
0 1644 599
0 1683 750
0 1724 898
0 1752 1067
0 1770 1247
0 1774 1456
0 1779 1665
0 1783 1874
0 1858 2030
0 1939 2183
0 2027 2338
0 2115 2495
0 2201 2654
0 2289 2812
0 2380 2973
0 2472 3135
0 2565 3299
0 2662 3466
0 2762 3636
0 2861 3808
0 2958 3979
0 1597 0
0 1644 148
0 1691 295
0 1738 443
0 1786 591
0 1833 739
0 1879 885
0 1910 1054
0 1932 1234
0 1937 1445
0 1944 1657
0 1952 1869
0 2028 2028
0 2111 2182
0 2199 2339
0 2287 2498
0 2376 2659
0 2465 2819
0 2556 2979
0 2649 3143
0 2744 3311
0 2842 3481
0 2942 3651
0 3041 3824
0 3139 3997
0 1719 0
0 1775 144
0 1826 289
0 1878 434
0 1936 580
0 1986 726
0 2039 870
0 2073 1041
0 2096 1224
0 2104 1438
0 2112 1651
0 2120 1865
0 2197 2025
0 2281 2182
0 2370 2342
0 2458 2502
0 2545 2663
0 2634 2824
0 2725 2988
0 2817 3153
0 2910 3321
0 3008 3492
0 3108 3665
0 3207 3839
0 3304 4013
0 1841 0
0 1900 143
0 1960 284
0 2017 427
0 2078 571
0 2139 714
0 2196 857
0 2234 1026
0 2261 1212
0 2269 1429
0 2279 1645
0 2289 1860
0 2366 2024
0 2448 2182
0 2536 2343
0 2623 2505
0 2711 2670
0 2799 2832
0 2887 2995
0 2977 3162
0 3068 3332
0 3164 3505
0 3262 3678
0 3358 3852
0 3454 4028
0 1963 0
0 2031 140
0 2094 281
0 2159 420
0 2227 559
0 2291 701
0 2356 841
0 2396 1011
0 2425 1199
0 2438 1420
0 2449 1638
0 2461 1856
0 2534 2020
0 2614 2181
0 2700 2344
0 2785 2507
0 2869 2672
0 2955 2837
0 3042 3005
0 3128 3173
0 3215 3343
0 3308 3516
0 3403 3690
0 3496 3866
4 3587 4042
0 2086 0
0 2157 139
0 2229 277
0 2299 414
0 2372 551
0 2445 688
0 2512 827
0 2558 998
0 2590 1187
0 2604 1409
0 2618 1631
0 2631 1851
0 2704 2019
0 2780 2181
0 2861 2344
0 2941 2508
0 3022 2676
0 3103 2843
0 3185 3010
0 3268 3181
0 3352 3353
0 3440 3526
0 3530 3701
0 3618 3878
0 3705 4054
0 2211 0
0 2289 135
0 2363 272
0 2441 407
0 2518 543
0 2593 679
0 2672 814
0 2720 986
0 2755 1176
0 2773 1402
0 2787 1624
0 2802 1847
0 2870 2015
0 2942 2180
0 3018 2347
0 3092 2512
0 3167 2679
0 3244 2847
0 3321 3015
0 3399 3188
0 3477 3361
0 3561 3537
0 3644 3710
0 3726 3887
0 3809 4065
0 2334 0
0 2418 133
0 2500 265
0 2580 400
0 2665 534
0 2746 668
0 2828 801
0 2882 973
0 2919 1165
0 2938 1392
0 2957 1619
0 2973 1842
0 3036 2014
0 3102 2180
0 3170 2347
0 3238 2515
0 3307 2684
0 3379 2853
0 3450 3022
0 3520 3195
0 3592 3368
0 3668 3543
0 3746 3719
0 3821 3897
0 3896 4074
0 2456 0
0 2547 130
0 2633 261
0 2720 391
0 2810 524
0 2897 656
0 2987 786
0 3043 959
0 3083 1154
0 3104 1383
0 3124 1611
0 3144 1837
0 3199 2010
0 3259 2179
0 3321 2348
0 3381 2516
0 3443 2688
0 3507 2859
0 3569 3028
0 3632 3201
0 3696 3375
0 3764 3550
0 3834 3727
0 3902 3905
0 3968 4082
0 2580 0
0 2677 129
0 2771 256
0 2861 385
0 2957 514
0 3051 645
0 3144 773
0 3206 945
0 3248 1142
0 3270 1373
0 3293 1604
0 3315 1833
0 3364 2008
0 3414 2177
0 3467 2347
0 3520 2518
0 3572 2689
0 3627 2862
0 3682 3034
0 3736 3207
0 3791 3381
0 3850 3558
0 3908 3733
0 3967 3911
3 4023 4087
0 2704 0
0 2805 127
0 2904 254
0 3002 378
0 3102 506
0 3202 634
0 3303 760
0 3366 932
0 3412 1129
0 3436 1362
0 3460 1596
0 3486 1828
0 3525 2004
0 3567 2175
0 3610 2347
0 3653 2519
0 3698 2693
0 3742 2866
0 3786 3039
0 3831 3213
0 3875 3386
0 3923 3563
0 3970 3738
0 4017 3915
0 4063 4092
0 2826 0
0 2935 124
0 3041 248
0 3143 372
0 3252 496
0 3355 621
0 3461 745
0 3530 920
0 3577 1118
0 3603 1355
0 3630 1591
0 3656 1826
0 3689 2005
0 3719 2177
0 3752 2350
0 3783 2522
0 3816 2697
0 3849 2870
0 3882 3042
0 3916 3217
0 3948 3391
0 3983 3567
0 4018 3742
0 4053 3918
0 4087 4094
3 2950 2
3 3062 124
3 3172 244
3 3284 367
3 3395 488
0 3506 610
0 3618 731
3 3690 905
0 3741 1106
0 3770 1346
0 3798 1584
3 3827 1822
0 3848 2003
0 3869 2178
0 3889 2352
0 3908 2525
0 3928 2699
0 3949 2873
0 3970 3046
6 3990 3220
3 4011 3395
3 4032 3570
3 4053 3745
6 4074 3920
3 4095 4095
168 0 0
177 0 130
179 0 259
185 0 389
194 0 518
199 0 650
205 0 776
211 0 908
216 0 1039
222 0 1166
227 0 1299
232 0 1426
237 0 1545
241 0 1646
245 0 1740
249 0 1838
254 0 1935
258 0 2031
262 0 2127
266 0 2221
270 0 2316
274 0 2412
278 0 2508
283 0 2606
287 0 2703
171 122 0
177 127 134
183 129 268
188 131 400
193 136 533
199 138 661
204 142 798
209 145 934
215 147 1067
220 145 1209
226 145 1343
231 145 1482
236 146 1612
240 154 1719
244 164 1830
249 175 1941
253 183 2051
257 192 2163
261 201 2272
265 211 2386
269 220 2497
273 228 2612
277 236 2727
281 246 2845
285 256 2963
171 244 0
176 250 135
182 257 273
188 262 409
193 268 545
197 275 677
203 282 817
208 288 955
213 293 1092
218 290 1242
224 290 1390
230 290 1535
234 292 1673
238 308 1793
242 326 1916
246 346 2038
249 363 2166
253 380 2290
257 398 2416
260 417 2546
265 434 2673
268 448 2806
273 465 2939
276 483 3075
281 502 3213
169 369 0
174 379 140
179 387 279
185 399 417
190 408 557
195 417 694
200 427 835
205 434 978
210 441 1120
215 436 1282
220 435 1435
227 435 1591
231 437 1739
235 460 1869
239 486 1998
243 515 2133
248 540 2272
252 563 2410
256 587 2556
259 612 2697
264 637 2841
268 659 2992
272 682 3139
276 707 3295
281 732 3451
169 492 0
174 505 141
179 516 285
184 531 425
189 543 569
194 557 710
199 568 853
204 577 1000
209 586 1147
214 582 1315
219 578 1481
225 578 1643
230 582 1803
234 611 1940
238 642 2084
243 677 2229
247 710 2377
251 743 2531
255 774 2688
259 803 2843
263 831 3002
267 860 3166
272 891 3330
275 924 3506
274 954 3676
169 614 0
174 634 145
179 645 290
184 663 434
188 677 581
193 692 726
198 709 872
203 721 1022
208 728 1175
213 725 1350
218 723 1523
224 719 1698
229 723 1860
233 758 2009
237 796 2161
242 836 2318
246 875 2482
250 912 2646
254 950 2812
258 986 2982
260 1029 3144
262 1073 3299
264 1121 3458
266 1170 3622
269 1218 3783
169 736 0
174 757 148
179 775 297
183 794 443
188 811 593
192 828 742
197 847 891
201 863 1046
206 871 1201
212 867 1386
218 866 1569
223 861 1749
228 866 1927
232 907 2082
237 949 2244
241 995 2411
244 1043 2571
246 1093 2727
247 1146 2886
249 1197 3044
252 1249 3203
255 1304 3364
258 1371 3518
260 1437 3674
263 1501 3830
169 860 0
174 883 153
179 901 304
183 926 454
188 944 605
192 964 755
196 985 909
201 1003 1068
205 1014 1227
210 1009 1419
216 1007 1608
222 1003 1803
228 1009 1982
230 1057 2142
232 1110 2297
235 1167 2454
237 1226 2615
240 1286 2776
243 1352 2929
246 1419 3078
248 1487 3229
250 1556 3384
251 1629 3540
252 1701 3699
253 1774 3859
168 982 0
172 1009 153
176 1031 307
181 1057 458
185 1081 613
189 1105 763
193 1129 918
197 1147 1081
201 1160 1244
207 1157 1441
212 1156 1636
218 1154 1832
222 1163 2014
225 1219 2172
228 1276 2329
231 1346 2484
234 1420 2635
237 1495 2787
239 1568 2938
240 1641 3089
241 1715 3244
242 1790 3402
243 1868 3560
244 1947 3722
244 2027 3885
167 1103 0
171 1134 153
175 1159 307
179 1190 460
183 1216 617
188 1245 770
192 1274 924
196 1295 1088
199 1308 1257
205 1306 1457
210 1307 1655
216 1308 1857
220 1321 2039
223 1389 2189
226 1462 2337
228 1540 2489
230 1617 2640
232 1695 2794
233 1774 2948
234 1851 3101
235 1929 3258
235 2010 3417
235 2097 3580
235 2184 3744
235 2268 3908
169 1226 0
172 1265 149
176 1296 303
180 1332 454
184 1367 607
189 1400 759
192 1436 910
196 1461 1076
200 1475 1247
205 1477 1449
210 1479 1649
215 1482 1853
219 1497 2038
221 1568 2189
222 1643 2338
224 1725 2491
225 1807 2647
226 1889 2804
227 1971 2958
228 2053 3114
228 2138 3273
228 2222 3435
228 2312 3598
228 2404 3764
227 2497 3931
