Creative/2D - Moderato Greener.3dl
#25pt 3DLUT created by 3D LUT Creator Pro (c) Oleg Sharonov
#Copyright Oleg Sharonov
#IMAGEPROFILE ProPhoto RGB v.2.10
#INPUTGAMMA ProPhoto RGB v.2.10
#OUTPUTGAMMA ProPhoto RGB v.2.10
0 43 86 128 171 214 256 299 341 384 427 469 512 555 597 640 682 725 768 810 853 896 938 981 1023 
0 0 0
0 51 183
0 96 351
0 145 528
0 192 705
0 238 873
0 285 1041
0 332 1206
0 371 1355
1 411 1501
1 448 1635
1 483 1756
2 514 1865
3 541 1968
4 567 2064
5 592 2153
5 615 2235
7 635 2308
8 653 2376
9 670 2438
11 686 2495
12 701 2546
13 715 2593
15 727 2636
16 731 2648
0 127 0
0 166 149
0 204 296
0 254 492
0 307 694
0 358 892
0 404 1061
0 448 1228
0 487 1379
1 523 1528
1 561 1662
1 594 1787
2 624 1898
3 650 2003
4 675 2099
5 699 2189
5 722 2270
7 741 2348
8 759 2416
9 776 2478
11 791 2537
12 805 2590
13 819 2637
15 831 2679
16 836 2693
0 256 0
0 296 151
0 331 299
0 369 448
0 407 599
0 454 794
0 502 986
0 547 1169
0 592 1346
1 634 1514
1 671 1671
1 707 1813
2 738 1930
3 763 2038
4 787 2135
5 811 2225
5 833 2307
7 851 2384
8 868 2456
9 885 2520
10 900 2579
12 914 2632
13 927 2681
15 939 2724
16 943 2739
0 387 0
0 428 169
0 459 306
0 495 457
0 532 609
0 566 758
0 598 905
0 643 1083
0 682 1257
0 721 1421
1 759 1577
1 791 1717
2 823 1848
3 852 1969
4 878 2080
4 902 2185
5 926 2280
7 948 2366
8 966 2448
9 984 2521
10 1000 2588
12 1015 2650
13 1029 2704
15 1042 2752
16 1047 2770
0 514 0
0 556 182
0 584 310
0 618 464
0 654 620
0 687 772
0 718 918
0 751 1060
0 781 1195
0 814 1344
1 849 1498
1 880 1638
2 909 1765
3 937 1887
4 963 1997
4 985 2100
5 1008 2195
7 1028 2284
8 1048 2363
9 1065 2436
10 1080 2504
12 1094 2565
13 1107 2619
15 1118 2669
16 1123 2688
0 640 0
0 682 191
0 712 332
0 741 470
0 776 631
0 807 783
0 838 931
0 868 1076
0 896 1211
1 925 1340
1 949 1459
1 972 1568
2 1001 1695
3 1028 1815
4 1053 1926
5 1075 2028
5 1095 2122
7 1114 2208
8 1132 2289
9 1149 2363
11 1164 2430
12 1177 2491
13 1189 2546
15 1200 2595
16 1205 2615
0 764 0
0 803 194
0 836 354
0 861 479
0 893 641
0 923 797
0 954 948
0 984 1094
0 1012 1234
1 1039 1362
1 1063 1485
1 1085 1593
2 1105 1694
3 1126 1786
4 1143 1873
5 1164 1968
5 1184 2063
7 1200 2151
8 1217 2228
9 1233 2302
11 1247 2370
12 1261 2430
13 1273 2484
15 1283 2534
16 1288 2555
0 882 0
0 917 197
0 952 370
0 978 505
0 1005 650
0 1034 809
0 1064 962
0 1093 1111
0 1120 1250
1 1147 1381
1 1169 1505
2 1191 1615
2 1211 1717
3 1231 1811
4 1247 1898
5 1262 1980
6 1278 2053
7 1291 2122
8 1303 2185
9 1315 2247
11 1329 2313
12 1342 2374
13 1353 2429
15 1364 2479
16 1369 2500
0 993 0
0 1027 199
0 1061 383
0 1088 528
0 1111 657
0 1140 818
0 1168 975
0 1197 1124
1 1223 1266
1 1248 1400
1 1270 1524
2 1290 1636
2 1311 1739
3 1330 1834
4 1346 1923
5 1360 2004
6 1374 2079
7 1387 2149
8 1399 2212
9 1410 2270
11 1420 2323
12 1429 2371
14 1438 2414
15 1446 2453
16 1451 2471
0 1097 0
0 1131 202
0 1163 395
0 1191 548
0 1214 677
0 1238 829
1 1266 987
1 1294 1138
1 1318 1282
1 1343 1415
2 1364 1542
2 1383 1655
3 1403 1762
3 1422 1857
4 1437 1946
5 1451 2028
6 1465 2102
7 1478 2175
8 1489 2240
10 1500 2297
11 1510 2350
12 1518 2399
14 1526 2444
15 1534 2483
17 1539 2502
1 1195 1
1 1226 205
1 1258 405
1 1286 563
1 1310 700
1 1331 838
1 1358 997
1 1384 1150
1 1408 1295
1 1431 1430
2 1451 1558
2 1470 1672
3 1489 1780
4 1507 1877
5 1522 1966
6 1535 2049
6 1548 2124
8 1561 2197
9 1573 2263
10 1584 2323
12 1594 2376
13 1602 2425
14 1610 2469
16 1617 2509
17 1621 2529
1 1285 1
1 1316 207
1 1347 413
1 1374 577
1 1398 721
1 1417 846
1 1442 1007
1 1469 1162
2 1491 1308
2 1512 1446
2 1532 1573
3 1550 1689
4 1569 1797
4 1586 1896
5 1600 1987
6 1614 2070
7 1626 2146
8 1639 2219
9 1650 2285
11 1661 2345
12 1671 2400
13 1679 2450
15 1687 2494
16 1694 2534
18 1698 2555
1 1367 2
1 1397 210
2 1427 418
2 1454 591
2 1478 739
2 1497 870
2 1518 1018
2 1544 1174
2 1567 1322
3 1587 1460
3 1606 1589
4 1624 1705
4 1642 1813
5 1659 1913
6 1672 2007
7 1686 2089
8 1698 2166
9 1709 2240
10 1720 2307
11 1731 2367
13 1741 2423
14 1749 2473
15 1757 2518
17 1764 2558
18 1768 2579
2 1441 2
2 1471 212
2 1500 423
2 1527 602
2 1551 755
2 1569 892
2 1589 1027
3 1613 1185
3 1635 1334
3 1656 1472
4 1674 1604
4 1692 1719
5 1708 1829
6 1725 1928
7 1739 2022
7 1751 2107
8 1764 2184
10 1774 2258
11 1783 2326
12 1794 2387
14 1804 2442
15 1812 2493
16 1820 2538
18 1827 2579
19 1831 2601
2 1511 3
2 1539 215
3 1567 427
3 1595 612
3 1618 769
3 1637 910
3 1654 1036
3 1676 1195
4 1699 1344
4 1719 1484
4 1737 1616
5 1754 1733
6 1771 1842
6 1787 1943
7 1801 2036
8 1812 2123
9 1824 2200
11 1835 2275
12 1844 2343
13 1853 2405
14 1863 2460
16 1871 2511
17 1879 2557
18 1886 2598
20 1890 2621
3 1575 4
3 1603 216
3 1631 429
3 1658 620
3 1681 781
4 1699 925
4 1716 1052
4 1736 1204
4 1757 1353
5 1778 1495
5 1796 1626
6 1812 1745
7 1829 1854
7 1844 1956
8 1857 2049
9 1869 2136
10 1880 2215
11 1891 2290
13 1900 2358
14 1909 2421
15 1917 2477
17 1926 2528
18 1933 2573
19 1940 2614
21 1944 2638
4 1634 5
4 1661 218
4 1688 433
4 1715 630
4 1738 794
4 1756 940
5 1772 1070
5 1791 1211
5 1812 1362
6 1832 1505
6 1849 1638
7 1865 1757
7 1881 1867
8 1896 1968
9 1909 2063
10 1921 2150
11 1932 2230
12 1942 2305
14 1951 2373
15 1960 2435
16 1968 2492
18 1975 2544
19 1982 2590
20 1989 2631
27 1995 2655
4 1689 6
4 1716 221
5 1742 436
5 1769 639
5 1791 805
5 1810 954
5 1826 1087
5 1843 1219
6 1863 1372
6 1883 1514
7 1900 1649
7 1915 1768
8 1930 1879
9 1945 1981
10 1958 2077
11 1970 2164
12 1981 2244
14 1990 2319
15 1999 2387
16 2008 2450
17 2016 2507
19 2023 2560
20 2029 2607
21 2036 2648
23 2040 2672
5 1741 6
5 1766 223
5 1792 440
5 1819 647
6 1841 815
6 1859 966
6 1875 1102
6 1891 1227
7 1910 1380
7 1930 1523
8 1946 1659
8 1961 1779
9 1975 1891
10 1990 1992
11 2003 2088
12 2015 2176
13 2026 2256
15 2035 2332
16 2044 2401
17 2052 2463
19 2060 2520
20 2067 2573
21 2073 2621
23 2079 2663
24 2083 2687
6 1787 7
6 1812 225
6 1838 443
6 1864 654
7 1886 824
7 1904 977
7 1920 1115
7 1934 1236
8 1953 1387
8 1973 1530
9 1988 1668
10 2004 1788
11 2017 1901
11 2031 2003
12 2044 2099
13 2056 2188
14 2067 2268
16 2076 2343
17 2084 2412
18 2093 2475
20 2101 2532
21 2107 2585
22 2113 2633
24 2118 2676
25 2122 2701
7 1829 8
7 1854 227
7 1879 446
7 1905 659
8 1927 833
8 1945 987
8 1960 1126
8 1975 1249
9 1993 1393
9 2012 1537
10 2027 1675
11 2042 1796
12 2055 1909
12 2068 2012
14 2081 2108
14 2093 2198
15 2104 2278
17 2113 2354
18 2122 2423
19 2129 2486
21 2138 2543
22 2144 2596
24 2150 2644
25 2155 2687
27 2159 2712
7 1867 10
7 1891 229
8 1916 448
8 1942 664
8 1964 840
9 1981 996
9 1997 1137
9 2011 1261
10 2028 1398
11 2046 1544
11 2062 1681
12 2076 1804
13 2089 1917
14 2101 2021
15 2114 2117
16 2126 2206
17 2137 2287
18 2146 2363
19 2155 2432
21 2162 2495
22 2170 2552
24 2177 2605
25 2182 2653
26 2188 2696
33 2194 2721
8 1901 11
8 1925 230
9 1950 451
9 1976 669
9 1996 847
10 2014 1004
10 2029 1146
10 2043 1272
11 2059 1403
12 2078 1550
12 2093 1687
13 2107 1811
14 2120 1923
15 2132 2028
16 2144 2124
17 2156 2213
18 2167 2296
20 2176 2371
21 2184 2440
22 2192 2503
24 2199 2561
25 2206 2614
26 2212 2662
28 2217 2705
29 2220 2730
9 1931 12
9 1955 232
10 1980 454
10 2005 674
10 2025 854
11 2043 1012
11 2059 1155
11 2072 1283
12 2087 1409
13 2105 1555
14 2120 1693
14 2134 1818
15 2147 1930
16 2159 2034
17 2171 2132
18 2183 2221
19 2194 2303
21 2202 2379
22 2211 2449
23 2218 2512
25 2225 2569
26 2231 2623
28 2237 2671
29 2243 2714
31 2246 2739
13 1943 18
13 1967 238
14 1992 456
14 2018 677
15 2039 856
12 2055 1015
12 2072 1160
16 2088 1288
13 2101 1412
14 2119 1559
15 2135 1696
20 2150 1821
17 2162 1934
17 2174 2039
19 2186 2136
20 2198 2225
21 2209 2308
22 2218 2384
24 2226 2453
34 2238 2517
32 2243 2574
33 2249 2628
34 2255 2676
41 2263 2719
37 2264 2744
159 0 0
160 49 177
170 95 347
181 144 525
193 192 702
200 240 880
206 285 1039
212 331 1204
221 372 1359
226 410 1500
231 449 1637
236 483 1755
241 513 1864
248 541 1969
252 566 2063
257 592 2153
260 615 2234
265 635 2307
270 653 2375
274 670 2437
278 686 2494
281 701 2545
284 715 2592
287 727 2635
289 731 2648
163 116 0
156 146 137
167 203 302
178 253 478
188 305 662
198 352 844
205 401 1024
212 447 1201
221 491 1366
226 529 1520
231 568 1663
236 601 1788
241 632 1899
248 658 2004
252 683 2101
257 707 2191
260 731 2273
265 749 2350
270 767 2419
274 784 2481
278 800 2539
281 814 2593
284 827 2640
287 840 2682
289 844 2697
162 235 0
159 272 141
166 320 281
174 365 430
185 416 607
194 462 787
201 509 968
209 553 1141
218 596 1308
225 636 1465
230 672 1614
236 706 1749
241 737 1872
248 765 1985
252 791 2091
257 816 2187
260 839 2276
265 860 2358
270 878 2434
274 895 2503
278 911 2566
281 926 2623
284 940 2675
287 952 2721
289 957 2737
162 379 0
163 409 154
168 445 284
173 490 432
183 534 586
191 573 738
199 616 911
206 660 1083
215 700 1250
222 737 1408
228 774 1555
234 805 1689
239 835 1815
246 865 1930
251 889 2037
256 912 2135
260 934 2228
265 956 2309
270 975 2386
274 991 2457
278 1006 2520
281 1020 2577
284 1033 2631
287 1045 2679
289 1050 2697
162 525 0
165 544 167
170 575 297
175 615 438
182 658 596
190 699 747
197 734 894
204 766 1040
213 806 1196
220 843 1353
225 876 1500
231 907 1635
237 937 1759
244 965 1876
249 991 1983
254 1012 2082
257 1033 2172
263 1053 2258
268 1072 2337
272 1089 2405
276 1103 2471
279 1116 2530
283 1128 2584
286 1140 2630
283 1144 2651
162 670 0
166 679 176
172 708 316
177 739 446
184 783 604
190 821 758
196 855 906
203 889 1052
212 921 1191
219 951 1320
224 980 1451
230 1009 1586
235 1037 1709
242 1064 1826
247 1089 1933
252 1111 2034
256 1131 2125
261 1150 2208
266 1167 2288
271 1184 2359
274 1200 2424
277 1213 2484
281 1224 2537
284 1235 2585
286 1240 2606
163 798 0
167 809 185
173 837 337
178 865 463
185 901 614
192 940 772
197 975 921
203 1007 1069
212 1039 1208
218 1070 1340
223 1095 1464
229 1118 1574
234 1141 1678
241 1165 1782
246 1187 1890
250 1209 1990
254 1228 2082
259 1245 2169
265 1263 2245
269 1278 2317
272 1292 2383
276 1306 2442
279 1318 2495
283 1328 2544
284 1333 2566
163 922 0
168 938 193
174 965 352
179 992 489
186 1021 627
193 1058 784
198 1091 937
203 1126 1087
211 1157 1226
218 1186 1360
223 1211 1484
228 1234 1598
233 1255 1701
240 1277 1797
245 1295 1887
250 1312 1970
253 1327 2047
258 1344 2129
264 1360 2208
268 1374 2281
271 1388 2346
275 1401 2406
278 1412 2460
281 1423 2509
283 1428 2532
163 1039 0
169 1061 199
175 1082 366
180 1109 512
187 1135 641
194 1168 796
199 1201 951
204 1235 1101
212 1264 1245
218 1293 1378
223 1317 1505
228 1339 1618
233 1360 1725
240 1381 1821
245 1399 1911
249 1415 1995
253 1430 2071
258 1444 2144
263 1457 2210
268 1469 2269
271 1480 2322
274 1489 2373
278 1499 2427
281 1510 2475
282 1515 2499
163 1149 0
169 1173 203
176 1189 379
181 1216 530
188 1242 665
195 1270 806
200 1303 963
205 1336 1116
213 1365 1259
219 1392 1395
223 1415 1522
228 1437 1636
233 1457 1744
240 1478 1844
245 1496 1934
249 1511 2017
253 1525 2094
258 1539 2166
263 1553 2234
268 1565 2295
271 1576 2349
274 1585 2399
277 1594 2444
281 1601 2485
282 1605 2506
163 1248 1
170 1276 206
177 1292 388
181 1316 545
189 1343 687
195 1367 815
201 1398 974
206 1430 1128
214 1459 1272
219 1484 1410
224 1506 1538
229 1527 1654
233 1548 1762
240 1568 1863
245 1585 1955
249 1600 2038
253 1614 2116
258 1628 2189
263 1641 2256
268 1653 2318
271 1664 2374
274 1674 2425
278 1682 2470
281 1690 2511
282 1694 2533
