Creative/2D - Volumize.3dl
#25pt 3DLUT created by 3D LUT Creator Pro (c) Oleg Sharonov
#Copyright Oleg Sharonov
#IMAGEPROFILE 
#INPUTGAMMA 
#OUTPUTGAMMA 
0 256 512 768 1023
0 0 0
0 23 1017
0 126 2139
267 543 3450
1833 1561 4095
0 758 0
0 765 812
0 874 1877
293 1142 3214
1761 1802 4095
0 1503 189
0 1541 818
0 1687 1765
0 1951 2971
1417 2388 4095
0 2242 443
0 2311 899
0 2466 1752
0 2688 2810
0 3070 4089
0 2968 639
0 3032 924
0 3200 1689
0 3424 2741
0 3673 3887
995 0 3
1044 0 922
1297 0 2058
1577 449 3410
2238 1584 4095
946 789 0
873 873 872
1203 971 1986
1468 1180 3269
2173 1838 4095
839 1588 0
802 1720 676
891 1885 1823
1128 2056 3092
1915 2433 4095
460 2379 0
0 2490 445
379 2641 1654
601 2827 2885
1170 3120 4095
0 3067 116
0 3133 682
0 3311 1559
0 3527 2714
0 3750 3961
1981 0 168
2038 0 926
2433 0 1984
2865 293 3299
3120 1648 4095
1967 887 0
2003 1017 928
2392 1087 1996
2761 1228 3275
3060 1926 4095
1857 1800 0
1976 1894 882
2080 2080 2079
2528 2201 3221
2878 2536 4095
1730 2574 0
1759 2674 551
2008 2839 1750
2071 3042 2921
2492 3220 4095
1404 3268 0
1201 3362 0
1516 3504 1468
1668 3693 2678
1756 3878 4031
3111 0 414
3152 291 1030
3469 488 2030
3936 563 3217
4054 1803 4095
3098 986 90
3126 1154 979
3429 1257 2027
3869 1335 3221
4003 2068 4095
2829 2028 0
2934 2105 940
3194 2266 1988
3706 2320 3162
3832 2678 4095
2651 2830 0
2768 2895 845
3027 3029 2007
3198 3198 3198
3560 3349 4095
2433 3499 0
2452 3562 299
2707 3681 1647
2939 3840 2778
2979 4008 4079
4095 1076 863
4095 1273 1307
4095 1679 2224
4095 2160 3088
4095 2689 3742
4095 1421 637
4095 1581 1198
4095 1932 2209
4095 2347 3119
4095 2823 3780
3901 2294 0
4000 2339 827
4095 2506 2038
4095 2811 3154
4095 3174 3864
3526 3099 0
3626 3138 855
3860 3234 1991
4095 3370 3073
4095 3626 3983
3250 3757 0
3336 3793 696
3586 3869 1849
3860 3980 2967
4095 4095 4095
