Creative/2D - Shape Reds.3dl
#25pt 3DLUT created by 3D LUT Creator Pro (c) Oleg Sharonov
#Copyright Oleg Sharonov
#INPUTGAMMA sRGB IEC61966-2.1 v.2.10
#IMAGEPROFILE sRGB IEC61966-2.1 v.2.10
#OUTPUTGAMMA sRGB IEC61966-2.1 v.2.10
0 128 256 384 512 640 768 896 1023
0 0 0
0 0 397
0 0 788
0 0 1184
0 0 1544
0 0 1836
0 0 2124
0 0 2412
0 0 2703
0 369 0
0 391 423
0 414 843
0 421 1296
0 442 1738
0 523 2135
0 596 2557
0 671 3001
0 745 3464
0 738 0
0 784 449
0 829 900
0 844 1401
0 875 1929
0 1013 2417
0 1169 2887
0 1340 3366
0 1539 3834
0 1107 0
0 1180 467
0 1255 936
0 1279 1479
0 1339 2038
0 1570 2487
0 1804 2945
0 2050 3419
0 2313 3912
0 1474 0
0 1600 449
0 1724 898
0 1774 1456
0 1858 2030
0 2115 2495
0 2380 2973
0 2662 3466
0 2958 3979
0 1841 0
0 2017 427
0 2196 857
0 2269 1429
0 2366 2024
0 2623 2505
0 2887 2995
0 3164 3505
0 3454 4028
0 2211 0
0 2441 407
0 2672 814
0 2773 1402
0 2870 2015
0 3092 2512
0 3321 3015
0 3561 3537
0 3809 4065
0 2580 0
0 2861 385
0 3144 773
0 3270 1373
0 3364 2008
0 3520 2518
0 3682 3034
0 3850 3558
3 4023 4087
3 2950 2
3 3284 367
0 3618 731
0 3770 1346
0 3848 2003
0 3908 2525
0 3970 3046
3 4032 3570
3 4095 4095
513 0 0
558 0 383
603 0 761
648 0 1145
688 0 1515
725 0 1827
759 0 2120
794 0 2410
828 0 2703
510 367 0
552 404 409
593 440 819
633 457 1256
677 459 1708
712 509 2116
744 574 2536
777 641 2975
811 706 3425
506 734 0
544 804 435
581 871 876
619 902 1365
664 902 1895
702 983 2389
727 1112 2867
747 1256 3349
767 1425 3822
503 1094 0
534 1196 451
568 1302 904
603 1352 1420
643 1370 1993
667 1521 2473
683 1729 2936
692 1949 3409
696 2178 3899
506 1465 0
532 1623 432
559 1782 862
586 1858 1389
617 1894 1982
632 2064 2479
637 2298 2962
636 2553 3457
635 2812 3964
506 1832 0
524 2037 410
544 2247 821
563 2350 1361
586 2398 1974
596 2575 2490
600 2810 2985
595 3061 3494
588 3319 4014
509 2203 0
521 2454 392
535 2703 783
547 2832 1331
563 2893 1964
567 3053 2496
566 3260 3006
560 3478 3527
554 3700 4054
512 2575 0
517 2863 370
525 3155 744
530 3302 1304
539 3374 1955
539 3496 2502
537 3646 3026
533 3801 3551
528 3960 4081
514 2950 2
514 3272 354
513 3595 706
513 3761 1275
513 3842 1949
513 3906 2509
513 3969 3039
514 4032 3567
514 4095 4095
1024 0 0
1101 0 374
1175 0 743
1250 0 1116
1319 0 1480
1383 0 1796
1444 0 2099
1505 0 2399
1566 0 2703
1017 365 0
1088 414 400
1156 463 801
1223 487 1228
1298 485 1676
1358 521 2086
1417 570 2504
1478 617 2939
1538 668 3384
1010 730 0
1074 816 426
1135 905 861
1196 946 1333
1273 940 1858
1337 999 2352
1387 1094 2829
1431 1193 3316
1476 1307 3810
1004 1081 0
1058 1201 439
1114 1343 877
1168 1410 1374
1237 1419 1938
1278 1536 2426
1313 1702 2901
1341 1865 3387
1361 2046 3887
1009 1452 0
1054 1633 420
1098 1823 837
1143 1919 1339
1194 1949 1926
1221 2085 2432
1239 2271 2926
1250 2461 3432
1259 2669 3949
1012 1822 0
1044 2046 400
1076 2287 796
1107 2407 1310
1146 2449 1915
1167 2592 2439
1177 2784 2948
1178 2975 3469
1174 3186 4002
1017 2195 0
1039 2459 382
1060 2729 761
1079 2876 1280
1104 2932 1904
1114 3066 2445
1118 3238 2968
1114 3409 3503
1108 3594 4042
1021 2571 0
1030 2863 361
1043 3164 723
1050 3325 1252
1065 3393 1893
1065 3501 2449
1065 3630 2987
1063 3759 3529
1057 3897 4074
1025 2948 0
1025 3263 344
1025 3578 688
1025 3755 1224
1025 3835 1886
1025 3900 2454
1025 3964 3000
1025 4030 3548
1026 4095 4095
1534 0 0
1626 0 364
1718 0 726
1809 0 1088
1892 0 1443
1973 0 1764
2052 0 2079
2131 0 2389
2214 0 2703
1524 363 0
1609 424 391
1692 484 785
1772 517 1197
1864 513 1640
1940 535 2055
2020 566 2473
2100 599 2909
2182 632 3348
1517 727 0
1593 830 416
1664 932 843
1737 988 1298
1831 978 1817
1913 1014 2311
1984 1071 2792
2047 1140 3285
2118 1209 3780
1505 1065 0
1568 1209 428
1636 1379 853
1701 1467 1326
1784 1475 1879
1839 1558 2375
1893 1669 2867
1936 1790 3366
1979 1913 3874
1511 1437 0
1563 1643 408
1615 1858 815
1664 1978 1291
1726 2003 1864
1767 2104 2381
1806 2232 2891
1831 2376 3409
1857 2526 3934
1518 1807 0
1555 2053 389
1591 2317 774
1626 2460 1258
1673 2499 1852
1701 2609 2385
1724 2747 2912
1735 2901 3447
1749 3058 3990
1521 2184 0
1549 2463 372
1573 2753 740
1595 2919 1229
1625 2972 1839
1638 3081 2391
1652 3209 2931
1654 3348 3480
1661 3491 4031
1528 2565 0
1538 2863 351
1554 3171 706
1561 3347 1199
1578 3414 1827
1583 3506 2392
1586 3612 2950
1588 3723 3507
1591 3836 4068
1535 2948 0
1535 3255 335
1535 3564 673
1535 3749 1172
1535 3826 1819
1535 3894 2397
1535 3960 2963
1535 4027 3529
1539 4095 4095
2046 0 0
2141 0 355
2237 0 707
2332 0 1063
2419 0 1409
2505 0 1734
2592 0 2060
2679 0 2381
2767 0 2702
2033 361 0
2120 433 381
2204 508 768
2289 547 1173
2382 536 1605
2465 546 2024
2557 560 2445
2646 575 2877
2734 593 3308
2024 725 0
2101 844 407
2173 963 825
2246 1028 1267
2346 1011 1778
2435 1028 2270
2521 1051 2759
2601 1083 3256
2684 1115 3748
2009 1053 0
2075 1220 416
2144 1422 827
2209 1525 1282
2293 1523 1824
2357 1575 2328
2425 1637 2835
2487 1707 3345
2547 1780 3859
2016 1428 0
2071 1657 397
2122 1904 789
2169 2040 1245
2232 2054 1807
2281 2123 2332
2332 2199 2859
2375 2287 3388
2417 2380 3919
2023 1798 0
2062 2065 378
2099 2354 750
2133 2516 1210
2180 2545 1792
2214 2626 2335
2247 2714 2878
2271 2817 3427
2301 2920 3975
2030 2177 0
2060 2470 362
2082 2781 717
2103 2963 1181
2133 3008 1778
2151 3092 2339
2172 3183 2897
2184 3281 3460
2200 3383 4020
2036 2560 0
2047 2865 341
2063 3178 686
2070 3370 1151
2085 3431 1765
2095 3510 2338
2101 3595 2916
2109 3682 3489
2117 3773 4061
2046 2948 0
2045 3247 326
2046 3549 656
2046 3744 1126
2046 3819 1756
2046 3888 2343
2045 3955 2928
2045 4025 3513
2047 4095 4095
2556 0 0
2645 0 351
2732 0 695
2821 0 1048
2902 0 1389
2983 0 1718
3066 0 2047
3149 0 2374
3232 0 2703
2542 401 0
2621 478 378
2696 563 763
2776 599 1164
2862 576 1596
2945 564 2015
3033 560 2429
3118 554 2849
3202 550 3263
2527 784 0
2598 909 407
2660 1039 816
2727 1103 1254
2821 1069 1761
2908 1052 2252
2997 1043 2738
3081 1034 3231
3169 1025 3717
2510 1120 0
2575 1319 407
2636 1543 805
2693 1646 1252
2770 1619 1789
2836 1612 2303
2907 1624 2816
2979 1632 3328
3050 1643 3845
2522 1508 0
2573 1754 389
2617 2028 766
2658 2164 1213
2713 2150 1772
2769 2162 2306
2822 2187 2838
2876 2210 3371
2930 2236 3905
2532 1874 0
2567 2159 370
2599 2471 727
2628 2634 1178
2669 2637 1756
2707 2663 2310
2745 2702 2857
2779 2742 3410
2820 2782 3961
2539 2239 0
2562 2544 353
2581 2869 698
2597 3055 1150
2624 3080 1743
2646 3120 2312
2672 3173 2876
2693 3222 3445
2719 3275 4010
2548 2596 0
2557 2908 336
2571 3225 671
2576 3422 1121
2590 3470 1728
2601 3524 2311
2609 3587 2893
2621 3648 3475
2634 3710 4055
2557 2950 2
2557 3245 324
2556 3539 645
2556 3741 1100
2556 3815 1720
2556 3885 2315
2556 3953 2905
2557 4024 3501
2557 4095 4095
3069 0 0
3139 0 346
3209 0 690
3278 0 1035
3344 0 1377
3409 0 1708
3476 0 2042
3543 0 2370
3610 0 2703
3052 475 0
3112 558 379
3171 650 768
3233 683 1163
3304 639 1605
3373 607 2023
3448 576 2433
3518 551 2842
3586 526 3238
3034 897 0
3087 1028 406
3137 1179 817
3189 1237 1248
3265 1178 1762
3337 1130 2253
3415 1076 2739
3488 1034 3225
3567 985 3704
3024 1261 0
3073 1469 396
3120 1711 785
3162 1808 1219
3221 1739 1767
3277 1688 2288
3342 1627 2808
3408 1581 3320
3478 1528 3833
3036 1647 0
3070 1910 375
3104 2208 744
3133 2338 1180
3176 2278 1748
3225 2244 2290
3274 2197 2830
3326 2166 3362
3382 2124 3894
3047 2005 0
3071 2306 360
3093 2637 711
3114 2800 1146
3143 2762 1732
3176 2743 2293
3214 2712 2849
3250 2702 3400
3294 2678 3950
3055 2349 0
3070 2667 342
3085 3007 682
3093 3189 1119
3116 3184 1717
3134 3190 2294
3159 3188 2868
3182 3199 3436
3211 3201 4003
3063 2654 0
3070 2965 330
3077 3293 659
3081 3488 1095
3091 3516 1705
3102 3551 2292
3110 3583 2884
3123 3621 3467
3139 3653 4049
3069 2950 2
3069 3241 320
3069 3534 640
3069 3737 1078
3069 3812 1698
3069 3883 2297
3069 3952 2896
3069 4023 3494
3069 4095 4095
3582 0 0
3623 0 343
3663 0 682
3703 0 1025
3741 0 1365
3779 0 1699
3819 0 2034
3858 0 2367
3897 0 2703
3572 584 0
3606 709 383
3638 810 780
3672 842 1181
3717 780 1633
3759 708 2059
3804 628 2460
3846 557 2842
3886 509 3221
3555 1108 0
3582 1265 400
3608 1451 796
3636 1512 1228
3681 1420 1759
3725 1328 2271
3773 1248 2772
3818 1164 3258
3868 1071 3733
3557 1500 0
3581 1726 382
3602 1990 753
3623 2088 1185
3656 1992 1737
3688 1900 2273
3728 1807 2804
3769 1704 3323
3813 1603 3841
3561 1855 0
3578 2137 362
3595 2452 714
3610 2582 1146
3632 2490 1721
3659 2417 2276
3690 2321 2821
3724 2230 3361
3762 2143 3896
3568 2178 0
3582 2493 348
3590 2832 687
3599 2990 1118
3617 2933 1706
3635 2868 2277
3657 2800 2840
3682 2735 3397
3712 2654 3947
3573 2471 0
3579 2798 333
3585 3130 664
3589 3308 1094
3600 3292 1693
3611 3271 2278
3628 3232 2855
3645 3193 3430
3667 3162 3999
3574 2714 0
3578 3030 325
3581 3364 645
3583 3557 1075
3588 3570 1683
3594 3581 2276
3600 3594 2870
3610 3608 3460
3622 3620 4045
3582 2948 0
3582 3235 314
3582 3528 634
3582 3733 1064
3582 3809 1677
3582 3881 2281
3582 3950 2882
3582 4022 3488
3582 4095 4095
4095 0 0
4095 0 340
4095 0 675
4095 0 1015
4095 0 1353
4095 0 1690
4095 0 2027
4095 0 2363
4095 0 2703
4095 703 0
4095 848 391
4095 997 791
4095 1028 1203
4095 903 1662
4095 775 2081
4095 650 2466
4095 554 2835
4095 475 3186
4095 1499 0
4095 1728 378
4095 1938 750
4095 2023 1175
4095 1942 1718
4095 1806 2259
4095 1658 2786
4095 1434 3300
4095 1174 3768
4095 1862 0
4095 2120 360
4095 2389 712
4095 2506 1137
4095 2420 1703
4095 2324 2261
4095 2217 2807
4095 2108 3347
4095 1971 3880
4095 2154 0
4095 2450 347
4095 2767 684
4095 2909 1109
4095 2830 1687
4095 2736 2262
4095 2631 2821
4095 2529 3377
4095 2407 3922
4095 2409 0
4095 2728 333
4095 3068 661
4095 3233 1084
4095 3172 1674
4095 3099 2263
4095 3015 2836
4095 2929 3405
4095 2831 3966
4095 2627 0
4095 2954 324
4095 3295 643
4095 3477 1065
4095 3449 1663
4095 3409 2261
4095 3360 2848
4095 3312 3433
4095 3253 4008
4095 2807 0
4095 3126 318
4095 3446 631
4095 3643 1054
4095 3661 1659
4095 3669 2262
4095 3672 2860
4095 3675 3458
4095 3672 4051
4095 2948 0
4095 3234 312
4095 3520 625
4095 3728 1045
4095 3806 1651
4095 3879 2263
4095 3948 2869
4095 4022 3482
4095 4095 4095
