Creative/2d_curves_cyan_slim.3dl
#25pt 3DLUT created by 3D LUT Creator Pro (c) Oleg Sharonov
#Copyright Oleg Sharonov
0 128 256 384 512 640 768 896 1023
0 184 252
0 377 517
0 567 779
0 754 1040
0 944 1302
0 1135 1561
0 1326 1822
0 1517 2086
0 1708 2351
146 403 414
183 651 719
162 810 958
151 981 1208
147 1166 1465
146 1352 1722
146 1546 1983
146 1736 2245
146 1927 2511
293 750 441
367 938 903
324 1053 1136
310 1223 1386
303 1402 1638
297 1582 1893
294 1769 2150
293 1958 2409
293 2144 2670
439 1127 438
493 1268 903
485 1297 1315
464 1456 1554
454 1629 1806
446 1809 2058
441 1992 2317
439 2178 2573
439 2362 2829
582 1500 437
611 1575 898
645 1662 1364
617 1687 1723
596 1845 1965
587 2024 2215
582 2208 2473
581 2393 2732
581 2580 2989
728 1878 437
728 1878 897
784 2020 1365
757 1953 1824
739 2061 2123
731 2239 2376
728 2423 2636
727 2612 2893
727 2801 3151
874 2250 437
874 2250 896
902 2320 1363
894 2300 1824
882 2275 2276
877 2457 2533
874 2641 2791
873 2828 3049
873 3018 3309
1023 2624 438
1022 2624 895
1032 2649 1362
1031 2646 1825
1027 2635 2281
1024 2672 2689
1023 2859 2946
1022 3047 3208
1022 3240 3469
1167 3001 439
1167 2999 897
1167 2999 1361
1167 3001 1822
1167 3001 2280
1167 3001 2730
1167 3077 3105
1166 3266 3365
1166 3459 3630
512 160 220
513 263 360
511 484 664
510 699 966
510 916 1263
511 1115 1534
513 1311 1801
513 1508 2073
513 1708 2351
550 608 384
529 583 595
519 792 889
515 1006 1190
513 1220 1484
512 1415 1756
513 1611 2021
513 1808 2292
513 2007 2570
732 1074 383
681 940 625
676 1026 1062
670 1240 1361
665 1446 1652
661 1640 1921
660 1830 2186
659 2028 2455
658 2222 2727
859 1402 383
827 1317 621
829 1324 1161
822 1468 1527
817 1675 1822
812 1868 2087
808 2054 2348
805 2246 2619
804 2440 2887
977 1712 383
968 1691 621
973 1703 1159
971 1698 1692
964 1902 1989
955 2087 2250
949 2274 2512
947 2466 2780
946 2661 3048
1094 2014 383
1112 2062 621
1119 2079 1159
1121 2086 1694
1110 2123 2149
1099 2304 2411
1095 2492 2676
1093 2682 2939
1092 2880 3209
1240 2386 382
1255 2427 620
1264 2449 1158
1260 2440 1693
1250 2416 2214
1243 2519 2565
1240 2708 2829
1239 2900 3096
1239 3099 3367
1389 2762 383
1400 2791 623
1402 2798 1158
1397 2786 1693
1393 2777 2215
1390 2768 2692
1389 2926 2986
1388 3119 3254
1388 3320 3528
1533 3141 383
1533 3141 623
1533 3140 1158
1532 3140 1692
1531 3140 2215
1532 3140 2689
1533 3144 3146
1532 3339 3414
1533 3541 3690
1024 136 188
1026 270 370
1024 431 590
1020 658 909
1019 884 1220
1020 1096 1509
1023 1302 1789
1025 1502 2066
1025 1708 2351
1026 567 328
1026 582 599
1023 726 806
1020 961 1129
1019 1187 1439
1020 1396 1730
1023 1602 2009
1024 1802 2284
1024 2007 2570
1057 1106 328
1044 1072 640
1027 1027 1027
1026 1264 1350
1025 1488 1662
1024 1699 1949
1024 1900 2230
1024 2102 2505
1024 2303 2786
1218 1519 328
1195 1462 638
1172 1400 1028
1176 1487 1514
1175 1712 1827
1172 1922 2113
1170 2122 2390
1169 2320 2668
1169 2521 2946
1377 1932 328
1339 1839 638
1315 1775 1026
1322 1794 1589
1321 1935 1990
1317 2142 2278
1316 2342 2557
1313 2540 2831
1312 2740 3107
1516 2294 329
1484 2215 639
1460 2150 1027
1467 2171 1592
1470 2180 2135
1465 2366 2442
1461 2563 2719
1458 2758 2991
1458 2958 3266
1654 2645 329
1630 2587 639
1606 2526 1027
1614 2547 1592
1616 2555 2136
1609 2583 2599
1606 2782 2876
1605 2977 3150
1605 3182 3426
1776 2953 329
1777 2955 642
1754 2897 1027
1762 2918 1592
1758 2912 2137
1756 2905 2646
1755 2998 3034
1754 3194 3305
1754 3400 3587
1900 3275 329
1900 3275 642
1900 3275 1030
1898 3275 1592
1897 3275 2136
1897 3275 2645
1899 3275 3131
1899 3413 3465
1899 3618 3746
1539 114 157
1539 277 380
1536 448 615
1534 640 884
1534 863 1190
1534 1078 1486
1534 1292 1774
1535 1500 2063
1536 1708 2351
1539 525 275
1539 581 603
1535 746 832
1534 938 1099
1533 1162 1407
1533 1376 1704
1534 1589 1993
1535 1799 2280
1535 2006 2569
1539 1085 275
1539 1073 656
1540 1051 1055
1537 1238 1318
1534 1462 1629
1534 1678 1922
1534 1887 2213
1535 2098 2500
1535 2302 2785
1564 1606 275
1556 1588 653
1545 1556 1067
1540 1540 1540
1539 1765 1850
1537 1978 2144
1536 2190 2432
1536 2398 2723
1535 2603 3006
1716 2000 275
1704 1973 654
1689 1932 1067
1682 1913 1541
1684 1985 2011
1682 2198 2307
1680 2406 2597
1679 2614 2884
1677 2821 3166
1870 2397 275
1854 2359 654
1834 2307 1069
1827 2287 1544
1831 2297 2080
1829 2421 2468
1827 2629 2759
1824 2836 3046
1823 3038 3323
2006 2746 275
2001 2734 657
1980 2683 1070
1974 2663 1545
1978 2675 2082
1977 2674 2600
1973 2850 2918
1971 3055 3204
1971 3262 3485
2133 3070 275
2133 3068 659
2128 3057 1071
2120 3036 1545
2124 3047 2082
2121 3041 2601
2120 3067 3078
2118 3272 3361
2118 3480 3645
2266 3412 275
2266 3412 659
2266 3412 1072
2266 3412 1545
2266 3412 2083
2265 3412 2601
2266 3412 3108
2265 3492 3521
2264 3697 3803
2047 92 127
2048 281 384
2044 461 633
2041 650 898
2041 852 1175
2041 1071 1476
2041 1288 1769
2041 1498 2060
2041 1708 2351
2048 514 221
2048 580 604
2043 759 850
2042 949 1114
2041 1150 1391
2041 1369 1694
2041 1585 1987
2041 1796 2276
2042 2005 2568
2048 1060 221
2048 1055 664
2048 1065 1074
2045 1251 1334
2042 1447 1611
2041 1669 1910
2041 1882 2206
2042 2095 2496
2041 2301 2784
2048 1594 221
2046 1592 661
2048 1568 1099
2049 1555 1558
2045 1749 1831
2042 1969 2134
2042 2185 2426
2043 2395 2719
2042 2603 3006
2067 2101 221
2064 2096 661
2057 2074 1099
2052 2057 1564
2047 2048 2048
2046 2267 2351
2045 2479 2646
2044 2689 2935
2043 2899 3223
2210 2466 222
2213 2479 662
2203 2452 1100
2196 2431 1566
2191 2419 2050
2192 2487 2510
2190 2700 2804
2189 2909 3096
2188 3118 3381
2348 2826 222
2350 2833 666
2348 2828 1101
2341 2808 1567
2336 2796 2052
2337 2801 2578
2336 2922 2967
2333 3130 3256
2334 3340 3542
2488 3186 222
2490 3191 667
2489 3188 1103
2488 3184 1568
2482 3171 2054
2484 3177 2580
2483 3173 3095
2481 3349 3416
2481 3559 3703
2629 3546 222
2629 3546 667
2629 3546 1104
2629 3546 1569
2629 3546 2055
2628 3546 2582
2628 3546 3097
2628 3567 3575
2627 3774 3860
2556 70 96
2556 267 366
2553 461 632
2548 652 901
2548 858 1184
2548 1064 1467
2548 1284 1764
2548 1497 2058
2549 1707 2350
2556 511 168
2556 564 584
2551 757 848
2549 952 1118
2547 1156 1400
2547 1362 1685
2548 1581 1983
2547 1795 2275
2548 2005 2568
2557 1039 168
2556 1039 631
2556 1061 1071
2553 1253 1337
2550 1454 1620
2548 1661 1900
2548 1878 2201
2548 2093 2494
2547 2300 2783
2557 1572 168
2554 1572 629
2556 1559 1097
2558 1557 1560
2553 1757 1841
2550 1960 2122
2550 2180 2420
2550 2393 2717
2549 2603 3006
2556 2077 168
2554 2089 629
2555 2075 1096
2557 2060 1570
2556 2056 2058
2552 2257 2339
2551 2475 2640
2550 2687 2933
2550 2899 3222
2563 2573 168
2564 2579 629
2565 2580 1096
2561 2567 1569
2558 2561 2061
2555 2555 2555
2553 2773 2853
2553 2985 3149
2553 3199 3438
2707 2944 168
2708 2946 633
2707 2947 1098
2708 2946 1572
2705 2939 2065
2701 2932 2560
2702 2996 3018
2700 3208 3311
2700 3420 3601
2849 3313 168
2850 3315 634
2850 3315 1100
2850 3314 1573
2849 3313 2066
2845 3306 2561
2847 3309 3083
2845 3427 3472
2844 3636 3759
2996 3683 168
2996 3683 634
2996 3683 1101
2996 3683 1574
2996 3683 2068
2995 3682 2564
2995 3683 3086
2996 3683 3597
2994 3854 3918
3069 46 63
3069 247 339
3066 451 618
3059 650 897
3059 858 1184
3059 1068 1471
3060 1281 1760
3059 1495 2056
3060 1707 2350
3069 513 111
3070 545 557
3064 748 835
3062 950 1115
3060 1158 1402
3059 1367 1691
3060 1580 1980
3058 1795 2275
3060 2007 2570
3069 1031 111
3068 1032 586
3068 1049 1056
3065 1250 1333
3061 1456 1621
3059 1666 1906
3059 1876 2198
3059 2093 2493
3057 2302 2785
3070 1550 111
3068 1553 583
3068 1549 1073
3070 1552 1555
3065 1757 1841
3062 1964 2127
3061 2176 2415
3060 2391 2714
3060 2603 3006
3069 2056 111
3067 2061 583
3067 2063 1072
3070 2055 1563
3069 2056 2058
3065 2262 2345
3064 2470 2635
3061 2685 2931
3061 2899 3222
3069 2563 111
3067 2566 584
3066 2568 1072
3069 2566 1562
3068 2563 2062
3067 2560 2561
3065 2768 2848
3063 2983 3147
3064 3199 3439
3070 3072 111
3071 3073 587
3070 3073 1074
3071 3074 1562
3071 3074 2062
3069 3071 2563
3068 3068 3068
3065 3283 3363
3067 3499 3659
3216 3446 111
3217 3447 587
3216 3447 1076
3217 3447 1564
3216 3447 2065
3215 3447 2566
3214 3444 3072
3214 3504 3527
3212 3715 3816
3362 3823 111
3362 3823 588
3362 3823 1077
3362 3823 1566
3362 3823 2067
3361 3823 2570
3361 3822 3077
3361 3823 3594
3361 3936 3978
3582 23 32
3582 230 316
3580 438 601
3573 646 891
3570 855 1179
3570 1066 1469
3571 1282 1761
3571 1494 2055
3571 1708 2350
3582 513 56
3583 527 533
3579 734 817
3575 945 1108
3571 1154 1397
3571 1366 1689
3571 1580 1981
3571 1794 2273
3572 2007 2570
3582 1027 56
3582 1028 546
3583 1035 1037
3579 1246 1328
3575 1452 1617
3572 1665 1905
3572 1877 2199
3572 2093 2493
3570 2303 2786
3582 1540 56
3581 1542 544
3582 1542 1043
3584 1546 1548
3579 1752 1835
3574 1962 2125
3574 2177 2416
3574 2390 2713
3572 2603 3006
3582 2049 56
3580 2050 544
3581 2051 1042
3583 2051 1552
3582 2051 2052
3577 2260 2342
3576 2471 2636
3574 2684 2929
3573 2899 3223
3581 2558 56
3580 2558 545
3580 2558 1042
3582 2560 1552
3581 2559 2054
3580 2558 2559
3577 2769 2849
3576 2982 3145
3576 3199 3439
3582 3069 56
3582 3070 547
3581 3069 1044
3582 3070 1552
3581 3070 2054
3581 3069 2560
3581 3068 3069
3578 3281 3361
3579 3498 3658
3582 3582 56
3582 3582 547
3582 3583 1045
3583 3583 1552
3582 3582 2054
3581 3582 2560
3581 3582 3069
3582 3582 3582
3579 3795 3875
3729 3959 56
3729 3959 548
3729 3959 1046
3729 3959 1554
3729 3959 2056
3728 3959 2563
3728 3959 3074
3728 3959 3587
3728 4015 4037
4095 0 0
4095 216 296
4094 430 590
4087 640 883
4081 852 1175
4081 1065 1467
4082 1281 1760
4082 1494 2055
4083 1708 2351
4095 513 0
4095 513 513
4092 726 806
4088 939 1100
4084 1152 1393
4083 1364 1687
4083 1580 1980
4082 1794 2273
4083 2007 2570
4095 1026 0
4095 1026 512
4095 1026 1026
4092 1239 1319
4088 1449 1613
4084 1664 1903
4084 1877 2199
4084 2093 2493
4081 2303 2786
4095 1539 0
4095 1539 510
4095 1539 1023
4095 1539 1539
4091 1749 1831
4087 1960 2123
4086 2176 2416
4086 2390 2713
4084 2603 3006
4095 2047 0
4094 2048 510
4094 2048 1023
4095 2048 1539
4095 2048 2048
4090 2258 2340
4088 2471 2636
4086 2684 2930
4085 2899 3223
4094 2556 0
4093 2556 511
4092 2556 1023
4095 2556 1539
4094 2556 2047
4093 2556 2556
4089 2769 2849
4088 2982 3146
4088 3200 3439
4095 3069 0
4095 3069 513
4094 3068 1025
4095 3069 1539
4094 3069 2047
4093 3069 2556
4094 3069 3069
4090 3282 3362
4092 3499 3659
4095 3582 0
4095 3582 513
4095 3582 1026
4095 3582 1539
4095 3582 2047
4094 3581 2556
4094 3582 3068
4094 3582 3582
4091 3795 3875
4095 4095 0
4095 4095 513
4095 4095 1026
4095 4095 1539
4095 4095 2048
4094 4094 2556
4094 4094 3069
4095 4095 3582
4095 4095 4095
