Creative/2d_curves_cyan_slim.3dl
#25pt 3DLUT created by 3D LUT Creator Pro (c) Oleg Sharonov
#Copyright Oleg Sharonov
0 256 512 768 1023
0 184 252
0 567 779
0 944 1302
0 1326 1822
0 1708 2351
293 750 441
324 1053 1136
303 1402 1638
294 1769 2150
293 2144 2670
582 1500 437
645 1662 1364
596 1845 1965
582 2208 2473
581 2580 2989
874 2250 437
902 2320 1363
882 2275 2276
874 2641 2791
873 3018 3309
1167 3001 439
1167 2999 1361
1167 3001 2280
1167 3077 3105
1166 3459 3630
1024 136 188
1024 431 590
1019 884 1220
1023 1302 1789
1025 1708 2351
1057 1106 328
1027 1027 1027
1025 1488 1662
1024 1900 2230
1024 2303 2786
1377 1932 328
1315 1775 1026
1321 1935 1990
1316 2342 2557
1312 2740 3107
1654 2645 329
1606 2526 1027
1616 2555 2136
1606 2782 2876
1605 3182 3426
1900 3275 329
1900 3275 1030
1897 3275 2136
1899 3275 3131
1899 3618 3746
2047 92 127
2044 461 633
2041 852 1175
2041 1288 1769
2041 1708 2351
2048 1060 221
2048 1065 1074
2042 1447 1611
2041 1882 2206
2041 2301 2784
2067 2101 221
2057 2074 1099
2047 2048 2048
2045 2479 2646
2043 2899 3223
2348 2826 222
2348 2828 1101
2336 2796 2052
2336 2922 2967
2334 3340 3542
2629 3546 222
2629 3546 1104
2629 3546 2055
2628 3546 3097
2627 3774 3860
3069 46 63
3066 451 618
3059 858 1184
3060 1281 1760
3060 1707 2350
3069 1031 111
3068 1049 1056
3061 1456 1621
3059 1876 2198
3057 2302 2785
3069 2056 111
3067 2063 1072
3069 2056 2058
3064 2470 2635
3061 2899 3222
3070 3072 111
3070 3073 1074
3071 3074 2062
3068 3068 3068
3067 3499 3659
3362 3823 111
3362 3823 1077
3362 3823 2067
3361 3822 3077
3361 3936 3978
4095 0 0
4094 430 590
4081 852 1175
4082 1281 1760
4083 1708 2351
4095 1026 0
4095 1026 1026
4088 1449 1613
4084 1877 2199
4081 2303 2786
4095 2047 0
4094 2048 1023
4095 2048 2048
4088 2471 2636
4085 2899 3223
4095 3069 0
4094 3068 1025
4094 3069 2047
4094 3069 3069
4092 3499 3659
4095 4095 0
4095 4095 1026
4095 4095 2048
4094 4094 3069
4095 4095 4095
