Creative/2d_curves_cyan_slim.3dl
#25pt 3DLUT created by 3D LUT Creator Pro (c) Oleg Sharonov
#Copyright Oleg Sharonov
0 43 86 128 171 214 256 299 341 384 427 469 512 555 597 640 682 725 768 810 853 896 938 981 1023 
0 184 252
0 250 342
0 314 430
0 377 517
0 441 605
0 505 692
0 567 779
0 627 866
0 690 953
0 754 1040
0 817 1128
0 881 1215
0 944 1302
0 1006 1388
0 1070 1474
0 1135 1561
0 1200 1648
0 1263 1735
0 1326 1822
0 1389 1909
0 1453 1996
0 1517 2086
0 1580 2175
0 1644 2263
0 1708 2351
49 256 306
89 380 440
68 413 503
55 457 576
51 515 658
49 576 744
49 639 832
49 700 919
49 763 1006
49 826 1094
49 890 1181
49 954 1269
49 1016 1355
49 1079 1441
49 1142 1528
49 1206 1614
49 1272 1702
49 1336 1789
49 1399 1875
49 1462 1962
49 1526 2050
49 1589 2138
49 1653 2227
49 1717 2316
49 1780 2404
98 329 360
178 515 538
136 515 580
122 558 651
115 611 730
107 662 808
103 719 891
100 778 976
99 838 1061
98 900 1148
98 963 1235
98 1026 1322
98 1089 1408
98 1152 1495
98 1215 1581
98 1278 1668
98 1343 1755
98 1408 1842
98 1472 1928
98 1535 2015
98 1598 2103
98 1662 2191
98 1726 2279
98 1789 2369
98 1853 2457
146 403 414
207 558 569
204 618 654
183 651 719
172 699 795
166 754 876
162 810 958
156 864 1039
153 922 1124
151 981 1208
149 1042 1293
148 1104 1379
147 1166 1465
147 1227 1550
147 1289 1636
146 1352 1722
146 1416 1809
146 1481 1896
146 1546 1983
146 1609 2070
146 1672 2157
146 1736 2245
146 1800 2332
146 1863 2422
146 1927 2511
195 501 442
227 588 590
272 719 727
244 742 785
230 785 858
222 837 937
216 892 1018
212 949 1101
209 1008 1186
205 1065 1271
202 1124 1354
200 1184 1437
199 1245 1522
197 1305 1609
197 1367 1694
196 1428 1779
196 1492 1866
196 1556 1952
195 1620 2038
195 1683 2124
195 1746 2211
195 1810 2299
195 1873 2386
195 1937 2476
195 2001 2565
244 626 441
244 626 596
313 801 749
305 832 851
288 871 920
277 919 997
270 972 1077
265 1028 1158
261 1086 1243
258 1146 1330
256 1205 1414
253 1264 1496
250 1323 1579
249 1383 1665
247 1444 1751
246 1505 1836
246 1568 1923
245 1632 2009
245 1695 2094
244 1758 2180
244 1821 2267
244 1884 2354
244 1947 2441
244 2010 2530
244 2073 2619
293 750 441
293 750 595
351 897 749
367 938 903
345 956 983
333 1002 1058
324 1053 1136
318 1107 1216
313 1164 1300
310 1223 1386
307 1281 1471
305 1341 1555
303 1402 1638
300 1462 1722
298 1521 1808
297 1582 1893
296 1643 1979
295 1706 2065
294 1769 2150
293 1832 2236
293 1895 2323
293 1958 2409
293 2020 2495
293 2082 2582
293 2144 2670
342 874 440
342 874 595
387 990 749
410 1052 904
403 1043 1047
388 1085 1119
378 1134 1195
371 1186 1274
366 1242 1357
362 1300 1443
358 1358 1527
355 1416 1610
353 1476 1693
351 1538 1778
350 1599 1864
348 1659 1950
346 1720 2036
344 1780 2121
343 1842 2205
342 1906 2291
342 1969 2378
342 2032 2464
341 2093 2549
341 2154 2635
341 2216 2722
391 1000 439
391 1000 594
421 1080 749
453 1162 904
460 1182 1058
444 1169 1181
432 1216 1256
424 1267 1333
418 1321 1414
413 1378 1499
410 1436 1584
406 1493 1667
404 1552 1750
401 1614 1834
400 1675 1919
398 1736 2006
396 1796 2092
393 1856 2176
392 1916 2261
391 1980 2347
391 2044 2434
390 2105 2518
390 2167 2604
390 2228 2689
390 2288 2775
439 1127 438
439 1127 592
455 1167 748
493 1268 903
504 1297 1057
497 1280 1212
485 1297 1315
476 1346 1392
469 1400 1472
464 1456 1554
460 1513 1639
457 1570 1723
454 1629 1806
452 1690 1890
449 1751 1974
446 1809 2058
444 1870 2145
442 1931 2231
441 1992 2317
440 2054 2404
439 2117 2489
439 2178 2573
439 2239 2658
439 2301 2744
439 2362 2829
486 1252 438
486 1252 590
486 1252 746
531 1372 901
547 1411 1057
551 1422 1211
537 1386 1364
527 1425 1449
520 1477 1529
514 1533 1610
509 1589 1693
505 1645 1777
502 1703 1861
498 1763 1943
495 1822 2026
492 1881 2110
490 1942 2196
489 2003 2282
488 2065 2368
487 2127 2456
486 2188 2542
486 2249 2627
486 2311 2712
486 2373 2797
486 2435 2883
533 1376 437
533 1376 590
533 1376 744
571 1474 899
591 1523 1055
597 1540 1211
591 1524 1364
580 1504 1507
571 1555 1585
565 1610 1667
559 1665 1749
555 1721 1833
549 1775 1913
544 1832 1995
541 1892 2078
538 1952 2162
536 2013 2248
535 2075 2334
534 2136 2420
533 2198 2507
533 2259 2594
532 2321 2679
532 2383 2765
532 2445 2850
532 2508 2936
582 1500 437
581 1500 589
581 1500 743
611 1575 898
634 1635 1054
643 1657 1210
645 1662 1364
633 1630 1516
624 1633 1642
617 1687 1723
610 1740 1804
602 1791 1884
596 1845 1965
592 1902 2047
589 1962 2130
587 2024 2215
585 2085 2301
583 2147 2387
582 2208 2473
582 2269 2559
581 2331 2646
581 2393 2732
581 2455 2818
581 2518 2903
581 2580 2989
630 1625 437
630 1625 589
630 1625 743
650 1676 897
677 1747 1054
689 1775 1211
692 1784 1364
686 1768 1516
676 1743 1669
666 1761 1778
657 1810 1856
650 1862 1936
644 1916 2017
640 1974 2100
637 2032 2183
635 2094 2268
633 2157 2355
632 2219 2441
631 2280 2525
630 2341 2612
630 2403 2699
630 2466 2785
630 2528 2871
629 2590 2957
629 2653 3043
679 1751 437
679 1751 589
679 1751 743
689 1778 897
720 1857 1053
734 1892 1210
739 1904 1365
739 1904 1517
723 1865 1670
712 1835 1824
703 1881 1908
697 1934 1989
692 1989 2070
688 2046 2153
685 2105 2237
683 2166 2322
682 2229 2409
681 2291 2496
680 2351 2580
679 2413 2666
679 2475 2753
679 2539 2839
678 2602 2925
678 2664 3011
678 2727 3097
728 1878 437
728 1878 589
728 1878 742
728 1878 897
762 1967 1053
778 2006 1210
784 2020 1365
777 2004 1517
768 1979 1670
757 1953 1824
750 1951 1959
744 2005 2041
739 2061 2123
736 2119 2206
733 2178 2291
731 2239 2376
730 2301 2463
729 2362 2550
728 2423 2636
728 2485 2721
727 2547 2807
727 2612 2893
727 2676 2979
727 2738 3065
727 2801 3151
777 2003 437
776 2003 588
776 2003 742
776 2003 897
804 2075 1053
822 2120 1210
822 2117 1364
817 2106 1517
812 2092 1670
803 2069 1824
796 2052 1977
791 2076 2092
787 2133 2175
784 2192 2258
782 2252 2344
780 2312 2430
779 2375 2516
778 2436 2602
777 2496 2688
776 2558 2773
776 2620 2859
776 2684 2945
776 2748 3031
776 2811 3118
775 2873 3204
825 2127 437
825 2127 588
825 2127 742
825 2127 896
846 2181 1052
860 2215 1209
861 2217 1364
858 2209 1517
854 2199 1670
848 2184 1824
842 2170 1977
838 2159 2129
834 2204 2225
832 2264 2309
830 2324 2395
828 2385 2483
827 2447 2569
826 2508 2654
826 2569 2739
825 2631 2825
825 2694 2911
824 2756 2997
824 2820 3084
824 2883 3170
824 2945 3256
874 2250 437
874 2250 588
874 2250 742
874 2250 896
887 2284 1052
900 2316 1209
902 2320 1363
900 2316 1516
897 2308 1670
894 2300 1824
889 2287 1977
885 2278 2129
882 2275 2276
879 2335 2361
878 2395 2446
877 2457 2533
876 2518 2620
875 2580 2706
874 2641 2791
874 2703 2877
873 2766 2963
873 2828 3049
873 2891 3136
873 2955 3222
873 3018 3309
924 2375 437
924 2375 588
924 2375 741
924 2375 896
929 2388 1052
943 2421 1208
946 2427 1363
945 2425 1516
943 2420 1670
940 2413 1824
937 2406 1977
933 2398 2130
931 2392 2281
929 2406 2413
927 2467 2498
926 2528 2584
925 2590 2671
925 2652 2757
924 2713 2842
924 2776 2929
923 2838 3016
923 2901 3102
923 2964 3189
923 3029 3275
923 3092 3362
975 2499 437
975 2499 588
975 2499 741
975 2499 896
975 2499 1051
987 2529 1208
990 2536 1363
990 2536 1516
989 2532 1670
987 2528 1825
985 2524 1978
982 2517 2130
980 2513 2281
979 2509 2433
978 2539 2551
977 2600 2636
976 2662 2722
975 2724 2808
975 2786 2893
975 2848 2981
974 2911 3069
974 2973 3155
974 3037 3242
974 3101 3329
974 3166 3415
1023 2624 438
1023 2624 590
1022 2624 741
1022 2624 895
1023 2624 1051
1029 2641 1208
1032 2649 1362
1033 2650 1515
1032 2648 1669
1031 2646 1825
1030 2643 1978
1028 2639 2130
1027 2635 2281
1026 2633 2433
1025 2630 2583
1024 2672 2689
1024 2735 2775
1023 2797 2861
1023 2859 2946
1022 2921 3033
1022 2984 3121
1022 3047 3208
1022 3110 3294
1022 3175 3382
1022 3240 3469
1070 2750 439
1069 2748 591
1069 2748 742
1069 2748 895
1069 2748 1051
1072 2757 1207
1075 2764 1362
1075 2767 1514
1075 2766 1669
1075 2764 1824
1074 2763 1977
1073 2761 2130
1072 2758 2281
1071 2757 2432
1071 2755 2582
1070 2754 2732
1070 2808 2828
1070 2870 2914
1069 2932 2999
1069 2995 3086
1069 3058 3173
1069 3121 3260
1068 3184 3347
1069 3249 3436
1069 3314 3523
1118 2875 439
1118 2873 592
1118 2873 744
1117 2873 896
1117 2873 1050
1119 2876 1207
1120 2879 1361
1121 2882 1514
1121 2883 1668
1121 2882 1823
1120 2881 1977
1120 2881 2129
1119 2880 2281
1119 2879 2431
1119 2878 2581
1118 2877 2731
1118 2880 2881
1118 2942 2967
1118 3004 3052
1117 3067 3139
1117 3130 3225
1117 3193 3312
1117 3257 3399
1117 3322 3488
1117 3387 3577
1167 3001 439
1167 2999 592
1167 2999 745
1167 2999 897
1166 2999 1051
1167 2999 1207
1167 2999 1361
1167 3000 1513
1167 3001 1667
1167 3001 1822
1167 3001 1977
1167 3001 2129
1167 3001 2280
1167 3001 2430
1167 3001 2580
1167 3001 2730
1167 3001 2882
1167 3014 3019
1167 3077 3105
1166 3139 3191
1166 3203 3278
1166 3266 3365
1166 3329 3452
1166 3394 3541
1166 3459 3630
171 176 242
171 211 289
171 276 378
171 340 465
171 407 558
171 479 657
171 543 746
171 605 834
171 673 929
171 740 1021
171 807 1114
171 872 1203
171 935 1290
171 998 1377
171 1064 1467
171 1129 1553
171 1194 1641
171 1258 1728
171 1321 1815
171 1385 1903
171 1449 1991
171 1515 2084
171 1580 2175
171 1644 2263
171 1708 2351
211 335 360
218 379 415
191 403 473
181 452 547
176 513 635
174 581 732
173 644 819
172 707 908
171 773 1003
171 840 1095
171 907 1187
171 972 1276
171 1035 1364
171 1098 1450
171 1164 1540
171 1227 1627
171 1292 1714
171 1358 1802
171 1421 1889
171 1485 1976
171 1549 2064
171 1615 2156
171 1680 2247
171 1744 2336
171 1808 2424
300 504 424
283 478 486
263 513 554
247 552 623
236 603 701
231 666 794
227 724 878
224 785 966
223 851 1060
222 917 1151
221 983 1243
221 1046 1331
220 1109 1418
220 1172 1504
220 1237 1594
220 1299 1680
220 1364 1768
220 1429 1855
220 1494 1942
220 1558 2030
220 1622 2118
220 1688 2209
220 1753 2298
220 1817 2388
220 1880 2477
329 576 424
335 591 504
328 609 623
307 644 690
297 696 771
291 759 863
284 812 943
279 869 1027
276 934 1121
274 997 1212
273 1062 1301
271 1125 1388
270 1187 1475
270 1249 1561
269 1313 1650
269 1375 1736
269 1439 1823
269 1504 1910
269 1569 1997
269 1632 2084
269 1696 2172
269 1762 2263
269 1827 2352
269 1891 2442
269 1954 2531
350 628 423
380 706 504
380 705 658
366 730 752
353 778 831
346 840 923
340 896 1005
335 954 1089
331 1016 1180
327 1078 1271
325 1142 1360
323 1203 1445
321 1265 1531
320 1326 1618
319 1390 1707
319 1451 1793
318 1514 1879
318 1579 1966
318 1644 2053
318 1707 2140
317 1771 2228
317 1837 2318
317 1901 2407
317 1964 2496
317 2028 2585
366 670 423
423 815 504
428 830 658
425 821 812
410 862 892
401 922 983
393 976 1063
388 1032 1146
384 1096 1238
382 1159 1330
378 1220 1419
375 1280 1502
373 1341 1586
371 1402 1672
370 1465 1763
369 1526 1848
368 1588 1934
367 1653 2021
367 1717 2107
367 1780 2194
366 1844 2282
366 1909 2372
366 1974 2461
366 2036 2549
366 2099 2637
415 796 423
462 917 503
475 949 658
474 947 813
466 946 954
456 1005 1044
447 1057 1123
440 1112 1205
437 1176 1297
433 1238 1388
431 1301 1479
428 1360 1563
425 1419 1645
422 1480 1729
421 1543 1819
419 1603 1905
418 1665 1991
417 1727 2078
416 1791 2164
416 1855 2250
415 1919 2337
415 1984 2428
415 2048 2516
415 2108 2601
415 2170 2689
464 921 423
501 1015 502
519 1063 657
522 1069 812
521 1067 976
511 1086 1103
501 1136 1182
493 1190 1263
489 1253 1353
485 1315 1444
482 1377 1535
479 1436 1619
476 1496 1703
474 1558 1787
472 1621 1875
470 1680 1961
468 1742 2048
467 1803 2134
466 1865 2220
465 1929 2306
464 1993 2393
464 2059 2484
463 2121 2570
463 2181 2655
463 2242 2742
513 1045 421
538 1110 501
563 1176 655
569 1190 812
570 1193 976
565 1180 1150
554 1216 1240
546 1269 1320
541 1331 1410
537 1392 1499
533 1454 1590
530 1512 1675
526 1571 1758
524 1633 1843
522 1697 1931
520 1757 2017
519 1818 2103
516 1878 2188
514 1938 2274
513 2001 2361
513 2066 2448
512 2130 2537
512 2193 2624
512 2254 2709
512 2315 2795
561 1171 421
574 1205 500
604 1287 653
613 1310 809
616 1317 975
617 1321 1150
606 1297 1299
597 1348 1379
592 1410 1468
587 1470 1556
584 1532 1645
580 1589 1731
577 1648 1815
574 1709 1899
572 1773 1987
570 1833 2071
567 1892 2157
565 1953 2243
563 2013 2328
562 2075 2416
562 2139 2504
561 2203 2591
561 2265 2678
561 2327 2763
561 2388 2848
608 1298 421
608 1298 500
644 1396 653
656 1426 807
661 1437 973
664 1444 1149
657 1426 1306
648 1427 1436
642 1488 1525
637 1548 1613
633 1609 1701
628 1666 1786
625 1723 1871
622 1784 1954
619 1848 2042
616 1906 2125
613 1966 2210
612 2027 2296
610 2088 2382
609 2150 2471
608 2212 2558
608 2275 2646
608 2338 2732
608 2400 2817
607 2462 2903
