Creative/AB CMYK - Emerald & Red.3dl
#25pt 3DLUT created by 3D LUT Creator Pro (c) Oleg Sharonov
#Copyright Oleg Sharonov
#IMAGEPROFILE sRGB IEC61966-2.1 v.2.10
#INPUTGAMMA sRGB IEC61966-2.1 v.2.10
#OUTPUTGAMMA sRGB IEC61966-2.1 v.2.10
0 43 86 128 171 214 256 299 341 384 427 469 512 555 597 640 682 725 768 810 853 896 938 981 1023 
0 0 0
0 0 171
0 0 341
0 0 512
0 0 683
0 0 853
0 0 1024
0 0 1195
0 0 1365
0 0 1536
0 0 1706
0 0 1876
0 3 2046
3 3 2216
3 3 2386
3 3 2557
3 3 2727
3 3 2898
3 6 3068
3 6 3239
3 6 3409
3 6 3580
6 6 3751
6 6 3921
6 6 4092
0 161 113
16 165 186
3 171 343
3 171 513
0 171 684
0 171 855
0 171 1025
0 171 1196
0 171 1366
0 171 1536
0 171 1706
0 171 1876
3 171 2046
3 174 2216
3 174 2386
3 174 2557
3 174 2727
3 174 2897
3 177 3068
3 177 3239
6 177 3409
6 177 3580
6 177 3751
6 177 3921
6 177 4092
0 330 230
10 334 264
48 330 369
3 339 514
3 339 686
3 339 856
3 339 1027
3 339 1196
3 339 1366
0 341 1536
0 341 1705
0 341 1875
0 343 2045
0 343 2215
0 345 2385
0 345 2555
0 345 2726
0 347 2896
0 347 3066
0 347 3237
0 349 3408
0 349 3578
0 349 3749
0 349 3920
0 349 4090
0 497 352
0 501 384
16 501 454
58 499 566
6 510 692
3 510 857
3 510 1027
3 510 1197
3 512 1367
0 512 1536
0 512 1705
0 513 1875
0 513 2044
0 514 2214
0 516 2384
0 516 2554
0 517 2724
0 517 2894
0 518 3065
0 518 3236
0 518 3406
0 520 3577
0 520 3748
0 521 3918
0 521 4089
0 663 472
0 666 504
42 666 531
29 668 644
65 669 754
26 677 880
6 681 1028
3 682 1198
3 682 1367
0 682 1536
0 683 1705
0 683 1874
0 684 2043
0 685 2213
0 686 2383
0 687 2552
0 687 2723
0 688 2893
0 689 3063
0 689 3234
0 690 3404
0 690 3575
0 691 3746
0 691 3916
0 692 4087
0 831 593
0 833 622
26 833 650
52 835 720
36 837 833
103 836 943
55 844 1067
6 852 1198
3 852 1367
0 853 1536
0 853 1705
0 854 1874
0 855 2043
0 855 2212
0 856 2381
0 857 2551
0 858 2721
0 858 2891
0 859 3062
0 859 3232
0 860 3403
0 861 3573
0 861 3744
0 862 3915
0 862 4085
0 999 713
0 1000 741
13 1000 768
81 1001 797
65 1003 909
52 1005 1022
155 1003 1132
90 1011 1255
19 1021 1377
0 1023 1536
0 1024 1705
0 1025 1873
0 1025 2042
0 1026 2211
0 1027 2381
0 1027 2550
0 1028 2720
0 1028 2890
0 1029 3060
0 1030 3231
0 1030 3401
0 1031 3572
0 1031 3743
0 1032 3913
0 1032 4084
0 1167 833
0 1167 860
10 1167 886
78 1168 914
100 1169 984
78 1171 1097
81 1173 1210
212 1170 1320
139 1178 1443
55 1188 1564
0 1195 1705
0 1195 1873
0 1196 2042
0 1196 2210
0 1197 2380
0 1198 2549
0 1198 2719
0 1199 2889
0 1199 3059
0 1200 3229
0 1201 3400
0 1201 3570
0 1202 3741
0 1202 3911
0 1203 4082
0 1334 954
0 1334 980
10 1334 1004
74 1334 1031
149 1336 1058
119 1337 1171
94 1339 1285
119 1341 1397
269 1337 1509
198 1345 1631
97 1355 1751
0 1366 1872
0 1366 2041
0 1367 2210
0 1367 2379
0 1368 2548
0 1368 2718
0 1369 2887
0 1370 3058
0 1370 3228
0 1371 3398
0 1372 3569
0 1372 3739
0 1372 3910
0 1373 4080
0 1502 1073
0 1502 1098
13 1500 1123
78 1501 1148
152 1502 1175
177 1504 1245
139 1505 1359
110 1508 1474
174 1508 1586
324 1504 1698
255 1512 1819
152 1522 1938
29 1533 2056
0 1537 2209
0 1538 2378
0 1538 2547
0 1539 2717
0 1540 2886
0 1540 3056
0 1541 3227
0 1541 3397
0 1542 3568
0 1542 3738
0 1543 3908
0 1543 4079
0 1669 1195
0 1669 1217
19 1667 1241
84 1668 1266
161 1668 1292
245 1670 1318
206 1671 1432
165 1674 1547
126 1676 1662
233 1675 1774
383 1671 1887
312 1679 2007
217 1689 2125
81 1700 2243
0 1709 2377
0 1709 2547
0 1710 2716
0 1710 2885
0 1711 3056
0 1711 3226
0 1712 3396
0 1712 3566
0 1713 3737
0 1713 3907
0 1714 4078
0 1837 1314
0 1835 1337
29 1834 1360
94 1834 1384
177 1835 1409
262 1836 1434
280 1838 1504
235 1839 1619
189 1842 1735
155 1844 1850
291 1842 1962
439 1838 2075
369 1846 2194
276 1856 2313
142 1867 2430
0 1879 2547
0 1880 2715
0 1880 2884
0 1881 3054
0 1881 3225
0 1882 3395
0 1882 3565
0 1883 3735
0 1883 3906
0 1884 4076
0 2004 1434
0 2003 1456
36 2002 1479
107 2001 1502
192 2002 1526
278 2002 1551
358 2004 1576
310 2006 1692
262 2008 1807
214 2010 1923
209 2012 2038
347 2010 2150
496 2006 2264
427 2014 2383
337 2023 2500
214 2034 2618
45 2046 2735
0 2051 2884
0 2051 3054
0 2052 3224
0 2052 3394
0 2053 3564
0 2053 3734
0 2054 3905
0 2054 4075
0 2171 1554
0 2170 1576
42 2169 1598
116 2168 1621
209 2168 1644
293 2169 1668
374 2170 1693
388 2172 1763
337 2174 1879
289 2176 1995
238 2178 2111
264 2179 2226
404 2177 2339
553 2173 2453
484 2181 2571
396 2191 2689
282 2201 2806
116 2212 2923
0 2222 3053
0 2222 3223
0 2223 3393
0 2223 3563
0 2224 3733
0 2224 3904
0 2225 4074
0 2339 1674
0 2337 1696
45 2336 1717
129 2335 1740
220 2335 1762
306 2335 1786
388 2336 1810
465 2338 1834
414 2339 1950
363 2342 2067
312 2344 2183
257 2347 2300
318 2347 2414
460 2344 2527
610 2340 2641
540 2348 2759
455 2357 2877
345 2368 2994
201 2379 3111
0 2391 3228
0 2393 3392
0 2394 3562
0 2394 3732
0 2394 3902
0 2395 4073
0 2506 1794
0 2505 1815
48 2503 1837
136 2502 1859
230 2502 1881
318 2502 1904
399 2503 1928
478 2504 1952
490 2506 2022
437 2508 2138
384 2510 2255
330 2512 2372
276 2515 2489
370 2514 2602
517 2511 2716
666 2507 2830
597 2515 2948
514 2525 3065
411 2535 3183
278 2546 3300
61 2558 3417
0 2564 3561
0 2564 3731
0 2565 3902
0 2565 4072
0 2674 1914
0 2672 1935
48 2671 1956
139 2670 1978
238 2669 2001
326 2669 2023
408 2670 2046
488 2671 2070
565 2672 2094
512 2674 2210
457 2676 2327
403 2678 2444
347 2681 2561
289 2684 2678
423 2682 2791
571 2679 2904
724 2674 3019
655 2682 3136
573 2692 3254
474 2702 3371
349 2713 3488
158 2724 3605
0 2735 3731
0 2735 3901
0 2736 4071
0 2841 2034
0 2840 2055
42 2838 2076
139 2837 2098
240 2836 2120
330 2836 2142
414 2836 2165
494 2837 2189
572 2839 2212
584 2840 2282
528 2842 2399
474 2844 2516
417 2846 2633
360 2849 2750
328 2851 2867
477 2849 2979
627 2846 3093
780 2841 3207
712 2849 3325
632 2858 3442
536 2868 3559
417 2879 3677
252 2891 3794
0 2903 3911
0 2906 4070
0 3009 2154
0 3007 2175
32 3006 2196
132 3005 2218
238 3004 2239
332 3004 2262
416 3004 2284
497 3004 2308
576 3005 2331
653 3007 2355
599 3009 2471
542 3010 2588
486 3013 2705
430 3015 2822
370 3018 2939
376 3019 3055
528 3017 3168
682 3013 3282
837 3008 3396
769 3017 3514
691 3026 3631
597 3035 3748
484 3046 3865
336 3057 3983
81 3069 4095
0 3176 2275
0 3175 2296
19 3173 2317
119 3172 2338
233 3171 2360
328 3171 2382
416 3171 2404
499 3171 2427
578 3172 2450
656 3174 2474
666 3175 2544
611 3177 2661
554 3179 2777
497 3181 2894
439 3184 3011
381 3186 3129
425 3187 3244
582 3184 3357
737 3181 3470
894 3176 3585
826 3184 3702
749 3193 3820
658 3202 3937
550 3213 4054
768 3216 4095
0 3344 2395
0 3342 2416
0 3341 2437
103 3340 2458
220 3339 2480
322 3338 2501
412 3338 2524
496 3338 2547
577 3339 2570
656 3340 2593
733 3342 2617
677 3343 2733
620 3345 2850
564 3347 2967
506 3349 3084
448 3352 3201
388 3355 3319
475 3354 3433
634 3352 3545
793 3348 3659
950 3342 3773
883 3351 3891
807 3360 4008
752 3368 4095
1288 3354 4095
0 3512 2515
0 3510 2536
0 3509 2557
84 3507 2578
206 3507 2600
312 3506 2621
406 3506 2644
492 3506 2666
575 3506 2689
654 3507 2712
732 3509 2736
743 3510 2806
687 3512 2923
630 3514 3039
572 3516 3156
513 3518 3273
454 3521 3391
393 3523 3508
525 3522 3621
688 3519 3734
847 3515 3848
1008 3510 3962
940 3518 4080
1303 3506 4095
1673 3490 4095
0 3679 2635
0 3678 2656
0 3676 2677
61 3675 2698
189 3674 2720
302 3673 2741
398 3673 2763
486 3673 2786
570 3674 2809
651 3674 2832
731 3676 2855
807 3677 2879
751 3679 2996
695 3680 3112
637 3682 3229
579 3684 3346
521 3687 3463
460 3689 3580
409 3692 3698
577 3690 3810
742 3687 3923
903 3682 4037
1234 3668 4095
1740 3639 4095
2034 3621 4095
0 3847 2755
0 3845 2776
0 3844 2797
36 3843 2818
165 3842 2840
287 3841 2861
388 3840 2883
479 3840 2906
565 3841 2928
648 3841 2951
728 3842 2975
806 3844 2999
816 3845 3069
760 3847 3185
703 3849 3302
645 3850 3418
586 3853 3536
526 3855 3653
465 3858 3770
457 3860 3887
629 3857 3999
796 3854 4095
1625 3810 4095
2143 3766 4095
2386 3747 4095
0 4015 2876
0 4013 2897
0 4012 2917
10 4010 2939
139 4009 2960
271 4008 2982
377 4008 3004
471 4008 3026
559 4008 3048
643 4009 3071
725 4009 3094
803 4011 3118
881 4013 3142
825 4014 3258
768 4015 3375
710 4017 3491
652 4019 3608
593 4021 3725
532 4024 3842
470 4026 3960
506 4027 4075
1344 3994 4095
2118 3932 4095
2520 3889 4095
2756 3864 4095
171 0 0
171 0 158
168 0 341
165 0 513
165 3 684
165 3 854
165 0 1025
168 0 1195
168 0 1365
171 0 1536
171 0 1706
171 0 1875
171 3 2046
174 3 2216
174 3 2386
174 3 2556
174 3 2727
174 6 2897
174 6 3068
177 6 3239
177 6 3409
177 6 3580
177 6 3751
177 6 3921
177 6 4092
94 180 116
161 171 180
161 171 347
158 171 518
158 174 689
155 171 859
161 171 1029
165 171 1198
168 171 1367
171 171 1536
171 171 1705
174 171 1875
174 174 2044
177 174 2214
177 174 2384
177 177 2554
177 177 2725
180 177 2895
180 177 3066
180 180 3237
180 180 3407
180 180 3578
180 180 3749
180 180 3920
180 180 4090
65 343 248
132 337 299
177 337 365
161 341 522
158 341 693
161 341 862
165 339 1031
168 339 1199
168 341 1368
171 341 1536
171 341 1705
171 343 1874
171 345 2043
171 345 2212
171 347 2382
171 347 2552
171 349 2723
171 349 2893
171 349 3064
171 351 3235
171 351 3405
171 351 3576
171 352 3747
171 352 3918
171 352 4089
39 509 379
107 504 417
177 503 443
171 506 558
158 512 694
161 512 863
165 510 1032
165 510 1200
168 512 1368
171 512 1536
171 513 1704
171 513 1873
171 514 2042
171 516 2211
168 517 2381
168 518 2551
165 520 2721
165 520 2891
165 521 3062
161 521 3233
161 522 3403
161 522 3574
158 522 3745
158 523 3916
158 523 4086
19 673 509
87 670 535
152 669 562
183 671 632
183 674 746
161 681 868
161 682 1032
165 682 1200
168 682 1368
171 683 1536
171 683 1704
171 684 1872
168 685 2041
168 686 2210
165 687 2379
165 688 2549
161 689 2719
158 690 2889
158 691 3060
155 692 3230
152 692 3401
152 693 3572
149 694 3743
149 694 3913
145 695 4084
3 839 626
68 837 652
136 835 678
206 836 707
192 839 820
206 842 933
180 849 1055
165 852 1201
168 852 1368
168 853 1536
171 854 1704
171 855 1872
168 855 2040
168 856 2209
165 857 2378
161 859 2547
158 859 2717
155 860 2887
152 861 3058
149 862 3228
145 862 3399
142 863 3570
139 864 3741
136 864 3911
132 865 4082
0 1005 744
58 1003 769
123 1002 795
195 1003 823
222 1004 894
203 1008 1008
238 1009 1121
206 1016 1241
168 1023 1368
168 1024 1536
171 1024 1704
171 1025 1871
168 1026 2039
165 1027 2208
161 1028 2376
158 1028 2546
155 1030 2716
152 1030 2885
145 1031 3056
142 1032 3226
139 1033 3397
136 1033 3568
129 1034 3738
126 1035 3909
123 1035 4080
0 1171 862
52 1169 886
116 1168 912
189 1168 939
264 1170 967
243 1173 1080
230 1175 1194
278 1176 1308
240 1183 1427
183 1193 1546
171 1195 1703
171 1196 1871
168 1196 2039
165 1197 2207
161 1198 2376
158 1199 2545
152 1200 2714
149 1200 2884
142 1201 3054
139 1202 3225
132 1203 3395
129 1203 3566
123 1204 3737
119 1205 3907
113 1205 4078
0 1338 980
52 1336 1004
116 1335 1029
189 1335 1055
267 1336 1081
291 1337 1152
262 1340 1267
260 1343 1381
320 1343 1495
278 1350 1614
217 1359 1732
168 1366 1871
168 1367 2038
165 1368 2207
161 1368 2375
155 1369 2544
152 1370 2713
145 1371 2883
139 1372 3053
132 1372 3223
129 1373 3394
123 1373 3564
116 1374 3735
113 1375 3905
107 1375 4076
0 1504 1098
55 1502 1122
119 1501 1145
198 1501 1171
273 1501 1197
351 1503 1223
318 1505 1338
287 1508 1453
295 1510 1567
367 1510 1682
320 1517 1800
255 1527 1917
168 1537 2038
165 1538 2206
161 1538 2374
155 1539 2543
149 1540 2712
145 1541 2882
139 1541 3052
132 1542 3222
126 1543 3392
119 1543 3563
113 1544 3733
107 1545 3904
100 1545 4074
3 1671 1216
61 1669 1240
129 1668 1263
209 1667 1287
287 1668 1312
362 1669 1338
381 1670 1408
345 1673 1524
310 1677 1640
336 1678 1754
416 1677 1869
365 1685 1987
297 1694 2104
201 1705 2221
158 1709 2374
155 1710 2542
149 1711 2711
142 1711 2881
136 1712 3051
129 1713 3221
123 1713 3391
116 1714 3561
110 1714 3732
103 1715 3902
94 1716 4073
