Creative/AB CMYK - Emerald & Red.3dl
#25pt 3DLUT created by 3D LUT Creator Pro (c) Oleg Sharonov
#Copyright Oleg Sharonov
#IMAGEPROFILE sRGB IEC61966-2.1 v.2.10
#INPUTGAMMA sRGB IEC61966-2.1 v.2.10
#OUTPUTGAMMA sRGB IEC61966-2.1 v.2.10
0 256 512 768 1023
0 0 0
0 0 1024
0 3 2046
3 6 3068
6 6 4092
0 999 713
155 1003 1132
0 1025 2042
0 1029 3060
0 1032 4084
0 2004 1434
358 2004 1576
496 2006 2264
0 2051 3054
0 2054 4075
0 3009 2154
416 3004 2284
486 3013 2705
837 3008 3396
81 3069 4095
0 4015 2876
377 4008 3004
881 4013 3142
532 4024 3842
2756 3864 4095
1024 0 0
1037 13 961
1030 0 2041
1040 0 3060
1045 0 4085
619 1090 694
992 1030 1059
1045 1024 2019
1064 1031 3022
1063 1038 4049
666 2039 1444
1021 2006 1697
1116 2026 2130
1073 2050 3016
1064 2056 4038
726 3022 2217
1098 2998 2387
1492 2992 2515
1271 3031 3245
1070 3077 4034
709 4019 2985
1118 4000 3103
1521 3992 3229
1585 4009 3657
2622 3918 4095
2048 0 0
2076 45 670
2074 52 1921
2067 0 3051
2074 0 4074
1936 1084 452
2094 1003 896
2075 1027 1952
2094 1017 3007
2101 1023 4031
1437 2152 1363
1754 2088 1671
2086 2041 1993
2129 2040 2966
2133 2048 3986
1486 3094 2101
1797 3045 2403
2136 3012 2641
2208 3040 3080
2145 3069 3984
1489 4070 2871
1807 4028 3178
2167 4003 3345
2551 3993 3469
2675 3999 4095
3071 0 0
3094 58 522
3121 145 1621
3111 132 2881
3107 0 4056
3109 977 78
3143 962 736
3141 1028 1625
3124 1033 2883
3126 1003 4018
2735 2171 1150
3005 2062 1374
3178 2012 1839
3152 2035 2898
3154 2036 3969
2265 3211 2029
2560 3145 2316
2865 3090 2613
3186 3051 2920
3195 3056 3935
2473 4095 2892
2551 4095 3068
2865 4057 3371
3202 4026 3607
3275 4056 4049
4095 0 0
4095 65 393
4095 318 1310
4095 431 2577
4095 262 3840
4095 925 165
4095 969 633
4095 1059 1511
4095 1144 2575
4095 1076 3829
3935 2143 850
4095 2002 1066
4095 2043 1779
4095 2101 2604
4095 2082 3811
3510 3249 1852
3779 3154 2086
4067 3065 2331
4095 3074 2881
4095 3098 3811
3573 4095 3394
3615 4095 3407
3705 4095 3431
3931 4095 3580
4095 4090 4056
