Creative/AB CMYK - Emerald & Red.3dl
#25pt 3DLUT created by 3D LUT Creator Pro (c) Oleg Sharonov
#Copyright Oleg Sharonov
#IMAGEPROFILE sRGB IEC61966-2.1 v.2.10
#INPUTGAMMA sRGB IEC61966-2.1 v.2.10
#OUTPUTGAMMA sRGB IEC61966-2.1 v.2.10
0 128 256 384 512 640 768 896 1023
0 0 0
0 0 512
0 0 1024
0 0 1536
0 3 2046
3 3 2557
3 6 3068
3 6 3580
6 6 4092
0 497 352
58 499 566
3 510 1027
0 512 1536
0 513 2044
0 516 2554
0 518 3065
0 520 3577
0 521 4089
0 999 713
81 1001 797
155 1003 1132
0 1023 1536
0 1025 2042
0 1027 2550
0 1029 3060
0 1031 3572
0 1032 4084
0 1502 1073
78 1501 1148
139 1505 1359
324 1504 1698
29 1533 2056
0 1538 2547
0 1540 3056
0 1542 3568
0 1543 4079
0 2004 1434
107 2001 1502
358 2004 1576
214 2010 1923
496 2006 2264
214 2034 2618
0 2051 3054
0 2053 3564
0 2054 4075
0 2506 1794
136 2502 1859
399 2503 1928
437 2508 2138
276 2515 2489
666 2507 2830
411 2535 3183
0 2564 3561
0 2565 4072
0 3009 2154
132 3005 2218
416 3004 2284
653 3007 2355
486 3013 2705
376 3019 3055
837 3008 3396
597 3035 3748
81 3069 4095
0 3512 2515
84 3507 2578
406 3506 2644
654 3507 2712
687 3512 2923
513 3518 3273
525 3522 3621
1008 3510 3962
1673 3490 4095
0 4015 2876
10 4010 2939
377 4008 3004
643 4009 3071
881 4013 3142
710 4017 3491
532 4024 3842
1344 3994 4095
2756 3864 4095
512 0 0
514 6 478
505 3 1027
512 0 1536
516 0 2044
521 3 2554
523 3 3065
526 3 3577
527 3 4090
287 547 351
486 517 541
494 513 1043
509 512 1537
522 516 2035
527 520 2540
531 522 3051
531 525 3564
531 527 4078
235 1026 733
431 1010 881
513 1016 1095
509 1024 1537
522 1026 2032
526 1029 2535
523 1033 3044
520 1036 3556
514 1038 4069
238 1515 1120
436 1504 1219
643 1503 1293
585 1517 1645
523 1537 2032
528 1539 2532
525 1542 3040
517 1545 3551
508 1547 4063
273 2009 1498
482 2001 1562
689 1998 1630
735 2006 1843
687 2019 2199
548 2047 2546
526 2052 3037
517 2055 3547
505 2057 4058
314 2508 1851
530 2500 1912
737 2496 1977
944 2497 2045
811 2511 2403
802 2521 2759
634 2548 3108
517 2565 3545
505 2567 4056
328 3009 2208
552 3002 2268
765 2997 2331
975 2996 2398
1007 3003 2611
864 3017 2969
927 3022 3322
741 3049 3674
503 3078 4053
310 3511 2567
551 3504 2628
772 3499 2690
986 3497 2755
1197 3499 2824
1049 3510 3180
910 3523 3538
1060 3524 3888
1504 3518 4095
269 4013 2927
536 4006 2988
769 4001 3050
988 3999 3115
1203 4000 3183
1235 4006 3395
1084 4017 3751
989 4028 4095
2655 3891 4095
1024 0 0
1035 16 356
1037 13 961
1023 0 1536
1030 0 2041
1035 0 2550
1040 0 3060
1043 0 3573
1045 0 4085
928 556 250
1022 514 494
1013 521 1010
1022 512 1538
1037 512 2031
1047 514 2533
1053 516 3043
1056 518 3556
1058 520 4070
619 1090 694
802 1057 874
992 1030 1059
1020 1025 1537
1045 1024 2019
1060 1027 2515
1064 1031 3022
1064 1035 3534
1063 1038 4049
622 1558 1065
797 1534 1238
983 1517 1374
1044 1526 1590
1047 1535 2018
1064 1537 2513
1068 1540 3018
1066 1544 3529
1061 1547 4042
666 2039 1444
835 2018 1608
1021 2006 1697
1217 2002 1764
1116 2026 2130
1067 2048 2512
1073 2050 3016
1070 2053 3526
1064 2056 4038
708 2528 1828
877 2510 1977
1067 2500 2036
1261 2495 2099
1298 2506 2315
1193 2528 2683
1087 2558 3031
1073 2564 3525
1068 2566 4035
726 3022 2217
905 3007 2328
1098 2998 2387
1293 2993 2448
1492 2992 2515
1359 3012 2879
1271 3031 3245
1143 3060 3596
1070 3077 4034
721 3519 2610
915 3508 2685
1114 3499 2744
1311 3493 2805
1510 3492 2871
1541 3501 3085
1406 3519 3449
1355 3534 3811
1405 3550 4095
709 4019 2985
916 4009 3043
1118 4000 3103
1320 3995 3165
1521 3992 3229
1723 3993 3297
1585 4009 3657
1447 4027 4020
2622 3918 4095
1536 0 0
1548 13 291
1560 29 828
1555 29 1441
1545 0 2033
1549 0 2545
1554 0 3055
1557 0 3567
1560 0 4080
1535 509 81
1556 499 422
1550 528 862
1545 523 1472
1549 508 2028
1561 506 2527
1568 508 3036
1572 509 3549
1575 510 4062
1297 1104 609
1451 1049 742
1547 1022 985
1535 1029 1503
1556 1022 2015
1573 1022 2508
1582 1024 3013
1584 1027 3525
1585 1031 4040
1010 1624 1031
1178 1591 1197
1351 1561 1365
1530 1537 1538
1566 1532 2005
1589 1533 2490
1598 1536 2991
1600 1539 3503
1600 1543 4018
1046 2087 1396
1208 2060 1554
1374 2036 1716
1551 2020 1842
1599 2033 2060
1594 2044 2491
1604 2046 2990
1606 2049 3501
1604 2053 4014
1087 2565 1770
1246 2541 1925
1408 2521 2081
1589 2508 2167
1779 2502 2229
1665 2533 2603
1609 2558 2991
1611 2560 3500
1609 2563 4012
1109 3052 2153
1268 3031 2308
1431 3012 2453
1619 3002 2510
1810 2996 2571
1845 3008 2789
1724 3037 3163
1624 3068 3515
1612 3074 4011
1113 3544 2542
1274 3525 2698
1447 3509 2806
1636 3500 2864
1828 3493 2925
2024 3491 2990
1894 3516 3359
1781 3540 3730
1670 3570 4083
1107 4039 2934
1272 4020 3090
1457 4008 3163
1648 3999 3221
1841 3993 3282
2037 3990 3347
2070 4001 3563
1938 4023 3931
2627 3954 4095
2048 0 0
2058 16 214
2076 45 670
2081 61 1301
2074 52 1921
2076 0 2518
2067 0 3051
2071 0 3562
2074 0 4074
2087 449 36
2081 477 336
2080 509 779
2081 531 1316
2073 528 1935
2075 499 2517
2081 496 3030
2086 497 3542
2089 499 4055
1936 1084 452
2068 1007 553
2094 1003 896
2083 1030 1335
2075 1027 1952
2084 1016 2502
2094 1017 3007
2098 1020 3518
2101 1023 4031
1703 1635 945
1846 1588 1072
1998 1544 1204
2093 1524 1449
2079 1533 1972
2098 1528 2484
2109 1530 2983
2114 1533 3494
2116 1536 4008
1437 2152 1363
1594 2118 1516
1754 2088 1671
1917 2061 1830
2086 2041 1993
2115 2039 2470
2129 2040 2966
2133 2044 3473
2133 2048 3986
1468 2616 1726
1623 2587 1877
1779 2561 2029
1940 2539 2184
2112 2523 2305
2153 2538 2526
2136 2552 2967
2139 2555 3474
2139 2559 3984
1486 3094 2101
1641 3068 2252
1797 3045 2403
1958 3025 2558
2136 3012 2641
2325 3005 2702
2208 3040 3080
2145 3067 3475
2145 3069 3984
1491 3579 2484
1647 3556 2637
1804 3535 2788
1968 3516 2934
2155 3506 2990
2343 3499 3051
2378 3513 3269
2256 3545 3645
2159 3578 4000
1489 4070 2871
1648 4048 3025
1807 4028 3178
1979 4013 3287
2167 4003 3345
2358 3996 3405
2551 3993 3469
2425 4020 3840
2675 3999 4095
2559 0 0
2569 19 142
2585 52 593
2599 90 1142
2601 103 1777
2592 87 2401
2606 0 3008
2584 0 3557
2588 0 4069
2599 427 29
2597 457 255
2599 492 697
2607 532 1148
2605 542 1781
2595 540 2404
2602 488 2998
2598 482 3536
2602 484 4049
2540 1036 264
2635 956 381
2625 981 811
2618 1010 1252
2614 1028 1789
2604 1027 2412
2605 1011 2994
2610 1011 3511
2614 1013 4024
2338 1630 801
2471 1567 909
2611 1506 1017
2638 1506 1364
2625 1531 1800
2614 1530 2423
2618 1525 2977
2624 1527 3487
2628 1529 4000
2116 2164 1279
2254 2121 1404
2397 2080 1531
2548 2042 1665
2642 2027 1910
2627 2036 2436
2637 2035 2959
2642 2038 3465
2645 2042 3976
1861 2680 1695
2011 2646 1840
2163 2615 1988
2318 2586 2139
2478 2563 2293
2642 2545 2451
2656 2546 2943
2664 2548 3449
2665 2552 3959
1870 3147 2060
2021 3117 2207
2173 3090 2354
2329 3065 2506
2487 3044 2659
2658 3029 2778
2697 3045 3000
2671 3060 3451
2673 3063 3960
1870 3625 2436
2022 3599 2585
2176 3573 2734
2333 3551 2886
2493 3531 3040
2671 3518 3122
2859 3511 3182
2742 3548 3563
2678 3575 3961
1866 4095 2818
2021 4085 2968
2177 4062 3119
2335 4040 3272
2499 4022 3417
2684 4011 3474
2871 4004 3533
2907 4018 3753
2821 4047 4095
3071 0 0
3079 19 71
3094 58 522
3114 113 979
3121 145 1621
3120 155 2256
3111 132 2881
3131 0 3492
3107 0 4056
3109 409 26
3109 439 189
3113 475 625
3121 520 1075
3128 551 1622
3125 560 2255
3114 556 2879
3128 467 3485
3115 465 4043
3109 977 78
3150 935 310
3143 962 736
3140 993 1179
3141 1028 1625
3136 1034 2258
3124 1033 2883
3126 1010 3475
3126 1003 4018
2947 1607 640
3069 1530 732
3179 1464 857
3166 1488 1290
3156 1515 1730
3148 1532 2265
3137 1530 2890
3134 1522 3474
3139 1522 3993
2735 2171 1150
2868 2115 1261
3005 2062 1374
3152 2009 1490
3178 2012 1839
3164 2036 2274
3152 2035 2898
3150 2033 3459
3154 2036 3969
2518 2696 1614
2653 2655 1745
2792 2616 1870
2938 2579 2001
3090 2546 2136
3184 2533 2382
3169 2542 2910
3170 2543 3442
3174 2546 3951
2265 3211 2029
2412 3178 2172
2560 3145 2316
2711 3116 2464
2865 3090 2613
3024 3068 2766
3186 3051 2920
3190 3054 3426
3195 3056 3935
2255 3681 2397
2405 3651 2542
2555 3622 2688
2708 3595 2837
2865 3571 2988
3023 3551 3141
3194 3536 3260
3232 3552 3483
3203 3569 3937
2473 4095 2892
2450 4095 2946
2551 4095 3068
2706 4079 3218
2865 4057 3371
3023 4038 3524
3202 4026 3607
3390 4018 3666
3275 4056 4049
3583 0 0
3590 23 6
3603 61 457
3621 123 911
3637 183 1462
3642 212 2102
3639 214 2736
3629 189 3362
3661 0 3987
3618 394 29
3619 425 123
3624 462 558
3633 508 1007
3646 559 1462
3648 576 2101
3644 583 2733
3633 577 3357
3654 434 3975
3654 914 71
3660 917 255
3656 945 670
3655 978 1112
3658 1014 1559
3660 1039 2102
3654 1045 2735
3642 1043 3359
3648 1006 3961
3535 1569 468
3643 1480 552
3695 1446 790
3684 1471 1224
3678 1500 1665
3674 1532 2110
3667 1536 2740
3655 1534 3365
3651 1524 3955
3339 2164 1006
3467 2096 1107
3597 2030 1209
3718 1974 1341
3704 1997 1776
3691 2022 2213
3681 2037 2748
3669 2036 3372
3662 2032 3956
3125 2710 1501
3257 2660 1615
3394 2610 1731
3537 2562 1850
3686 2516 1972
3713 2520 2322
3698 2543 2757
3686 2541 3381
3680 2541 3944
2907 3231 1953
3043 3190 2085
3180 3152 2216
3322 3116 2345
3471 3082 2479
3624 3052 2616
3718 3041 2863
3703 3049 3392
3701 3051 3927
2651 3746 2367
2797 3712 2509
2944 3679 2652
3093 3648 2797
3246 3620 2946
3400 3596 3095
3559 3575 3248
3721 3559 3402
3722 3562 3912
3041 4095 3068
3039 4095 3088
3077 4095 3142
3116 4095 3197
3239 4095 3323
3395 4078 3473
3555 4059 3627
3726 4044 3746
3764 4061 3969
4095 0 0
4095 23 6
4095 65 393
4095 129 845
4095 318 1310
4095 437 1949
4095 431 2577
4095 358 3209
4095 262 3840
4095 391 36
4095 411 58
4095 451 496
4095 517 946
4095 612 1404
4095 706 1950
4095 708 2575
4095 703 3197
4095 601 3837
4095 925 165
4095 912 217
4095 969 633
4095 1013 1068
4095 1059 1511
4095 1133 1957
4095 1144 2575
4095 1129 3194
4095 1076 3829
4095 1519 295
4095 1456 451
4095 1485 799
4095 1514 1210
4095 1541 1632
4095 1593 2067
4095 1614 2583
4095 1612 3191
4095 1558 3832
3935 2143 850
4055 2064 942
4095 2002 1066
4095 2024 1384
4095 2043 1779
4095 2069 2188
4095 2101 2604
4095 2095 3201
4095 2082 3811
3727 2713 1368
3856 2652 1474
3989 2592 1581
4095 2533 1689
4095 2543 1952
4095 2560 2332
4095 2585 2729
4095 2599 3217
4095 2596 3799
3510 3249 1852
3643 3201 1968
3779 3154 2086
3919 3109 2207
4067 3065 2331
4095 3055 2545
4095 3074 2881
4095 3096 3258
4095 3098 3811
3290 3767 2292
3427 3727 2425
3565 3689 2559
3704 3653 2692
3850 3619 2826
4000 3588 2961
4095 3565 3131
4095 3587 3435
4095 3602 3845
3573 4095 3394
3577 4095 3382
3615 4095 3407
3656 4095 3424
3705 4095 3431
3788 4095 3459
3931 4095 3580
4091 4083 3734
4095 4090 4056
