Creative/blue_saturation_limit.3dl
#25pt 3DLUT created by 3D LUT Creator Pro (c) Oleg Sharonov
#Copyright Oleg Sharonov
0 128 256 384 512 640 768 896 1023
0 0 0
20 20 353
41 41 706
61 61 1059
82 82 1413
102 102 1766
123 123 2119
143 143 2472
163 163 2825
0 512 0
126 458 458
146 479 811
166 499 1165
187 520 1518
207 540 1871
228 560 2224
248 581 2577
269 601 2930
0 1024 0
115 960 538
251 917 917
272 937 1270
292 957 1623
312 978 1976
333 998 2329
353 1019 2682
374 1039 3035
0 1536 0
112 1468 564
238 1415 1022
377 1375 1375
397 1395 1728
418 1416 2081
438 1436 2434
458 1457 2787
479 1477 3141
0 2047 0
110 1979 577
231 1920 1075
361 1871 1494
502 1833 1833
523 1854 2186
543 1874 2540
564 1894 2893
584 1915 3246
0 2559 0
109 2489 585
227 2428 1107
352 2374 1565
486 2329 1960
628 2292 2292
648 2312 2645
669 2332 2998
689 2353 3351
0 3071 0
109 3001 591
224 2937 1128
346 2880 1613
475 2830 2045
611 2786 2424
754 2750 2750
774 2770 3103
794 2791 3456
0 3583 0
108 3512 594
222 3447 1143
342 3387 1647
467 3334 2105
599 3286 2518
736 3244 2886
879 3208 3208
900 3229 3561
0 4095 0
108 4024 597
221 3957 1155
338 3896 1673
462 3840 2151
590 3789 2589
723 3743 2988
861 3702 3347
1005 3666 3666
512 0 0
407 74 407
427 94 760
448 115 1113
468 135 1466
488 156 1819
509 176 2172
529 197 2526
550 217 2879
512 512 0
512 512 512
532 532 865
553 553 1218
573 573 1571
594 594 1924
614 614 2278
634 634 2631
655 655 2984
512 1024 0
564 987 564
637 970 970
658 991 1323
678 1011 1676
699 1031 2030
719 1052 2383
740 1072 2736
760 1093 3089
512 1536 0
582 1486 582
666 1451 1058
763 1428 1428
783 1449 1782
804 1469 2135
824 1490 2488
845 1510 2841
865 1531 3194
512 2047 0
591 1992 591
680 1947 1102
779 1912 1534
889 1887 1887
909 1907 2240
929 1928 2593
950 1948 2946
970 1968 3299
512 2559 0
596 2500 596
688 2449 1129
789 2406 1598
897 2372 2003
1014 2345 2345
1035 2366 2698
1055 2386 3051
1076 2406 3405
512 3071 0
600 3010 600
694 2955 1146
795 2907 1640
903 2865 2081
1018 2831 2468
1140 2803 2803
1160 2824 3157
1181 2844 3510
512 3583 0
602 3520 602
698 3462 1159
800 3410 1670
907 3364 2136
1021 3324 2557
1140 3290 2932
1265 3262 3262
1286 3282 3615
512 4095 0
604 4030 604
701 3971 1168
803 3916 1693
911 3867 2177
1023 3822 2623
1141 3783 3028
1263 3749 3394
1391 3720 3720
1024 0 0
908 64 486
813 148 813
834 168 1167
854 189 1520
875 209 1873
895 230 2226
916 250 2579
936 271 2932
1024 512 0
961 539 539
919 586 919
939 606 1272
959 627 1625
980 647 1978
1000 668 2331
1021 688 2684
1041 708 3037
1024 1024 0
1014 1014 591
1024 1024 1024
1044 1044 1377
1065 1065 1730
1085 1085 2083
1105 1105 2436
1126 1126 2789
1146 1146 3143
1024 1536 0
1052 1504 600
1094 1486 1094
1149 1482 1482
1170 1502 1835
1190 1523 2188
1211 1543 2541
1231 1564 2895
1251 1584 3248
1024 2047 0
1071 2005 604
1129 1974 1129
1197 1952 1574
1275 1940 1940
1295 1961 2294
1316 1981 2647
1336 2002 3000
1357 2022 3353
1024 2559 0
1083 2511 607
1150 2471 1150
1225 2438 1630
1309 2414 2046
1401 2399 2399
1421 2419 2752
1441 2440 3105
1462 2460 3458
1024 3071 0
1090 3019 608
1164 2973 1164
1244 2933 1667
1331 2901 2116
1425 2876 2513
1526 2857 2857
1547 2877 3210
1567 2898 3563
1024 3583 0
1096 3527 610
1174 3477 1174
1258 3433 1693
1348 3395 2167
1443 3363 2595
1544 3336 2978
1652 3315 3315
1672 3336 3668
1024 4095 0
1100 4037 611
1182 3984 1182
1268 3936 1713
1360 3893 2204
1456 3856 2656
1558 3823 3068
1665 3796 3441
1777 3774 3774
1536 0 0
1417 60 513
1312 134 919
1220 222 1220
1241 242 1573
1261 263 1926
1281 283 2280
1302 304 2633
1322 324 2986
1536 512 0
1452 548 548
1382 597 989
1325 660 1325
1346 680 1678
1366 701 2032
1387 721 2385
1407 742 2738
1427 762 3091
1536 1024 0
1487 1035 583
1452 1059 1059
1430 1098 1430
1451 1118 1784
1471 1139 2137
1492 1159 2490
1512 1179 2843
1533 1200 3196
1536 1536 0
1522 1522 618
1522 1522 1130
1536 1536 1536
1556 1556 1889
1576 1576 2242
1597 1597 2595
1617 1617 2948
1638 1638 3301
1536 2047 0
1552 2019 618
1578 2000 1156
1614 1992 1615
1661 1994 1994
1682 2014 2347
1702 2035 2700
1722 2055 3053
1743 2076 3407
1536 2559 0
1570 2522 617
1612 2492 1171
1662 2471 1662
1720 2457 2089
1787 2452 2452
1807 2473 2805
1828 2493 3159
1848 2514 3512
1536 3071 0
1581 3027 617
1634 2990 1182
1693 2960 1693
1760 2937 2152
1833 2920 2558
1912 2911 2911
1933 2931 3264
1953 2951 3617
1536 3583 0
1590 3535 617
1650 3493 1189
1716 3456 1716
1788 3426 2197
1865 3401 2633
1949 3382 3024
2038 3369 3369
2058 3389 3722
1536 4095 0
1596 4044 617
1662 3997 1195
1733 3956 1733
1809 3920 2231
1890 3889 2690
1976 3863 3108
2067 3843 3488
2164 3827 3827
2047 0 0
1927 59 526
1817 128 972
1717 207 1339
1627 296 1627
1647 316 1980
1668 337 2333
1688 357 2686
1709 378 3039
2047 512 0
1953 552 552
1869 602 1025
1796 663 1418
1732 734 1732
1752 754 2085
1773 775 2438
1793 795 2791
1814 816 3145
2047 1024 0
1980 1045 578
1922 1077 1077
1874 1119 1497
1837 1172 1837
1858 1192 2190
1878 1213 2543
1898 1233 2897
1919 1253 3250
2047 1536 0
2006 1539 605
1974 1552 1130
1953 1576 1576
1942 1610 1942
1963 1630 2296
1983 1650 2649
2004 1671 3002
2024 1691 3355
2047 2047 0
2032 2032 631
2027 2027 1183
2032 2032 1655
2048 2047 2048
2068 2068 2401
2088 2088 2754
2109 2109 3107
2129 2129 3460
2048 2559 0
2056 2532 628
2073 2513 1193
2098 2503 1694
2132 2500 2132
2173 2506 2506
2194 2526 2859
2214 2547 3212
2234 2567 3565
2048 3071 0
2072 3036 626
2104 3008 1200
2142 2987 1720
2188 2973 2188
2240 2965 2602
2299 2964 2964
2319 2985 3317
2340 3005 3670
2048 3583 0
2084 3543 625
2126 3508 1205
2174 3479 1739
2228 3456 2228
2287 3439 2671
2353 3428 3070
2424 3422 3422
2445 3443 3776
2048 4095 0
2092 4050 624
2142 4011 1208
2198 3976 1753
2258 3947 2258
2323 3923 2723
2394 3904 3149
2469 3890 3535
2550 3881 3881
2559 0 0
2438 58 534
2325 123 1004
2219 197 1411
2122 280 1754
2034 370 2034
2054 390 2387
2074 411 2740
2095 431 3093
2559 512 0
2459 555 555
2367 606 1046
2282 665 1474
2207 732 1838
2139 808 2139
2159 828 2492
2180 849 2845
2200 869 3198
2559 1024 0
2480 1052 576
2409 1088 1088
2346 1132 1537
2291 1185 1922
2244 1246 2244
2264 1266 2597
2285 1287 2950
2305 1307 3303
2559 1536 0
2501 1549 597
2451 1570 1130
2409 1600 1600
2375 1638 2006
2349 1684 2349
2369 1704 2702
2390 1724 3055
2410 1745 3409
2559 2047 0
2522 2046 618
2493 2053 1172
2472 2067 1663
2459 2090 2090
2454 2121 2454
2475 2142 2807
2495 2162 3161
2515 2183 3514
2559 2559 0
2543 2543 639
2535 2535 1214
2535 2535 1726
2543 2543 2175
2559 2559 2559
2580 2580 2913
2600 2600 3266
2621 2621 3619
2559 3071 0
2563 3045 635
2574 3026 1218
2592 3014 1747
2616 3008 2223
2647 3010 2647
2685 3018 3018
2705 3038 3371
2726 3059 3724
2559 3583 0
2578 3550 633
2602 3523 1220
2632 3502 1762
2668 3487 2258
2710 3477 2710
2757 3474 3116
2811 3476 3476
2831 3496 3829
2559 4095 0
2589 4057 631
2623 4024 1222
2662 3996 1773
2707 3974 2285
2757 3956 2757
2811 3944 3189
2871 3937 3581
2936 3934 3934
3071 0 0
2949 57 539
2834 121 1025
2725 191 1458
2623 269 1839
2528 353 2166
2440 444 2440
2461 464 2793
2481 485 3147
3071 512 0
2967 557 557
2869 608 1060
2778 666 1511
2693 731 1909
2616 803 2253
2545 882 2545
2566 902 2899
2586 923 3252
3071 1024 0
2984 1056 574
2904 1095 1095
2830 1141 1563
2764 1194 1979
2704 1253 2341
2651 1320 2651
2671 1340 3004
2691 1361 3357
3071 1536 0
3002 1556 592
2939 1582 1130
2883 1616 1616
2834 1656 2049
2791 1704 2429
2756 1758 2756
2776 1778 3109
2797 1798 3462
3071 2048 0
3019 2055 609
2974 2070 1165
2935 2091 1669
2904 2119 2119
2879 2154 2516
2861 2195 2861
2881 2216 3214
2902 2236 3567
3071 2559 0
3037 2555 627
3009 2557 1200
2988 2566 1721
2974 2581 2189
2967 2604 2604
2966 2633 2966
2987 2654 3319
3007 2674 3672
3071 3071 0
3054 3054 644
3044 3044 1235
3041 3041 1774
3044 3044 2259
3054 3054 2692
3071 3071 3071
3092 3092 3424
3112 3112 3778
3071 3583 0
3072 3558 640
3078 3539 1235
3090 3525 1785
3108 3517 2289
3132 3516 2748
3161 3520 3161
3197 3530 3530
3217 3550 3883
3071 4095 0
3085 4064 637
3103 4038 1235
3127 4017 1793
3156 4001 2311
3190 3990 2790
3229 3984 3229
3273 3983 3628
3322 3988 3988
3583 0 0
3460 56 543
3344 119 1040
3233 187 1492
3127 261 1899
3028 341 2260
2935 426 2576
2847 518 2847
2867 538 3200
3583 512 0
3475 558 558
3374 610 1070
3278 667 1537
3188 731 1959
3103 800 2335
3025 875 2666
2952 956 2952
2973 976 3305
3583 1024 0
3490 1059 573
3404 1100 1100
3323 1147 1582
3248 1200 2019
3178 1259 2411
3115 1323 2757
3057 1394 3057
3078 1414 3410
3583 1536 0
3506 1560 588
3434 1591 1130
3368 1627 1627
3308 1670 2079
3253 1718 2486
3205 1772 2847
3162 1832 3163
3183 1852 3516
3583 2048 0
3521 2062 603
3464 2082 1160
3413 2108 1673
3368 2139 2139
3329 2177 2561
3295 2220 2937
3268 2269 3268
3288 2290 3621
3583 2559 0
3536 2563 618
3494 2572 1190
3458 2588 1718
3428 2609 2199
3404 2636 2636
3385 2669 3027
3373 2707 3373
3393 2728 3726
3583 3071 0
3551 3064 633
3524 3063 1220
3503 3068 1763
3488 3079 2260
3479 3095 2711
3475 3117 3117
3478 3145 3478
3498 3166 3831
3583 3583 0
3566 3566 648
3554 3554 1251
3548 3548 1808
3548 3548 2320
3554 3554 2786
3566 3566 3207
3583 3583 3583
3604 3604 3936
3583 4095 0
3581 4070 644
3584 4051 1248
3592 4037 1813
3605 4027 2338
3623 4023 2824
3647 4024 3269
3675 4030 3675
3709 4041 4041
4095 0 0
3972 56 546
3854 117 1052
3741 184 1518
3633 255 1944
3531 332 2331
3433 413 2678
3341 500 2986
3254 592 3254
4095 512 0
3985 559 559
3880 611 1078
3781 668 1557
3686 730 1997
3597 797 2397
3512 870 2757
3433 947 3078
3359 1030 3359
4095 1024 0
3998 1061 572
3907 1104 1104
3820 1152 1597
3739 1205 2049
3662 1263 2463
3591 1326 2836
3525 1394 3170
3464 1468 3464
4095 1536 0
4011 1564 585
3933 1597 1130
3860 1636 1636
3791 1680 2102
3728 1729 2528
3670 1782 2915
3617 1841 3262
3569 1906 3569
4095 2048 0
4025 2067 598
3959 2091 1157
3899 2120 1676
3844 2155 2155
3794 2194 2594
3749 2239 2994
3709 2289 3354
3674 2343 3674
4095 2559 0
4038 2569 611
3985 2584 1183
3938 2604 1715
3896 2630 2207
3860 2660 2660
3828 2695 3073
3801 2736 3446
3780 2781 3780
4095 3071 0
4051 3072 625
4012 3078 1209
3978 3088 1754
3949 3104 2260
3925 3125 2726
3907 3152 3152
3893 3183 3538
3885 3219 3885
4095 3583 0
4064 3575 638
4038 3571 1236
4017 3573 1794
4002 3579 2312
3991 3591 2791
3985 3608 3231
3985 3630 3630
3990 3657 3990
4095 4095 0
4077 4077 651
4064 4064 1262
4057 4057 1833
4054 4054 2365
4057 4057 2857
4064 4064 3309
4077 4077 3722
4095 4095 4095
