Creative/blue_saturation_limit.3dl
#25pt 3DLUT created by 3D LUT Creator Pro (c) Oleg Sharonov
#Copyright Oleg Sharonov
0 256 512 768 1023
0 0 0
41 41 706
82 82 1413
123 123 2119
163 163 2825
0 1024 0
251 917 917
292 957 1623
333 998 2329
374 1039 3035
0 2047 0
231 1920 1075
502 1833 1833
543 1874 2540
584 1915 3246
0 3071 0
224 2937 1128
475 2830 2045
754 2750 2750
794 2791 3456
0 4095 0
221 3957 1155
462 3840 2151
723 3743 2988
1005 3666 3666
1024 0 0
813 148 813
854 189 1520
895 230 2226
936 271 2932
1024 1024 0
1024 1024 1024
1065 1065 1730
1105 1105 2436
1146 1146 3143
1024 2047 0
1129 1974 1129
1275 1940 1940
1316 1981 2647
1357 2022 3353
1024 3071 0
1164 2973 1164
1331 2901 2116
1526 2857 2857
1567 2898 3563
1024 4095 0
1182 3984 1182
1360 3893 2204
1558 3823 3068
1777 3774 3774
2047 0 0
1817 128 972
1627 296 1627
1668 337 2333
1709 378 3039
2047 1024 0
1922 1077 1077
1837 1172 1837
1878 1213 2543
1919 1253 3250
2047 2047 0
2027 2027 1183
2048 2047 2048
2088 2088 2754
2129 2129 3460
2048 3071 0
2104 3008 1200
2188 2973 2188
2299 2964 2964
2340 3005 3670
2048 4095 0
2142 4011 1208
2258 3947 2258
2394 3904 3149
2550 3881 3881
3071 0 0
2834 121 1025
2623 269 1839
2440 444 2440
2481 485 3147
3071 1024 0
2904 1095 1095
2764 1194 1979
2651 1320 2651
2691 1361 3357
3071 2048 0
2974 2070 1165
2904 2119 2119
2861 2195 2861
2902 2236 3567
3071 3071 0
3044 3044 1235
3044 3044 2259
3071 3071 3071
3112 3112 3778
3071 4095 0
3103 4038 1235
3156 4001 2311
3229 3984 3229
3322 3988 3988
4095 0 0
3854 117 1052
3633 255 1944
3433 413 2678
3254 592 3254
4095 1024 0
3907 1104 1104
3739 1205 2049
3591 1326 2836
3464 1468 3464
4095 2048 0
3959 2091 1157
3844 2155 2155
3749 2239 2994
3674 2343 3674
4095 3071 0
4012 3078 1209
3949 3104 2260
3907 3152 3152
3885 3219 3885
4095 4095 0
4064 4064 1262
4054 4054 2365
4064 4064 3309
4095 4095 4095
