Creative/blue_saturation_limit.3dl
#25pt 3DLUT created by 3D LUT Creator Pro (c) Oleg Sharonov
#Copyright Oleg Sharonov
0 43 86 128 171 214 256 299 341 384 427 469 512 555 597 640 682 725 768 810 853 896 938 981 1023 
0 0 0
7 7 118
14 14 235
20 20 353
27 27 471
34 34 589
41 41 706
48 48 824
54 54 942
61 61 1059
68 68 1177
75 75 1295
82 82 1413
89 89 1530
95 95 1648
102 102 1766
109 109 1883
116 116 2001
123 123 2119
129 129 2237
136 136 2354
143 143 2472
150 150 2590
157 157 2707
163 163 2825
0 171 0
42 153 153
49 160 270
55 166 388
62 173 506
69 180 624
76 187 741
83 194 859
90 200 977
96 207 1094
103 214 1212
110 221 1330
117 228 1448
124 234 1565
130 241 1683
137 248 1801
144 255 1918
151 262 2036
158 269 2154
164 275 2272
171 282 2389
178 289 2507
185 296 2625
192 303 2742
198 309 2860
0 341 0
38 320 179
84 306 306
91 312 423
97 319 541
104 326 659
111 333 776
118 340 894
125 346 1012
131 353 1130
138 360 1247
145 367 1365
152 374 1483
159 380 1600
165 387 1718
172 394 1836
179 401 1954
186 408 2071
193 414 2189
199 421 2307
206 428 2424
213 435 2542
220 442 2660
227 449 2778
234 455 2895
0 512 0
37 489 188
79 472 341
126 458 458
132 465 576
139 472 694
146 479 811
153 486 929
160 492 1047
166 499 1165
173 506 1282
180 513 1400
187 520 1518
194 526 1635
200 533 1753
207 540 1871
214 547 1989
221 554 2106
228 560 2224
235 567 2342
241 574 2459
248 581 2577
255 588 2695
262 594 2813
269 601 2930
0 682 0
37 660 192
77 640 358
120 624 498
167 611 611
174 618 729
181 625 847
188 631 964
195 638 1082
201 645 1200
208 652 1317
215 659 1435
222 666 1553
229 672 1671
236 679 1788
242 686 1906
249 693 2024
256 700 2141
263 706 2259
270 713 2377
276 720 2495
283 727 2612
290 734 2730
297 740 2848
304 747 2965
0 853 0
36 830 195
76 809 369
117 791 522
162 776 653
209 764 764
216 771 882
223 777 999
230 784 1117
237 791 1235
243 798 1352
250 805 1470
257 811 1588
264 818 1706
271 825 1823
277 832 1941
284 839 2059
291 846 2176
298 852 2294
305 859 2412
311 866 2530
318 873 2647
325 880 2765
332 886 2883
339 893 3000
0 1024 0
36 1000 197
75 979 376
115 960 538
158 943 682
204 929 808
251 917 917
258 923 1034
265 930 1152
272 937 1270
278 944 1387
285 951 1505
292 957 1623
299 964 1741
306 971 1858
312 978 1976
319 985 2094
326 992 2211
333 998 2329
340 1005 2447
346 1012 2565
353 1019 2682
360 1026 2800
367 1032 2918
374 1039 3035
0 1194 0
36 1171 198
74 1149 381
114 1129 549
156 1111 702
200 1095 839
245 1081 962
293 1069 1069
300 1076 1187
307 1083 1305
313 1090 1423
320 1097 1540
327 1103 1658
334 1110 1776
341 1117 1893
348 1124 2011
354 1131 2129
361 1137 2247
368 1144 2364
375 1151 2482
382 1158 2600
388 1165 2717
395 1172 2835
402 1178 2953
409 1185 3071
0 1365 0
36 1341 199
74 1319 385
113 1299 558
154 1280 717
197 1263 863
241 1248 996
287 1234 1116
335 1222 1222
342 1229 1340
349 1236 1458
355 1243 1575
362 1249 1693
369 1256 1811
376 1263 1928
383 1270 2046
389 1277 2164
396 1283 2282
403 1290 2399
410 1297 2517
417 1304 2635
423 1311 2752
430 1317 2870
437 1324 2988
444 1331 3106
0 1536 0
36 1512 200
73 1489 388
112 1468 564
152 1449 729
194 1431 881
238 1415 1022
282 1400 1152
329 1387 1269
377 1375 1375
384 1382 1493
390 1389 1610
397 1395 1728
404 1402 1846
411 1409 1963
418 1416 2081
424 1423 2199
431 1429 2317
438 1436 2434
445 1443 2552
452 1450 2670
458 1457 2787
465 1463 2905
472 1470 3023
479 1477 3141
0 1706 0
36 1682 200
73 1660 390
111 1638 569
151 1618 738
192 1600 896
235 1583 1044
279 1567 1180
324 1553 1307
371 1539 1423
419 1528 1528
425 1534 1645
432 1541 1763
439 1548 1881
446 1555 1999
453 1562 2116
459 1569 2234
466 1575 2352
473 1582 2469
480 1589 2587
487 1596 2705
494 1603 2823
500 1609 2940
507 1616 3058
514 1623 3176
0 1877 0
36 1853 201
73 1830 392
111 1808 574
150 1788 746
191 1769 908
233 1751 1061
276 1735 1204
320 1719 1338
366 1705 1462
412 1692 1576
460 1680 1680
467 1687 1798
474 1694 1916
481 1701 2034
488 1708 2151
495 1714 2269
501 1721 2387
508 1728 2504
515 1735 2622
522 1742 2740
529 1749 2858
535 1755 2975
542 1762 3093
549 1769 3211
0 2047 0
36 2023 201
72 2000 394
110 1979 577
149 1958 752
189 1938 918
231 1920 1075
273 1903 1224
317 1886 1363
361 1871 1494
407 1858 1616
454 1845 1729
502 1833 1833
509 1840 1951
516 1847 2069
523 1854 2186
530 1860 2304
536 1867 2422
543 1874 2540
550 1881 2657
557 1888 2775
564 1894 2893
570 1901 3010
577 1908 3128
584 1915 3246
0 2218 0
36 2194 202
72 2171 395
110 2149 580
149 2128 758
188 2108 927
229 2089 1088
271 2071 1240
314 2054 1385
358 2039 1521
403 2024 1650
449 2010 1770
496 1998 1882
544 1986 1986
551 1993 2104
558 2000 2221
565 2006 2339
571 2013 2457
578 2020 2575
585 2027 2692
592 2034 2810
599 2040 2928
606 2047 3045
612 2054 3163
619 2061 3281
0 2389 0
36 2365 202
72 2341 396
110 2319 583
148 2298 762
187 2278 934
228 2258 1098
269 2240 1255
312 2223 1404
355 2206 1545
399 2191 1679
444 2176 1805
491 2163 1924
538 2150 2035
586 2139 2139
593 2146 2256
600 2152 2374
607 2159 2492
613 2166 2610
620 2173 2727
627 2180 2845
634 2186 2963
641 2193 3080
647 2200 3198
654 2207 3316
0 2559 0
36 2535 202
72 2512 397
109 2489 585
147 2468 766
187 2447 940
227 2428 1107
268 2409 1267
309 2391 1420
352 2374 1565
396 2358 1704
441 2343 1836
486 2329 1960
532 2315 2078
580 2303 2188
628 2292 2292
635 2298 2409
642 2305 2527
648 2312 2645
655 2319 2762
662 2326 2880
669 2332 2998
676 2339 3116
682 2346 3233
689 2353 3351
0 2730 0
35 2706 202
72 2682 398
109 2660 587
147 2638 770
186 2617 946
226 2597 1115
266 2578 1278
308 2560 1434
350 2542 1583
393 2526 1726
437 2510 1862
482 2495 1992
528 2481 2115
574 2468 2231
622 2456 2341
670 2444 2444
677 2451 2562
683 2458 2680
690 2465 2797
697 2472 2915
704 2478 3033
711 2485 3151
717 2492 3268
724 2499 3386
0 2901 0
35 2876 203
72 2853 399
109 2830 589
147 2808 773
185 2787 951
225 2767 1122
265 2748 1287
306 2729 1446
348 2711 1599
391 2694 1746
434 2678 1886
478 2662 2020
523 2648 2148
569 2634 2269
616 2621 2385
663 2609 2494
712 2597 2597
718 2604 2715
725 2611 2833
732 2617 2950
739 2624 3068
746 2631 3186
753 2638 3303
759 2645 3421
0 3071 0
35 3047 203
72 3023 400
109 3001 591
146 2979 776
185 2957 955
224 2937 1128
264 2917 1296
305 2898 1457
346 2880 1613
388 2862 1763
431 2846 1907
475 2830 2045
520 2815 2177
565 2800 2303
611 2786 2424
658 2773 2538
705 2761 2647
754 2750 2750
760 2757 2868
767 2763 2985
774 2770 3103
781 2777 3221
788 2784 3338
794 2791 3456
0 3242 0
35 3218 203
72 3194 400
108 3171 592
146 3149 778
184 3128 959
223 3107 1134
263 3087 1303
303 3067 1467
345 3049 1626
386 3031 1778
429 3014 1926
472 2998 2067
516 2982 2203
561 2967 2334
606 2953 2459
653 2939 2578
699 2926 2692
747 2914 2800
795 2903 2903
802 2909 3020
809 2916 3138
816 2923 3256
823 2930 3373
829 2937 3491
0 3412 0
35 3388 203
71 3365 401
108 3342 593
146 3319 780
184 3298 962
223 3277 1139
262 3257 1310
302 3237 1476
343 3218 1637
385 3200 1792
427 3182 1942
470 3166 2087
513 3149 2227
557 3134 2361
602 3119 2490
648 3105 2614
694 3092 2732
741 3079 2845
789 3067 2953
837 3055 3055
844 3062 3173
851 3069 3291
858 3076 3409
865 3083 3526
0 3583 0
35 3559 203
71 3535 401
108 3512 594
145 3490 782
183 3468 965
222 3447 1143
261 3426 1316
301 3407 1484
342 3387 1647
383 3369 1805
425 3351 1958
467 3334 2105
511 3317 2248
554 3301 2386
599 3286 2518
644 3271 2646
690 3258 2768
736 3244 2886
783 3232 2998
831 3220 3106
879 3208 3208
886 3215 3326
893 3222 3444
900 3229 3561
0 3754 0
35 3729 203
71 3706 402
108 3683 595
145 3660 784
183 3638 968
221 3617 1148
261 3596 1322
300 3576 1492
341 3557 1656
382 3538 1816
423 3520 1971
465 3502 2122
508 3485 2267
551 3469 2408
595 3453 2544
640 3438 2675
685 3424 2802
731 3410 2923
778 3397 3040
825 3384 3152
873 3372 3259
921 3361 3361
928 3368 3479
935 3375 3596
0 3924 0
35 3900 203
71 3876 402
108 3853 596
145 3830 786
183 3808 971
221 3787 1151
260 3766 1327
299 3746 1498
339 3726 1665
380 3707 1827
421 3689 1984
463 3671 2137
506 3654 2285
549 3637 2429
592 3621 2568
637 3606 2702
681 3591 2832
727 3576 2957
773 3563 3077
820 3549 3193
867 3537 3305
914 3525 3412
963 3514 3514
970 3520 3631
0 4095 0
35 4071 203
71 4047 403
108 4024 597
145 4001 787
182 3979 973
221 3957 1155
259 3936 1332
299 3916 1504
338 3896 1673
379 3877 1836
420 3858 1996
462 3840 2151
504 3822 2301
546 3805 2447
590 3789 2589
634 3773 2727
678 3758 2859
723 3743 2988
768 3729 3112
815 3715 3232
861 3702 3347
909 3690 3458
956 3678 3564
1005 3666 3666
171 0 0
136 25 136
142 31 253
149 38 371
156 45 489
163 52 606
170 59 724
176 66 842
183 72 960
190 79 1077
197 86 1195
204 93 1313
210 100 1430
217 106 1548
224 113 1666
231 120 1784
238 127 1901
245 134 2019
251 140 2137
258 147 2254
265 154 2372
272 161 2490
279 168 2608
285 174 2725
292 181 2843
171 171 0
171 171 171
177 177 288
184 184 406
191 191 524
198 198 641
205 205 759
211 211 877
218 218 995
225 225 1112
232 232 1230
239 239 1348
246 246 1465
252 252 1583
259 259 1701
266 266 1819
273 273 1936
280 280 2054
286 286 2172
293 293 2289
300 300 2407
307 307 2525
314 314 2643
320 320 2760
327 327 2878
171 341 0
188 329 188
212 323 323
219 330 441
226 337 559
233 344 677
240 351 794
247 357 912
253 364 1030
260 371 1147
267 378 1265
274 385 1383
281 391 1501
287 398 1618
294 405 1736
301 412 1854
308 419 1971
315 426 2089
321 432 2207
328 439 2325
335 446 2442
342 453 2560
349 460 2678
355 466 2795
362 473 2913
171 512 0
194 495 194
222 484 353
254 476 476
261 483 594
268 490 712
275 497 829
282 503 947
288 510 1065
295 517 1182
302 524 1300
309 531 1418
316 537 1536
322 544 1653
329 551 1771
336 558 1889
343 565 2006
350 571 2124
356 578 2242
363 585 2360
370 592 2477
377 599 2595
384 606 2713
391 612 2830
397 619 2948
171 682 0
197 664 197
227 649 367
260 637 511
296 629 629
303 636 747
310 643 864
317 649 982
323 656 1100
330 663 1218
337 670 1335
344 677 1453
351 683 1571
357 690 1688
364 697 1806
371 704 1924
378 711 2042
385 717 2159
392 724 2277
398 731 2395
405 738 2512
412 745 2630
419 751 2748
426 758 2866
432 765 2983
171 853 0
199 833 199
229 816 376
263 802 533
299 791 668
338 782 782
345 789 899
352 795 1017
359 802 1135
365 809 1253
372 816 1370
379 823 1488
386 829 1606
393 836 1723
399 843 1841
406 850 1959
413 857 2077
420 863 2194
427 870 2312
433 877 2430
440 884 2547
447 891 2665
454 897 2783
461 904 2901
467 911 3018
171 1024 0
200 1003 200
231 985 382
265 969 547
301 955 694
339 944 823
380 934 934
387 941 1052
394 948 1170
400 955 1288
407 962 1405
414 969 1523
421 975 1641
428 982 1758
434 989 1876
441 996 1994
448 1003 2112
455 1009 2229
462 1016 2347
468 1023 2465
475 1030 2582
482 1037 2700
489 1043 2818
496 1050 2936
502 1057 3053
171 1194 0
201 1173 201
233 1154 386
267 1137 557
302 1121 712
340 1108 852
380 1097 977
422 1087 1087
429 1094 1205
435 1101 1323
442 1108 1440
449 1114 1558
456 1121 1676
463 1128 1794
469 1135 1911
476 1142 2029
483 1149 2147
490 1155 2264
497 1162 2382
504 1169 2500
510 1176 2618
517 1183 2735
524 1189 2853
531 1196 2971
538 1203 3088
171 1365 0
201 1343 201
234 1324 389
268 1305 564
304 1289 726
341 1274 874
380 1261 1009
421 1250 1131
464 1240 1240
470 1247 1358
477 1254 1475
484 1260 1593
491 1267 1711
498 1274 1829
505 1281 1946
511 1288 2064
518 1294 2182
525 1301 2299
532 1308 2417
539 1315 2535
545 1322 2653
552 1329 2770
559 1335 2888
566 1342 3006
573 1349 3123
171 1536 0
202 1514 202
234 1493 392
269 1474 570
304 1457 737
342 1441 891
380 1427 1034
421 1414 1166
462 1403 1285
506 1393 1393
512 1400 1510
519 1406 1628
526 1413 1746
533 1420 1864
540 1427 1981
546 1434 2099
553 1440 2217
560 1447 2334
567 1454 2452
574 1461 2570
580 1468 2688
587 1474 2805
594 1481 2923
601 1488 3041
608 1495 3158
171 1706 0
202 1684 202
235 1663 394
269 1644 575
305 1626 745
342 1609 905
380 1593 1054
420 1579 1193
461 1567 1321
504 1555 1439
547 1546 1546
554 1552 1663
561 1559 1781
568 1566 1899
575 1573 2016
581 1580 2134
588 1586 2252
595 1593 2370
602 1600 2487
609 1607 2605
615 1614 2723
622 1620 2840
629 1627 2958
636 1634 3076
643 1641 3194
