Creative/ColorHarmony - Orange Teal (Toned).3dl
#25pt 3DLUT created by 3D LUT Creator Pro (c) Oleg Sharonov
#Copyright Oleg Sharonov
#IMAGEPROFILE 
#INPUTGAMMA 
#OUTPUTGAMMA 
0 128 256 384 512 640 768 896 1023
0 0 0
0 0 138
0 111 363
0 323 611
0 537 901
0 749 1220
0 966 1562
0 1185 1922
0 1405 2297
28 447 344
0 468 497
0 526 698
0 636 904
0 778 1150
0 946 1423
0 1130 1727
0 1324 2058
0 1524 2408
138 1046 766
0 1060 901
0 1083 1105
0 1129 1378
0 1212 1611
0 1324 1859
0 1458 2132
0 1609 2430
0 1773 2741
256 1654 1293
0 1660 1434
0 1679 1563
0 1704 1829
0 1744 2148
0 1813 2408
0 1905 2665
0 2013 2932
0 2136 3214
401 2244 1877
0 2247 2024
0 2257 2145
0 2279 2300
0 2303 2616
0 2339 2958
0 2395 3243
0 2470 3503
0 2557 3762
583 2786 2499
0 2793 2649
0 2797 2767
0 2811 2905
0 2832 3096
0 2854 3428
0 2885 3771
105 2929 4064
1317 2999 4095
807 3273 3133
329 3283 3282
0 3289 3401
0 3298 3526
0 3313 3675
158 3330 3892
1020 3330 4095
1938 3370 4095
1992 3405 4095
1076 3718 3753
731 3727 3893
428 3735 4010
484 3742 4095
1296 3711 4095
1763 3703 4095
2073 3711 4095
2087 3724 4095
2558 3734 4095
2058 4002 4095
2212 3965 4095
2237 3956 4095
2219 3958 4095
2227 3963 4095
2240 3968 4095
2601 3961 4095
3227 3920 4095
3519 3898 4095
475 0 0
184 107 291
135 234 512
157 401 735
203 587 1005
212 783 1314
206 989 1650
187 1200 2006
162 1414 2378
547 458 297
545 483 407
422 560 699
335 671 955
273 810 1219
215 971 1506
136 1149 1818
0 1339 2152
0 1535 2500
634 1049 701
570 1068 809
599 1085 1035
420 1148 1364
190 1240 1653
0 1352 1926
0 1484 2211
0 1634 2507
0 1795 2809
733 1656 1188
626 1668 1323
486 1691 1540
564 1709 1789
427 1756 2133
0 1833 2446
0 1925 2727
0 2032 2992
0 2153 3272
835 2247 1732
708 2253 1901
361 2274 2131
468 2290 2287
473 2311 2599
417 2345 2949
0 2409 3271
0 2484 3547
0 2571 3805
990 2786 2348
827 2792 2517
339 2810 2753
255 2824 2904
480 2838 3081
419 2859 3421
448 2888 3764
327 2937 4074
1409 3014 4095
1179 3272 2985
998 3277 3147
500 3293 3379
297 3305 3522
412 3317 3670
573 3332 3877
1093 3336 4095
1973 3378 4095
2021 3412 4095
1403 3715 3613
1222 3720 3764
782 3735 3983
613 3747 4095
1317 3718 4095
1803 3709 4095
2109 3716 4095
2102 3729 4095
2665 3735 4095
1891 4059 4095
2142 4000 4095
2310 3957 4095
2251 3961 4095
2235 3966 4095
2248 3971 4095
2654 3961 4095
3230 3923 4095
3536 3899 4095
990 48 0
745 305 285
492 461 654
419 579 960
406 727 1221
416 896 1506
440 1079 1817
474 1271 2149
494 1472 2505
1020 514 302
1066 512 383
716 695 776
623 784 1117
575 904 1394
558 1048 1674
560 1209 1971
559 1385 2294
555 1572 2636
1118 1068 663
1117 1080 737
1115 1112 908
981 1182 1310
860 1275 1649
761 1387 1960
681 1517 2265
618 1662 2577
569 1819 2899
1214 1661 1176
1196 1673 1228
1129 1701 1398
1190 1714 1666
1011 1778 2064
818 1860 2418
653 1954 2738
513 2062 3045
402 2182 3350
1299 2247 1731
1284 2254 1764
1172 2275 1958
1097 2297 2231
1209 2308 2495
1082 2353 2882
850 2423 3239
651 2503 3556
491 2594 3850
1414 2787 2312
1390 2793 2337
1246 2806 2562
1030 2828 2852
1148 2839 3020
1217 2854 3337
1132 2890 3706
975 2945 4039
1563 3034 4095
1547 3274 2909
1514 3279 2930
1361 3286 3182
1042 3307 3472
1083 3318 3632
1211 3330 3823
1345 3344 4095
2101 3387 4095
2169 3430 4095
1703 3720 3502
1690 3721 3543
1526 3726 3791
1177 3748 4061
1498 3736 4095
1947 3723 4095
2292 3727 4095
2310 3739 4095
2722 3744 4095
2030 4071 4041
2042 4069 4073
2337 3995 4095
2410 3964 4095
2375 3970 4095
2388 3975 4095
2755 3963 4095
3287 3924 4095
3571 3902 4095
1513 232 0
1395 390 309
1019 699 598
804 820 1107
707 934 1483
674 1074 1772
666 1231 2072
678 1403 2387
706 1584 2718
1551 589 170
1588 577 342
1236 842 679
955 979 1211
852 1077 1602
802 1202 1904
778 1345 2201
777 1503 2511
795 1672 2832
1573 1127 709
1600 1129 747
1659 1134 874
1271 1309 1375
1164 1383 1803
1088 1482 2142
1036 1599 2454
1009 1732 2761
1004 1878 3071
1709 1686 1127
1708 1694 1181
1705 1713 1310
1702 1746 1521
1563 1811 1983
1431 1892 2384
1316 1987 2740
1224 2095 3071
1153 2215 3387
1832 2249 1700
1816 2257 1737
1781 2277 1838
1711 2309 2057
1793 2317 2350
1616 2378 2786
1431 2452 3179
1282 2533 3527
1169 2624 3843
1891 2789 2307
1882 2794 2334
1860 2806 2404
1752 2830 2642
1713 2847 2943
1845 2853 3205
1720 2897 3610
1532 2961 3980
1819 3057 4095
2003 3271 2908
1995 3275 2928
1966 3285 2982
1826 3302 3243
1673 3322 3564
1801 3331 3732
1907 3341 4029
2301 3401 4095
2403 3461 4095
2144 3713 3498
2133 3717 3514
2095 3725 3557
1943 3737 3837
1740 3768 4095
2172 3744 4095
2552 3741 4095
2619 3752 4095
2831 3759 4095
2420 4047 4000
2411 4049 4009
2375 4056 4035
2632 3987 4095
2619 3973 4095
2624 3978 4095
2900 3967 4095
3367 3929 4095
3623 3909 4095
2049 419 0
2092 346 112
1666 840 663
1279 1077 1149
1121 1186 1615
1017 1296 2035
964 1429 2364
946 1579 2674
950 1739 2989
2097 698 0
2122 673 276
1860 927 726
1458 1182 1175
1232 1302 1701
1122 1402 2133
1063 1526 2464
1036 1666 2774
1033 1818 3086
2118 1188 634
2140 1188 663
2198 1180 836
1788 1432 1226
1482 1559 1862
1366 1643 2322
1296 1747 2665
1251 1868 2984
1231 2002 3295
2116 1759 1221
2142 1756 1254
2193 1757 1330
2259 1765 1485
1852 1928 2042
1741 1992 2529
1653 2075 2912
1588 2173 3255
1545 2284 3571
2307 2279 1649
2307 2284 1692
2304 2297 1792
2301 2319 1960
2298 2351 2195
2159 2409 2692
2026 2479 3125
1910 2560 3505
1814 2652 3846
2386 2800 2295
2400 2800 2315
2422 2805 2370
2377 2829 2503
2306 2860 2753
2398 2865 3054
2229 2921 3500
2058 2987 3902
2144 3088 4095
2499 3272 2889
2491 3276 2912
2474 3285 2974
2448 3300 3071
2347 3324 3333
2334 3338 3643
2477 3342 3889
2554 3416 4095
2692 3505 4095
2600 3711 3493
2595 3714 3509
2581 3721 3552
2553 3733 3627
2434 3753 3893
2441 3771 4095
2778 3759 4095
2980 3763 4095
3019 3776 4095
2864 4010 3966
2863 4011 3974
2859 4014 3995
2843 4020 4033
3002 3975 4095
2925 3979 4095
3005 3980 4095
3446 3941 4095
3689 3919 4095
2593 612 0
2667 491 0
2341 931 699
1950 1259 1043
1504 1478 1666
1443 1551 2161
1340 1659 2606
1270 1786 2972
1249 1928 3285
2602 872 0
2664 797 170
2520 975 716
2084 1335 1111
1606 1566 1738
1529 1639 2232
1422 1741 2684
1350 1861 3049
1324 1996 3362
2665 1271 498
2694 1265 513
2735 1251 801
2403 1504 1267
1902 1748 1881
1731 1842 2378
1618 1931 2847
1544 2038 3214
1505 2158 3532
2693 1798 1175
2708 1799 1201
2740 1805 1260
2807 1802 1454
2367 2032 1868
2046 2148 2564
1929 2220 3062
1851 2308 3434
1798 2410 3765
2706 2346 1763
2705 2351 1797
2714 2360 1873
2788 2358 1986
2857 2367 2161
2442 2512 2745
2334 2568 3255
2248 2638 3660
2178 2721 4009
2903 2820 2210
2903 2823 2244
2900 2831 2323
2899 2845 2461
2893 2867 2651
2890 2896 2896
2757 2947 3400
2629 3009 3834
2610 3116 4095
2942 3290 2891
2945 3292 2913
2960 3295 2965
3006 3297 3041
2967 3321 3184
2899 3351 3448
2997 3354 3739
2875 3435 4091
3019 3553 4095
3109 3707 3454
3102 3709 3474
3087 3715 3527
3064 3723 3613
3044 3736 3718
2986 3757 3929
3070 3769 4095
3350 3765 4095
3266 3790 4095
3312 3967 3919
3311 3968 3928
3310 3970 3948
3308 3974 3984
3305 3980 4030
3351 3969 4095
3298 3979 4095
3563 3954 4095
3784 3931 4095
3142 808 0
3223 682 0
3038 969 658
2618 1388 1151
2239 1660 1481
1811 1845 2218
1771 1912 2729
1671 2017 3185
1593 2139 3576
3126 1052 0
3209 952 0
3208 973 621
2739 1442 1197
2340 1724 1532
1884 1915 2278
1840 1980 2787
1739 2081 3246
1660 2198 3636
3227 1367 220
3263 1350 191
3272 1349 776
3035 1564 1294
2581 1871 1661
2065 2079 2414
2007 2141 2914
1901 2232 3382
1823 2339 3767
3234 1871 1097
3247 1871 1118
3284 1871 1163
3342 1859 1429
2974 2090 1890
2394 2321 2595
2274 2391 3088
2165 2468 3572
2088 2561 3952
3252 2386 1768
3264 2387 1790
3290 2389 1839
3332 2397 1923
3399 2398 2132
2949 2597 2560
2624 2700 3273
2515 2763 3779
2476 2859 4095
3305 2872 2335
3304 2876 2363
3299 2885 2428
3290 2902 2538
3367 2902 2677
3437 2910 2864
3030 3037 3445
2930 3090 3939
3005 3247 4095
3482 3302 2789
3481 3304 2815
3480 3310 2880
3476 3320 2988
3473 3335 3144
3467 3356 3346
3465 3383 3585
3375 3458 3969
3410 3581 4095
3507 3710 3467
3507 3711 3485
3510 3711 3530
3520 3713 3599
3562 3712 3674
3550 3727 3783
3521 3751 3949
3618 3760 4084
3565 3799 4095
3693 3937 3866
3690 3938 3875
3683 3941 3897
3672 3946 3937
3661 3953 3991
3653 3962 4052
3630 3973 4095
3639 3978 4095
3885 3948 4095
3690 1010 0
3774 879 0
3740 961 533
3294 1492 1217
2900 1811 1588
2534 2036 2032
2141 2194 2790
2104 2262 3300
2012 2364 3751
3656 1240 0
3747 1129 0
3810 1059 589
3404 1529 1244
2992 1859 1638
2611 2090 2058
2198 2250 2840
2161 2315 3347
2069 2414 3800
3776 1489 0
3788 1488 0
3800 1475 778
3683 1606 1284
3214 1971 1756
2799 2217 2134
2339 2383 2958
2301 2443 3454
2206 2535 3910
3768 1962 996
3783 1960 1012
3828 1951 1034
3863 1941 1422
3578 2146 1929
3114 2410 2292
2577 2592 3128
2530 2647 3609
2432 2728 4070
3786 2445 1719
3795 2446 1737
3816 2449 1781
3858 2454 1848
3920 2447 2115
3539 2644 2561
2932 2848 3314
2836 2907 3784
2838 3044 4095
3777 2923 2389
3788 2923 2407
3812 2924 2449
3849 2927 2521
3895 2934 2625
3957 2940 2838
3515 3108 3264
3209 3211 3925
3275 3394 4095
3866 3349 2922
3864 3351 2946
3859 3358 3000
3848 3372 3091
3833 3392 3227
3868 3405 3385
3899 3427 3562
3606 3540 3961
3600 3633 4095
3917 3713 3412
3915 3714 3431
3910 3715 3476
3901 3720 3546
3893 3726 3644
3883 3738 3753
3877 3755 3873
3876 3777 3992
3821 3811 4095
3893 3945 3866
3892 3946 3875
3892 3947 3896
3892 3950 3931
3897 3953 3979
3917 3956 4029
3913 3966 4094
3883 3981 4095
3993 3971 4095
4095 1348 703
4095 1380 980
4095 1415 1128
3965 1574 1249
3560 1938 1713
3180 2206 2040
2840 2368 2787
2480 2524 3363
2441 2596 3855
4095 1482 496
4095 1504 895
4095 1547 1227
4066 1596 1257
3642 1976 1750
3252 2246 2083
2898 2416 2782
2528 2569 3404
2490 2638 3892
4095 1788 877
4095 1800 973
4095 1820 1286
4095 1859 1589
3842 2064 1835
3427 2343 2191
3044 2530 2781
2644 2676 3503
2608 2740 3980
4095 2183 1333
4095 2192 1374
4095 2214 1479
4095 2243 1829
4095 2250 2022
3718 2496 2374
3294 2703 2819
2839 2849 3653
2813 2914 4094
4095 2613 1946
4095 2618 1970
4095 2634 2031
4095 2661 2128
4095 2706 2434
4095 2697 2607
3647 2915 2963
3112 3074 3827
3151 3198 4095
4095 3043 2560
4095 3047 2579
4095 3058 2625
4095 3078 2698
4095 3110 2801
4095 3158 3048
4018 3171 3266
3492 3357 3921
3503 3494 4095
4095 3458 3087
4095 3460 3108
4095 3465 3157
4095 3475 3235
4095 3491 3336
4095 3515 3448
4095 3550 3611
3909 3599 3839
3746 3695 4095
4095 3750 3568
4095 3751 3579
4095 3753 3607
4092 3758 3655
4081 3766 3721
4070 3778 3803
4091 3787 3884
4095 3800 3972
3940 3850 4095
4095 3950 3830
4095 3950 3838
4095 3952 3857
4095 3955 3891
4095 3959 3939
4095 3965 4003
4095 3973 4080
4095 3983 4093
4095 3996 4095
