Creative/ColorShaping-Dark greens.3dl
#25pt 3DLUT created by 3D LUT Creator Pro (c) Oleg Sharonov
#Copyright Oleg Sharonov
#IMAGEPROFILE sRGB IEC61966-2.1 v.2.10
#INPUTGAMMA sRGB IEC61966-2.1 v.2.10
#OUTPUTGAMMA sRGB IEC61966-2.1 v.2.10
0 43 86 128 171 214 256 299 341 384 427 469 512 555 597 640 682 725 768 810 853 896 938 981 1023 
0 0 0
71 100 132
132 203 267
186 297 388
230 383 501
262 460 605
289 528 699
312 594 788
334 655 869
360 717 951
386 780 1034
417 846 1119
452 917 1209
494 994 1306
548 1085 1418
611 1185 1541
685 1297 1676
773 1422 1825
877 1561 1987
1019 1733 2183
1267 2058 2555
1415 2349 2915
1527 2620 3258
1593 2880 3599
1755 3122 3883
0 90 6
3 149 149
132 203 267
186 297 388
230 383 501
262 460 605
289 528 699
312 594 788
334 655 869
360 717 951
386 780 1034
417 846 1119
452 917 1209
494 994 1306
548 1085 1418
611 1185 1541
685 1297 1676
773 1422 1825
877 1561 1987
1019 1733 2183
1267 2058 2555
1415 2349 2915
1527 2620 3258
1593 2880 3599
1755 3122 3883
3 189 16
3 217 107
3 308 310
186 328 420
230 383 501
262 460 605
289 528 699
312 594 788
334 655 869
360 717 951
386 780 1034
417 846 1119
452 917 1209
494 994 1306
548 1085 1418
611 1185 1541
685 1297 1676
773 1422 1825
877 1561 1987
1019 1733 2183
1267 2058 2555
1415 2349 2915
1527 2620 3258
1593 2880 3599
1755 3122 3883
10 289 32
10 320 110
13 367 250
10 464 468
225 486 611
262 461 606
289 528 699
312 594 788
334 655 869
360 717 951
386 780 1034
417 846 1119
452 917 1209
494 994 1306
548 1085 1418
611 1185 1541
685 1297 1676
773 1422 1825
877 1561 1987
1019 1733 2183
1267 2058 2555
1415 2349 2915
1527 2620 3258
1593 2880 3599
1755 3122 3883
23 389 58
23 406 129
23 442 235
23 496 388
16 597 607
235 645 798
297 593 771
312 594 788
334 655 869
360 717 951
386 780 1034
417 846 1119
452 917 1209
494 994 1306
548 1085 1418
611 1185 1541
685 1297 1676
773 1422 1825
877 1561 1987
1019 1733 2183
1267 2058 2555
1415 2349 2915
1527 2620 3258
1593 2880 3599
1755 3122 3883
39 471 94
39 484 158
39 512 235
42 559 362
36 627 525
26 731 746
233 798 977
322 750 960
336 660 876
360 717 951
386 780 1034
417 846 1119
452 917 1209
494 994 1306
548 1085 1418
611 1185 1541
685 1297 1676
773 1422 1825
877 1561 1987
1019 1733 2183
1267 2058 2555
1415 2349 2915
1527 2620 3258
1593 2880 3599
1755 3122 3883
58 562 136
58 571 195
58 594 260
61 631 356
61 681 492
52 756 661
39 862 883
220 943 1145
332 909 1150
377 812 1061
386 780 1034
417 846 1119
452 917 1209
494 994 1306
548 1085 1418
611 1185 1541
685 1297 1676
773 1422 1825
877 1561 1987
1019 1733 2183
1267 2058 2555
1415 2349 2915
1527 2620 3258
1593 2880 3599
1755 3122 3883
84 645 186
84 653 235
84 672 289
90 703 367
94 750 484
87 805 625
71 877 793
55 1006 1035
212 1101 1326
339 1075 1345
414 985 1270
419 855 1130
452 917 1209
494 994 1306
548 1085 1418
611 1185 1541
685 1297 1676
773 1422 1825
877 1561 1987
1019 1733 2183
1267 2058 2555
1415 2349 2915
1527 2620 3258
1593 2880 3599
1755 3122 3883
119 728 240
116 735 282
119 750 328
123 777 393
129 815 485
136 883 623
126 957 782
103 1044 965
78 1170 1206
212 1267 1514
343 1247 1545
448 1172 1491
484 1038 1352
494 994 1306
548 1085 1418
611 1185 1541
685 1297 1676
773 1422 1825
877 1561 1987
1019 1733 2183
1267 2058 2555
1415 2349 2915
1527 2620 3258
1593 2880 3599
1755 3122 3883
161 816 297
158 825 334
165 845 377
171 878 442
183 924 526
192 982 646
195 1051 793
177 1125 954
142 1207 1136
107 1332 1376
209 1425 1673
351 1417 1740
477 1357 1707
547 1244 1596
552 1094 1430
611 1185 1541
685 1297 1676
773 1422 1825
877 1561 1987
1019 1733 2183
1267 2058 2555
1415 2349 2915
1527 2620 3258
1593 2880 3599
1755 3122 3883
220 941 372
220 950 406
222 967 445
230 995 503
240 1037 579
255 1088 677
260 1148 812
255 1217 965
230 1289 1127
189 1366 1305
145 1494 1549
214 1586 1838
360 1587 1934
506 1538 1918
606 1445 1834
647 1312 1690
685 1297 1676
773 1422 1825
877 1561 1987
1019 1733 2183
1267 2058 2555
1415 2349 2915
1527 2620 3258
1593 2880 3599
1755 3122 3883
284 1069 455
284 1077 485
289 1091 520
295 1118 572
306 1154 643
318 1200 730
328 1254 845
326 1314 983
312 1380 1135
280 1449 1297
233 1524 1473
186 1651 1716
222 1744 1997
377 1754 2123
540 1718 2123
666 1644 2064
741 1535 1952
775 1428 1832
877 1561 1987
1019 1733 2183
1267 2058 2555
1415 2349 2915
1527 2620 3258
1593 2880 3599
1755 3122 3883
352 1195 538
352 1203 566
356 1216 597
362 1239 645
372 1272 710
383 1313 790
396 1362 885
398 1417 1013
389 1476 1153
367 1537 1301
328 1603 1461
276 1680 1640
225 1805 1881
233 1901 2159
399 1919 2310
578 1893 2323
729 1837 2284
836 1755 2206
907 1667 2108
1019 1733 2183
1267 2058 2555
1415 2349 2915
1527 2620 3258
1593 2880 3599
1755 3122 3883
422 1320 624
422 1328 649
425 1339 678
430 1360 721
437 1389 778
446 1426 851
458 1470 937
465 1520 1046
462 1574 1178
451 1632 1320
420 1691 1467
372 1751 1620
316 1832 1803
267 1956 2044
228 2054 2322
425 2081 2493
623 2065 2517
798 2025 2498
937 1968 2446
1046 1911 2386
1267 2059 2556
1415 2349 2915
1527 2620 3258
1593 2880 3599
1755 3122 3883
488 1443 706
488 1449 728
489 1460 755
494 1478 793
501 1504 846
510 1537 914
521 1578 994
531 1623 1087
533 1674 1208
526 1727 1342
508 1783 1484
471 1838 1628
417 1894 1778
356 1977 1961
306 2100 2201
198 2200 2471
448 2239 2671
674 2234 2707
874 2207 2700
1045 2172 2673
1216 2167 2667
1394 2374 2940
1527 2620 3258
1593 2880 3599
1755 3122 3883
556 1563 792
557 1569 812
558 1579 836
563 1595 872
570 1618 921
578 1649 984
588 1686 1058
599 1728 1144
606 1774 1247
601 1823 1372
586 1875 1504
560 1926 1642
517 1978 1783
458 2029 1927
391 2113 2108
341 2237 2350
233 2342 2619
462 2393 2845
727 2399 2891
961 2387 2900
1165 2372 2891
1303 2463 3025
1462 2661 3296
1593 2880 3599
1755 3122 3883
626 1682 879
627 1687 897
629 1696 919
633 1711 953
639 1732 998
647 1759 1055
656 1793 1124
666 1831 1205
676 1874 1295
676 1919 1408
664 1966 1531
643 2013 1660
606 2060 1790
557 2107 1926
494 2152 2064
430 2244 2251
376 2368 2492
269 2478 2766
452 2542 3015
780 2559 3070
1055 2561 3092
1254 2571 3116
1333 2731 3356
1460 2928 3637
1705 3134 3895
696 1797 966
697 1802 982
699 1810 1003
702 1823 1033
708 1843 1076
715 1868 1128
724 1898 1192
733 1933 1266
740 1971 1348
744 2012 1442
736 2055 1559
720 2099 1681
693 2143 1807
649 2185 1932
593 2226 2059
527 2265 2191
467 2366 2386
412 2491 2628
306 2607 2904
381 2685 3180
823 2711 3240
1151 2727 3272
1179 2802 3411
1287 2979 3670
1469 3175 3939
766 1909 1052
766 1914 1067
768 1921 1086
771 1933 1114
775 1950 1151
781 1972 1199
788 2000 1257
794 2031 1325
801 2066 1401
807 2103 1485
804 2142 1588
791 2182 1703
770 2223 1823
736 2262 1944
688 2299 2063
626 2333 2182
556 2366 2305
503 2477 2511
448 2607 2759
337 2726 3025
233 2819 3322
848 2857 3404
1248 2886 3443
1090 3026 3693
1113 3214 3980
831 2017 1132
831 2021 1145
832 2027 1163
834 2038 1188
838 2053 1223
842 2073 1267
848 2097 1321
855 2126 1383
861 2158 1454
866 2192 1533
869 2227 1619
859 2264 1727
841 2300 1840
814 2336 1955
775 2370 2071
722 2400 2183
656 2429 2294
582 2454 2406
535 2579 2627
479 2712 2874
372 2838 3144
255 2945 3448
836 3000 3568
880 3070 3706
843 3238 3970
895 2121 1213
896 2125 1225
896 2130 1242
899 2140 1265
902 2154 1298
907 2172 1339
912 2193 1389
918 2219 1447
924 2248 1513
928 2279 1585
931 2311 1665
926 2343 1757
909 2375 1861
885 2406 1967
852 2437 2077
807 2464 2184
750 2489 2289
681 2510 2391
603 2527 2491
562 2669 2726
509 2808 2980
409 2943 3257
278 3064 3567
752 3138 3732
545 3257 3945
961 2221 1293
961 2225 1305
961 2229 1319
963 2238 1342
966 2250 1372
970 2266 1409
975 2286 1456
980 2309 1509
984 2334 1570
988 2362 1637
990 2390 1710
990 2419 1788
977 2448 1885
955 2475 1985
924 2501 2085
884 2525 2186
833 2545 2284
771 2563 2380
700 2576 2472
623 2595 2572
586 2750 2816
537 2896 3078
445 3041 3363
306 3178 3688
433 3273 3900
1023 2316 1372
1023 2319 1382
1024 2324 1396
1026 2331 1416
1028 2342 1444
1031 2356 1478
1035 2373 1521
1039 2393 1570
1043 2416 1626
1046 2440 1688
1047 2466 1755
1046 2491 1827
1039 2516 1909
1019 2540 2002
991 2562 2095
954 2582 2188
907 2598 2278
851 2611 2366
786 2621 2453
713 2627 2535
640 2658 2644
610 2822 2898
564 2978 3168
478 3132 3461
336 3286 3800
1084 2406 1446
1084 2409 1456
1084 2413 1468
1086 2420 1487
1087 2429 1512
1090 2441 1544
1093 2456 1583
1096 2474 1628
1098 2493 1679
1101 2515 1737
1101 2537 1798
1098 2559 1863
1093 2580 1931
1076 2600 2015
1050 2618 2103
1017 2635 2190
976 2648 2275
923 2657 2355
862 2663 2434
796 2666 2511
722 2664 2584
655 2711 2707
633 2888 2974
591 3054 3254
510 3218 3553
1141 2490 1517
1141 2493 1526
1142 2496 1538
1142 2502 1555
1144 2510 1578
1145 2521 1607
1147 2534 1642
1149 2549 1683
1150 2566 1729
1149 2583 1780
1148 2602 1836
1145 2621 1896
1139 2639 1958
1128 2655 2028
1105 2670 2109
1074 2683 2190
1036 2693 2270
990 2700 2347
933 2702 2418
869 2701 2487
801 2698 2556
727 2691 2620
671 2759 2763
656 2950 3046
619 3129 3340
129 58 36
158 107 123
165 212 284
206 304 399
243 388 510
273 464 613
299 535 709
322 599 794
345 661 878
369 722 959
396 785 1042
427 852 1128
461 922 1217
504 1001 1316
557 1091 1427
619 1192 1549
694 1303 1684
781 1427 1832
884 1566 1993
1024 1737 2187
1273 2061 2559
1421 2352 2920
1533 2623 3262
1599 2883 3603
1772 3124 3882
10 97 3
171 171 171
165 214 287
206 304 399
243 388 510
273 464 613
299 535 709
322 599 794
345 661 878
369 722 959
396 785 1042
427 852 1128
461 922 1217
504 1001 1316
557 1091 1427
619 1192 1549
694 1303 1684
781 1427 1832
884 1566 1993
1024 1737 2187
1273 2061 2559
1421 2352 2920
1533 2623 3262
1599 2883 3603
1772 3124 3882
3 189 16
3 217 107
158 337 337
225 332 417
243 388 510
273 464 613
299 535 709
322 599 794
345 661 878
369 722 959
396 785 1042
427 852 1128
461 922 1217
504 1001 1316
557 1091 1427
619 1192 1549
694 1303 1684
781 1427 1832
884 1566 1993
1024 1737 2187
1273 2061 2559
1421 2352 2920
1533 2623 3262
1599 2883 3603
1772 3124 3882
10 289 32
10 320 110
13 367 250
126 477 482
260 488 607
273 468 617
299 535 709
322 599 794
345 661 878
369 722 959
396 785 1042
427 852 1128
461 922 1217
504 1001 1316
557 1091 1427
619 1192 1549
694 1303 1684
781 1427 1832
884 1566 1993
1024 1737 2187
1273 2061 2559
1421 2352 2920
1533 2623 3262
1599 2883 3603
1772 3124 3882
23 389 58
23 406 129
23 442 235
23 496 388
90 610 619
271 647 798
316 592 768
322 599 794
345 661 878
369 722 959
396 785 1042
427 852 1128
461 922 1217
504 1001 1316
557 1091 1427
619 1192 1549
694 1303 1684
781 1427 1832
884 1566 1993
1024 1737 2187
1273 2061 2559
1421 2352 2920
1533 2623 3262
1599 2883 3603
1772 3124 3882
39 471 94
39 484 158
39 512 235
42 559 362
36 627 525
78 740 755
269 801 978
341 749 958
345 664 881
369 722 959
396 785 1042
427 852 1128
461 922 1217
504 1001 1316
557 1091 1427
619 1192 1549
694 1303 1684
781 1427 1832
884 1566 1993
1024 1737 2187
1273 2061 2559
1421 2352 2920
1533 2623 3262
1599 2883 3603
1772 3124 3882
58 562 136
58 571 195
58 594 260
61 631 356
61 681 492
52 756 661
78 870 891
260 947 1148
354 909 1150
389 807 1055
396 785 1042
427 852 1128
461 922 1217
504 1001 1316
557 1091 1427
619 1192 1549
694 1303 1684
781 1427 1832
884 1566 1993
1024 1737 2187
1273 2061 2559
1421 2352 2920
1533 2623 3262
1599 2883 3603
1772 3124 3882
84 645 186
84 653 235
84 672 289
90 703 367
94 750 484
87 805 625
71 877 793
81 1015 1044
250 1106 1331
362 1076 1346
430 982 1265
428 856 1132
461 922 1217
504 1001 1316
557 1091 1427
619 1192 1549
694 1303 1684
781 1427 1832
884 1566 1993
1024 1737 2187
1273 2061 2559
1421 2352 2920
1533 2623 3262
1599 2883 3603
1772 3124 3882
119 728 240
116 735 282
119 750 328
123 777 393
129 815 485
136 883 623
126 957 782
103 1044 965
97 1176 1212
248 1272 1520
372 1250 1547
467 1171 1489
496 1035 1346
504 1001 1316
557 1091 1427
619 1192 1549
694 1303 1684
781 1427 1832
884 1566 1993
1024 1737 2187
1273 2061 2559
1421 2352 2920
1533 2623 3262
1599 2883 3603
1772 3124 3882
161 816 297
158 825 334
165 845 377
171 878 442
183 924 526
192 982 646
195 1051 793
177 1125 954
142 1207 1136
126 1337 1382
252 1431 1684
381 1420 1743
500 1357 1706
563 1242 1593
560 1097 1433
619 1192 1549
694 1303 1684
781 1427 1832
884 1566 1993
1024 1737 2187
1273 2061 2559
1421 2352 2920
1533 2623 3262
1599 2883 3603
1772 3124 3882
220 941 372
220 950 406
222 967 445
230 995 503
240 1037 579
255 1088 677
260 1148 812
255 1217 965
230 1289 1127
189 1366 1305
161 1497 1553
262 1591 1846
393 1590 1937
530 1539 1918
624 1444 1832
658 1311 1687
694 1303 1684
781 1427 1832
884 1566 1993
1024 1737 2187
1273 2061 2559
1421 2352 2920
1533 2623 3262
1599 2883 3603
1772 3124 3882
