Creative/ColorHarmony - Orange Pink & Cyan.3dl
#33pt 3DLUT created by 3D LUT Creator Pro (c) Oleg Sharonov
#Copyright Oleg Sharonov
#INPUTGAMMA sRGB IEC61966-2.1 v.2.10
#IMAGEPROFILE sRGB IEC61966-2.1 v.2.10
#OUTPUTGAMMA sRGB IEC61966-2.1 v.2.10
0 256 512 768 1023
0 0 0
0 601 827
0 1202 1655
0 1803 2483
0 2404 3311
1063 833 804
631 974 1088
0 1389 1771
0 1916 2550
0 2481 3356
2126 1665 1608
2002 1724 1737
1263 1948 2178
0 2317 2816
0 2778 3543
3190 2498 2412
3121 2531 2487
2798 2669 2779
1895 2922 3267
0 3272 3884
4095 3330 3216
4095 3353 3267
4003 3447 3473
3536 3629 3847
2526 3896 4095
874 412 0
0 693 727
0 1240 1620
0 1825 2463
0 2419 3297
1302 894 698
1024 1024 1024
0 1420 1739
0 1935 2531
0 2495 3343
2228 1689 1571
2112 1747 1704
1460 1968 2154
0 2333 2799
0 2789 3531
3249 2511 2391
3181 2545 2467
2868 2682 2762
2013 2933 3254
0 3282 3874
4095 3339 3202
4095 3362 3253
4046 3456 3461
3588 3637 3836
2607 3904 4095
1750 824 0
1582 967 0
0 1385 1454
0 1913 2375
0 2479 3240
1954 1106 0
1812 1207 633
823 1542 1592
0 2018 2447
0 2553 3287
2604 1787 1397
2512 1840 1551
2048 2048 2048
0 2396 2726
0 2839 3478
3485 2569 2300
3424 2601 2380
3146 2734 2688
2435 2980 3195
0 3322 3828
4095 3378 3142
4095 3400 3194
4095 3493 3407
3795 3672 3790
2919 3935 4095
2625 1237 0
2534 1324 0
2077 1628 995
0 2077 2182
0 2596 3118
2746 1417 0
2661 1490 0
2241 1756 1210
0 2171 2263
0 2666 3168
3196 1966 893
3127 2013 1149
2805 2198 1802
1907 2519 2570
0 2937 3369
3907 2681 2096
3855 2711 2187
3622 2837 2528
3071 3071 3071
1643 3401 3733
4095 3455 3015
4095 3477 3071
4095 3567 3294
4095 3741 3693
3439 3998 4095
3501 1649 0
3440 1708 0
3163 1935 0
2461 2307 1810
0 2770 2909
3582 1775 0
3524 1829 0
3258 2038 0
2592 2388 1913
0 2833 2964
3908 2212 0
3856 2252 0
3624 2412 1266
3073 2699 2287
1647 3085 3183
4095 2847 1697
4095 2875 1817
4095 2992 2237
3815 3210 2857
2947 3522 3573
4095 3574 2795
4095 3595 2857
4095 3681 3102
4095 3848 3531
4095 4095 4095
