Creative/ColorShaping-Dark greens.3dl
#25pt 3DLUT created by 3D LUT Creator Pro (c) Oleg Sharonov
#Copyright Oleg Sharonov
#IMAGEPROFILE sRGB IEC61966-2.1 v.2.10
#INPUTGAMMA sRGB IEC61966-2.1 v.2.10
#OUTPUTGAMMA sRGB IEC61966-2.1 v.2.10
0 128 256 384 512 640 768 896 1023
0 0 0
186 297 388
289 528 699
360 717 951
452 917 1209
611 1185 1541
877 1561 1987
1415 2349 2915
1755 3122 3883
10 289 32
10 464 468
289 528 699
360 717 951
452 917 1209
611 1185 1541
877 1561 1987
1415 2349 2915
1755 3122 3883
58 562 136
61 631 356
39 862 883
377 812 1061
452 917 1209
611 1185 1541
877 1561 1987
1415 2349 2915
1755 3122 3883
161 816 297
171 878 442
195 1051 793
107 1332 1376
477 1357 1707
611 1185 1541
877 1561 1987
1415 2349 2915
1755 3122 3883
352 1195 538
362 1239 645
396 1362 885
367 1537 1301
225 1805 1881
578 1893 2323
907 1667 2108
1415 2349 2915
1755 3122 3883
556 1563 792
563 1595 872
588 1686 1058
601 1823 1372
517 1978 1783
341 2237 2350
727 2399 2891
1303 2463 3025
1755 3122 3883
766 1909 1052
771 1933 1114
788 2000 1257
807 2103 1485
770 2223 1823
626 2333 2182
448 2607 2759
848 2857 3404
1113 3214 3980
961 2221 1293
963 2238 1342
975 2286 1456
988 2362 1637
977 2448 1885
884 2525 2186
700 2576 2472
537 2896 3078
433 3273 3900
1141 2490 1517
1142 2502 1555
1147 2534 1642
1149 2583 1780
1139 2639 1958
1074 2683 2190
933 2702 2418
727 2691 2620
619 3129 3340
416 201 97
467 324 379
398 565 768
433 754 1010
510 951 1260
658 1217 1585
917 1588 2022
1443 2365 2937
1835 3133 3880
39 306 19
512 512 512
398 565 768
433 754 1010
510 951 1260
658 1217 1585
917 1588 2022
1443 2365 2937
1835 3133 3880
58 562 136
61 631 356
442 903 921
486 822 1068
510 951 1260
658 1217 1585
917 1588 2022
1443 2365 2937
1835 3133 3880
161 816 297
171 878 442
195 1051 793
439 1360 1404
622 1361 1699
658 1217 1585
917 1588 2022
1443 2365 2937
1835 3133 3880
352 1195 538
362 1239 645
396 1362 885
367 1537 1301
419 1824 1899
704 1900 2324
961 1673 2110
1443 2365 2937
1835 3133 3880
556 1563 792
563 1595 872
588 1686 1058
601 1823 1372
517 1978 1783
379 2251 2364
821 2409 2898
1336 2494 3067
1835 3133 3880
766 1909 1052
771 1933 1114
788 2000 1257
807 2103 1485
770 2223 1823
626 2333 2182
472 2615 2767
937 2867 3412
1267 3234 3988
961 2221 1293
963 2238 1342
975 2286 1456
988 2362 1637
977 2448 1885
884 2525 2186
700 2576 2472
552 2901 3083
367 3290 3925
1141 2490 1517
1142 2502 1555
1147 2534 1642
1149 2583 1780
1139 2639 1958
1074 2683 2190
933 2702 2418
727 2691 2620
626 3131 3343
823 428 198
856 445 252
896 606 728
705 841 1180
705 1050 1412
811 1309 1714
1042 1667 2125
1530 2413 3004
2051 3168 3874
873 513 71
924 568 367
892 612 743
705 841 1180
705 1050 1412
811 1309 1714
1042 1667 2125
1530 2413 3004
2051 3168 3874
129 586 84
297 692 248
986 964 992
732 886 1211
705 1050 1412
811 1309 1714
1042 1667 2125
1530 2413 3004
2051 3168 3874
161 816 297
171 878 442
195 1051 793
963 1420 1452
975 1382 1669
811 1309 1714
1042 1667 2125
1530 2413 3004
2051 3168 3874
352 1195 538
362 1239 645
396 1362 885
367 1537 1301
954 1867 1933
1065 1916 2299
1088 1733 2185
1530 2413 3004
2051 3168 3874
556 1563 792
563 1595 872
588 1686 1058
601 1823 1372
517 1978 1783
904 2289 2398
1157 2425 2883
1427 2544 3134
2051 3168 3874
766 1909 1052
771 1933 1114
788 2000 1257
807 2103 1485
770 2223 1823
626 2333 2182
664 2663 2817
1236 2886 3407
1602 3271 3988
961 2221 1293
963 2238 1342
975 2286 1456
988 2362 1637
977 2448 1885
884 2525 2186
700 2576 2472
697 2942 3126
126 3334 3992
1141 2490 1517
1142 2502 1555
1147 2534 1642
1149 2583 1780
1139 2639 1958
1074 2683 2190
933 2702 2418
727 2691 2620
727 3165 3381
1213 658 328
1213 658 328
1344 719 543
1330 909 1091
1106 1170 1664
1108 1449 1923
1289 1805 2305
1709 2506 3133
2404 3241 3866
1282 720 304
1278 707 330
1348 721 552
1327 912 1099
1106 1170 1664
1108 1449 1923
1289 1805 2305
1709 2506 3133
2404 3241 3866
1010 819 168
1121 857 201
1407 1045 881
1331 933 1132
1106 1170 1664
1108 1449 1923
1289 1805 2305
1709 2506 3133
2404 3241 3866
273 872 220
362 923 289
799 1171 772
1507 1480 1513
1280 1444 1803
1108 1449 1923
1289 1805 2305
1709 2506 3133
2404 3241 3866
352 1195 538
360 1233 632
396 1362 885
752 1586 1320
1482 1933 1977
1498 1948 2258
1316 1849 2344
1709 2506 3133
2404 3241 3866
556 1563 792
563 1595 872
588 1686 1058
601 1823 1372
545 1987 1787
1437 2348 2435
1590 2459 2858
1622 2623 3240
2404 3241 3866
766 1909 1052
771 1933 1114
788 2000 1257
807 2103 1485
770 2223 1823
626 2333 2182
1282 2725 2867
1672 2921 3391
2056 3327 3975
961 2221 1293
963 2238 1342
975 2286 1456
988 2362 1637
977 2448 1885
884 2525 2186
700 2576 2472
953 3040 3232
422 3406 4087
1141 2490 1517
1142 2502 1555
1147 2534 1642
1149 2583 1780
1139 2639 1958
1074 2683 2190
933 2702 2418
727 2691 2620
981 3267 3491
1620 912 497
1620 912 497
1677 937 571
1873 1041 910
1807 1271 1505
1620 1583 2183
1687 1989 2550
2013 2652 3334
2847 3368 3864
1671 955 497
1636 924 501
1681 939 576
1875 1043 916
1805 1273 1511
1619 1585 2188
1687 1989 2550
2013 2652 3334
2847 3368 3864
1768 1074 440
1812 1098 461
1830 1168 788
1881 1047 931
1800 1279 1526
1617 1591 2201
1687 1989 2550
2013 2652 3334
2847 3368 3864
1063 1126 457
1208 1176 443
1605 1352 762
1934 1569 1418
1903 1487 1697
1617 1591 2201
1687 1989 2550
2013 2652 3334
2847 3368 3864
482 1270 434
530 1285 455
796 1452 744
1340 1715 1323
2035 1999 2042
1854 2025 2380
1700 2014 2569
2013 2652 3334
2847 3368 3864
556 1563 792
558 1575 827
585 1675 1035
776 1866 1371
1252 2041 1799
1983 2430 2485
2062 2519 2830
1937 2750 3423
2847 3368 3864
766 1909 1052
771 1933 1114
788 2000 1257
807 2103 1485
770 2223 1823
977 2361 2183
1865 2809 2915
1960 3010 3473
2613 3424 3954
961 2221 1293
963 2238 1342
975 2286 1456
988 2362 1637
977 2448 1885
884 2525 2186
805 2585 2471
1446 3170 3366
1631 3471 4079
1141 2490 1517
1142 2502 1555
1147 2534 1642
1149 2583 1780
1139 2639 1958
1074 2683 2190
933 2702 2418
727 2691 2620
1254 3428 3666
2072 1210 723
2072 1210 723
2072 1210 723
2231 1291 944
2426 1430 1356
2348 1736 2002
2299 2175 2748
2550 2849 3532
3338 3570 3892
2071 1211 717
2072 1210 723
2072 1210 723
2234 1292 948
2428 1431 1360
2347 1738 2007
2299 2178 2753
2550 2849 3532
3338 3570 3892
2210 1346 720
2242 1367 740
2241 1348 768
2240 1296 959
2431 1434 1371
2345 1744 2019
2299 2185 2764
2550 2849 3532
3338 3570 3892
2074 1480 632
2129 1499 656
2283 1550 747
2383 1706 1374
2483 1592 1512
2341 1754 2040
2300 2198 2784
2550 2849 3532
3338 3570 3892
962 1428 665
1074 1458 700
1461 1579 779
2107 1867 1329
2472 2111 1972
2492 2096 2295
2303 2208 2798
2550 2849 3532
3338 3570 3892
694 1649 656
728 1659 670
859 1749 788
1246 1909 1212
1844 2226 1835
2560 2520 2569
2470 2634 2962
2518 2921 3576
3338 3570 3892
766 1909 1052
766 1909 1052
781 1973 1202
893 2129 1462
1251 2271 1795
1719 2515 2302
2456 2917 2979
2402 3135 3580
3209 3587 3942
961 2221 1293
963 2237 1338
975 2286 1456
988 2362 1637
977 2448 1885
982 2544 2183
1285 2744 2589
2195 3285 3433
2461 3573 4062
1141 2490 1517
1142 2502 1555
1147 2534 1642
1149 2583 1780
1139 2639 1958
1074 2683 2190
933 2702 2418
1101 2787 2696
1693 3636 3888
2550 1551 1017
2550 1551 1017
2550 1551 1017
2621 1592 1110
2819 1734 1442
3019 1966 1948
3000 2424 2668
3230 3084 3518
3843 3879 3992
2535 1540 1007
2550 1551 1017
2550 1551 1017
2623 1593 1113
2821 1735 1445
3020 1968 1952
3000 2427 2672
3231 3087 3521
3843 3879 3992
2659 1652 1018
2675 1661 1033
2641 1625 1046
2629 1596 1120
2825 1739 1455
3024 1973 1963
3001 2434 2683
3233 3096 3528
3843 3879 3992
2724 1751 978
2751 1768 996
2818 1812 1044
2833 1893 1376
2865 1828 1546
3030 1982 1981
3002 2446 2701
3239 3112 3541
3843 3879 3992
2336 1862 823
2387 1881 845
2506 1928 897
2785 2074 1371
2948 2277 1979
3078 2261 2208
3004 2464 2729
3248 3136 3559
3843 3879 3992
1154 1770 855
1178 1778 866
1240 1796 899
1848 2079 1307
2624 2387 1875
3002 2650 2520
3120 2765 2933
3257 3206 3605
3843 3879 3992
899 1998 877
924 2004 886
996 2030 926
1254 2176 1209
1608 2275 1586
2321 2719 2318
3072 3042 3078
3121 3292 3597
3778 3858 3996
961 2221 1293
961 2221 1293
967 2250 1372
1064 2371 1578
1304 2508 1845
1554 2555 2099
2102 2988 2785
2934 3405 3480
3268 3732 4032
1141 2490 1517
1142 2493 1528
1147 2527 1625
1149 2583 1778
1139 2639 1958
1083 2685 2189
1249 2716 2374
1545 3188 3058
2732 3813 3997
3061 1957 1408
3061 1957 1408
3061 1957 1408
3062 1957 1409
3250 2108 1691
3593 2337 2083
3651 2811 2817
3753 3504 3595
4095 4095 4095
3054 1951 1402
3061 1957 1408
3061 1957 1408
3064 1959 1412
3253 2111 1694
3595 2339 2086
3651 2814 2821
3754 3507 3598
4095 4095 4095
3120 2005 1393
3116 2001 1405
3091 1981 1419
3067 1961 1417
3260 2115 1701
3601 2343 2094
3651 2822 2831
3757 3516 3606
4095 4095 4095
3198 2087 1353
3220 2105 1373
3276 2148 1423
3278 2153 1515
3317 2156 1729
3612 2351 2107
3651 2835 2849
3762 3530 3621
4095 4095 4095
3138 2178 1206
3172 2192 1232
3256 2228 1296
3407 2308 1474
3418 2474 2008
3659 2502 2221
3651 2856 2875
3771 3554 3643
4095 4095 4095
2537 2199 999
2582 2219 1019
2696 2269 1070
2965 2391 1240
3279 2584 1932
3573 2833 2507
3666 3041 2999
3800 3618 3697
4095 4095 4095
1336 2077 1046
1353 2081 1053
1394 2090 1071
1530 2156 1195
2246 2573 1788
3135 2878 2372
3572 3214 3076
3739 3563 3640
4095 4095 4095
1084 2303 1080
1103 2305 1086
1153 2311 1102
1299 2404 1248
1557 2502 1526
2000 2737 1990
2796 3226 2804
3571 3571 3571
4003 4025 4065
1141 2490 1517
1141 2490 1517
1142 2496 1535
1236 2587 1692
1395 2700 1895
1543 2759 2091
1701 2798 2316
2341 3607 3380
3423 3955 4061
3843 2553 1934
3843 2553 1934
3843 2553 1934
3843 2553 1934
3848 2676 2197
3867 2998 2763
3918 3433 3366
4059 4003 4003
4095 4095 4095
3843 2553 1933
3843 2553 1934
3843 2553 1934
3843 2553 1934
3848 2678 2202
3867 3001 2767
3918 3436 3369
4060 4005 4006
4095 4095 4095
3828 2501 1818
3834 2522 1864
3843 2553 1934
3843 2553 1934
3849 2684 2214
3867 3007 2777
3920 3443 3377
4062 4012 4012
4095 4095 4095
3779 2479 1698
3812 2496 1703
3837 2553 1816
3856 2612 1971
3849 2696 2236
3868 3018 2794
3922 3455 3392
4066 4024 4025
4095 4095 4095
3668 2491 1663
3683 2504 1682
3721 2538 1729
3839 2610 1783
3893 2852 2342
3895 3092 2857
3925 3473 3414
4073 4045 4045
4095 4095 4095
3420 2557 1395
3450 2569 1408
3524 2598 1441
3655 2648 1501
3811 2830 2180
3934 3186 2859
3957 3524 3439
4095 4095 4095
4095 4095 4095
2507 2454 1276
2569 2477 1288
2718 2526 1302
2964 2600 1294
3442 2835 1672
3723 3111 2589
3984 3517 3329
4061 3988 3983
4095 4095 4095
1489 2329 1214
1501 2329 1217
1529 2332 1225
1588 2344 1256
1888 2567 1559
2663 3094 2213
3631 3396 2995
4038 3816 3732
4095 4095 4095
1253 2548 1266
1258 2550 1259
1294 2550 1267
1375 2579 1328
1551 2660 1519
1727 2712 1703
2359 3326 2370
3410 3829 3426
4095 4095 4095
