Creative/ColorShaping-Dark greens.3dl
#25pt 3DLUT created by 3D LUT Creator Pro (c) Oleg Sharonov
#Copyright Oleg Sharonov
#IMAGEPROFILE sRGB IEC61966-2.1 v.2.10
#INPUTGAMMA sRGB IEC61966-2.1 v.2.10
#OUTPUTGAMMA sRGB IEC61966-2.1 v.2.10
0 256 512 768 1023
0 0 0
289 528 699
452 917 1209
877 1561 1987
1755 3122 3883
58 562 136
39 862 883
452 917 1209
877 1561 1987
1755 3122 3883
352 1195 538
396 1362 885
225 1805 1881
907 1667 2108
1755 3122 3883
766 1909 1052
788 2000 1257
770 2223 1823
448 2607 2759
1113 3214 3980
1141 2490 1517
1147 2534 1642
1139 2639 1958
933 2702 2418
619 3129 3340
823 428 198
896 606 728
705 1050 1412
1042 1667 2125
2051 3168 3874
129 586 84
986 964 992
705 1050 1412
1042 1667 2125
2051 3168 3874
352 1195 538
396 1362 885
954 1867 1933
1088 1733 2185
2051 3168 3874
766 1909 1052
788 2000 1257
770 2223 1823
664 2663 2817
1602 3271 3988
1141 2490 1517
1147 2534 1642
1139 2639 1958
933 2702 2418
727 3165 3381
1620 912 497
1677 937 571
1807 1271 1505
1687 1989 2550
2847 3368 3864
1768 1074 440
1830 1168 788
1800 1279 1526
1687 1989 2550
2847 3368 3864
482 1270 434
796 1452 744
2035 1999 2042
1700 2014 2569
2847 3368 3864
766 1909 1052
788 2000 1257
770 2223 1823
1865 2809 2915
2613 3424 3954
1141 2490 1517
1147 2534 1642
1139 2639 1958
933 2702 2418
1254 3428 3666
2550 1551 1017
2550 1551 1017
2819 1734 1442
3000 2424 2668
3843 3879 3992
2659 1652 1018
2641 1625 1046
2825 1739 1455
3001 2434 2683
3843 3879 3992
2336 1862 823
2506 1928 897
2948 2277 1979
3004 2464 2729
3843 3879 3992
899 1998 877
996 2030 926
1608 2275 1586
3072 3042 3078
3778 3858 3996
1141 2490 1517
1147 2527 1625
1139 2639 1958
1249 2716 2374
2732 3813 3997
3843 2553 1934
3843 2553 1934
3848 2676 2197
3918 3433 3366
4095 4095 4095
3828 2501 1818
3843 2553 1934
3849 2684 2214
3920 3443 3377
4095 4095 4095
3668 2491 1663
3721 2538 1729
3893 2852 2342
3925 3473 3414
4095 4095 4095
2507 2454 1276
2718 2526 1302
3442 2835 1672
3984 3517 3329
4095 4095 4095
1253 2548 1266
1294 2550 1267
1551 2660 1519
2359 3326 2370
4095 4095 4095
