Creative/ColorShaping-Emerald.3dl
#25pt 3DLUT created by 3D LUT Creator Pro (c) Oleg Sharonov
#Copyright Oleg Sharonov
#IMAGEPROFILE sRGB IEC61966-2.1 v.2.10
#INPUTGAMMA sRGB IEC61966-2.1 v.2.10
#OUTPUTGAMMA sRGB IEC61966-2.1 v.2.10
0 256 512 768 1023
0 0 0
0 0 977
0 0 1862
528 802 2486
994 1474 2807
0 893 782
0 904 1080
0 948 1861
276 1253 2484
823 1693 2816
0 1782 1541
0 1772 1625
0 1752 1988
240 1880 2466
724 2046 2796
0 2633 2138
0 2616 2178
0 2488 2299
0 2389 2576
802 2379 2757
0 3327 2531
0 3298 2553
0 3166 2603
0 2790 2725
374 2649 2804
1030 100 0
833 472 1065
662 604 1952
959 1033 2539
1282 1585 2858
452 1047 867
1024 1024 1024
969 1004 1893
1083 1306 2503
1106 1655 2881
0 1902 1596
0 1898 1679
615 1832 2016
848 1959 2525
837 2128 2880
0 2734 2170
0 2740 2222
0 2621 2352
0 2481 2657
904 2467 2841
0 3424 2566
0 3487 2616
0 3328 2677
0 2899 2796
547 2747 2890
2067 280 0
2082 0 968
1745 1180 2023
1722 1707 2699
1915 2047 3037
2058 1122 0
2069 1053 941
1828 1458 2017
1829 1830 2679
1895 2076 3064
1342 1965 1703
1559 1978 1790
2048 2048 2048
2039 2226 2584
1914 2447 2999
0 3029 2313
0 3028 2355
959 2928 2492
1777 2715 2797
1334 2823 3170
0 3766 2724
0 3824 2760
0 3762 2868
0 3503 3060
994 3133 3235
3136 0 0
3143 0 793
3158 0 2028
2706 2025 2849
2726 2706 3476
3135 1049 0
3140 978 761
3150 736 2017
2747 2163 2865
2757 2749 3485
3031 2043 553
3104 2059 852
3131 2008 1983
2868 2534 2928
2873 2897 3474
2436 2735 2493
2518 2765 2552
2742 2868 2739
3071 3071 3071
2903 3263 3415
416 4073 3077
818 4090 3125
1246 4095 3223
1793 4023 3379
1457 3804 3874
4095 0 0
4095 0 394
4095 0 1927
4095 0 3049
3642 2800 3728
4095 680 0
4095 596 326
4095 255 1916
4095 0 3071
3667 2886 3748
4095 1971 0
4095 1952 0
4095 1897 1879
4095 1810 3051
3745 3139 3809
3980 2914 1563
4017 2937 1697
4095 3007 2066
4095 3013 3013
3888 3555 3924
3390 3598 3271
3432 3625 3319
3559 3711 3468
3782 3868 3731
4095 4095 4095
