Creative/ColorHarmony - Fade Colds.3dl
#25pt 3DLUT created by 3D LUT Creator Pro (c) Oleg Sharonov
#Copyright Oleg Sharonov
#INPUTGAMMA sRGB IEC61966-2.1 v.2.10
#IMAGEPROFILE sRGB IEC61966-2.1 v.2.10
#OUTPUTGAMMA sRGB IEC61966-2.1 v.2.10
0 128 256 384 512 640 768 896 1023
0 0 0
61 42 168
214 145 442
396 295 716
578 448 990
758 600 1264
940 751 1538
1120 903 1812
1302 1055 2086
262 465 252
284 475 485
391 509 689
541 553 1010
706 639 1235
866 749 1462
1030 871 1700
1197 1003 1948
1368 1139 2202
599 944 585
610 949 724
637 962 979
753 983 1207
856 1037 1391
1015 1074 1739
1176 1138 2019
1339 1230 2232
1500 1336 2455
936 1424 917
936 1429 998
967 1434 1202
992 1449 1472
1114 1463 1717
1212 1508 1897
1330 1560 2119
1487 1597 2466
1642 1646 2802
1274 1903 1249
1265 1909 1297
1289 1911 1464
1323 1919 1687
1345 1936 1965
1474 1946 2220
1574 1982 2414
1670 2037 2582
1802 2083 2845
1612 2383 1581
1595 2390 1607
1615 2391 1736
1646 2395 1938
1677 2405 2176
1699 2423 2458
1832 2430 2721
1935 2460 2927
2032 2507 3103
1950 2862 1913
1928 2870 1926
1943 2871 2027
1968 2874 2204
2003 2879 2417
2029 2892 2666
2052 2909 2952
2189 2915 3220
2295 2940 3435
2287 3342 2245
2270 3348 2255
2272 3352 2329
2295 3353 2476
2324 3357 2678
2359 3364 2901
2382 3378 3157
2406 3396 3445
2765 3365 3603
3052 3703 3029
3052 3705 3041
3062 3707 3078
3087 3709 3151
3122 3712 3255
3168 3719 3375
3221 3730 3506
3275 3747 3647
3360 3765 3788
512 0 0
512 0 512
485 136 764
560 318 912
692 470 1127
845 617 1367
1008 766 1619
1176 916 1878
1348 1066 2141
526 503 126
512 512 512
569 528 838
676 583 1059
799 669 1274
938 776 1498
1087 895 1733
1245 1023 1977
1413 1148 2255
706 971 571
684 986 664
709 992 998
818 1011 1230
936 1044 1496
1080 1079 1833
1236 1153 2038
1387 1245 2252
1543 1342 2501
1007 1440 910
992 1450 968
1008 1456 1193
1038 1468 1484
1157 1481 1730
1249 1525 1912
1377 1565 2182
1528 1600 2526
1684 1649 2846
1325 1915 1245
1313 1922 1286
1317 1928 1442
1354 1934 1685
1378 1949 1974
1504 1958 2229
1601 1994 2424
1694 2049 2593
1830 2085 2908
1650 2392 1578
1642 2397 1609
1636 2404 1715
1667 2407 1932
1701 2416 2176
1723 2432 2465
1856 2439 2727
1956 2469 2934
2044 2516 3124
1980 2869 1911
1974 2873 1935
1958 2882 2008
1985 2884 2191
2021 2888 2414
2049 2900 2667
2072 2917 2957
2208 2922 3225
2305 2948 3452
2313 3348 2244
2307 3351 2263
2284 3361 2312
2308 3362 2463
2337 3365 2673
2374 3371 2899
2398 3385 3158
2422 3403 3450
2782 3371 3609
3070 3707 3037
3070 3709 3048
3074 3713 3080
3100 3714 3153
3135 3718 3257
3181 3724 3379
3234 3735 3511
3287 3752 3652
3372 3770 3793
1023 0 0
1023 0 512
1023 0 1023
1001 116 1431
987 454 1480
1064 633 1629
1180 789 1826
1317 940 2047
1466 1088 2283
1026 506 81
1023 512 512
1024 512 1024
1025 553 1404
1060 671 1551
1140 792 1722
1250 915 1917
1379 1044 2131
1530 1166 2390
1047 1008 367
1037 1017 558
1024 1024 1024
1049 1036 1403
1152 1064 1648
1258 1118 1869
1374 1192 2082
1500 1283 2298
1657 1353 2625
1162 1483 881
1166 1489 936
1116 1514 1082
1148 1513 1515
1264 1523 1762
1360 1555 1997
1500 1573 2348
1642 1611 2643
1797 1655 2950
1441 1945 1230
1439 1950 1269
1407 1967 1372
1424 1972 1669
1456 1982 1996
1582 1989 2251
1670 2024 2450
1767 2071 2651
1904 2084 3086
1742 2414 1568
1739 2418 1599
1714 2431 1676
1717 2439 1899
1760 2443 2173
1785 2457 2481
1915 2463 2744
2011 2492 2952
2076 2538 3178
2055 2887 1903
2051 2890 1928
2031 2900 1989
2025 2910 2150
2062 2912 2403
2098 2921 2667
2121 2937 2970
2256 2941 3237
2330 2967 3494
2374 3362 2238
2370 3365 2257
2355 3373 2308
2340 3384 2427
2369 3385 2655
2411 3390 2893
2439 3402 3160
2469 3417 3459
2823 3385 3623
3114 3717 3056
3115 3719 3067
3116 3724 3096
3132 3728 3159
3168 3731 3263
3213 3737 3390
3267 3748 3522
3320 3765 3664
3403 3783 3804
1535 0 0
1535 0 512
1535 0 1023
1535 0 1535
1535 0 2047
1471 525 2114
1493 769 2201
1570 948 2350
1677 1107 2536
1542 503 68
1536 512 512
1535 512 1023
1535 512 1535
1535 512 2047
1509 735 2137
1543 906 2254
1621 1054 2411
1738 1179 2636
1531 1020 271
1533 1023 550
1535 1024 1024
1536 1024 1536
1543 1037 1971
1580 1107 2171
1640 1196 2349
1724 1295 2532
1865 1355 2855
1570 1513 610
1565 1519 729
1535 1536 1022
1536 1536 1536
1558 1546 1928
1632 1565 2221
1735 1600 2457
1841 1654 2678
2008 1647 3155
1661 1989 1174
1639 1998 1220
1637 2010 1317
1619 2026 1586
1652 2024 2026
1717 2041 2291
1801 2071 2509
1940 2079 2867
2065 2051 3481
1890 2454 1543
1891 2457 1573
1888 2466 1648
1833 2491 1786
1850 2495 2148
1883 2501 2511
2019 2504 2772
2108 2532 2985
2136 2575 3279
2177 2918 1887
2177 2921 1911
2170 2929 1972
2130 2948 2080
2128 2956 2364
2180 2959 2662
2204 2971 2993
2340 2974 3260
2410 2996 3543
2478 3387 2226
2476 3390 2245
2469 3397 2295
2437 3413 2384
2429 3423 2593
2471 3424 2877
2519 3431 3162
2599 3435 3465
2896 3409 3648
3189 3736 3090
3190 3738 3101
3193 3742 3128
3196 3751 3178
3224 3756 3274
3268 3761 3407
3323 3771 3543
3377 3787 3684
3456 3805 3825
2048 0 0
2048 0 513
2048 0 1024
2048 0 1536
2048 0 2048
2047 3 2559
1992 504 2786
1963 863 2819
2000 1083 2922
2054 500 65
2048 512 512
2048 512 1024
2048 512 1536
2048 512 2048
2048 512 2559
2006 744 2779
1995 993 2846
2059 1148 3015
2055 1013 257
2051 1018 566
2047 1024 1024
2048 1023 1536
2048 1023 2048
2048 1023 2560
2042 1133 2768
2064 1268 2899
2186 1310 3221
2033 1534 470
2037 1535 660
2042 1538 1017
2047 1536 1536
2047 1536 2047
2055 1542 2509
2096 1585 2758
2152 1649 2961
2341 1588 3505
2091 2018 852
2088 2022 941
2079 2033 1137
2046 2048 1533
2048 2048 2048
2068 2056 2446
2113 2073 2785
2215 2098 3034
2416 2011 3727
2195 2489 1442
2184 2495 1482
2149 2511 1574
2112 2535 1704
2127 2538 2095
2159 2536 2538
2174 2560 2818
2255 2587 3036
2379 2559 3621
2346 2965 1852
2348 2968 1875
2353 2974 1934
2345 2987 2039
2266 3020 2205
2280 3021 2628
2314 3024 3029
2463 3022 3293
2559 3035 3588
2622 3426 2202
2623 3428 2221
2623 3434 2271
2612 3446 2358
2585 3463 2526
2614 3462 2870
2702 3458 3171
2762 3464 3479
3002 3445 3685
3294 3765 3144
3295 3767 3154
3300 3771 3180
3306 3779 3226
3312 3791 3297
3352 3797 3425
3405 3805 3572
3460 3821 3716
3535 3839 3856
2559 0 0
2559 3 513
2559 3 1024
2559 0 1536
2559 0 2048
2559 0 2559
2559 3 3071
2536 318 3480
2462 906 3468
2565 499 61
2559 512 512
2559 512 1024
2559 512 1536
2559 512 2048
2559 512 2559
2559 512 3071
2535 661 3456
2521 966 3556
2570 1009 240
2566 1015 569
2560 1023 1023
2560 1023 1536
2560 1023 2048
2560 1023 2560
2559 1023 3071
2542 1115 3411
2650 1118 3755
2561 1526 470
2561 1529 680
2558 1535 1046
2559 1536 1536
2559 1536 2048
2559 1536 2559
2560 1536 3072
2567 1593 3360
2776 1460 3934
2534 2048 657
2539 2048 798
2548 2049 1076
2553 2051 1528
2559 2048 2048
2559 2048 2559
2565 2051 3037
2607 2080 3321
2802 1996 3881
2613 2523 1095
2610 2527 1163
2605 2534 1314
2579 2550 1602
2558 2560 2045
2559 2559 2559
2579 2567 2962
2619 2567 3417
2801 2537 3793
2725 2991 1700
2718 2995 1735
2698 3006 1818
2649 3029 1948
2589 3061 2094
2636 3049 2605
2668 3047 3049
2629 3079 3375
2757 3083 3652
2807 3479 2158
2810 3480 2177
2816 3485 2224
2819 3494 2308
2832 3502 2485
2817 3516 2764
2871 3509 3170
2926 3512 3517
3143 3494 3738
3426 3805 3221
3428 3807 3230
3433 3811 3254
3442 3818 3296
3453 3829 3361
3463 3845 3451
3512 3853 3607
3570 3866 3757
3639 3884 3899
3071 3 3
3071 3 513
3071 3 1024
3071 3 1536
3071 0 2048
3071 0 2559
3071 0 3071
3071 3 3583
3071 3 4094
3076 499 61
3071 512 512
3071 512 1024
3071 512 1536
3071 512 2048
3071 512 2559
3071 512 3071
3071 513 3583
3071 512 4095
3083 1006 230
3078 1012 570
3071 1023 1023
3071 1023 1536
3071 1023 2048
3071 1023 2559
3071 1023 3071
3071 1023 3583
3074 1022 4093
3082 1520 451
3080 1523 679
3074 1531 1060
3071 1536 1536
3072 1535 2048
3072 1535 2560
3072 1535 3072
3072 1535 3584
3106 1518 4072
3065 2040 678
3067 2041 829
3067 2045 1126
3064 2051 1530
3070 2048 2048
3070 2048 2559
3071 2048 3071
3070 2048 3582
3151 2021 4037
3036 2561 838
3041 2561 946
3050 2562 1177
3062 2564 1520
3065 2562 2041
3071 2560 2560
3071 2560 3071
3083 2558 3568
3199 2531 3979
3134 3029 1337
3132 3031 1393
3128 3037 1519
3120 3049 1717
3076 3069 2064
3069 3072 2557
3071 3071 3071
3089 3076 3499
3215 3058 3877
3251 3494 1952
3246 3498 1982
3233 3506 2056
3205 3521 2175
3150 3546 2378
3112 3567 2646
3156 3558 3126
3211 3551 3553
3321 3552 3809
3590 3856 3317
3589 3858 3328
3588 3863 3357
3598 3869 3395
3613 3880 3452
3631 3894 3531
3646 3914 3638
3704 3924 3808
3768 3942 3952
3583 3 3
3583 3 513
3583 3 1025
3583 3 1536
3583 3 2048
3583 0 2560
3583 0 3071
3583 0 3583
3583 3 4094
3587 499 61
3583 513 513
3583 513 1024
3583 513 1536
3583 513 2048
3583 512 2560
3583 510 3072
3583 512 3583
3583 513 4095
3594 1004 222
3590 1011 570
3583 1023 1023
3583 1023 1536
3583 1023 2048
3583 1023 2560
3584 1023 3072
3583 1023 3583
3583 1024 4095
3598 1515 434
3595 1519 675
3589 1528 1066
3584 1535 1535
3583 1535 2048
3583 1535 2560
3584 1535 3072
3584 1535 3584
3583 1536 4095
3591 2033 663
3590 2035 827
3587 2039 1141
3581 2048 1550
3582 2048 2048
3582 2048 2560
3583 2048 3071
3583 2048 3583
3583 2048 4095
3568 2553 881
3570 2554 995
3573 2556 1238
3575 2561 1580
3575 2564 2041
3583 2560 2560
3583 2559 3071
3583 2560 3583
3583 2559 4095
3538 3074 1011
3542 3074 1099
3552 3074 1294
3567 3075 1579
3574 3076 2032
3581 3073 2544
3583 3071 3071
3583 3071 3583
3601 3067 4081
3656 3534 1580
3654 3536 1625
3651 3541 1732
3645 3550 1899
3621 3564 2193
3588 3578 2620
3581 3584 3068
3583 3583 3583
3649 3577 3978
3825 3913 3333
3825 3914 3345
3827 3918 3377
3829 3926 3432
3831 3937 3512
3832 3953 3619
3835 3974 3737
3858 3997 3854
3920 4012 4018
4094 3 3
4094 3 514
4094 6 1025
4094 6 1536
4094 3 2048
4094 3 2559
4095 0 3071
4095 0 3583
4095 0 4095
4093 514 103
4095 512 512
4095 513 1025
4095 513 1536
4095 513 2048
4095 513 2560
4095 510 3071
4095 512 3583
4095 512 4095
4087 1028 334
4090 1027 613
4095 1024 1024
4095 1024 1536
4095 1024 2048
4095 1024 2560
4095 1024 3071
4095 1023 3583
4095 1023 4095
4076 1543 588
4079 1542 778
4085 1540 1118
4095 1536 1536
4095 1536 2048
4095 1536 2560
4095 1536 3071
4095 1536 3583
4095 1536 4095
4058 2058 865
4061 2057 997
4068 2055 1267
4079 2052 1629
4095 2048 2048
4095 2048 2560
4095 2047 3071
4095 2047 3583
4095 2048 4095
4031 2572 1164
4034 2572 1259
4041 2570 1470
4054 2568 1775
4073 2564 2143
4095 2559 2559
4095 2559 3071
4095 2559 3583
4095 2559 4095
4002 3083 1470
4004 3083 1543
4010 3082 1711
4021 3081 1969
4038 3080 2292
4064 3076 2660
4095 3071 3071
4095 3071 3583
4095 3071 4095
3987 3587 1754
3988 3588 1814
3992 3588 1956
4000 3588 2181
4011 3589 2473
4029 3589 2811
4056 3588 3181
4095 3583 3583
4095 3583 4095
4018 3982 3575
4019 3984 3583
4022 3988 3604
4027 3995 3641
4035 4006 3695
4045 4022 3767
4059 4041 3858
4075 4066 3968
4095 4095 4095
