Creative/ColorShaping-Emerald.3dl
#25pt 3DLUT created by 3D LUT Creator Pro (c) Oleg Sharonov
#Copyright Oleg Sharonov
#IMAGEPROFILE sRGB IEC61966-2.1 v.2.10
#INPUTGAMMA sRGB IEC61966-2.1 v.2.10
#OUTPUTGAMMA sRGB IEC61966-2.1 v.2.10
0 43 86 128 171 214 256 299 341 384 427 469 512 555 597 640 682 725 768 810 853 896 938 981 1023 
0 0 0
0 0 171
0 0 332
0 0 494
0 0 656
0 0 817
0 0 977
0 0 1134
0 0 1290
0 0 1441
0 0 1588
0 0 1729
0 0 1862
0 6 1989
0 180 2106
142 356 2215
291 513 2314
417 661 2405
528 802 2486
629 937 2558
720 1064 2622
802 1182 2679
874 1290 2728
939 1388 2771
994 1474 2807
0 145 116
0 149 214
0 155 343
0 139 500
0 119 660
0 94 819
0 65 979
0 36 1137
0 10 1291
0 0 1443
0 0 1589
0 19 1730
0 90 1864
0 206 1990
0 336 2108
39 468 2217
201 601 2317
345 733 2407
465 863 2489
571 990 2561
667 1110 2626
752 1223 2683
827 1328 2732
894 1422 2775
950 1505 2812
0 293 245
0 289 291
0 299 388
0 316 506
0 302 664
0 282 823
0 262 981
0 240 1138
0 220 1292
0 206 1443
0 206 1589
0 230 1730
0 282 1864
0 360 1990
0 454 2108
0 562 2217
145 677 2317
304 797 2408
430 917 2489
540 1036 2562
637 1150 2627
725 1258 2684
802 1359 2734
868 1450 2777
926 1531 2814
0 443 379
0 445 411
0 428 465
0 452 562
0 477 670
0 462 827
0 448 984
0 433 1139
0 419 1294
0 411 1444
0 411 1590
0 427 1730
0 460 1864
0 513 1990
0 585 2108
0 672 2217
87 770 2317
257 876 2408
391 985 2489
505 1094 2562
606 1201 2628
695 1304 2685
773 1399 2735
842 1485 2778
901 1562 2815
0 593 513
0 595 537
0 592 568
0 577 643
0 603 736
0 636 834
0 624 988
0 611 1143
0 600 1295
0 593 1444
0 593 1590
0 603 1730
0 627 1863
0 666 1989
0 723 2106
0 793 2215
32 877 2315
206 968 2406
352 1066 2488
472 1165 2562
575 1263 2627
665 1358 2685
745 1447 2735
815 1528 2779
874 1600 2816
0 744 648
0 744 667
0 744 691
0 737 727
0 726 817
0 754 909
0 790 1001
0 783 1147
0 773 1298
0 766 1446
0 765 1590
0 771 1729
0 789 1862
0 819 1987
0 864 2104
0 921 2213
0 992 2313
152 1070 2404
314 1156 2487
439 1245 2561
545 1334 2626
636 1420 2684
717 1502 2735
788 1577 2779
848 1644 2817
0 893 782
0 894 798
0 894 817
0 892 846
0 876 886
0 875 990
0 904 1080
0 939 1170
0 942 1302
0 935 1449
0 932 1591
0 935 1729
0 948 1861
0 971 1985
0 1006 2102
0 1053 2211
0 1112 2311
103 1179 2402
276 1253 2484
408 1332 2558
516 1411 2625
610 1489 2683
691 1564 2734
762 1632 2778
823 1693 2816
0 1042 914
0 1043 928
0 1044 944
0 1043 968
0 1037 1001
0 1007 1061
0 1023 1160
0 1052 1247
0 1086 1334
0 1099 1452
0 1094 1593
0 1095 1729
0 1103 1860
0 1121 1984
0 1149 2100
0 1187 2208
0 1236 2307
61 1293 2398
243 1356 2481
379 1424 2556
490 1495 2622
585 1564 2681
667 1630 2732
737 1692 2777
798 1746 2814
0 1191 1045
0 1192 1057
0 1193 1071
0 1192 1091
0 1189 1119
0 1179 1154
0 1151 1234
0 1170 1325
0 1198 1410
0 1232 1493
0 1252 1597
0 1251 1731
0 1255 1860
0 1268 1982
0 1289 2098
0 1320 2205
0 1360 2304
29 1407 2395
212 1462 2478
356 1520 2552
470 1581 2619
564 1642 2678
646 1700 2729
716 1754 2774
777 1803 2812
0 1340 1174
0 1340 1184
0 1341 1196
0 1340 1213
0 1339 1237
0 1333 1267
0 1316 1305
0 1295 1399
0 1315 1485
0 1342 1566
0 1374 1645
0 1402 1734
0 1403 1861
0 1411 1982
0 1427 2096
0 1451 2202
0 1483 2301
10 1523 2392
195 1568 2474
341 1618 2548
454 1670 2615
548 1722 2674
629 1773 2726
697 1820 2771
757 1862 2809
0 1488 1300
0 1488 1309
0 1489 1319
0 1489 1334
0 1487 1355
0 1483 1380
0 1474 1412
0 1446 1454
0 1436 1557
0 1456 1638
0 1483 1715
0 1513 1790
0 1546 1865
0 1550 1983
0 1561 2096
0 1579 2201
0 1605 2299
6 1637 2389
192 1674 2471
336 1716 2545
448 1760 2612
538 1804 2670
617 1847 2722
684 1888 2767
742 1923 2806
0 1635 1423
0 1636 1430
0 1636 1439
0 1636 1452
0 1634 1470
0 1631 1492
0 1624 1520
0 1610 1554
0 1564 1615
0 1574 1708
0 1595 1784
0 1620 1856
0 1648 1926
0 1679 1993
0 1690 2097
0 1703 2201
0 1723 2297
26 1748 2386
206 1779 2468
343 1813 2541
449 1849 2608
537 1886 2667
612 1922 2718
675 1955 2763
730 1984 2801
0 1782 1541
0 1783 1548
0 1783 1555
0 1782 1567
0 1781 1582
0 1778 1602
0 1772 1625
0 1762 1655
0 1741 1690
0 1697 1769
0 1709 1850
0 1729 1921
0 1752 1988
0 1778 2053
0 1807 2114
0 1823 2202
0 1837 2297
68 1856 2385
240 1880 2466
365 1908 2539
462 1937 2604
543 1967 2663
613 1996 2714
673 2023 2759
724 2046 2796
0 1928 1655
0 1929 1660
0 1929 1667
0 1928 1677
0 1927 1690
0 1924 1708
0 1919 1728
0 1910 1754
0 1894 1784
0 1863 1821
0 1827 1910
0 1839 1983
0 1858 2049
0 1879 2111
0 1902 2170
0 1927 2226
0 1945 2299
142 1960 2385
291 1978 2464
398 1999 2536
485 2022 2601
559 2046 2659
623 2068 2710
676 2089 2754
723 2106 2791
0 2074 1763
0 2074 1768
0 2074 1774
0 2073 1783
0 2071 1794
0 2068 1809
0 2063 1828
0 2055 1850
0 2042 1876
0 2020 1907
0 1972 1948
0 1952 2041
0 1964 2108
0 1980 2168
0 1999 2224
0 2019 2277
0 2040 2327
240 2058 2386
354 2071 2464
443 2087 2534
520 2104 2598
584 2122 2655
639 2139 2705
687 2154 2748
727 2166 2785
0 2217 1865
0 2217 1870
0 2217 1875
0 2216 1883
0 2214 1893
0 2211 1906
0 2205 1923
0 2197 1942
0 2185 1965
0 2167 1992
0 2137 2024
0 2069 2085
0 2072 2162
0 2082 2222
0 2096 2277
0 2111 2328
0 2127 2375
45 2144 2419
427 2159 2465
500 2170 2534
562 2182 2596
616 2194 2652
663 2206 2700
704 2216 2743
738 2223 2779
0 2359 1962
0 2359 1966
0 2358 1971
0 2357 1978
0 2355 1987
0 2351 1999
0 2345 2013
0 2337 2030
0 2325 2050
0 2308 2073
0 2284 2101
0 2244 2135
0 2181 2207
0 2184 2273
0 2192 2327
0 2203 2376
0 2214 2421
0 2226 2462
264 2237 2500
558 2248 2534
612 2255 2594
656 2263 2648
694 2270 2696
727 2275 2737
755 2278 2772
0 2497 2053
0 2497 2057
0 2497 2061
0 2495 2067
0 2493 2075
0 2489 2086
0 2482 2098
0 2474 2113
0 2462 2131
0 2446 2151
0 2424 2175
0 2392 2203
0 2339 2239
0 2287 2317
0 2288 2373
0 2294 2421
0 2300 2464
0 2307 2504
0 2314 2539
404 2320 2571
637 2324 2599
702 2328 2645
731 2330 2691
755 2331 2731
777 2330 2765
0 2633 2138
0 2633 2142
0 2632 2146
0 2630 2151
0 2627 2158
0 2623 2167
0 2616 2178
0 2607 2192
0 2594 2207
0 2579 2225
0 2557 2246
0 2529 2270
0 2488 2299
0 2415 2338
0 2383 2414
0 2383 2464
0 2385 2506
0 2387 2543
0 2389 2576
158 2390 2605
503 2390 2630
699 2388 2652
772 2387 2686
789 2384 2725
802 2379 2757
0 2764 2218
0 2764 2221
0 2763 2224
0 2761 2229
0 2757 2236
0 2752 2244
0 2745 2253
0 2735 2265
0 2723 2279
0 2706 2295
0 2685 2313
0 2658 2334
0 2623 2358
0 2572 2387
0 2480 2443
0 2471 2501
0 2467 2543
0 2465 2579
0 2462 2610
0 2459 2637
314 2455 2660
572 2448 2679
744 2441 2695
826 2433 2718
833 2425 2750
0 2890 2291
0 2890 2294
0 2889 2297
0 2886 2302
0 2882 2308
0 2877 2315
0 2869 2323
0 2858 2334
0 2845 2346
0 2828 2360
0 2807 2376
0 2781 2394
0 2747 2415
0 2704 2438
0 2642 2467
0 2558 2530
0 2548 2576
0 2540 2612
0 2533 2642
0 2526 2667
0 2517 2688
409 2507 2705
623 2495 2719
775 2482 2729
867 2469 2741
0 3010 2359
0 3010 2362
0 3008 2365
0 3006 2369
0 3001 2374
0 2995 2381
0 2987 2389
0 2976 2398
0 2962 2408
0 2944 2421
0 2923 2435
0 2896 2450
0 2864 2467
0 2823 2487
0 2771 2510
0 2695 2540
0 2626 2603
0 2613 2640
0 2601 2670
0 2589 2693
0 2577 2713
145 2563 2728
472 2548 2740
658 2532 2748
795 2514 2754
0 3123 2422
0 3123 2424
0 3121 2427
0 3119 2431
0 3114 2436
0 3107 2441
0 3098 2448
0 3086 2457
0 3072 2466
0 3054 2477
0 3031 2488
0 3005 2502
0 2973 2517
0 2934 2533
0 2886 2552
0 2825 2574
0 2725 2607
0 2683 2663
0 2666 2694
0 2650 2717
0 2634 2735
0 2617 2749
257 2599 2760
517 2580 2767
682 2560 2771
0 3229 2479
0 3229 2482
0 3227 2484
0 3224 2488
0 3219 2492
0 3212 2497
0 3202 2503
0 3190 2511
0 3174 2519
0 3156 2528
0 3133 2538
0 3105 2550
0 3073 2562
0 3035 2576
0 2990 2591
0 2935 2608
0 2864 2629
0 2753 2676
0 2729 2713
0 2709 2737
0 2689 2755
0 2669 2768
0 2648 2778
326 2627 2784
547 2605 2788
0 3327 2531
0 3326 2534
0 3325 2536
0 3321 2539
0 3316 2543
0 3309 2548
0 3298 2553
0 3285 2560
0 3269 2567
0 3250 2575
0 3226 2583
0 3199 2593
0 3166 2603
0 3128 2614
0 3085 2627
0 3033 2640
0 2970 2656
0 2888 2676
0 2790 2725
0 2765 2753
0 2742 2771
0 2719 2784
0 2696 2793
0 2672 2800
374 2649 2804
171 6 0
113 42 186
71 48 352
52 29 509
32 10 668
6 0 827
0 0 985
0 0 1142
0 0 1296
0 0 1447
0 0 1593
0 0 1734
0 0 1868
0 39 1993
94 203 2111
230 365 2219
356 517 2318
468 661 2409
572 799 2489
668 932 2562
757 1057 2626
836 1175 2683
907 1283 2732
969 1379 2775
1023 1465 2811
29 186 126
171 171 171
139 139 345
78 78 517
0 0 681
0 0 835
0 0 991
0 0 1146
0 0 1299
0 0 1449
0 0 1595
0 0 1734
0 0 1868
0 10 1993
3 186 2110
145 362 2218
295 518 2317
420 665 2407
531 806 2488
631 940 2560
722 1067 2624
804 1185 2680
877 1293 2729
940 1390 2772
995 1476 2808
0 320 257
0 324 297
42 318 386
0 310 526
0 284 684
0 260 838
0 235 994
0 209 1148
0 183 1301
0 168 1451
0 171 1596
0 198 1736
0 255 1869
0 337 1995
0 437 2112
0 548 2221
158 666 2320
314 788 2410
439 910 2491
547 1030 2564
645 1145 2628
731 1255 2685
807 1356 2735
874 1447 2778
932 1528 2815
0 458 384
0 472 419
0 462 462
0 462 575
0 478 684
0 458 839
0 439 995
0 422 1149
0 408 1302
0 398 1451
0 398 1596
0 412 1736
0 448 1868
0 503 1994
0 576 2111
0 665 2220
97 765 2320
264 871 2410
398 981 2491
512 1092 2564
612 1199 2629
699 1302 2686
777 1397 2736
846 1484 2780
904 1562 2816
0 604 517
0 616 533
0 612 580
0 588 651
0 611 744
0 640 842
0 623 997
0 607 1151
0 595 1303
0 587 1451
0 586 1596
0 596 1735
0 620 1867
0 661 1993
0 718 2110
0 789 2219
39 873 2318
214 966 2409
358 1064 2491
477 1163 2564
579 1262 2629
669 1357 2686
749 1446 2737
818 1528 2780
877 1600 2818
0 752 650
0 760 662
0 759 700
0 750 735
0 734 824
0 759 916
0 794 1007
0 784 1154
0 772 1304
0 765 1452
0 763 1595
0 769 1734
0 786 1866
0 816 1991
0 861 2108
0 919 2216
0 990 2316
161 1069 2407
318 1155 2489
443 1244 2562
548 1333 2628
640 1420 2686
721 1502 2737
791 1577 2780
851 1645 2818
0 900 783
0 906 793
0 907 824
0 902 853
0 886 893
0 881 995
0 908 1085
0 942 1174
0 944 1307
0 935 1454
0 931 1596
0 934 1733
0 946 1865
0 970 1989
0 1005 2105
0 1052 2213
0 1111 2313
110 1179 2404
280 1253 2486
411 1331 2560
520 1411 2626
612 1489 2684
694 1564 2735
765 1633 2780
825 1694 2817
0 1048 916
0 1053 924
0 1053 950
0 1052 974
0 1045 1006
0 1013 1064
0 1028 1164
0 1055 1251
0 1089 1338
0 1100 1456
0 1094 1597
0 1095 1733
0 1103 1863
0 1120 1987
0 1148 2103
0 1186 2210
0 1235 2310
65 1292 2401
245 1356 2483
383 1424 2557
493 1495 2623
587 1564 2682
669 1631 2733
740 1692 2778
800 1747 2816
0 1196 1047
0 1200 1053
0 1201 1076
0 1200 1096
0 1196 1123
0 1186 1159
0 1155 1237
0 1174 1329
0 1201 1413
0 1234 1496
0 1253 1600
0 1251 1734
0 1256 1863
0 1268 1985
0 1289 2100
0 1320 2207
0 1360 2306
32 1408 2397
217 1462 2479
360 1521 2554
472 1582 2620
566 1642 2679
648 1701 2731
718 1755 2776
778 1804 2814
0 1344 1175
0 1347 1180
0 1348 1200
0 1347 1218
0 1345 1242
0 1339 1271
0 1322 1309
0 1298 1401
0 1318 1488
0 1345 1569
0 1376 1648
0 1403 1737
0 1404 1864
0 1412 1984
0 1428 2098
0 1452 2205
0 1484 2303
13 1523 2393
198 1569 2476
345 1619 2550
457 1671 2617
551 1723 2676
631 1774 2727
700 1821 2772
758 1863 2811
0 1492 1301
0 1494 1306
0 1495 1323
0 1495 1338
0 1493 1358
0 1489 1384
0 1479 1416
0 1451 1457
0 1439 1559
0 1459 1641
0 1485 1718
0 1515 1792
0 1547 1867
0 1551 1986
0 1562 2098
0 1580 2203
0 1606 2301
10 1638 2390
195 1675 2472
339 1717 2546
449 1761 2613
541 1805 2672
618 1848 2724
686 1889 2769
743 1924 2807
