Creative/ColorHarmony - Cyan Orange.3dl
#25pt 3DLUT created by 3D LUT Creator Pro (c) Oleg Sharonov
#Copyright Oleg Sharonov
#IMAGEPROFILE sRGB IEC61966-2.1 v.2.10
#INPUTGAMMA sRGB IEC61966-2.1 v.2.10
#OUTPUTGAMMA sRGB IEC61966-2.1 v.2.10
0 256 512 768 1023
0 0 0
116 206 267
389 562 670
668 919 1076
947 1274 1480
119 569 451
0 904 904
651 1098 1243
887 1299 1488
1127 1557 1785
451 1207 1003
523 1390 1192
391 1922 1922
1202 2071 2255
1522 2206 2450
1166 2124 1842
1208 2209 1933
1396 2601 2383
1411 2978 2978
2011 3031 3213
2350 3344 3027
2372 3378 3067
2458 3488 3201
2629 3768 3590
2651 3915 3915
907 0 0
735 442 425
653 744 915
835 1037 1234
1060 1359 1591
914 1072 890
1088 1088 1088
990 1195 1336
1083 1381 1576
1265 1625 1858
486 1175 959
960 1570 1382
1109 2038 2038
1422 2106 2286
1652 2249 2488
1182 2101 1811
1421 2294 2027
1596 2605 2387
1686 3007 3007
2136 3055 3233
2384 3363 3039
2491 3427 3125
2566 3528 3249
2726 3775 3599
2760 3926 3926
1836 0 0
1561 670 436
1526 993 960
1331 1324 1665
1409 1592 1901
1861 921 0
2035 1017 1017
1772 1342 1318
1545 1599 1913
1600 1817 2121
1865 2130 1825
1942 2141 1914
2154 2154 2154
2025 2251 2413
2050 2384 2616
1334 2180 1868
1537 2334 2040
2193 2775 2580
2330 3070 3070
2500 3134 3299
2516 3451 3113
2610 3500 3181
2901 3650 3399
3017 3811 3636
3070 3962 3962
2778 273 273
2587 790 576
2225 1346 989
2287 1559 1515
2091 1909 2268
2772 1057 530
2851 1102 1102
2453 1591 1312
2440 1783 1745
2220 2093 2461
2870 2040 1176
2904 2071 1371
2977 2133 2133
2793 2380 2359
2567 2578 2937
2831 3134 2787
2868 3138 2828
2974 3150 2952
3161 3161 3161
3076 3262 3402
2867 3689 3343
2913 3710 3378
3135 3804 3532
3500 3914 3768
3546 4019 4019
3516 1066 1066
3414 1247 1145
3139 1638 1351
2955 1958 1620
2984 2158 2110
3529 1461 1217
3565 1489 1489
3312 1817 1618
3058 2124 1819
3088 2314 2271
3605 2246 1615
3631 2267 1813
3664 2306 2306
3332 2598 2372
3360 2755 2722
3747 3143 2614
3762 3149 2633
3794 3177 2708
3844 3234 3234
3714 3396 3381
3800 4048 3764
3817 4050 3783
3868 4058 3841
3961 4072 3947
4095 4095 4095
