Creative/ColorHarmony - Orange Pink & Cyan.3dl
#33pt 3DLUT created by 3D LUT Creator Pro (c) Oleg Sharonov
#Copyright Oleg Sharonov
#INPUTGAMMA sRGB IEC61966-2.1 v.2.10
#IMAGEPROFILE sRGB IEC61966-2.1 v.2.10
#OUTPUTGAMMA sRGB IEC61966-2.1 v.2.10
0 32 64 96 128 160 192 224 256 288 320 352 384 416 448 480 512 544 576 608 640 672 704 736 768 800 832 864 896 928 960 992 1023 
0 0 0
0 74 103
0 152 206
0 228 312
0 302 414
0 376 517
0 451 620
0 526 724
0 601 827
0 675 931
0 751 1035
0 827 1138
0 902 1242
0 977 1345
0 1052 1448
0 1127 1552
0 1202 1655
0 1277 1759
0 1353 1862
0 1427 1965
0 1502 2069
0 1577 2172
0 1653 2276
0 1728 2379
0 1803 2483
0 1878 2586
0 1953 2690
0 2029 2793
0 2104 2897
0 2179 3000
0 2254 3104
0 2329 3207
0 2404 3311
132 103 100
78 119 136
0 174 222
0 240 320
0 310 419
0 383 521
0 457 624
0 531 727
0 605 830
0 679 933
0 754 1036
0 829 1139
0 904 1243
0 979 1346
0 1053 1449
0 1129 1553
0 1203 1656
0 1279 1760
0 1354 1863
0 1429 1966
0 1504 2070
0 1579 2173
0 1654 2277
0 1729 2380
0 1804 2483
0 1879 2587
0 1954 2690
0 2029 2793
0 2104 2897
0 2180 3001
0 2254 3104
0 2330 3207
0 2405 3311
264 206 201
250 214 217
158 245 273
0 291 352
0 347 443
0 412 540
0 478 636
0 548 737
0 620 839
0 693 942
0 765 1043
0 838 1145
0 912 1248
0 987 1351
0 1061 1454
0 1135 1557
0 1210 1660
0 1284 1762
0 1359 1866
0 1433 1969
0 1508 2072
0 1583 2175
0 1658 2279
0 1732 2382
0 1807 2485
0 1882 2588
0 1957 2692
0 2032 2795
0 2107 2899
0 2182 3002
0 2257 3105
0 2332 3209
0 2407 3312
399 312 302
391 318 312
349 334 347
238 365 409
0 409 486
0 462 573
0 521 665
0 584 759
0 651 858
0 718 957
0 788 1057
0 859 1157
0 931 1259
0 1003 1360
0 1076 1463
0 1148 1564
0 1221 1666
0 1296 1769
0 1369 1872
0 1443 1975
0 1517 2077
0 1591 2180
0 1665 2283
0 1740 2386
0 1814 2489
0 1889 2592
0 1963 2696
0 2038 2799
0 2112 2902
0 2187 3005
0 2262 3108
0 2337 3211
0 2411 3315
531 416 401
526 419 409
500 431 434
443 454 481
316 486 543
0 530 620
0 579 704
0 634 793
0 694 885
0 758 981
0 822 1077
0 889 1176
0 958 1275
0 1028 1375
0 1098 1476
0 1169 1576
0 1241 1678
0 1313 1780
0 1385 1881
0 1458 1983
0 1531 2086
0 1604 2188
0 1678 2290
0 1752 2393
0 1825 2496
0 1899 2599
0 1973 2701
0 2047 2804
0 2121 2907
0 2196 3010
0 2270 3113
0 2344 3216
0 2419 3319
665 521 503
660 522 506
643 532 527
603 548 563
531 575 616
394 609 681
0 651 756
0 698 838
0 751 924
0 807 1013
0 868 1106
0 931 1202
0 995 1299
0 1061 1396
0 1128 1495
0 1197 1594
0 1267 1694
0 1337 1795
0 1408 1895
0 1479 1996
0 1551 2097
0 1623 2199
0 1695 2301
0 1768 2403
0 1841 2505
0 1914 2607
0 1987 2710
0 2060 2812
0 2134 2914
0 2208 3017
0 2281 3120
0 2356 3223
0 2429 3325
798 625 603
794 626 606
780 632 622
751 646 651
699 667 695
617 696 751
474 731 817
0 771 891
0 818 971
0 869 1056
0 924 1144
0 981 1235
0 1041 1328
0 1103 1423
0 1168 1519
0 1234 1616
0 1301 1715
0 1368 1814
0 1437 1913
0 1506 2013
0 1576 2113
0 1647 2214
0 1718 2314
0 1789 2415
0 1861 2517
0 1933 2619
0 2005 2720
0 2078 2822
0 2151 2924
0 2223 3027
0 2296 3129
0 2370 3231
0 2443 3333
931 729 704
928 730 706
917 735 719
894 746 744
854 764 780
793 788 828
701 817 886
552 852 953
171 893 1027
0 938 1106
0 988 1189
0 1041 1275
0 1096 1365
0 1155 1456
0 1215 1550
0 1278 1645
0 1341 1740
0 1406 1837
0 1472 1935
0 1540 2033
0 1608 2132
0 1676 2232
0 1745 2331
0 1815 2432
0 1886 2532
0 1957 2633
0 2028 2734
0 2099 2835
0 2171 2937
0 2243 3038
0 2315 3140
0 2388 3242
0 2460 3344
1063 833 804
1061 834 807
1052 838 816
1033 848 837
1001 862 868
953 882 910
884 907 962
784 938 1022
631 974 1088
314 1015 1162
0 1060 1241
0 1107 1323
0 1159 1408
0 1213 1496
0 1269 1586
0 1328 1678
0 1389 1771
0 1451 1866
0 1514 1962
0 1579 2059
0 1645 2156
0 1711 2254
0 1779 2352
0 1847 2451
0 1916 2550
0 1985 2650
0 2055 2751
0 2125 2851
0 2195 2952
0 2266 3052
0 2338 3153
0 2409 3255
0 2481 3356
1196 937 904
1195 937 907
1186 941 915
1170 949 933
1144 961 960
1105 979 996
1049 1001 1042
973 1028 1096
868 1060 1158
711 1096 1225
420 1136 1298
0 1180 1375
0 1227 1456
0 1277 1540
0 1330 1627
0 1386 1716
0 1443 1807
0 1502 1899
0 1562 1993
0 1624 2088
0 1687 2183
0 1752 2279
0 1817 2376
0 1884 2474
0 1951 2572
0 2018 2671
0 2086 2770
0 2155 2869
0 2224 2969
0 2294 3069
0 2364 3169
0 2435 3270
0 2505 3371
1329 1041 1005
1328 1042 1007
1320 1044 1014
1307 1052 1030
1284 1063 1053
1251 1077 1086
1205 1097 1126
1143 1120 1175
1061 1149 1231
949 1182 1294
789 1217 1361
516 1257 1434
0 1301 1511
0 1347 1591
0 1397 1674
0 1448 1760
0 1502 1847
0 1558 1937
0 1616 2028
0 1675 2120
0 1736 2214
0 1798 2309
0 1861 2404
0 1925 2500
0 1990 2597
0 2056 2695
0 2122 2792
0 2190 2891
0 2258 2990
0 2326 3089
0 2395 3188
0 2464 3288
0 2533 3388
1462 1145 1106
1461 1145 1107
1455 1148 1114
1442 1154 1127
1423 1164 1148
1394 1177 1177
1355 1195 1213
1303 1215 1257
1236 1241 1309
1148 1270 1366
1031 1303 1429
868 1339 1497
606 1379 1570
0 1422 1646
0 1468 1726
0 1516 1808
0 1567 1893
0 1620 1979
0 1675 2068
0 1731 2158
0 1789 2249
0 1849 2342
0 1910 2436
0 1971 2530
0 2035 2625
0 2098 2721
0 2163 2818
0 2229 2915
0 2294 3013
0 2362 3111
0 2429 3210
0 2497 3309
0 2565 3408
1595 1249 1206
1594 1250 1208
1588 1252 1213
1577 1257 1225
1561 1266 1244
1535 1277 1270
1501 1293 1303
1456 1312 1343
1399 1335 1390
1326 1361 1443
1234 1391 1502
1112 1424 1565
947 1461 1634
693 1500 1705
0 1543 1782
0 1589 1861
0 1636 1942
0 1686 2026
0 1738 2112
0 1792 2199
0 1847 2289
0 1904 2379
0 1962 2470
0 2022 2563
0 2083 2657
0 2145 2751
0 2208 2847
0 2272 2942
0 2336 3039
0 2401 3136
0 2467 3233
0 2534 3331
0 2601 3430
1728 1353 1307
1727 1354 1308
1722 1355 1313
1712 1360 1323
1697 1368 1340
1675 1378 1363
1645 1393 1393
1605 1409 1430
1556 1430 1473
1493 1454 1522
1416 1482 1577
1318 1512 1637
1193 1546 1701
1027 1583 1770
778 1622 1842
0 1665 1918
0 1709 1996
0 1756 2076
0 1806 2160
0 1857 2244
0 1910 2331
0 1964 2419
0 2020 2509
0 2078 2600
0 2136 2692
0 2196 2784
0 2257 2878
0 2319 2973
0 2381 3068
0 2445 3164
0 2509 3260
0 2574 3357
0 2640 3454
1861 1457 1407
1860 1458 1408
1855 1459 1413
1847 1464 1423
1833 1470 1437
1813 1480 1458
1786 1493 1486
1752 1508 1520
1708 1527 1559
1653 1549 1604
1586 1574 1655
1504 1603 1712
1402 1633 1772
1273 1668 1837
1105 1704 1906
862 1744 1978
339 1786 2053
0 1830 2131
0 1877 2211
0 1925 2293
0 1975 2378
0 2028 2464
0 2081 2551
0 2137 2640
0 2193 2730
0 2251 2821
0 2309 2913
0 2369 3006
0 2430 3100
0 2492 3194
0 2555 3289
0 2618 3385
0 2682 3481
1993 1561 1507
1993 1561 1508
1989 1564 1513
1981 1567 1521
1968 1573 1535
1950 1582 1554
1926 1593 1580
1895 1608 1610
1856 1625 1647
1808 1645 1689
1749 1668 1737
1678 1694 1789
1591 1723 1846
1486 1755 1908
1354 1789 1973
1184 1826 2042
946 1866 2114
501 1907 2189
0 1951 2266
0 1997 2346
0 2045 2428
0 2095 2511
0 2146 2596
0 2199 2683
0 2253 2771
0 2309 2861
0 2366 2951
0 2424 3042
0 2483 3135
0 2543 3228
0 2604 3321
0 2666 3416
0 2729 3511
2126 1665 1608
2126 1665 1609
2122 1667 1613
2115 1671 1621
2104 1676 1633
2087 1685 1651
2066 1695 1674
2037 1708 1702
2002 1724 1737
1958 1742 1776
1906 1763 1820
1843 1788 1869
1768 1814 1923
1678 1844 1981
1569 1876 2043
1434 1911 2109
1263 1948 2178
1028 1987 2250
627 2029 2325
0 2072 2402
0 2118 2481
0 2166 2562
0 2215 2645
0 2265 2729
0 2317 2816
0 2371 2903
0 2426 2992
0 2482 3081
0 2539 3172
0 2597 3263
0 2656 3356
0 2716 3449
0 2778 3543
2259 1769 1708
2259 1770 1709
2255 1771 1713
2249 1774 1720
2238 1780 1732
2223 1787 1748
2203 1796 1769
2177 1809 1796
2145 1823 1827
2106 1840 1864
2059 1860 1906
2003 1883 1952
1937 1908 2003
1858 1935 2058
1764 1965 2117
1652 1998 2179
1515 2033 2245
1342 2070 2314
1110 2109 2386
738 2150 2460
0 2193 2537
0 2239 2616
0 2286 2697
0 2334 2779
0 2384 2863
0 2436 2948
0 2489 3035
0 2543 3123
0 2598 3212
0 2655 3302
0 2712 3393
0 2771 3485
0 2830 3577
2392 1873 1809
2392 1874 1810
2389 1875 1813
2383 1878 1820
2373 1883 1831
2359 1890 1846
2340 1898 1865
2317 1910 1890
2288 1923 1920
2252 1939 1954
2209 1958 1993
2158 1979 2036
2099 2002 2084
2029 2028 2136
1946 2056 2192
1850 2086 2252
1734 2119 2315
1595 2154 2381
1421 2192 2451
1191 2231 2522
840 2272 2596
0 2315 2673
0 2360 2751
0 2406 2831
0 2454 2913
0 2504 2996
0 2555 3081
0 2607 3167
0 2660 3255
0 2715 3343
0 2771 3433
0 2827 3523
0 2885 3614
2525 1977 1909
2524 1977 1910
2522 1979 1913
2516 1982 1919
2507 1986 1929
2494 1992 1944
2477 2001 1962
2455 2011 1985
2429 2024 2012
2396 2038 2044
2357 2056 2081
2310 2075 2122
2256 2097 2168
2193 2121 2217
2120 2148 2270
2035 2177 2327
1935 2208 2387
1817 2241 2451
1675 2276 2517
1500 2313 2587
1273 2352 2658
937 2393 2732
0 2436 2808
0 2481 2886
0 2527 2966
0 2574 3047
0 2623 3131
0 2674 3215
0 2725 3300
0 2778 3387
0 2832 3475
0 2887 3564
0 2943 3653
2658 2081 2010
2657 2081 2010
2655 2083 2013
2650 2085 2019
2641 2089 2029
2629 2095 2042
2614 2103 2059
2593 2113 2080
2568 2125 2106
2538 2138 2136
2502 2155 2171
2460 2173 2210
2410 2193 2252
2353 2216 2299
2287 2241 2350
2210 2268 2404
2122 2298 2462
2019 2329 2523
1898 2362 2587
1755 2398 2653
1579 2435 2723
1353 2474 2794
1031 2515 2868
203 2558 2944
0 2602 3021
0 2648 3101
0 2695 3182
0 2743 3264
0 2793 3348
0 2844 3433
0 2897 3520
0 2950 3607
0 3004 3695
2791 2185 2110
2790 2186 2111
2788 2187 2113
2783 2189 2119
2775 2193 2128
2764 2198 2140
2750 2206 2156
2731 2215 2176
2707 2226 2201
2679 2239 2229
2646 2254 2261
2607 2271 2298
2561 2290 2339
2509 2312 2383
2448 2335 2432
2379 2361 2483
2300 2389 2539
2209 2419 2597
2103 2450 2658
1980 2484 2723
1834 2519 2790
1658 2557 2859
1434 2596 2930
1123 2637 3004
510 2679 3079
0 2723 3157
0 2768 3236
0 2815 3317
0 2863 3399
0 2913 3482
0 2963 3567
0 3015 3652
0 3068 3739
2924 2289 2211
2923 2290 2211
2921 2290 2214
2917 2293 2219
2909 2297 2227
2899 2302 2239
2885 2309 2254
2868 2317 2273
2846 2328 2296
2820 2340 2323
2789 2354 2353
2752 2370 2388
2710 2388 2426
2662 2408 2469
2607 2431 2515
2543 2455 2564
2471 2481 2617
2389 2509 2673
2295 2540 2732
2187 2572 2794
2062 2606 2859
1914 2641 2926
1737 2679 2995
1514 2717 3066
1212 2758 3140
681 2800 3215
0 2844 3292
0 2889 3371
0 2935 3451
0 2984 3533
0 3033 3616
0 3082 3700
0 3134 3785
3057 2393 2311
3056 2394 2312
3054 2395 2314
3050 2397 2319
3043 2400 2327
3033 2405 2337
3020 2411 2352
3004 2419 2370
2983 2429 2391
2959 2441 2416
2930 2454 2446
2896 2469 2478
2857 2487 2515
2812 2506 2555
2761 2527 2599
2703 2550 2647
2637 2575 2697
2562 2602 2751
2477 2630 2808
2381 2661 2867
2270 2693 2930
2143 2727 2994
1994 2763 3062
1816 2800 3131
1595 2839 3202
1300 2880 3276
819 2922 3351
0 2965 3428
0 3010 3506
0 3056 3586
0 3104 3667
0 3152 3750
0 3202 3834
3190 2498 2412
3189 2498 2412
3187 2499 2414
3183 2501 2419
3177 2504 2426
3168 2509 2437
3155 2515 2450
3140 2522 2467
3121 2531 2487
3098 2542 2511
3070 2555 2539
3039 2570 2570
3002 2586 2605
2961 2604 2643
2913 2624 2685
2859 2645 2731
2798 2669 2779
2730 2695 2831
2652 2722 2885
2565 2751 2942
2466 2782 3003
2353 2814 3065
2224 2849 3131
2074 2885 3198
1895 2922 3267
1675 2961 3339
1386 3002 3412
941 3043 3487
0 3086 3563
0 3131 3642
0 3177 3721
0 3224 3802
0 3272 3884
3323 2602 2512
3322 2602 2512
3320 2603 2515
3317 2605 2519
3310 2608 2526
3302 2612 2536
3290 2618 2548
3276 2625 2564
3257 2634 2584
3236 2644 2606
3210 2656 2633
3181 2670 2662
3146 2685 2696
3107 2702 2732
3063 2721 2772
3013 2742 2816
2956 2764 2862
2893 2789 2912
2822 2815 2964
2742 2843 3020
2652 2872 3078
2551 2903 3138
2437 2936 3201
2305 2970 3267
2153 3006 3334
1973 3044 3403
1754 3083 3475
1472 3123 3548
1053 3165 3623
0 3208 3699
0 3252 3777
0 3298 3856
0 3345 3937
3455 2706 2613
3455 2706 2613
3453 2707 2615
3450 2709 2619
3444 2711 2626
3436 2716 2635
3425 2721 2647
3411 2728 2662
3394 2736 2680
3374 2746 2702
3350 2757 2727
3321 2770 2755
3289 2785 2787
3252 2801 2822
3211 2819 2860
3164 2839 2902
3111 2860 2946
3052 2883 2994
2987 2908 3045
2913 2935 3098
2831 2963 3154
2739 2993 3213
2636 3024 3273
2519 3057 3337
2386 3092 3402
2233 3128 3470
2052 3165 3539
1834 3204 3611
1557 3245 3684
1159 3286 3759
0 3329 3835
0 3373 3912
0 3419 3991
3588 2810 2713
3588 2810 2714
3586 2811 2716
3583 2813 2719
3577 2815 2726
3570 2819 2734
3559 2824 2746
3546 2830 2760
3530 2838 2778
