Creative/ColorHarmony - Green Yellow Orange.3dl
#25pt 3DLUT created by 3D LUT Creator Pro (c) Oleg Sharonov
#Copyright Oleg Sharonov
#IMAGEPROFILE 
#INPUTGAMMA 
#OUTPUTGAMMA 
0 128 256 384 512 640 768 896 1023
0 0 0
39 61 48
136 209 168
280 388 330
428 566 492
575 745 654
722 924 816
868 1102 978
1016 1281 1139
116 493 100
195 510 201
334 554 356
440 646 479
556 764 616
674 902 749
800 1053 888
932 1211 1032
1067 1374 1182
347 992 310
345 1006 345
489 1022 497
651 1053 677
754 1120 796
859 1211 919
971 1318 1049
1089 1440 1188
1207 1574 1322
582 1491 530
572 1501 560
610 1519 611
782 1533 794
968 1556 999
1071 1613 1117
1174 1687 1236
1279 1777 1359
1389 1879 1487
816 1991 750
819 1996 792
807 2013 803
883 2032 887
1074 2043 1090
1271 2063 1304
1388 2111 1438
1491 2176 1556
1594 2254 1676
1051 2490 970
1047 2494 1004
1033 2507 1019
1061 2526 1061
1167 2543 1175
1368 2555 1387
1567 2572 1604
1705 2612 1760
1808 2671 1878
1286 2989 1189
1275 2993 1217
1274 3002 1246
1269 3020 1263
1326 3038 1327
1456 3055 1467
1660 3066 1683
1863 3082 1903
2022 3115 2081
1520 3488 1409
1506 3492 1432
1523 3497 1478
1495 3514 1478
1518 3532 1517
1596 3551 1599
1747 3566 1761
1953 3577 1979
2158 3593 2201
1755 3987 1629
1738 3991 1649
1755 3994 1695
1733 4009 1702
1731 4026 1722
1778 4045 1777
1870 4063 1876
2038 4077 2055
2246 4088 2276
485 19 0
404 132 152
370 287 358
428 443 497
504 617 610
635 783 749
774 953 897
914 1124 1050
1057 1299 1205
464 522 90
512 512 512
490 588 535
545 682 609
631 798 709
737 931 827
855 1076 957
980 1230 1096
1110 1390 1240
448 1024 343
613 1003 597
686 1022 691
743 1071 768
819 1142 864
912 1231 977
1016 1337 1103
1122 1458 1227
1234 1592 1351
665 1509 558
768 1498 735
780 1519 780
915 1533 924
1035 1566 1064
1119 1626 1166
1213 1701 1276
1312 1790 1395
1418 1892 1520
902 2000 792
955 1996 904
946 2012 940
1004 2032 1006
1172 2044 1185
1328 2068 1360
1427 2119 1476
1522 2185 1588
1621 2263 1704
1127 2495 1004
1159 2494 1090
1149 2506 1131
1164 2525 1163
1256 2544 1262
1442 2555 1459
1615 2576 1650
1737 2618 1791
1834 2678 1904
1353 2992 1216
1372 2992 1286
1373 3000 1340
1356 3019 1349
1406 3038 1406
1526 3055 1535
1720 3066 1741
1903 3085 1942
2049 3119 2108
1581 3490 1431
1592 3490 1489
1592 3497 1543
1571 3513 1552
1588 3532 1586
1661 3551 1663
1803 3566 1815
2002 3577 2027
2192 3595 2235
1811 3988 1646
1815 3989 1696
1808 3995 1743
1800 4007 1767
1792 4026 1782
1834 4044 1834
1923 4063 1928
2084 4077 2100
2287 4088 2316
979 68 0
1026 65 68
840 377 414
742 553 656
801 688 813
847 848 952
921 1015 1064
1000 1188 1180
1129 1353 1314
1023 512 0
1013 520 499
935 618 639
887 725 828
879 849 954
924 982 1049
963 1135 1133
1072 1282 1244
1194 1434 1372
942 1040 289
967 1035 603
1024 1024 1024
977 1101 1032
998 1180 1081
1053 1273 1155
1128 1379 1245
1219 1498 1348
1321 1628 1462
786 1561 610
897 1547 785
1110 1514 1096
1183 1534 1187
1194 1591 1220
1242 1656 1291
1314 1732 1386
1400 1820 1495
1496 1921 1615
977 2039 798
1067 2029 939
1237 2007 1206
1257 2031 1257
1384 2045 1393
1463 2083 1493
1524 2140 1572
1602 2208 1669
1689 2286 1776
1194 2524 1014
1268 2516 1129
1392 2503 1343
1388 2524 1385
1454 2544 1458
1613 2556 1627
1729 2586 1761
1818 2633 1870
1901 2695 1971
1426 3013 1243
1488 3006 1339
1568 2999 1500
1556 3017 1543
1586 3037 1586
1686 3055 1693
1860 3066 1878
2000 3092 2036
2118 3131 2175
1665 3504 1478
1704 3500 1542
1758 3497 1673
1750 3510 1724
1750 3531 1746
1811 3550 1812
1935 3566 1946
2120 3577 2142
2276 3600 2317
1892 3998 1694
1919 3996 1741
1959 3994 1855
1962 4004 1920
1939 4024 1926
1970 4044 1970
2050 4063 2053
2196 4077 2210
2388 4088 2414
1472 152 0
1531 81 71
1527 248 278
1277 626 676
1121 823 967
1174 948 1103
1221 1093 1262
1258 1255 1400
1352 1412 1524
1536 512 0
1511 538 479
1534 579 585
1348 788 827
1225 940 1082
1265 1052 1213
1274 1194 1351
1331 1336 1480
1387 1494 1576
1535 1023 0
1535 1023 512
1527 1029 1011
1453 1114 1133
1416 1195 1322
1407 1294 1453
1406 1412 1550
1417 1547 1607
1449 1688 1678
1421 1559 500
1436 1556 731
1474 1548 1107
1536 1536 1536
1476 1613 1539
1474 1689 1570
1507 1771 1627
1561 1864 1702
1632 1966 1787
1134 2100 886
1211 2090 1013
1381 2065 1268
1615 2026 1602
1687 2046 1692
1668 2109 1695
1691 2174 1742
1745 2244 1822
1815 2323 1918
1306 2574 1056
1372 2566 1162
1522 2547 1388
1727 2517 1697
1752 2543 1752
1873 2557 1882
1916 2601 1946
1957 2659 2008
2018 2723 2089
1507 3054 1255
1563 3048 1344
1694 3032 1544
1862 3012 1815
1864 3036 1861
1934 3056 1938
2083 3067 2097
2162 3103 2195
2237 3151 2291
1725 3539 1471
1773 3534 1546
1888 3521 1724
2017 3507 1952
2008 3528 1998
2046 3550 2046
2147 3567 2155
2311 3578 2330
2418 3609 2455
1952 4027 1697
1995 4022 1762
2098 4011 1921
2188 4003 2104
2177 4021 2156
2188 4043 2186
2254 4063 2256
2379 4078 2391
2554 4089 2577
1966 264 0
2015 180 119
2054 220 220
2023 455 518
1715 874 939
1531 1086 1232
1546 1216 1405
1609 1345 1558
1642 1498 1711
2048 512 0
2009 570 457
2051 575 575
2032 695 728
1768 992 1048
1599 1175 1330
1617 1294 1484
1672 1416 1637
1681 1569 1775
2048 1024 0
2048 1024 512
2026 1041 995
2045 1084 1091
1866 1250 1290
1743 1378 1552
1770 1476 1671
1793 1589 1817
1764 1737 1923
2048 1536 0
2048 1536 512
2047 1536 1024
2039 1540 1523
1967 1618 1638
1945 1684 1826
1952 1762 1967
1888 1884 2055
1909 1996 2118
1899 2078 711
1910 2076 886
1936 2070 1213
1982 2061 1615
2048 2048 2048
1979 2126 2044
1962 2201 2067
1978 2279 2115
2016 2363 2174
1575 2628 1141
1599 2625 1249
1678 2614 1474
1880 2582 1767
2123 2537 2110
2196 2558 2200
2155 2626 2182
2158 2692 2211
2194 2760 2274
1646 3111 1324
1697 3105 1407
1814 3090 1593
2002 3064 1867
2225 3029 2196
2254 3055 2254
2371 3068 2379
2386 3119 2416
2409 3178 2460
1833 3588 1509
1877 3583 1580
1983 3570 1745
2154 3548 2000
2348 3521 2303
2353 3547 2351
2425 3568 2429
2567 3579 2581
2617 3621 2650
2038 4070 1713
2077 4065 1774
2171 4055 1921
2328 4035 2157
2488 4016 2425
2481 4040 2473
2526 4062 2526
2627 4079 2635
2782 4090 2801
2459 374 0
2521 235 84
2560 238 225
2561 420 440
2467 725 801
2151 1121 1201
1954 1343 1490
1922 1484 1712
1977 1611 1850
2515 590 0
2507 610 423
2548 597 584
2563 677 685
2496 872 932
2193 1211 1284
2007 1413 1562
1979 1545 1773
2028 1667 1910
2560 1023 0
2560 1023 512
2524 1060 977
2564 1079 1079
2540 1176 1210
2279 1420 1479
2122 1580 1738
2108 1693 1921
2147 1804 2055
2559 1535 0
2559 1535 512
2559 1536 1023
2540 1549 1510
2557 1592 1601
2385 1736 1776
2276 1845 2031
2293 1931 2154
2321 2026 2301
2541 2052 271
2547 2051 583
2559 2048 1023
2559 2047 1536
2551 2052 2035
2481 2126 2146
2471 2182 2333
2489 2247 2482
2395 2368 2566
2377 2597 921
2386 2595 1060
2406 2591 1340
2441 2583 1712
2493 2573 2126
2559 2559 2559
2486 2639 2549
2457 2713 2571
2460 2789 2605
2052 3150 1377
2067 3148 1467
2103 3142 1667
2174 3131 1957
2384 3096 2272
2632 3049 2619
2705 3069 2710
2650 3142 2677
2636 3211 2689
1991 3649 1598
2032 3644 1665
2128 3632 1820
2286 3610 2060
2496 3578 2360
2728 3540 2700
2758 3567 2759
2873 3580 2882
2867 3636 2896
2229 4095 1863
2226 4095 1864
2290 4095 1970
2435 4090 2190
2632 4063 2476
2842 4032 2798
2850 4059 2849
2925 4080 2929
3061 4091 3074
2953 484 0
3028 295 13
3049 324 271
3081 399 399
3062 627 675
2898 997 1083
2588 1368 1463
2381 1598 1752
2301 1752 2023
2985 687 0
3005 659 379
3032 654 610
3079 670 670
3065 818 849
2924 1102 1177
2622 1440 1530
2423 1655 1809
2347 1802 2072
3072 1023 0
3072 1023 512
3021 1086 957
3069 1085 1080
3071 1164 1176
2976 1336 1392
2696 1611 1690
2520 1794 1950
2456 1925 2193
3072 1536 0
3072 1535 512
3071 1536 1023
3039 1562 1493
3076 1589 1589
3046 1676 1710
2798 1883 1943
2659 2022 2183
2623 2128 2390
3071 2048 0
3071 2047 513
3071 2048 1023
3071 2048 1535
3053 2059 2022
3068 2102 2111
2902 2232 2272
2813 2326 2509
2824 2404 2649
3026 2571 550
3032 2569 755
3046 2566 1110
3068 2560 1542
3071 2559 2048
3063 2564 2548
2995 2635 2655
2994 2684 2844
3016 2743 2986
2856 3115 1132
2862 3114 1244
2878 3111 1485
2906 3105 1824
2948 3096 2216
3004 3085 2637
3071 3071 3071
2994 3151 3058
2956 3225 3079
2532 3670 1607
2542 3669 1682
2566 3665 1857
2614 3658 2123
2690 3645 2449
2891 3610 2780
3142 3561 3129
3215 3581 3219
3149 3658 3176
2677 4095 2375
2677 4095 2377
2716 4095 2438
2765 4095 2516
2807 4095 2593
2995 4093 2860
3233 4051 3205
3265 4079 3265
3378 4092 3387
3447 593 0
3522 406 0
3530 449 345
3587 414 404
3591 596 611
3559 835 914
3330 1260 1357
3025 1616 1725
2809 1851 2015
3462 787 0
3505 716 316
3531 698 607
3581 688 677
3591 799 807
3563 982 1044
3353 1340 1430
3053 1675 1780
2844 1900 2062
3584 1023 0
3562 1055 468
3518 1118 932
3562 1110 1090
3591 1157 1158
3571 1277 1313
3403 1529 1602
3117 1818 1914
2926 2018 2179
3583 1535 0
3584 1535 512
3582 1536 1024
3537 1581 1474
3585 1590 1588
3580 1665 1678
3473 1819 1871
3210 2052 2132
3050 2215 2376
3583 2048 0
3584 2047 512
3583 2048 1024
3583 2048 1535
3553 2070 2007
3587 2099 2100
3549 2183 2215
3316 2364 2424
3199 2485 2648
3583 2559 0
3583 2559 513
3583 2560 1024
3583 2560 1535
3583 2559 2048
3567 2570 2534
3579 2613 2622
3418 2734 2773
3348 2816 2998
3511 3089 788
3516 3088 939
3527 3085 1235
3548 3080 1623
3576 3073 2061
3583 3071 2560
3575 3075 3060
3508 3145 3165
3516 3188 3359
3334 3634 1342
3340 3633 1436
3353 3630 1644
3376 3625 1950
3411 3618 2318
3457 3609 2723
3515 3597 3148
3583 3583 3583
3502 3664 3568
3230 4095 2493
3224 4095 2495
3247 4095 2604
3276 4095 2756
3289 4095 2907
3366 4095 3180
3427 4095 3324
3653 4072 3640
3726 4093 3730
3940 703 0
4013 522 0
4032 520 332
4080 484 439
4095 580 580
4095 800 838
4054 1044 1155
3764 1517 1627
3461 1863 1987
3944 889 0
4004 779 225
4040 730 572
4072 740 701
4095 791 791
4095 957 984
4058 1161 1255
3784 1582 1686
3486 1913 2033
4058 1084 0
4043 1112 384
4016 1156 902
4046 1155 1109
4095 1158 1156
4095 1262 1275
4067 1412 1479
3830 1737 1827
3541 2035 2147
4095 1535 0
4095 1535 512
4095 1536 1023
4034 1605 1455
4083 1603 1591
4095 1658 1661
4078 1762 1801
3898 1986 2058
3626 2239 2337
4095 2047 0
4095 2047 512
4095 2047 1024
4094 2048 1535
4052 2084 1990
4095 2099 2098
4091 2169 2185
3978 2310 2361
3729 2516 2597
4095 2559 0
4095 2559 512
4095 2559 1024
4094 2560 1535
4095 2559 2047
4066 2579 2520
4095 2610 2611
4057 2690 2722
3835 2854 2915
4095 3071 0
4095 3071 513
4095 3071 1024
4095 3071 1535
4095 3071 2048
4095 3071 2560
4079 3081 3046
4090 3124 3133
3933 3239 3279
3995 3607 1011
3999 3606 1128
4009 3604 1377
4027 3600 1724
4052 3594 2133
4083 3586 2578
4095 3583 3071
4087 3587 3572
4021 3655 3676
3842 4095 2304
3845 4095 2305
3857 4095 2463
3874 4095 2613
3894 4095 2755
3927 4095 3009
3974 4095 3346
4026 4095 3659
4095 4095 4095
