Creative/ColorHarmony - Orange Teal (CMYK-Toned).3dl
#25pt 3DLUT created by 3D LUT Creator Pro (c) Oleg Sharonov
#Copyright Oleg Sharonov
#IMAGEPROFILE sRGB IEC61966-2.1 v.2.10
#INPUTGAMMA sRGB IEC61966-2.1 v.2.10
#OUTPUTGAMMA sRGB IEC61966-2.1 v.2.10
0 256 512 768 1023
113 0 0
165 132 793
186 336 1639
271 554 2462
308 828 3291
724 895 542
318 819 999
271 984 1802
203 1192 2577
19 1441 3364
1067 2025 1391
652 2079 1794
451 1773 2023
394 1948 2781
220 2167 3551
1634 3128 2198
1175 3172 2568
673 3165 2883
614 2734 3005
484 2951 3775
2640 3989 2942
2227 4002 3350
1847 4019 3741
1114 3980 3941
743 3743 4015
1043 42 0
701 324 423
777 584 1415
850 887 2382
902 1215 3322
1182 799 235
1031 936 850
900 1074 1662
900 1359 2543
905 1652 3366
1751 2025 942
1414 1975 1650
1003 1900 1910
962 2128 2742
928 2387 3530
2297 3080 1742
2063 3069 2420
1645 3121 2803
1070 2939 2943
1028 3170 3750
3099 3979 2514
3005 3977 3168
2623 4002 3576
2175 4001 3927
1238 3923 3995
2126 81 0
1791 526 665
1338 812 1310
1583 1193 2368
1823 1566 3331
2258 872 180
2060 1094 895
1506 1293 1576
1654 1629 2499
1816 1965 3452
2247 1824 468
2076 1941 1123
1835 2096 2024
1864 2157 2723
1972 2467 3560
2900 3057 1304
2717 3063 2004
2504 3044 2661
2060 2992 2947
2088 3229 3759
3570 3985 2081
3467 3985 2753
3380 3987 3418
3038 4021 3828
2357 3932 3999
3231 61 0
3045 643 727
2678 1125 1634
2346 1481 2326
2782 1895 3355
3328 945 136
3207 1168 857
2788 1575 1743
2456 1890 2438
2773 2271 3404
3310 1864 430
3217 2015 1105
2998 2244 1997
2656 2413 2643
2884 2740 3572
3250 2780 724
3171 2884 1376
3066 2991 2172
2960 3144 3000
3116 3240 3814
3988 3953 1591
3949 4011 2337
3845 4017 3018
3758 4027 3708
3419 3995 3985
4033 439 74
3990 989 795
3854 1470 1729
3715 1923 2617
3588 2298 3423
4029 1259 214
3987 1445 877
3873 1861 1781
3726 2271 2645
3592 2644 3455
4056 2057 446
4013 2199 1099
3955 2389 1934
3830 2729 2778
3710 3064 3580
4095 2874 712
4076 2992 1359
4030 3124 2150
3962 3334 2998
3875 3534 3751
4095 3700 1472
4095 3792 1637
4095 3879 2393
4095 3969 3152
4061 4095 4006
