Creative/ColorHarmony - Fade Colds.3dl
#25pt 3DLUT created by 3D LUT Creator Pro (c) Oleg Sharonov
#Copyright Oleg Sharonov
#INPUTGAMMA sRGB IEC61966-2.1 v.2.10
#IMAGEPROFILE sRGB IEC61966-2.1 v.2.10
#OUTPUTGAMMA sRGB IEC61966-2.1 v.2.10
0 43 86 128 171 214 256 299 341 384 427 469 512 555 597 640 682 725 768 810 853 896 938 981 1023 
0 0 0
16 10 39
32 23 90
61 42 168
103 68 260
155 100 351
214 145 442
278 195 535
336 245 624
396 295 716
457 347 807
518 398 899
578 448 990
637 499 1081
698 550 1173
758 600 1264
819 651 1356
880 701 1447
940 751 1538
1000 802 1630
1060 852 1721
1120 903 1812
1181 954 1903
1241 1004 1995
1302 1055 2086
65 145 61
71 152 158
97 158 233
126 177 299
177 189 414
230 212 500
284 245 571
337 282 648
391 320 724
446 362 804
501 404 886
558 449 971
614 494 1055
671 541 1140
729 588 1227
787 635 1313
845 683 1401
904 731 1489
962 780 1577
1022 828 1667
1080 877 1755
1139 926 1845
1198 975 1934
1258 1025 2024
1317 1074 2113
149 304 142
158 308 230
165 312 320
206 318 401
238 334 461
280 351 542
334 363 657
384 381 762
442 409 832
496 442 904
548 477 979
602 514 1053
656 554 1133
711 596 1213
766 639 1294
822 682 1376
877 726 1459
933 771 1543
990 816 1628
1048 863 1714
1105 910 1800
1163 957 1886
1221 1004 1973
1279 1052 2061
1337 1100 2149
262 465 252
264 468 318
276 470 393
284 475 485
326 479 570
360 490 633
391 509 689
439 525 783
490 537 899
541 553 1010
597 577 1094
652 606 1163
706 639 1235
759 673 1309
813 710 1385
866 749 1462
921 789 1541
975 830 1620
1030 871 1700
1086 915 1783
1141 959 1865
1197 1003 1948
1253 1048 2032
1311 1093 2117
1368 1139 2202
374 625 363
374 628 411
384 629 477
394 632 556
401 637 650
446 641 737
481 650 805
513 666 863
545 688 918
595 698 1025
648 712 1142
699 726 1254
752 745 1356
808 773 1425
863 803 1495
917 835 1567
971 871 1642
1024 907 1716
1077 944 1792
1132 983 1870
1186 1023 1948
1240 1064 2028
1295 1106 2108
1350 1148 2190
1406 1192 2271
486 785 474
484 788 508
492 788 565
504 790 636
512 794 719
520 800 814
565 802 903
601 811 975
633 824 1036
665 842 1092
698 863 1149
753 874 1267
805 885 1383
857 900 1496
909 917 1608
964 942 1687
1020 970 1757
1074 1001 1828
1128 1033 1900
1182 1067 1973
1235 1103 2048
1289 1140 2124
1342 1178 2200
1396 1217 2278
1451 1257 2357
599 944 585
593 948 610
601 948 657
610 949 724
622 952 798
629 956 882
637 962 979
684 964 1069
721 971 1144
753 983 1207
786 1000 1266
818 1019 1320
856 1037 1391
910 1047 1509
963 1060 1625
1015 1074 1739
1066 1091 1851
1119 1110 1950
1176 1138 2019
1231 1167 2089
1286 1198 2160
1339 1230 2232
1393 1264 2305
1446 1299 2379
1500 1336 2455
712 1105 696
703 1109 713
710 1109 753
718 1109 812
729 1111 882
741 1114 959
747 1119 1046
756 1125 1143
803 1126 1235
840 1132 1312
874 1143 1378
907 1157 1439
939 1175 1495
971 1196 1548
1015 1212 1634
1068 1222 1752
1120 1235 1867
1172 1249 1981
1223 1264 2094
1275 1282 2205
1332 1306 2282
1388 1334 2351
1443 1364 2421
1497 1395 2492
1551 1428 2564
823 1264 807
813 1268 817
819 1268 852
827 1269 903
836 1270 971
849 1272 1042
859 1276 1122
864 1281 1210
874 1287 1307
922 1287 1400
960 1293 1479
994 1303 1547
1027 1316 1610
1060 1333 1668
1091 1351 1723
1123 1373 1777
1172 1386 1876
1225 1396 1993
1278 1409 2109
1330 1423 2224
1381 1438 2336
1433 1455 2448
1486 1475 2544
1543 1502 2613
1599 1531 2682
936 1424 917
924 1428 924
928 1429 953
936 1429 998
944 1430 1059
955 1431 1128
967 1434 1202
977 1437 1284
981 1444 1374
992 1449 1472
1040 1449 1565
1079 1454 1645
1114 1463 1717
1148 1476 1781
1180 1491 1840
1212 1508 1897
1244 1528 1951
1276 1550 2005
1330 1560 2119
1383 1571 2236
1435 1583 2351
1487 1597 2466
1539 1612 2579
1590 1628 2691
1642 1646 2802
1049 1584 1028
1039 1588 1033
1039 1589 1056
1045 1589 1096
1053 1590 1150
1063 1591 1218
1075 1593 1287
1086 1595 1364
1094 1600 1447
1098 1606 1539
1109 1611 1637
1159 1611 1730
1199 1616 1812
1235 1624 1885
1268 1636 1951
1301 1649 2012
1333 1666 2070
1365 1684 2126
1397 1705 2180
1432 1725 2242
1487 1734 2360
1541 1746 2478
1593 1757 2593
1644 1771 2708
1696 1786 2821
1162 1744 1138
1153 1747 1143
1149 1749 1160
1155 1749 1195
1162 1750 1244
1171 1751 1305
1182 1752 1375
1194 1754 1446
1205 1757 1525
1212 1762 1611
1215 1768 1703
1227 1773 1801
1277 1773 1895
1318 1778 1978
1354 1785 2053
1388 1795 2120
1421 1808 2183
1453 1824 2242
1485 1841 2299
1517 1860 2354
1549 1881 2407
1590 1899 2484
1645 1909 2603
1698 1919 2720
1750 1932 2835
1274 1903 1249
1266 1906 1254
1259 1909 1264
1265 1909 1297
1272 1910 1341
1280 1910 1396
1289 1911 1464
1301 1913 1533
1312 1916 1607
1323 1919 1687
1330 1924 1774
1331 1931 1867
1345 1936 1965
1396 1935 2060
1437 1939 2144
1474 1946 2220
1508 1956 2290
1541 1968 2354
1574 1982 2414
1606 1998 2472
1638 2017 2528
1670 2037 2582
1702 2059 2635
1748 2073 2727
1802 2083 2845
1387 2063 1360
1379 2066 1364
1370 2069 1370
1375 2070 1399
1381 2070 1439
1389 2071 1490
1397 2071 1552
1407 2072 1623
1420 2075 1692
1431 2077 1768
1441 2081 1850
1447 2086 1938
1448 2093 2031
1463 2098 2130
1514 2098 2225
1556 2101 2310
1593 2107 2388
1628 2116 2458
1661 2128 2524
1694 2141 2586
1726 2156 2644
1758 2174 2701
1790 2193 2756
1823 2213 2810
1855 2236 2863
1499 2223 1471
1493 2225 1474
1483 2229 1480
1484 2229 1503
1491 2230 1539
1498 2230 1586
1506 2231 1643
1515 2232 1711
1526 2234 1780
1539 2236 1852
1550 2239 1930
1559 2243 2013
1564 2249 2101
1565 2255 2196
1581 2260 2294
1632 2260 2390
1675 2263 2476
1713 2269 2554
1748 2277 2626
1782 2287 2693
1814 2300 2756
1847 2315 2816
1879 2331 2874
1911 2349 2930
1943 2369 2984
1612 2383 1581
1606 2385 1585
1597 2388 1589
1595 2390 1607
1600 2390 1641
1607 2391 1684
1615 2391 1736
1624 2392 1799
1633 2393 1870
1646 2395 1938
1658 2397 2012
1668 2401 2092
1677 2405 2176
1682 2411 2265
1682 2418 2360
1699 2423 2458
1750 2422 2554
1793 2425 2641
1832 2430 2721
1868 2438 2794
1902 2448 2862
1935 2460 2927
1968 2474 2988
2000 2489 3047
2032 2507 3103
1725 2543 1692
1719 2545 1695
1711 2548 1699
1705 2550 1712
1710 2550 1743
1717 2551 1783
1724 2551 1832
1733 2552 1890
1742 2553 1957
1753 2554 2027
1765 2556 2098
1777 2559 2173
1787 2563 2254
1794 2567 2339
1799 2573 2429
1799 2581 2525
1816 2585 2623
1868 2584 2719
1912 2586 2807
1951 2591 2887
1987 2599 2962
2022 2609 3031
2055 2620 3097
2088 2633 3159
2120 2648 3219
1837 2703 1802
1832 2704 1805
1825 2707 1809
1815 2710 1817
1820 2710 1846
1826 2711 1883
1834 2711 1928
1842 2712 1983
1850 2713 2046
1859 2714 2117
1872 2716 2185
1884 2718 2257
1895 2720 2334
1905 2725 2416
1912 2729 2502
1916 2736 2593
1915 2743 2689
1934 2747 2787
1986 2746 2884
2031 2748 2972
2070 2753 3053
2107 2760 3129
2141 2769 3200
2175 2780 3266
2208 2792 3329
1950 2862 1913
1945 2864 1916
1938 2866 1920
1928 2870 1926
1930 2871 1950
1936 2871 1984
1943 2871 2027
1951 2872 2078
1959 2873 2136
1968 2874 2204
1979 2875 2274
1991 2877 2343
2003 2879 2417
2014 2882 2496
2023 2887 2579
2029 2892 2666
2033 2898 2757
2032 2905 2854
2052 2909 2952
2105 2908 3049
2149 2910 3137
2189 2915 3220
2226 2921 3296
2261 2930 3368
2295 2940 3435
2062 3022 2024
2058 3024 2027
2052 3026 2030
2042 3029 2035
2041 3031 2055
2046 3031 2087
2052 3032 2127
2060 3032 2174
2068 3033 2229
2077 3034 2293
2086 3035 2364
2098 3036 2431
2110 3038 2503
2122 3041 2578
2132 3044 2658
2141 3049 2742
2147 3054 2830
2150 3060 2921
2149 3068 3018
2170 3072 3116
2223 3070 3213
2268 3072 3303
2308 3077 3386
2346 3083 3463
2401 3088 3522
2175 3182 2135
2171 3183 2137
2165 3185 2140
2156 3188 2145
2151 3191 2159
2156 3191 2190
2162 3192 2227
2169 3192 2272
2177 3193 2324
2186 3193 2383
2194 3194 2450
2204 3196 2521
2217 3197 2590
2229 3200 2662
2240 3203 2739
2250 3206 2820
2259 3211 2905
2264 3216 2993
2267 3222 3085
2265 3230 3182
2288 3234 3281
2341 3232 3378
2386 3234 3468
2483 3230 3523
2581 3227 3560
2287 3342 2245
2283 3343 2248
2278 3345 2251
2270 3348 2255
2261 3351 2265
2266 3351 2293
2272 3352 2329
2279 3352 2370
2286 3353 2420
2295 3353 2476
2303 3354 2539
2312 3355 2610
2324 3357 2678
2336 3359 2748
2348 3361 2823
2359 3364 2901
2369 3368 2982
2376 3373 3068
2382 3378 3157
2384 3385 3250
2382 3393 3347
2406 3396 3445
2539 3382 3517
2667 3369 3565
2765 3365 3603
2400 3502 2356
2396 3503 2358
2391 3505 2361
2383 3507 2365
2373 3511 2372
2381 3510 2402
2391 3510 2439
2402 3509 2483
2415 3508 2533
2430 3507 2590
2445 3507 2653
2460 3506 2722
2478 3506 2794
2500 3505 2864
2522 3505 2935
2544 3506 3009
2565 3507 3085
2584 3510 3162
2602 3513 3242
2617 3517 3323
2629 3523 3406
2637 3530 3492
2724 3523 3564
2857 3508 3615
2955 3501 3655
2733 3604 2701
2732 3604 2704
2732 3605 2709
2731 3606 2717
2731 3607 2727
2735 3607 2746
2743 3607 2771
2752 3607 2801
2762 3607 2836
2774 3607 2876
2787 3607 2920
2800 3608 2969
2814 3608 3023
2831 3609 3076
2850 3610 3129
2869 3612 3185
2888 3614 3242
2907 3617 3301
2926 3621 3362
2943 3626 3424
2959 3631 3487
2974 3638 3552
2987 3646 3619
3055 3643 3675
3152 3635 3715
3052 3703 3029
3052 3703 3032
3052 3704 3036
3052 3705 3041
3053 3706 3048
3055 3707 3060
3062 3707 3078
3069 3708 3099
3077 3708 3123
3087 3709 3151
3098 3710 3182
3110 3711 3216
3122 3712 3255
3135 3714 3295
3151 3716 3334
3168 3719 3375
3186 3722 3418
3204 3725 3461
3221 3730 3506
3239 3735 3552
3257 3741 3599
3275 3747 3647
3291 3755 3696
3308 3764 3746
3360 3765 3788
168 0 0
171 0 171
161 10 297
158 42 318
186 74 370
230 113 442
273 155 512
326 206 593
379 255 677
433 304 759
490 354 848
546 404 933
603 454 1020
662 505 1110
719 554 1198
778 605 1288
837 655 1377
896 705 1466
955 755 1556
1014 806 1647
1073 855 1737
1133 906 1827
1193 957 1917
1252 1007 2008
1312 1057 2098
177 165 29
171 171 171
180 174 295
214 186 376
250 203 449
289 230 518
332 260 592
379 295 667
428 334 744
477 374 822
528 416 902
582 460 985
636 504 1068
691 550 1153
747 596 1238
803 643 1325
861 691 1412
918 737 1499
975 786 1586
1033 835 1675
1091 883 1763
1150 931 1852
1209 981 1941
1267 1030 2030
1327 1077 2125
220 324 132
203 332 192
214 334 336
255 337 417
287 349 496
334 354 612
381 369 707
428 391 774
478 419 845
526 452 917
576 486 991
627 525 1067
678 563 1145
731 604 1224
784 646 1304
838 689 1386
893 733 1468
948 777 1553
1004 823 1637
1060 868 1722
1117 915 1808
1174 962 1894
1232 1010 1981
1289 1057 2067
1348 1103 2162
312 477 248
302 485 291
308 486 386
318 489 494
360 492 579
389 505 646
423 521 715
474 527 831
522 540 945
575 558 1035
626 584 1103
677 613 1173
728 646 1246
780 680 1319
831 717 1394
883 755 1471
936 794 1549
989 835 1628
1044 877 1709
1098 920 1790
1153 963 1872
1208 1007 1955
1264 1052 2038
1320 1097 2123
1377 1141 2214
412 634 360
404 640 393
406 642 464
420 644 554
428 648 656
472 651 744
504 661 813
533 676 872
570 693 944
622 702 1061
672 713 1176
722 728 1286
777 751 1364
830 779 1433
882 809 1503
934 842 1575
986 875 1648
1038 912 1724
1091 949 1800
1144 988 1876
1197 1027 1954
1251 1068 2034
1305 1110 2114
1359 1152 2195
1415 1193 2283
518 792 471
510 797 497
509 799 548
521 800 632
532 803 719
541 809 820
585 810 908
619 819 981
651 832 1043
681 849 1099
721 866 1178
773 875 1295
824 887 1410
874 902 1523
926 919 1624
982 946 1693
1036 974 1763
1088 1004 1833
1141 1037 1905
1194 1071 1979
1247 1107 2053
1299 1143 2129
1352 1182 2205
1406 1220 2283
1460 1259 2367
625 950 583
619 954 604
614 957 642
624 958 716
637 959 795
647 964 883
655 969 983
701 970 1073
736 978 1148
769 990 1213
799 1006 1272
831 1025 1326
874 1039 1415
927 1050 1533
979 1062 1648
1030 1076 1761
1080 1092 1872
1134 1114 1954
1190 1141 2024
1244 1170 2093
1297 1201 2164
1350 1234 2236
1403 1267 2309
1456 1303 2384
1509 1337 2465
734 1110 694
729 1113 712
721 1116 739
730 1117 802
742 1118 878
754 1120 958
762 1124 1047
770 1131 1147
817 1131 1238
854 1137 1315
886 1148 1382
919 1163 1443
950 1180 1499
981 1201 1553
1029 1213 1653
1081 1223 1770
1134 1236 1886
1185 1250 1999
1236 1265 2112
1287 1284 2218
1344 1309 2285
1399 1337 2354
1453 1367 2425
1506 1398 2496
1560 1429 2574
843 1269 805
838 1271 819
829 1275 840
837 1276 894
846 1276 965
859 1278 1039
871 1281 1121
877 1286 1211
885 1292 1311
934 1292 1403
971 1298 1482
1005 1308 1551
1038 1321 1614
1069 1337 1672
1101 1356 1727
1132 1377 1781
1184 1387 1893
1237 1398 2010
1289 1410 2125
1340 1423 2239
1391 1439 2351
1443 1456 2463
1498 1478 2548
1553 1504 2616
1609 1532 2692
953 1428 916
950 1430 929
937 1434 942
945 1435 989
954 1436 1052
964 1436 1126
977 1439 1201
987 1442 1285
992 1448 1375
1002 1454 1475
1051 1454 1568
1090 1459 1648
1124 1467 1720
1157 1480 1784
1188 1495 1844
1220 1512 1900
1251 1531 1955
1286 1553 2014
1341 1561 2133
1393 1572 2250
1445 1584 2365
1496 1598 2480
1548 1613 2593
1599 1629 2704
1651 1647 2817
1064 1588 1027
1061 1589 1038
1046 1594 1046
1053 1595 1087
1061 1595 1143
1070 1596 1213
1083 1597 1285
1095 1600 1363
1104 1604 1447
1108 1610 1540
1119 1615 1639
1168 1615 1733
1208 1620 1814
1243 1628 1887
1276 1639 1954
1308 1653 2015
1340 1669 2073
1372 1687 2128
1403 1708 2183
1442 1726 2255
1496 1736 2373
1550 1746 2490
1602 1758 2606
1653 1772 2720
1704 1786 2840
