Creative/ColorHarmony - Cyan Orange.3dl
#25pt 3DLUT created by 3D LUT Creator Pro (c) Oleg Sharonov
#Copyright Oleg Sharonov
#IMAGEPROFILE sRGB IEC61966-2.1 v.2.10
#INPUTGAMMA sRGB IEC61966-2.1 v.2.10
#OUTPUTGAMMA sRGB IEC61966-2.1 v.2.10
0 128 256 384 512 640 768 896 1023
0 0 0
32 58 81
116 206 267
250 384 467
389 562 670
530 740 873
668 919 1076
808 1097 1278
947 1274 1480
42 295 217
0 442 442
264 542 622
389 632 736
504 753 878
623 891 1038
745 1041 1210
872 1199 1390
1002 1361 1575
119 569 451
145 683 573
0 904 904
468 1016 1119
651 1098 1243
772 1189 1356
887 1299 1488
1002 1423 1633
1127 1557 1785
238 855 695
252 923 764
297 1196 1067
6 1396 1396
665 1498 1621
897 1585 1756
1053 1655 1858
1183 1745 1967
1308 1849 2089
451 1207 1003
464 1253 1050
523 1390 1192
618 1799 1660
391 1922 1922
971 2002 2137
1202 2071 2255
1376 2129 2349
1522 2206 2450
759 1632 1387
771 1665 1420
812 1755 1515
902 1975 1759
1066 2422 2284
870 2456 2456
1336 2511 2640
1572 2553 2740
1749 2607 2829
1166 2124 1842
1176 2147 1867
1208 2209 1933
1278 2327 2061
1396 2601 2383
1537 2950 2822
1411 2978 2978
1777 3001 3117
2011 3031 3213
1684 2686 2379
1693 2702 2396
1716 2742 2441
1764 2817 2525
1848 2953 2685
1973 3200 2995
2065 3422 3311
2004 3463 3463
2294 3473 3574
2350 3344 3027
2356 3354 3038
2372 3378 3067
2404 3421 3119
2458 3488 3201
2530 3606 3362
2629 3768 3590
2669 3877 3784
2651 3915 3915
414 0 0
341 168 158
280 318 419
363 461 572
468 619 745
588 785 931
715 954 1122
845 1126 1316
979 1299 1512
440 533 427
540 540 540
486 595 671
522 682 788
596 796 925
693 928 1079
802 1073 1245
919 1225 1420
1041 1384 1601
139 550 422
455 798 692
512 1024 1024
647 1057 1159
749 1124 1266
843 1214 1382
942 1322 1513
1048 1444 1656
1166 1577 1806
243 821 656
464 1030 868
546 1243 1108
492 1468 1468
816 1541 1662
981 1597 1769
1112 1670 1872
1229 1761 1983
1346 1865 2105
455 1184 977
605 1326 1123
659 1449 1252
783 1810 1670
665 1962 1962
1077 2028 2160
1267 2079 2262
1426 2140 2360
1559 2218 2461
763 1619 1371
870 1718 1474
907 1802 1563
1000 1997 1779
1167 2420 2281
1017 2477 2477
1416 2525 2654
1620 2561 2747
1787 2615 2837
1169 2117 1833
1241 2177 1898
1271 2236 1962
1337 2349 2085
1455 2603 2384
1612 2956 2829
1496 2989 2989
1829 3005 3122
2048 3037 3219
1690 2686 2376
1740 2724 2421
1763 2763 2464
1809 2836 2546
1892 2962 2694
2014 3201 2997
2113 3426 3314
2053 3466 3466
2329 3477 3578
2359 3349 3030
2391 3369 3056
2406 3393 3084
2437 3435 3135
2489 3500 3215
2560 3612 3368
2657 3770 3592
2700 3880 3788
2682 3918 3918
907 0 0
733 295 161
735 442 425
629 609 783
653 744 915
736 885 1068
835 1037 1234
943 1196 1409
1060 1359 1591
899 439 0
1023 512 512
891 665 653
765 789 964
776 894 1067
836 1013 1199
915 1146 1345
1011 1289 1505
1120 1440 1674
914 1072 890
968 1080 953
1088 1088 1088
1003 1133 1228
990 1195 1336
1023 1280 1451
1083 1381 1576
1166 1498 1713
1265 1625 1858
322 853 672
506 1015 838
967 1347 1223
1041 1554 1554
1104 1583 1698
1178 1638 1806
1256 1713 1911
1344 1802 2023
1442 1904 2145
486 1175 959
622 1295 1081
960 1570 1382
1088 1817 1675
1109 2038 2038
1299 2058 2184
1422 2106 2286
1544 2170 2387
1652 2249 2488
780 1599 1343
876 1682 1431
1118 1884 1653
1205 2035 1817
1379 2401 2262
1323 2526 2526
1590 2538 2669
1739 2581 2764
1881 2638 2858
1182 2101 1811
1251 2159 1875
1421 2294 2027
1480 2396 2140
1596 2605 2387
1784 2965 2837
1686 3007 3007
1954 3018 3136
2136 3055 3233
1708 2686 2372
1757 2724 2415
1876 2810 2517
1917 2877 2594
1995 2984 2718
2112 3205 3001
2229 3436 3325
2173 3475 3475
2418 3489 3590
2384 3363 3039
2415 3382 3064
2491 3427 3125
2519 3467 3173
2566 3528 3249
2636 3627 3383
2726 3775 3599
2777 3889 3796
2760 3926 3926
1361 0 0
1237 318 171
1083 600 401
1131 718 693
1028 899 1098
979 1034 1284
1028 1168 1412
1111 1309 1564
1210 1458 1725
1365 440 0
1450 477 477
1244 772 609
1241 864 842
1115 1026 1239
1067 1143 1390
1106 1263 1510
1179 1392 1651
1268 1532 1799
1427 944 358
1458 969 479
1554 1036 1036
1439 1186 1173
1291 1294 1526
1252 1380 1610
1278 1475 1718
1329 1585 1837
1403 1706 1967
1386 1606 1353
1421 1611 1392
1500 1622 1484
1627 1627 1627
1533 1673 1775
1496 1723 1882
1506 1792 1988
1547 1876 2098
1611 1973 2215
699 1328 1087
750 1362 1129
1022 1573 1365
1533 1912 1783
1612 2092 2092
1633 2115 2232
1680 2163 2339
1740 2227 2437
1814 2304 2539
849 1632 1364
933 1700 1436
1146 1864 1617
1550 2164 1965
1684 2387 2248
1712 2554 2554
1847 2576 2700
1939 2622 2800
2043 2679 2897
1227 2116 1817
1290 2165 1871
1444 2275 1997
1744 2505 2263
1837 2642 2422
2008 2946 2818
1968 3027 3027
2161 3046 3164
2287 3086 3259
1750 2702 2379
1795 2734 2416
1906 2811 2509
2115 2960 2689
2178 3053 2799
2284 3223 3019
2421 3456 3345
2368 3494 3494
2567 3511 3612
2432 3389 3058
2461 3408 3082
2534 3450 3140
2662 3523 3240
2702 3577 3309
2768 3656 3413
2845 3788 3612
2907 3903 3812
2890 3941 3941
1836 0 0
1742 334 180
1561 670 436
1491 870 639
1526 993 960
1438 1178 1404
1331 1324 1665
1346 1458 1771
1409 1592 1901
1843 445 0
1900 465 465
1718 768 607
1597 994 780
1607 1098 1067
1522 1267 1515
1396 1407 1748
1407 1532 1843
1466 1660 1968
1861 921 0
1914 950 468
2035 1017 1017
1762 1248 1078
1772 1342 1318
1656 1489 1734
1545 1599 1913
1551 1705 2006
1600 1817 2121
1991 1526 1038
2008 1528 1049
2031 1538 1103
2081 1581 1581
1976 1719 1707
1827 1814 2059
1766 1890 2148
1771 1971 2245
1807 2064 2349
1865 2130 1825
1888 2133 1851
1942 2141 1914
2033 2150 2018
2154 2154 2154
2068 2202 2304
2025 2251 2413
2022 2311 2514
2050 2384 2616
1266 1952 1658
1295 1969 1683
1375 2018 1753
1636 2195 1973
2120 2478 2354
2183 2619 2619
2187 2642 2755
2218 2685 2858
2264 2743 2951
1334 2180 1868
1393 2225 1918
1537 2334 2040
1800 2519 2258
2193 2775 2580
2307 2950 2821
2330 3070 3070
2432 3091 3206
2500 3134 3299
1837 2762 2428
1879 2791 2463
1982 2859 2544
2168 2978 2691
2450 3158 2922
2530 3264 3058
2658 3468 3357
2631 3524 3524
2774 3543 3645
2516 3451 3113
2543 3466 3133
2610 3500 3181
2726 3559 3265
2901 3650 3399
2950 3712 3483
3017 3811 3636
3088 3925 3834
3070 3962 3962
2325 0 0
2250 343 186
2090 701 454
1879 1017 697
1897 1145 886
1917 1270 1230
1813 1466 1673
1705 1619 1972
1684 1749 2130
2333 452 0
2372 462 462
2214 780 617
1994 1093 814
1973 1242 998
1975 1351 1314
1875 1538 1752
1756 1684 2042
1734 1809 2185
2333 958 195
2368 975 546
2450 1020 1020
2242 1284 1117
2102 1444 1237
2107 1547 1515
2015 1707 1944
1874 1838 2209
1852 1952 2314
2356 1463 468
2386 1483 699
2455 1532 1100
2511 1572 1572
2279 1765 1610
2292 1857 1834
2199 1978 2237
2054 2085 2435
2040 2180 2512
2437 2063 1650
2454 2062 1651
2489 2062 1662
2530 2075 1714
2589 2130 2130
2492 2248 2236
2355 2331 2568
2289 2403 2665
2285 2476 2759
2347 2641 2304
2362 2643 2320
2400 2647 2363
2463 2655 2437
2554 2662 2540
2666 2666 2666
2593 2716 2812
2555 2766 2922
2550 2823 3020
1927 2624 2295
1944 2632 2311
1988 2655 2350
2077 2701 2429
2298 2826 2609
2700 3021 2908
2743 3124 3124
2746 3152 3253
2769 3194 3353
1990 2865 2520
2029 2891 2551
2124 2955 2628
2291 3061 2761
2534 3202 2948
2849 3363 3186
2930 3482 3369
2944 3563 3563
3025 3585 3685
2647 3546 3200
2672 3558 3218
2732 3589 3262
2837 3638 3335
2991 3706 3442
3190 3789 3583
3241 3850 3676
3304 3947 3858
3293 3988 3988
2778 273 273
2719 489 386
2587 790 576
2397 1093 789
2225 1346 989
2284 1445 1182
2287 1559 1515
2184 1754 1943
2091 1909 2268
2772 612 362
2798 624 624
2671 879 744
2484 1162 909
2287 1426 1087
2332 1514 1262
2333 1624 1582
2232 1812 2004
2130 1963 2325
2772 1057 530
2796 1068 733
2851 1102 1102
2677 1336 1190
2453 1591 1312
2435 1675 1450
2440 1783 1745
2345 1952 2154
2220 2093 2461
2795 1535 749
2816 1547 902
2863 1580 1212
2928 1624 1624
2698 1813 1659
2593 1941 1755
2602 2042 2011
2517 2179 2400
2373 2301 2672
2870 2040 1176
2877 2046 1200
2904 2071 1371
2939 2101 1722
2977 2133 2133
2785 2298 2160
2793 2380 2359
2724 2473 2732
2567 2578 2937
2877 2617 2254
2892 2614 2253
2929 2609 2254
2980 2607 2266
3027 2620 2316
3074 2666 2666
2984 2765 2754
2866 2838 3056
2807 2907 3158
2831 3134 2787
2841 3135 2798
2868 3138 2828
2912 3143 2879
2974 3150 2952
3060 3156 3047
3161 3161 3161
3104 3211 3296
3076 3262 3402
2644 3297 2961
2653 3301 2971
2678 3311 2995
2726 3330 3039
2805 3363 3111
2969 3433 3237
3262 3533 3437
3287 3603 3603
3296 3636 3721
2867 3689 3343
2879 3695 3353
2913 3710 3378
3004 3751 3442
3135 3804 3532
3303 3862 3642
3500 3914 3768
3539 3972 3883
3546 4019 4019
3167 686 686
3125 786 731
3026 982 831
2873 1228 974
2682 1484 1141
2605 1650 1297
2636 1741 1482
2643 1855 1809
2546 2042 2215
3166 879 742
3183 888 888
3089 1063 965
2939 1292 1081
2749 1540 1227
2652 1714 1374
2672 1796 1546
2680 1909 1864
2585 2090 2265
3172 1227 868
3188 1236 994
3225 1262 1262
3087 1454 1333
2903 1677 1435
2742 1857 1547
2759 1930 1700
2769 2041 1999
2678 2209 2386
3197 1654 1059
3211 1662 1162
3243 1686 1390
3297 1725 1725
3115 1897 1766
2877 2087 1825
2898 2155 1955
2908 2259 2223
2823 2403 2588
3249 2117 1299
3260 2125 1381
3286 2145 1570
3318 2173 1854
3337 2193 2193
3150 2353 2216
3075 2462 2301
3083 2551 2525
3006 2664 2862
3338 2606 1934
3342 2608 1943
3352 2615 1969
3363 2630 2026
3386 2653 2330
3427 2692 2692
3267 2827 2709
3269 2895 2877
3213 2969 3202
3279 3155 2829
3296 3152 2830
3334 3145 2833
3389 3138 2838
3451 3137 2854
3500 3151 2901
3530 3184 3184
3453 3264 3255
3358 3328 3518
3315 3605 3273
3322 3606 3281
3341 3607 3301
3371 3611 3336
3415 3616 3388
3474 3622 3456
3550 3629 3539
3638 3638 3638
3598 3686 3757
3379 3929 3623
3384 3931 3629
3399 3936 3644
3425 3944 3671
3467 3957 3712
3529 3975 3767
3632 3998 3839
3807 4015 3940
3817 4054 4054
3516 1066 1066
3486 1122 1089
3414 1247 1145
3296 1427 1234
3139 1638 1351
2955 1862 1487
2955 1958 1620
2968 2044 1795
2984 2158 2110
3518 1194 1111
3530 1202 1202
3461 1317 1249
3346 1487 1325
3191 1690 1429
3007 1909 1554
2985 2006 1678
2999 2090 1848
3014 2203 2156
3529 1461 1217
3540 1468 1299
3565 1489 1489
3459 1635 1541
3312 1817 1618
3124 2018 1713
3058 2124 1819
3073 2205 1978
3088 2314 2271
3556 1826 1389
3565 1833 1459
3587 1851 1624
3624 1882 1882
3486 2029 1921
3294 2192 1972
3176 2322 2052
3196 2398 2195
3208 2501 2462
3605 2246 1615
3613 2252 1673
3631 2267 1813
3652 2289 2032
3664 2306 2306
3511 2443 2330
3332 2598 2372
3353 2664 2491
3360 2755 2722
3679 2694 1888
3684 2698 1935
3692 2706 2046
3697 2716 2224
3713 2735 2467
3742 2765 2765
3588 2896 2778
3533 2986 2850
3534 3060 3036
3747 3143 2614
3751 3145 2619
3762 3149 2633
3778 3159 2660
3794 3177 2708
3817 3202 2936
3844 3234 3234
3715 3340 3243
3714 3396 3381
3630 3664 3374
3650 3662 3363
3694 3654 3368
3756 3645 3383
3825 3639 3397
3890 3641 3418
3936 3657 3462
3955 3680 3680
3897 3745 3737
3800 4048 3764
3804 4049 3769
3817 4050 3783
3838 4053 3807
3868 4058 3841
3908 4064 3888
3961 4072 3947
4023 4082 4015
4095 4095 4095
