Creative/ColorHarmony - HueTwists YUV.3dl
#25pt 3DLUT created by 3D LUT Creator Pro (c) Oleg Sharonov
#Copyright Oleg Sharonov
#INPUTGAMMA sRGB IEC61966-2.1 v.2.10
#IMAGEPROFILE sRGB IEC61966-2.1 v.2.10
#OUTPUTGAMMA sRGB IEC61966-2.1 v.2.10
0 256 512 768 1023
0 0 0
42 42 852
52 52 1765
152 250 2645
520 606 3460
509 742 110
152 908 1047
6 1089 1987
129 1257 2820
562 1483 3601
1170 1582 264
939 1699 1155
490 1912 2081
45 2187 2954
541 2387 3750
1797 2397 527
1556 2493 1400
1338 2612 2235
904 2850 3084
852 3101 3862
2245 3187 1189
1968 3242 1998
1725 3326 2739
1523 3473 3445
1541 3659 4095
1022 0 0
1003 293 445
339 794 1590
192 1034 2499
551 1196 3352
1446 620 0
975 1015 1103
522 1409 1922
161 1807 2707
601 2091 3466
2018 1403 90
1548 1753 1206
1289 1975 2086
841 2303 2948
735 2689 3645
2476 2292 454
2088 2512 1470
1915 2660 2259
1632 2901 3066
1446 3167 3840
2713 3178 1300
2445 3261 2085
2250 3371 2766
2128 3529 3412
2113 3718 4076
2094 0 0
2159 165 19
2135 654 862
1641 1242 2136
988 1763 3124
2271 801 0
2184 1089 550
2016 1433 1570
1549 1923 2533
1168 2388 3349
2799 1430 0
2464 1790 1044
2080 2104 2121
1758 2489 2868
1547 2873 3578
3110 2336 189
2772 2582 1423
2533 2784 2279
2407 3000 3017
2292 3274 3746
3109 3316 1438
2952 3374 2130
2872 3462 2745
2803 3622 3357
2841 3805 3969
3105 0 0
3203 42 0
3205 645 354
3167 1135 1378
2817 1726 2585
3227 838 0
3183 1179 0
3158 1480 1064
2976 1902 2131
2643 2396 3093
3419 1788 0
3111 2156 849
3024 2339 1771
2932 2541 2690
2692 2939 3481
3513 2712 356
3285 2877 1470
3166 3012 2268
3177 3156 2950
3041 3465 3649
3471 3574 1713
3411 3606 2259
3426 3661 2782
3492 3757 3326
3532 3937 3910
4074 78 78
4095 220 198
4095 845 666
4074 1367 1187
3950 1882 2154
4095 975 23
4059 1355 255
4034 1688 882
3873 2123 1901
3669 2530 2950
3897 2346 295
3719 2581 919
3672 2732 1696
3636 2898 2551
3577 3083 3495
3691 3294 1167
3555 3378 1842
3518 3451 2485
3652 3523 3016
3782 3607 3735
3781 3910 2201
3814 3921 2563
3891 3959 2969
4004 4024 3444
4095 4095 3998
