Creative/ColorHarmony - Orange Pink & Cyan.3dl
#33pt 3DLUT created by 3D LUT Creator Pro (c) Oleg Sharonov
#Copyright Oleg Sharonov
#INPUTGAMMA sRGB IEC61966-2.1 v.2.10
#IMAGEPROFILE sRGB IEC61966-2.1 v.2.10
#OUTPUTGAMMA sRGB IEC61966-2.1 v.2.10
0 128 256 384 512 640 768 896 1023
0 0 0
0 302 414
0 601 827
0 902 1242
0 1202 1655
0 1502 2069
0 1803 2483
0 2104 2897
0 2404 3311
531 416 401
316 486 543
0 694 885
0 958 1275
0 1241 1678
0 1531 2086
0 1825 2496
0 2121 2907
0 2419 3319
1063 833 804
1001 862 868
631 974 1088
0 1159 1408
0 1389 1771
0 1645 2156
0 1916 2550
0 2195 2952
0 2481 3356
1595 1249 1206
1561 1266 1244
1399 1335 1390
947 1461 1634
0 1636 1942
0 1847 2289
0 2083 2657
0 2336 3039
0 2601 3430
2126 1665 1608
2104 1676 1633
2002 1724 1737
1768 1814 1923
1263 1948 2178
0 2118 2481
0 2317 2816
0 2539 3172
0 2778 3543
2658 2081 2010
2641 2089 2029
2568 2125 2106
2410 2193 2252
2122 2298 2462
1579 2435 2723
0 2602 3021
0 2793 3348
0 3004 3695
3190 2498 2412
3177 2504 2426
3121 2531 2487
3002 2586 2605
2798 2669 2779
2466 2782 3003
1895 2922 3267
0 3086 3563
0 3272 3884
3721 2914 2814
3711 2919 2825
3666 2941 2875
3572 2985 2972
3415 3054 3118
3172 3148 3311
2804 3267 3545
2210 3409 3812
679 3572 4095
4095 3330 3216
4095 3334 3225
4095 3353 3267
4095 3390 3348
4003 3447 3473
3812 3527 3641
3536 3629 3847
3138 3753 4087
2526 3896 4095
437 206 0
0 345 363
0 620 810
0 912 1231
0 1209 1648
0 1508 2064
0 1808 2479
0 2107 2894
0 2407 3308
651 448 349
512 512 512
0 710 869
0 968 1266
0 1247 1671
0 1536 2081
0 1829 2492
0 2125 2904
0 2422 3317
1114 845 786
1057 874 852
730 984 1077
0 1167 1399
0 1395 1765
0 1650 2151
0 1919 2547
0 2199 2949
0 2484 3354
1624 1256 1196
1590 1273 1234
1434 1341 1381
1006 1466 1627
0 1641 1937
0 1851 2284
0 2086 2653
0 2339 3036
0 2603 3427
2146 1669 1601
2124 1681 1627
2023 1728 1730
1794 1819 1918
1304 1952 2174
0 2121 2477
0 2320 2813
0 2541 3169
0 2780 3540
2673 2085 2005
2656 2093 2024
2584 2128 2101
2427 2196 2248
2142 2300 2458
1608 2438 2719
0 2604 3019
0 2795 3346
0 3007 3693
3201 2500 2408
3188 2506 2422
3132 2534 2483
3015 2588 2601
2812 2672 2776
2482 2784 3000
1918 2924 3265
0 3089 3561
0 3274 3882
3730 2916 2811
3720 2921 2822
3675 2943 2872
3582 2987 2969
3425 3056 3116
3184 3150 3309
2818 3269 3542
2229 3411 3810
771 3574 4095
4095 3332 3213
4095 3336 3223
4095 3355 3264
4095 3391 3346
4011 3449 3471
3821 3529 3638
3546 3631 3845
3150 3754 4085
2542 3898 4095
874 412 0
790 484 0
0 693 727
0 957 1188
0 1240 1620
0 1530 2043
0 1825 2463
0 2121 2881
0 2419 3297
977 553 0
906 603 316
412 771 796
0 1009 1223
0 1276 1643
0 1558 2061
0 1846 2476
0 2139 2891
0 2433 3306
1302 894 698
1256 921 776
1024 1024 1024
0 1198 1363
0 1420 1739
0 1669 2131
0 1935 2531
0 2212 2936
0 2495 3343
1743 1285 1150
1712 1301 1190
1573 1367 1344
1218 1490 1597
0 1661 1914
0 1868 2266
0 2101 2639
0 2351 3024
0 2614 3417
2228 1689 1571
2207 1700 1597
2112 1747 1704
1898 1836 1895
1460 1968 2154
0 2135 2461
0 2333 2799
0 2552 3158
0 2789 3531
2734 2099 1983
2718 2107 2002
2647 2142 2081
2496 2210 2230
2224 2313 2442
1728 2449 2705
0 2615 3007
0 2805 3335
0 3015 3683
3249 2511 2391
3236 2518 2406
3181 2545 2467
3066 2599 2586
2868 2682 2762
2550 2794 2987
2013 2933 3254
504 3097 3552
0 3282 3874
3769 2925 2797
3759 2930 2809
3715 2952 2859
3623 2996 2957
3469 3065 3104
3232 3158 3298
2874 3276 3533
2307 3418 3801
1050 3580 4095
4095 3339 3202
4095 3343 3212
4095 3362 3253
4095 3399 3335
4046 3456 3461
3858 3536 3629
3588 3637 3836
3198 3760 4077
2607 3904 4095
1312 618 0
1267 662 0
1039 814 497
0 1038 1091
0 1298 1559
0 1574 2000
0 1859 2429
0 2149 2854
0 2442 3275
1373 709 0
1330 744 0
1120 878 604
0 1085 1131
0 1333 1584
0 1601 2017
0 1881 2443
0 2167 2865
0 2457 3284
1597 982 446
1564 1006 575
1403 1099 902
954 1259 1285
0 1468 1684
0 1709 2090
0 1968 2500
0 2239 2910
0 2517 3322
1953 1341 1048
1928 1356 1094
1811 1418 1264
1536 1536 1536
821 1700 1866
0 1902 2229
0 2129 2609
0 2376 2999
0 2635 3396
2383 1728 1508
2363 1738 1535
2278 1784 1647
2088 1871 1846
1720 1999 2114
798 2163 2427
0 2357 2771
0 2574 3135
0 2809 3511
2852 2128 1938
2836 2136 1958
2771 2170 2039
2630 2237 2192
2379 2338 2408
1941 2472 2676
921 2636 2981
0 2824 3314
0 3032 3665
3342 2534 2357
3330 2540 2371
3278 2567 2435
3168 2620 2555
2979 2702 2734
2679 2813 2962
2189 2951 3231
1147 3114 3532
0 3297 3856
3846 2943 2769
3836 2948 2781
3793 2970 2832
3704 3014 2931
3554 3081 3080
3326 3175 3276
2985 3292 3513
2455 3433 3783
1419 3594 4080
4095 3354 3179
4095 3359 3189
4095 3377 3231
4095 3413 3314
4095 3471 3440
3932 3550 3610
3670 3651 3819
3294 3773 4061
2733 3916 4095
1750 824 0
1720 854 0
1582 967 0
1231 1154 905
0 1385 1454
0 1642 1928
0 1913 2375
0 2193 2811
0 2479 3240
1791 888 0
1762 914 0
1629 1019 0
1296 1194 957
0 1417 1482
0 1667 1946
0 1933 2389
0 2210 2822
0 2493 3249
1954 1106 0
1928 1126 0
1812 1207 633
1536 1349 1143
823 1542 1592
0 1769 2023
0 2018 2447
0 2280 2868
0 2553 3287
2236 1423 849
2215 1437 908
2120 1496 1119
1907 1605 1429
1474 1761 1787
0 1954 2167
0 2174 2560
0 2414 2959
0 2668 3362
2604 1787 1397
2587 1797 1429
2512 1840 1551
2348 1924 1766
2048 2048 2048
1463 2207 2373
0 2396 2726
0 2609 3097
0 2839 3478
3028 2172 1862
3014 2180 1883
2953 2213 1969
2825 2279 2128
2601 2377 2353
2226 2509 2629
1520 2669 2941
0 2854 3279
0 3060 3635
3485 2569 2300
3474 2575 2315
3424 2601 2380
3321 2654 2505
3146 2734 2688
2870 2844 2921
2435 2980 3195
1644 3140 3500
0 3322 3828
3964 2972 2724
3954 2977 2737
3913 2998 2788
3828 3041 2889
3686 3108 3041
3470 3200 3240
3151 3317 3480
2669 3456 3754
1823 3616 4054
4095 3378 3142
4095 3382 3152
4095 3400 3194
4095 3437 3279
4095 3493 3407
4047 3572 3579
3795 3672 3790
3440 3794 4035
2919 3935 4095
2188 1030 0
2166 1052 0
2068 1140 0
1846 1293 458
1385 1496 1285
0 1731 1818
0 1986 2295
0 2254 2748
0 2531 3188
2218 1078 0
2197 1099 0
2101 1181 0
1885 1328 576
1441 1524 1317
0 1754 1838
0 2005 2309
0 2270 2759
0 2544 3198
2342 1253 0
2322 1270 0
2233 1339 0
2038 1465 885
1653 1639 1445
563 1850 1921
0 2085 2370
0 2338 2807
0 2602 3236
2568 1531 264
2550 1543 467
2473 1597 849
2306 1697 1254
1995 1842 1663
1378 2025 2075
0 2235 2488
0 2467 2901
0 2714 3314
2880 1867 1216
2865 1877 1253
2800 1917 1398
2661 1996 1640
2415 2114 1948
1989 2267 2293
1047 2450 2660
0 2657 3042
0 2882 3432
3255 2234 1747
3243 2242 1769
3188 2273 1863
3074 2336 2034
2877 2432 2272
2559 2559 2559
2027 2716 2882
588 2897 3228
0 3098 3591
3675 2618 2215
3664 2624 2232
3618 2649 2300
3523 2700 2430
3363 2779 2621
3114 2886 2862
2735 3020 3143
2112 3177 3454
0 3356 3787
4095 3012 2658
4095 3017 2671
4076 3038 2724
3996 3080 2829
3862 3146 2985
3661 3236 3189
3367 3351 3434
2936 3488 3712
2242 3646 4017
4095 3412 3088
4095 3416 3099
4095 3434 3142
4095 3469 3228
4095 3525 3359
4095 3603 3534
3965 3702 3749
3633 3822 3997
3157 3962 4095
2625 1237 0
2608 1253 0
2534 1324 0
2372 1451 0
2077 1628 995
1510 1840 1658
0 2077 2182
0 2331 2661
0 2596 3118
2649 1273 0
2632 1290 0
2559 1357 0
2400 1481 0
2109 1653 1040
1560 1862 1680
0 2095 2197
0 2347 2673
0 2610 3128
2746 1417 0
2731 1431 0
2661 1490 0
2511 1600 0
2241 1756 1210
1753 1950 1773
0 2171 2263
0 2411 2723
0 2666 3168
2931 1659 0
2917 1670 0
2853 1718 0
2718 1809 950
2480 1943 1478
2073 2114 1944
1236 2314 2387
0 2536 2820
0 2775 3248
3196 1966 893
3183 1975 949
3127 2013 1149
3009 2087 1451
2805 2198 1802
2475 2343 2180
1907 2519 2570
0 2718 2967
0 2937 3369
3526 2312 1575
3515 2319 1602
3467 2349 1707
3365 2410 1898
3193 2501 2157
2924 2624 2463
2503 2776 2801
1758 2952 3159
0 3148 3532
3907 2681 2096
3897 2686 2114
3855 2711 2187
3768 2761 2326
3622 2837 2528
3400 2941 2780
3071 3071 3071
2567 3225 3391
1643 3401 3733
4095 3064 2567
4095 3069 2581
4095 3089 2637
4095 3130 2746
4079 3195 2908
3894 3283 3119
3627 3396 3371
3244 3531 3656
2668 3686 3967
4095 3455 3015
4095 3460 3025
4095 3477 3071
4095 3512 3159
4095 3567 3294
4095 3643 3474
4095 3741 3693
3868 3859 3947
3439 3998 4095
3063 1443 0
3049 1457 0
2990 1514 0
2864 1622 0
2644 1775 0
2280 1966 1416
1610 2185 2026
0 2424 2546
0 2676 3027
3082 1473 0
3069 1486 0
3009 1542 0
2885 1647 0
2668 1798 264
2308 1986 1444
1656 2202 2043
0 2438 2558
0 2689 3037
3161 1592 0
3148 1604 0
3092 1655 0
2971 1751 0
2764 1890 762
2425 2067 1557
1835 2272 2115
0 2500 2611
0 2743 3078
3315 1803 0
3303 1813 0
3250 1856 0
3138 1938 0
2947 2060 1183
2642 2219 1757
2139 2407 2252
1013 2618 2714
0 2848 3161
3541 2081 0
3530 2090 0
3482 2125 636
3381 2194 1145
3210 2298 1592
2943 2435 2024
2527 2602 2448
1797 2793 2868
0 3005 3287
3832 2405 1312
3822 2412 1346
3779 2441 1478
3689 2498 1705
3539 2585 1998
3309 2703 2334
2965 2849 2694
2429 3019 3069
1362 3210 3455
4095 2757 1930
4095 2763 1950
4095 2787 2032
4049 2834 2186
3918 2908 2403
3720 3008 2671
3434 3135 2978
3016 3285 3310
2358 3456 3662
4095 3128 2446
4095 3132 2460
4095 3152 2520
4095 3192 2635
4095 3255 2807
4095 3341 3028
3921 3451 3289
3583 3583 3583
3097 3736 3902
4095 3510 2919
4095 3514 2930
4095 3531 2977
4095 3565 3069
4095 3619 3210
4095 3694 3396
4095 3790 3621
4095 3906 3881
3754 4042 4095
3501 1649 0
3489 1660 0
3440 1708 0
3337 1800 0
3163 1935 0
2890 2107 1004
2461 2307 1810
1688 2530 2394
0 2770 2909
3516 1674 0
3505 1685 0
3456 1732 0
3355 1822 0
3182 1955 0
2911 2124 1049
2487 2323 1830
1731 2544 2407
0 2782 2920
3582 1775 0
3572 1786 0
3524 1829 0
3425 1913 0
3258 2038 0
2997 2198 1217
2592 2388 1913
1901 2602 2465
0 2833 2964
3713 1960 0
3702 1969 0
3657 2007 0
3563 2081 0
3405 2192 514
3161 2338 1484
2791 2514 2068
2192 2714 2576
575 2933 3051
3908 2212 0
3898 2220 0
3856 2252 0
3769 2315 367
3624 2412 1266
3402 2541 1807
3073 2699 2287
2569 2882 2741
1647 3085 3183
4095 2513 822
4095 2519 884
4095 2546 1101
4037 2600 1416
3906 2683 1777
3708 2795 2161
3420 2934 2554
2999 3098 2955
2334 3283 3359
4095 2847 1697
4095 2852 1720
4095 2875 1817
4095 2921 1994
4095 2992 2237
4065 3088 2531
3815 3210 2857
3462 3356 3207
2947 3522 3573
4095 3203 2284
4095 3208 2300
4095 3227 2365
4095 3266 2491
4095 3327 2675
4095 3410 2910
4095 3517 3185
3944 3646 3491
3529 3795 3820
4095 3574 2795
4095 3578 2806
4095 3595 2857
4095 3628 2954
4095 3681 3102
4095 3754 3296
4095 3848 3531
4095 3962 3799
4095 4095 4095
