Creative/ColorHarmony - Yellow Purple.3dl
#25pt 3DLUT created by 3D LUT Creator Pro (c) Oleg Sharonov
#Copyright Oleg Sharonov
#IMAGEPROFILE 
#INPUTGAMMA 
#OUTPUTGAMMA 
0 128 256 384 512 640 768 896 1023
0 0 0
123 0 180
358 0 460
599 0 742
809 0 989
1004 0 1218
1202 0 1451
1406 0 1688
1614 0 1933
386 434 299
497 94 862
673 0 1008
796 3 1111
928 32 1246
1097 16 1431
1275 0 1632
1460 0 1842
1655 0 2067
812 891 665
781 620 1119
883 248 1441
1071 61 1614
1207 0 1719
1341 0 1842
1481 39 1984
1634 103 2147
1814 94 2348
1237 1349 1030
1237 1180 1505
1142 764 1757
1299 425 2067
1500 243 2264
1663 29 2400
1802 0 2515
1950 0 2656
2106 39 2817
1662 1807 1395
1632 1779 1747
1608 1373 2157
1556 899 2478
1774 627 2782
1991 434 3001
2175 195 3162
2339 0 3303
2491 0 3436
2088 2265 1759
2033 2265 2018
2096 1960 2584
2033 1590 2880
2080 1125 3300
2329 863 3615
2563 647 3858
2765 443 4041
2942 271 4095
2513 2723 2124
2457 2723 2369
2566 2533 2971
2543 2220 3333
2552 1847 3746
2672 1481 4095
2801 1491 4095
2915 1569 4095
3012 1679 4095
2938 3181 2489
2886 3180 2721
2916 3122 3161
3043 2822 3770
3063 2564 4095
3012 2399 4095
3042 2353 4095
3136 2398 4095
3230 2477 4095
3363 3638 2854
3314 3637 3076
3293 3632 3293
3512 3405 4095
3517 3305 4095
3494 3228 4095
3471 3175 4095
3522 3204 4095
3593 3270 4095
431 68 3
423 55 394
583 0 617
764 0 835
946 0 1050
1127 0 1269
1314 0 1494
1508 0 1726
1710 0 1966
695 546 0
512 512 512
697 376 804
855 278 1015
1018 212 1218
1188 161 1423
1367 119 1637
1554 81 1860
1752 42 2093
974 912 336
874 933 772
900 668 1217
1046 482 1450
1197 370 1626
1343 320 1785
1491 312 1948
1660 284 2138
1846 238 2350
1351 1366 758
1276 1375 1097
1222 995 1678
1300 779 1896
1478 602 2131
1647 448 2311
1801 360 2466
1952 326 2622
2110 332 2789
1718 1828 1194
1689 1826 1442
1673 1526 2102
1597 1107 2387
1760 924 2632
1965 749 2882
2154 570 3076
2326 436 3243
2491 360 3405
2132 2283 1570
2107 2279 1795
2136 2083 2505
2067 1703 2824
2082 1286 3203
2300 1116 3471
2531 923 3743
2740 744 3954
2935 563 4095
2555 2738 1936
2528 2734 2152
2567 2648 2788
2565 2300 3278
2563 1943 3674
2687 1566 4095
2822 1567 4095
2931 1629 4095
3028 1722 4095
2978 3194 2303
2951 3190 2512
2889 3185 2889
3051 2883 3703
3086 2606 4095
3034 2444 4095
3060 2391 4095
3155 2436 4095
3243 2510 4095
3402 3650 2670
3374 3646 2873
3290 3646 3246
3508 3443 4076
3531 3330 4095
3508 3254 4095
3487 3199 4095
3535 3226 4095
3605 3292 4095
888 235 13
807 295 347
862 186 812
994 6 1020
1129 0 1196
1289 0 1390
1469 0 1602
1663 0 1828
1855 0 2058
1132 670 0
979 569 489
937 527 900
1098 337 1134
1246 248 1326
1399 206 1517
1563 198 1713
1739 171 1927
1925 116 2155
1353 1099 0
1217 1055 620
1024 1024 1024
1200 867 1324
1339 727 1534
1483 627 1728
1642 556 1930
1812 500 2138
1992 454 2357
1548 1397 365
1512 1407 702
1372 1438 1262
1406 1196 1728
1515 991 1970
1655 844 2169
1808 754 2357
1965 703 2540
2127 681 2727
1923 1839 860
1887 1849 1045
1758 1871 1559
1721 1467 2245
1804 1326 2432
1962 1143 2696
2137 977 2917
2311 862 3119
2484 786 3310
2300 2293 1273
2258 2302 1431
2159 2314 1884
2168 1963 2703
2129 1594 3032
2297 1499 3240
2499 1317 3532
2703 1149 3779
2903 1004 4001
2672 2751 1708
2621 2762 1852
2571 2761 2223
2627 2502 3127
2616 2159 3535
2691 1838 3946
2881 1753 4095
2982 1761 4095
3070 1824 4095
3037 3214 2144
3017 3218 2236
2985 3213 2570
3070 3042 3494
3116 2747 4012
3092 2560 4095
3109 2494 4095
3202 2532 4095
3282 2586 4095
3440 3671 2531
3438 3671 2597
3401 3665 2922
3378 3612 3644
3562 3394 4095
3546 3314 4095
3527 3263 4095
3568 3282 4095
3636 3346 4095
1354 428 29
1324 401 379
1197 535 835
1283 345 1215
1386 68 1401
1523 0 1583
1668 0 1766
1835 0 1968
2020 0 2185
1523 743 0
1423 667 477
1304 714 854
1344 591 1282
1465 360 1485
1610 245 1678
1763 168 1872
1928 126 2072
2104 123 2282
1824 1282 0
1710 1213 562
1495 1070 999
1454 1025 1412
1622 809 1658
1771 687 1859
1920 609 2052
2078 563 2247
2246 542 2449
1972 1618 0
1885 1590 642
1714 1546 1145
1536 1536 1536
1720 1380 1855
1866 1224 2089
2007 1098 2293
2161 1002 2497
2329 930 2712
2124 1884 304
2100 1891 684
2041 1908 1160
1877 1946 1761
1944 1741 2270
2041 1531 2535
2183 1369 2766
2334 1252 2974
2500 1175 3183
2494 2320 928
2473 2326 1098
2415 2342 1429
2251 2373 2040
2260 1997 2827
2358 1901 3009
2511 1718 3308
2693 1547 3572
2884 1417 3816
2871 2766 1383
2850 2772 1497
2787 2789 1753
2643 2809 2348
2703 2464 3314
2717 2169 3695
2887 2117 3882
3060 1980 4095
3135 2000 4095
3249 3220 1796
3226 3226 1882
3151 3242 2150
3043 3252 2673
3156 2983 3752
3187 2736 4095
3184 2656 4095
3277 2689 4095
3343 2719 4095
3624 3677 2220
3597 3683 2312
3509 3701 2561
3453 3699 3009
3592 3512 4095
3608 3417 4095
3593 3367 4095
3624 3377 4095
3690 3435 4095
1815 618 52
1793 556 358
1679 696 735
1610 750 1369
1710 505 1622
1802 206 1803
1940 3 1993
2076 0 2170
2235 0 2366
1934 845 0
1869 798 477
1786 810 811
1682 887 1383
1756 692 1673
1859 430 1864
1999 280 2057
2156 161 2257
2322 78 2462
2176 1298 0
2113 1252 479
1946 1142 977
1821 1179 1380
1858 1056 1787
1995 810 2011
2141 682 2210
2294 592 2409
2455 530 2612
2439 1850 0
2364 1804 600
2204 1709 1095
2005 1574 1507
1976 1537 1930
2166 1312 2203
2329 1171 2424
2486 1067 2631
2648 995 2836
2556 2109 0
2503 2094 627
2378 2066 1193
2208 2039 1655
2048 2048 2048
2252 1906 2393
2412 1747 2655
2568 1612 2888
2729 1501 3112
2726 2393 284
2698 2391 661
2639 2391 1136
2564 2413 1651
2383 2456 2265
2481 2285 2812
2596 2093 3119
2747 1928 3388
2921 1806 3643
3067 2805 955
3052 2809 1124
3014 2820 1450
2939 2842 1868
2749 2878 2531
2823 2553 3418
2935 2490 3604
3102 2320 3951
3242 2224 4095
3442 3246 1463
3428 3250 1569
3390 3260 1805
3307 3283 2151
3131 3310 2824
3267 3005 3933
3283 2859 4095
3381 2886 4095
3435 2889 4095
3819 3694 1905
3805 3698 1984
3765 3709 2169
3671 3731 2505
3528 3748 3137
3682 3553 4095
3678 3499 4095
3696 3500 4095
3760 3553 4095
2269 807 84
2256 735 396
2203 792 783
2051 958 1176
2041 929 1817
2142 669 2035
2237 372 2221
2364 97 2408
2511 0 2600
2352 999 0
2313 946 484
2279 896 843
2121 1054 1199
2090 1045 1866
2177 815 2074
2280 542 2268
2412 347 2460
2574 195 2668
2543 1358 0
2507 1318 434
2386 1237 963
2280 1265 1283
2195 1305 1941
2269 1123 2173
2396 865 2391
2534 711 2589
2692 605 2796
2781 1838 0
2743 1808 468
2624 1746 1014
2464 1635 1483
2340 1666 1907
2383 1550 2305
2554 1303 2566
2715 1159 2787
2876 1052 2999
2978 2318 0
2933 2306 595
2824 2270 1139
2676 2187 1599
2515 2080 2015
2494 2050 2449
2724 1838 2762
2907 1687 3010
3080 1569 3236
3115 2578 0
3082 2571 596
2994 2558 1196
2865 2545 1719
2706 2536 2163
2559 2559 2559
2785 2435 2930
2967 2284 3225
3149 2154 3499
3319 2891 293
3299 2891 678
3250 2892 1156
3172 2896 1639
3083 2921 2152
2888 2967 2772
3019 2828 3353
3165 2666 3711
3347 2518 4035
3643 3291 941
3631 3295 1115
3601 3303 1451
3547 3319 1874
3460 3344 2335
3250 3386 3027
3401 3126 4015
3500 3108 4095
3545 3091 4095
4014 3728 1516
4003 3731 1619
3975 3739 1847
3923 3754 2180
3827 3781 2586
3629 3813 3309
3774 3651 4095
3784 3642 4095
3843 3690 4095
2720 993 126
2716 919 448
2694 919 802
2551 1093 1128
2443 1197 1670
2477 1099 2234
2583 835 2456
2686 541 2653
2808 245 2841
2775 1163 0
2755 1105 496
2737 1028 820
2619 1163 1175
2495 1276 1682
2516 1194 2273
2613 954 2488
2723 677 2693
2849 440 2885
2927 1443 0
2907 1407 420
2822 1352 956
2774 1326 1313
2612 1463 1705
2603 1417 2359
2689 1216 2571
2818 956 2793
2954 765 2997
3128 1870 0
3113 1843 369
3027 1798 957
2900 1708 1458
2790 1743 1779
2719 1759 2480
2802 1601 2696
2968 1348 2956
3121 1181 3175
3327 2342 0
3304 2323 457
3225 2284 1030
3102 2223 1521
2972 2131 1987
2858 2162 2431
2917 2062 2836
3124 1819 3133
3315 1674 3388
3483 2745 0
3457 2740 542
3383 2728 1123
3266 2713 1638
3140 2657 2086
3025 2588 2523
3013 2565 2969
3286 2374 3324
3496 2227 3603
3656 3031 0
3635 3029 554
3574 3026 1179
3475 3023 1733
3351 3026 2231
3208 3037 2672
3071 3071 3071
3316 2963 3464
3527 2832 3798
3895 3375 289
3880 3376 681
3844 3380 1171
3782 3388 1673
3699 3402 2159
3600 3429 2658
3397 3479 3280
3556 3369 3892
3673 3295 4095
4095 3777 1768
4095 3781 1351
4095 3789 1513
4095 3801 1863
4075 3820 2334
3978 3849 2817
3756 3894 3527
3888 3795 4095
3933 3832 4095
3166 1177 177
3172 1103 499
3156 1082 769
3080 1186 1183
2916 1366 1545
2848 1420 2190
2918 1271 2655
3035 1006 2887
3152 714 3101
3202 1330 0
3195 1270 513
3190 1185 824
3136 1247 1231
2966 1428 1566
2888 1487 2199
2949 1351 2687
3060 1105 2915
3183 827 3135
3328 1545 0
3313 1530 396
3256 1481 954
3242 1419 1315
3084 1573 1628
2980 1649 2214
3023 1541 2761
3125 1331 2985
3263 1069 3219
3488 1930 0
3488 1904 304
3426 1868 921
3334 1800 1441
3279 1794 1792
3122 1908 2226
3130 1843 2871
3228 1675 3097
3396 1424 3361
3668 2359 0
3664 2342 295
3607 2316 942
3514 2271 1461
3417 2194 1961
3305 2233 2284
3245 2233 2996
3340 2099 3227
3558 1864 3538
3822 2810 0
3807 2799 460
3757 2776 1030
3675 2740 1540
3582 2701 2019
3480 2631 2491
3375 2664 2951
3454 2582 3368
3713 2360 3718
3974 3160 0
3959 3158 475
3908 3156 1088
3824 3153 1628
3716 3158 2124
3611 3131 2572
3536 3096 3033
3533 3082 3489
3847 2914 3884
4095 3474 0
4095 3475 503
4095 3478 1152
4056 3484 1725
3961 3496 2257
3842 3514 2740
3713 3541 3181
3583 3583 3583
3845 3491 3996
4095 3857 2960
4095 3859 3006
4095 3864 3007
4095 3872 3055
4095 3886 3031
4095 3906 3130
4095 3938 3167
3907 3990 3789
4016 3967 4095
3608 1360 228
3622 1288 548
3614 1259 785
3583 1298 1221
3425 1490 1524
3297 1619 2010
3261 1633 2724
3365 1444 3082
3498 1181 3329
3629 1498 0
3633 1438 533
3644 1350 865
3622 1364 1248
3473 1539 1557
3336 1673 2022
3293 1691 2733
3391 1513 3109
3520 1266 3354
3729 1682 0
3721 1674 360
3689 1621 956
3692 1541 1281
3590 1653 1654
3429 1803 2050
3369 1832 2748
3454 1678 3173
3575 1463 3413
3863 2010 0
3870 1985 273
3828 1953 904
3763 1906 1431
3754 1862 1804
3579 2013 2112
3488 2064 2756
3552 1948 3272
3669 1772 3514
4016 2403 0
4027 2385 132
3986 2366 877
3919 2331 1417
3843 2268 1935
3787 2280 2280
3638 2374 2754
3664 2304 3394
3782 2168 3641
4095 2821 0
4095 2810 228
4095 2796 920
4069 2774 1457
3989 2740 1953
3924 2685 2461
3820 2730 2794
3771 2721 3517
3890 2618 3772
4095 3265 1295
4095 3258 1296
4095 3244 1446
4095 3219 1670
4095 3191 2031
4049 3172 2505
3988 3133 2997
3891 3168 3470
3990 3106 3900
4095 3612 2486
4095 3611 2486
4095 3610 2488
4095 3611 2571
4095 3609 2578
4095 3615 2696
4091 3613 3061
4047 3606 3543
4054 3600 4009
4095 3964 3627
4095 3967 3654
4095 3970 3657
4095 3977 3688
4095 3988 3722
4095 4005 3786
4095 4027 3852
4095 4057 3947
4095 4095 4095
