Creative/ColorHarmony - Blue Orange.3dl
#25pt 3DLUT created by 3D LUT Creator Pro (c) Oleg Sharonov
#Copyright Oleg Sharonov
#IMAGEPROFILE sRGB IEC61966-2.1 v.2.10
#INPUTGAMMA sRGB IEC61966-2.1 v.2.10
#OUTPUTGAMMA sRGB IEC61966-2.1 v.2.10
0 256 512 768 1023
0 0 0
16 78 847
71 293 1728
177 527 2609
302 760 3489
1297 711 430
586 925 1345
0 934 2376
0 973 3195
0 1076 4000
2545 1478 968
2011 1706 1620
1251 1868 2632
339 1899 3748
1114 1946 4095
3793 2245 1505
3454 2393 2193
2386 2757 2847
1915 2811 3919
2161 2866 4095
4095 3370 3135
4095 3371 3245
4095 3411 3241
3042 3714 4067
3459 3702 4095
937 116 100
522 484 735
606 609 1535
704 740 2486
783 886 3451
1322 913 0
1024 1024 1024
998 1048 1974
982 1111 2858
991 1219 3710
2623 1559 0
2356 1668 1418
1567 1908 2417
1212 1937 3501
1348 1977 4095
3947 2252 370
3666 2371 1833
2570 2775 2644
2137 2833 3777
2250 2890 4095
4095 3404 3094
4095 3409 3188
4095 3437 3303
3139 3727 4022
3497 3723 4095
1892 386 351
1491 813 862
1137 1066 1524
1196 1195 2253
1308 1316 3142
2048 1024 0
1980 1066 1055
1423 1369 1740
1447 1447 2528
1515 1529 3415
2590 1846 0
2420 1909 1205
2048 2048 2048
2022 2064 3016
1997 2099 3940
3874 2476 0
3752 2530 1266
3378 2673 2446
2589 2914 3439
2528 2964 4095
4095 3508 3161
4095 3518 3200
4095 3539 3364
3415 3778 3828
3604 3791 4095
2845 662 610
2549 1035 1091
2053 1435 1562
1750 1648 2312
1794 1782 2984
3072 1023 0
2915 1173 1147
2317 1620 1710
1934 1841 2461
1959 1951 3164
3071 2048 0
3071 2048 1023
3013 2074 2065
2410 2351 2774
2410 2409 3582
3858 2779 0
3759 2817 1211
3456 2927 2295
3071 3071 3071
3046 3086 4048
4095 3688 3366
4095 3696 3388
4095 3723 3464
4095 3769 3670
3806 3914 4095
3799 937 868
3590 1232 1285
3085 1711 1799
2623 2037 2341
2363 2229 3099
4056 1084 171
3853 1332 1288
3308 1829 1902
2796 2173 2427
2494 2366 3207
4095 2047 0
4095 2047 1024
3957 2137 2116
3284 2547 2673
2861 2754 3477
4095 3071 0
4095 3071 1024
4095 3071 2048
4042 3093 3085
3417 3357 3807
4095 3935 3756
4095 3943 3776
4095 3969 3824
4095 4018 3930
4095 4095 4095
