Creative/ColorHarmony - Orange Teal.3dl
#25pt 3DLUT created by 3D LUT Creator Pro (c) Oleg Sharonov
#Copyright Oleg Sharonov
#IMAGEPROFILE 
#INPUTGAMMA 
#OUTPUTGAMMA 
0 256 512 768 1023
0 0 0
3 203 458
6 556 1018
19 907 1578
39 1259 2139
152 973 894
0 1004 1199
0 1107 1616
0 1304 2016
0 1558 2462
455 1956 1814
0 1976 2019
0 2011 2367
0 2088 2819
0 2229 3194
763 2938 2733
0 2957 2929
0 2982 3129
0 3019 3534
0 3083 4015
1071 3920 3651
362 3939 3840
0 3956 4021
1431 3943 4095
2913 3830 4095
918 152 0
464 493 783
393 713 1296
451 1000 1770
531 1316 2279
840 1039 808
1024 1024 1024
804 1155 1638
669 1352 2103
599 1598 2562
1062 1978 1686
1084 1982 1872
1119 2011 2269
822 2112 2806
501 2263 3253
1339 2947 2562
1233 2954 2767
975 2989 3096
1098 3020 3481
921 3094 3991
1632 3923 3457
1425 3932 3677
885 3966 3998
1708 3948 4095
2999 3843 4095
1856 462 0
1509 808 806
1031 1084 1611
906 1282 2175
904 1532 2627
1897 1088 797
1965 1082 975
1346 1384 1800
1192 1538 2393
1137 1748 2846
1713 2076 1655
1801 2069 1760
2048 2048 2048
1813 2163 2725
1616 2317 3255
1921 3001 2537
1984 2999 2597
2081 3001 2879
2182 3022 3298
1883 3127 3896
2164 3957 3410
2210 3957 3452
2177 3966 3751
2086 3997 4095
3204 3891 4095
2793 771 0
2682 928 845
1998 1466 1505
1596 1674 2438
1439 1861 3051
2844 1234 521
2882 1219 944
2290 1639 1646
1798 1866 2572
1629 2032 3194
2870 2078 1724
2903 2080 1778
3000 2087 1996
2328 2368 2835
2148 2494 3497
2586 3113 2502
2640 3108 2567
2801 3095 2757
3071 3071 3071
2834 3180 3777
2799 4028 3386
2840 4027 3429
2962 4023 3556
3092 4023 3893
3589 3973 4095
3730 1081 0
3807 994 697
3137 1689 1679
2516 2062 2480
2162 2263 3265
3762 1449 0
3803 1415 924
3388 1790 1766
2693 2209 2475
2304 2399 3363
3804 2187 1608
3834 2187 1647
3926 2172 1952
3232 2575 2605
2708 2783 3597
3808 3092 2625
3839 3090 2664
3918 3092 2774
4029 3105 3019
3332 3375 3867
3570 4095 3487
3604 4095 3527
3678 4095 3612
3843 4095 3805
4095 4095 4095
