Creative/ColorShaping-Emerald.3dl
#25pt 3DLUT created by 3D LUT Creator Pro (c) Oleg Sharonov
#Copyright Oleg Sharonov
#IMAGEPROFILE sRGB IEC61966-2.1 v.2.10
#INPUTGAMMA sRGB IEC61966-2.1 v.2.10
#OUTPUTGAMMA sRGB IEC61966-2.1 v.2.10
0 128 256 384 512 640 768 896 1023
0 0 0
0 0 494
0 0 977
0 0 1441
0 0 1862
142 356 2215
528 802 2486
802 1182 2679
994 1474 2807
0 443 379
0 452 562
0 448 984
0 411 1444
0 460 1864
0 672 2217
391 985 2489
695 1304 2685
901 1562 2815
0 893 782
0 892 846
0 904 1080
0 935 1449
0 948 1861
0 1053 2211
276 1253 2484
610 1489 2683
823 1693 2816
0 1340 1174
0 1340 1213
0 1316 1305
0 1342 1566
0 1403 1861
0 1451 2202
195 1568 2474
548 1722 2674
757 1862 2809
0 1782 1541
0 1782 1567
0 1772 1625
0 1697 1769
0 1752 1988
0 1823 2202
240 1880 2466
543 1967 2663
724 2046 2796
0 2217 1865
0 2216 1883
0 2205 1923
0 2167 1992
0 2072 2162
0 2111 2328
427 2159 2465
616 2194 2652
738 2223 2779
0 2633 2138
0 2630 2151
0 2616 2178
0 2579 2225
0 2488 2299
0 2383 2464
0 2389 2576
699 2388 2652
802 2379 2757
0 3010 2359
0 3006 2369
0 2987 2389
0 2944 2421
0 2864 2467
0 2695 2540
0 2601 2670
145 2563 2728
795 2514 2754
0 3327 2531
0 3321 2539
0 3298 2553
0 3250 2575
0 3166 2603
0 3033 2640
0 2790 2725
0 2719 2784
374 2649 2804
516 29 0
398 183 538
252 165 1030
155 78 1477
174 161 1887
416 467 2233
684 845 2501
919 1200 2693
1093 1482 2822
155 531 422
512 512 512
437 437 1012
356 363 1472
343 389 1884
452 595 2234
566 852 2513
830 1223 2698
1016 1509 2821
0 944 811
0 955 876
94 943 1089
155 942 1476
132 950 1884
230 1052 2233
337 1245 2512
650 1491 2703
857 1700 2831
0 1376 1193
0 1389 1238
0 1369 1325
0 1369 1576
0 1417 1882
19 1462 2226
248 1576 2499
579 1733 2694
783 1876 2825
0 1811 1552
0 1824 1585
0 1813 1643
0 1728 1768
0 1775 2002
0 1839 2226
282 1895 2486
569 1982 2681
745 2062 2813
0 2242 1872
0 2256 1898
0 2245 1939
0 2206 2009
0 2098 2181
0 2131 2346
457 2175 2483
639 2210 2669
758 2240 2795
0 2655 2143
0 2677 2166
0 2659 2198
0 2617 2244
0 2521 2316
0 2404 2480
0 2407 2591
727 2404 2667
823 2396 2773
0 3031 2363
0 3046 2379
0 3025 2404
0 2979 2436
0 2895 2483
0 2724 2554
0 2620 2685
203 2581 2744
821 2531 2770
0 3348 2537
0 3358 2548
0 3333 2567
0 3283 2589
0 3197 2617
0 3060 2655
0 2811 2739
0 2738 2800
412 2668 2820
1030 100 0
1040 0 489
833 472 1065
677 564 1560
662 604 1952
770 770 2281
959 1033 2539
1142 1330 2728
1282 1585 2858
1021 579 0
1028 540 474
892 679 1052
772 711 1546
749 725 1946
828 841 2282
940 1033 2555
1124 1337 2738
1265 1593 2864
452 1047 867
650 1049 917
1024 1024 1024
981 987 1490
969 1004 1893
1009 1114 2231
1083 1306 2503
1128 1510 2723
1106 1655 2881
0 1493 1264
0 1483 1289
367 1469 1365
765 1439 1586
836 1467 1914
873 1528 2244
919 1651 2518
908 1794 2743
897 1928 2892
0 1902 1596
0 1908 1623
0 1898 1679
0 1848 1779
615 1832 2016
824 1890 2255
848 1959 2525
713 2043 2754
837 2128 2880
0 2326 1905
0 2336 1927
0 2324 1968
0 2287 2037
0 2158 2186
518 2190 2373
804 2237 2540
729 2277 2739
841 2310 2862
0 2734 2170
0 2755 2190
0 2740 2222
0 2703 2273
0 2621 2352
0 2480 2525
0 2481 2657
842 2471 2730
904 2467 2841
0 3108 2390
0 3124 2402
0 3138 2442
0 3101 2483
0 3027 2541
0 2847 2614
0 2700 2748
384 2654 2808
924 2603 2836
0 3424 2566
0 3437 2575
0 3487 2616
0 3427 2647
0 3328 2677
0 3179 2715
0 2899 2796
0 2819 2866
547 2747 2890
1546 206 0
1551 87 414
1574 0 1017
1279 798 1567
1147 1030 2035
1186 1154 2353
1319 1335 2602
1457 1565 2790
1563 1782 2926
1540 618 0
1545 578 396
1563 442 1010
1316 931 1560
1205 1117 2023
1233 1214 2348
1327 1353 2612
1451 1570 2799
1555 1788 2932
1433 1078 411
1504 1083 490
1544 1041 992
1402 1196 1546
1332 1298 1987
1368 1370 2313
1441 1509 2578
1491 1677 2796
1511 1817 2957
838 1534 1296
955 1536 1328
1193 1542 1409
1536 1536 1536
1520 1553 1922
1530 1632 2246
1555 1766 2512
1560 1919 2734
1473 2030 2930
0 2039 1677
0 2039 1699
518 2024 1743
1053 1988 1831
1355 1929 2042
1412 1987 2302
1413 2076 2561
1369 2181 2782
1161 2262 2985
0 2462 1962
0 2465 1978
0 2452 2019
0 2416 2089
1015 2317 2202
1279 2281 2412
1376 2333 2597
1262 2401 2815
991 2449 2993
0 2872 2221
0 2886 2237
0 2870 2271
0 2832 2324
0 2755 2405
950 2575 2565
1097 2584 2717
1102 2600 2853
1050 2608 2974
0 3246 2443
0 3261 2453
0 3271 2491
0 3233 2534
0 3162 2596
0 3029 2685
0 2855 2862
624 2799 2935
1113 2741 2965
0 3566 2625
0 3577 2633
0 3629 2668
0 3628 2721
0 3565 2773
0 3427 2832
0 3141 2897
0 2978 2997
755 2901 3026
2067 280 0
2071 183 269
2082 0 968
2037 113 1536
1745 1180 2023
1644 1531 2438
1722 1707 2699
1835 1870 2892
1915 2047 3037
2064 647 0
2068 607 245
2078 492 960
2082 302 1536
1769 1267 2021
1683 1588 2433
1744 1734 2700
1834 1875 2899
1912 2052 3042
2058 1122 0
2061 1103 168
2069 1053 941
2086 946 1526
1828 1458 2017
1774 1718 2421
1829 1830 2679
1882 1955 2897
1895 2076 3064
1841 1546 929
1886 1554 973
1999 1570 1077
2065 1539 1506
1923 1730 2021
1899 1889 2386
1944 1979 2644
1965 2102 2863
1916 2200 3062
1342 1965 1703
1409 1968 1728
1559 1978 1790
1777 2005 1897
2048 2048 2048
2043 2119 2334
2039 2226 2584
2012 2346 2800
1914 2447 2999
314 2543 2039
550 2546 2058
898 2553 2105
1268 2558 2182
1639 2502 2282
1917 2407 2473
1929 2478 2678
1845 2571 2889
1635 2653 3093
0 3029 2313
0 3035 2326
0 3028 2355
0 2998 2409
959 2928 2492
1607 2774 2614
1777 2715 2797
1757 2752 2954
1334 2823 3170
0 3435 2530
0 3449 2539
0 3447 2574
0 3409 2621
0 3341 2687
320 3225 2777
1344 2998 2948
1237 2996 3098
1370 2947 3165
0 3766 2724
0 3777 2731
0 3824 2760
0 3820 2812
0 3762 2868
0 3672 2945
0 3503 3060
0 3225 3198
994 3133 3235
2597 252 0
2600 149 0
2607 0 896
2620 0 1500
2465 819 2024
2226 1602 2440
2135 2018 2812
2237 2227 3055
2314 2355 3214
2596 631 0
2598 591 0
2605 477 888
2617 158 1496
2485 917 2027
2242 1660 2441
2161 2055 2811
2240 2231 3061
2314 2359 3218
2592 1110 0
2595 1090 0
2600 1039 868
2610 944 1485
2541 1099 2037
2282 1795 2447
2223 2146 2811
2298 2298 3054
2312 2376 3237
2571 1607 0
2590 1604 0
2594 1576 828
2600 1527 1465
2607 1451 2040
2350 2003 2463
2328 2291 2816
2376 2391 3037
2356 2470 3239
2292 1990 1343
2322 1999 1376
2396 2019 1459
2522 2049 1602
2589 2036 2019
2443 2264 2497
2447 2447 2804
2460 2528 3014
2407 2610 3214
1892 2344 2113
1931 2351 2132
2024 2368 2181
2169 2404 2267
2350 2467 2393
2559 2559 2559
2541 2657 2768
2496 2762 2964
2382 2860 3157
1193 3010 2399
1260 3015 2416
1410 3027 2459
1630 3050 2535
1885 3077 2640
2175 3007 2741
2422 2877 2912
2361 2947 3087
2113 3048 3296
0 3577 2685
0 3582 2696
0 3579 2723
55 3572 2766
960 3538 2828
1531 3442 2915
2041 3244 3043
2093 3171 3228
1786 3217 3422
0 3988 2879
0 4000 2884
0 4053 2905
0 4028 2954
0 3979 3011
0 3904 3087
0 3779 3197
1014 3527 3430
1235 3436 3518
3136 0 0
3138 0 0
3143 0 793
3150 0 1447
3158 0 2028
2910 1302 2481
2706 2025 2849
2620 2462 3204
2726 2706 3476
3136 517 0
3138 471 0
3142 334 784
3148 0 1442
3155 0 2025
2923 1362 2486
2718 2066 2853
2634 2491 3208
2727 2710 3480
3135 1049 0
3136 1028 0
3140 978 761
3145 885 1431
3150 736 2017
2958 1499 2501
2747 2163 2865
2669 2562 3219
2757 2749 3485
3133 1574 0
3134 1563 0
3136 1535 718
3139 1488 1410
3142 1420 2004
3026 1689 2531
2797 2322 2888
2745 2674 3234
2810 2811 3481
3031 2043 553
3052 2048 651
3104 2059 852
3132 2047 1378
3131 2008 1983
3126 1960 2553
2868 2534 2928
2856 2826 3259
2873 2897 3474
2776 2422 1709
2796 2430 1737
2847 2451 1808
2933 2485 1933
3053 2532 2113
3109 2538 2533
2960 2787 2988
2969 2970 3267
2929 3021 3460
2436 2735 2493
2460 2743 2509
2518 2765 2552
2613 2805 2627
2742 2868 2739
2895 2957 2887
3071 3071 3071
3022 3166 3234
2903 3263 3415
1780 3455 2791
1816 3461 2806
1903 3475 2843
2045 3502 2908
2232 3543 3004
2444 3591 3128
2661 3518 3219
2858 3362 3386
2629 3449 3594
416 4073 3077
560 4078 3090
818 4090 3125
1084 4095 3176
1246 4095 3223
1453 4095 3286
1793 4023 3379
2180 3816 3545
1457 3804 3874
3682 0 0
3683 0 0
3686 0 644
3689 0 1377
3690 0 1983
3690 0 2553
3362 1742 2928
3178 2425 3277
3090 2864 3632
3682 126 0
3683 32 0
3685 0 632
3688 0 1372
3689 0 1980
3688 0 2551
3372 1785 2935
3187 2455 3282
3100 2887 3637
3681 916 0
3682 895 0
3684 843 603
3686 748 1360
3686 599 1972
3684 336 2545
3397 1885 2951
3209 2530 3296
3126 2944 3650
3680 1495 0
3680 1485 0
3681 1459 547
3682 1415 1339
3681 1353 1958
3677 1274 2535
3443 2045 2980
3248 2657 3322
3172 3041 3674
3677 2045 0
3677 2039 0
3677 2023 449
3677 1998 1305
3674 1962 1937
3668 1918 2520
3520 2239 3027
3305 2831 3362
3249 3174 3707
3508 2472 1115
3522 2478 1169
3558 2494 1296
3620 2522 1498
3664 2533 1907
3655 2505 2499
3642 2472 3066
3379 3049 3419
3366 3336 3746
3262 2857 2067
3277 2865 2093
3312 2884 2155
3374 2918 2264
3461 2967 2421
3574 3029 2626
3625 3046 3045
3472 3302 3493
3473 3475 3768
2935 3156 2873
2950 3165 2888
2990 3186 2927
3056 3225 2995
3151 3283 3095
3272 3362 3228
3417 3462 3391
3583 3583 3583
3481 3670 3740
2266 3899 3212
2290 3905 3224
2349 3920 3256
2451 3947 3310
2595 3989 3389
2775 4043 3497
2974 4095 3632
3045 4088 3722
2962 3972 4010
4095 0 0
4095 0 0
4095 0 394
4095 0 1288
4095 0 1927
4095 0 2512
4095 0 3049
3817 2149 3382
3642 2800 3728
4095 0 0
4095 0 0
4095 0 376
4095 0 1283
4095 0 1923
4095 0 2510
4095 0 3056
3825 2181 3388
3649 2825 3734
4095 680 0
4095 657 0
4095 596 326
4095 479 1270
4095 255 1916
4095 0 2505
4095 0 3071
3844 2260 3403
3667 2886 3748
4095 1378 0
4095 1369 0
4095 1345 214
4095 1304 1246
4095 1248 1901
4095 1175 2494
4095 1086 3063
3880 2392 3431
3699 2990 3772
4095 1971 0
4095 1965 0
4095 1952 0
4095 1929 1209
4095 1897 1879
4095 1858 2479
4095 1810 3051
3935 2569 3472
3745 3139 3809
4095 2503 0
4095 2509 0
4095 2522 0
4095 2508 1156
4095 2488 1849
4095 2462 2457
4095 2430 3034
4019 2771 3529
3808 3329 3860
3980 2914 1563
3991 2920 1602
4017 2937 1697
4064 2966 1854
4095 3007 2066
4095 3036 2429
4095 3013 3013
4095 2986 3579
3888 3555 3924
3728 3304 2445
3739 3311 2467
3765 3329 2521
3812 3360 2615
3880 3406 2751
3971 3466 2927
4085 3536 3142
4095 3557 3557
3983 3813 4003
3390 3598 3271
3402 3606 3285
3432 3625 3319
3483 3660 3380
3559 3711 3468
3658 3781 3586
3782 3868 3731
3928 3973 3901
4095 4095 4095
