Creative/ColorHarmony - Orange Teal (CMYK).3dl
#25pt 3DLUT created by 3D LUT Creator Pro (c) Oleg Sharonov
#Copyright Oleg Sharonov
#IMAGEPROFILE 
#INPUTGAMMA 
#OUTPUTGAMMA 
0 43 86 128 171 214 256 299 341 384 427 469 512 555 597 640 682 725 768 810 853 896 938 981 1023 
0 0 0
0 29 158
0 61 328
0 90 493
0 119 656
13 149 817
3 192 977
0 243 1135
0 280 1296
0 316 1461
0 356 1628
0 394 1795
0 434 1963
0 474 2130
0 513 2298
0 552 2465
0 591 2632
0 630 2799
0 669 2967
0 708 3134
0 747 3301
0 786 3468
0 825 3636
0 864 3803
0 902 3970
103 158 110
23 145 177
16 177 337
13 206 503
13 238 663
23 271 822
0 312 980
0 345 1139
0 381 1301
0 417 1465
0 455 1630
0 493 1795
0 530 1961
0 569 2127
0 606 2292
0 645 2459
0 683 2625
0 722 2791
0 760 2958
0 798 3124
0 837 3291
0 876 3458
0 914 3624
0 953 3791
0 992 3958
209 326 222
142 330 312
55 295 354
42 324 516
36 354 674
29 386 831
19 417 990
3 451 1150
0 485 1311
0 520 1473
0 556 1635
0 592 1798
0 628 1962
0 665 2126
0 702 2290
0 740 2455
0 777 2621
0 815 2786
0 852 2951
0 891 3117
0 928 3283
0 967 3449
0 1005 3615
0 1044 3781
0 1082 3948
326 490 345
262 494 430
186 490 504
84 443 540
65 474 696
61 503 854
52 533 1011
39 564 1170
19 596 1328
0 629 1488
0 662 1648
0 697 1809
0 732 1971
0 767 2133
0 803 2296
0 839 2459
0 876 2623
0 913 2787
0 950 2951
0 987 3116
0 1024 3281
0 1062 3446
0 1099 3611
0 1137 3776
0 1175 3942
437 657 464
372 661 547
306 664 630
214 641 686
100 595 720
97 623 877
87 652 1035
78 681 1192
61 712 1350
42 743 1508
19 775 1667
0 807 1826
0 841 1986
0 874 2146
0 909 2307
0 944 2469
0 979 2631
0 1015 2794
0 1051 2957
0 1087 3120
0 1123 3284
0 1160 3448
0 1197 3612
0 1234 3776
0 1272 3941
550 824 583
484 827 665
417 831 748
351 835 831
243 791 867
136 744 901
129 771 1058
123 800 1215
110 830 1372
90 859 1530
71 890 1687
42 921 1846
10 953 2004
0 986 2164
0 1019 2323
0 1052 2484
0 1087 2645
0 1121 2805
0 1156 2967
0 1191 3129
0 1227 3292
0 1262 3454
0 1298 3618
0 1335 3781
0 1371 3945
661 991 701
595 994 783
530 997 866
462 1001 948
379 987 1014
271 940 1047
177 894 1081
171 921 1239
161 949 1396
145 979 1553
126 1008 1710
103 1038 1868
74 1068 2026
39 1100 2184
0 1132 2342
0 1164 2502
0 1197 2661
0 1231 2821
0 1264 2982
0 1298 3143
0 1333 3304
0 1368 3465
0 1403 3627
0 1438 3790
0 1474 3952
773 1158 819
707 1161 902
641 1164 984
575 1167 1066
508 1170 1149
408 1137 1195
304 1090 1229
220 1043 1262
212 1070 1420
203 1098 1577
186 1127 1734
168 1156 1891
142 1186 2048
110 1216 2206
74 1247 2364
32 1279 2522
0 1311 2681
0 1343 2840
0 1375 2999
0 1409 3159
0 1442 3319
0 1476 3480
0 1510 3641
0 1545 3802
0 1580 3964
885 1325 938
819 1328 1020
752 1330 1102
686 1333 1184
619 1336 1267
546 1333 1343
436 1287 1376
336 1240 1409
262 1192 1443
252 1219 1600
243 1248 1757
230 1276 1914
212 1305 2071
186 1335 2229
155 1364 2386
113 1395 2544
71 1426 2702
19 1457 2860
0 1489 3019
0 1521 3178
0 1554 3337
0 1587 3497
0 1620 3657
0 1654 3817
0 1688 3978
997 1492 1057
931 1495 1139
864 1497 1221
798 1500 1303
731 1502 1385
663 1506 1467
572 1483 1524
464 1436 1557
370 1389 1590
302 1341 1624
295 1368 1781
284 1396 1938
271 1425 2095
252 1454 2252
230 1483 2409
201 1513 2566
161 1543 2724
116 1573 2882
65 1604 3040
6 1636 3198
0 1668 3357
0 1700 3516
0 1732 3675
0 1765 3834
0 1798 3994
1109 1659 1176
1043 1661 1257
976 1664 1339
909 1667 1421
842 1669 1503
775 1672 1585
708 1675 1667
600 1633 1705
496 1586 1738
406 1538 1771
343 1490 1805
336 1518 1962
326 1546 2119
312 1574 2276
295 1603 2433
273 1632 2590
248 1661 2747
212 1691 2904
168 1721 3062
116 1752 3220
55 1783 3378
0 1814 3536
0 1846 3695
0 1878 3854
0 1911 4013
1221 1825 1294
1154 1828 1376
1088 1831 1458
1021 1833 1539
954 1836 1621
887 1838 1703
819 1841 1785
738 1830 1853
628 1783 1886
527 1736 1919
442 1688 1952
384 1639 1985
376 1667 2142
367 1695 2300
354 1723 2456
337 1752 2614
318 1780 2771
293 1810 2928
262 1839 3085
222 1869 3242
174 1900 3400
110 1930 3558
42 1962 3716
0 1993 3874
0 2025 4033
1333 1993 1412
1266 1995 1494
1199 1997 1576
1133 2000 1658
1066 2002 1739
999 2005 1821
931 2008 1903
864 2010 1986
765 1979 2034
657 1933 2067
559 1885 2100
479 1837 2133
427 1789 2166
417 1816 2323
408 1844 2480
396 1872 2637
381 1901 2794
362 1929 2951
337 1958 3108
310 1988 3266
276 2018 3423
230 2048 3580
174 2078 3738
103 2109 3896
26 2140 4054
1444 2159 1531
1378 2162 1613
1312 2164 1694
1245 2167 1776
1177 2169 1858
1110 2172 1939
1043 2174 2021
975 2177 2104
904 2176 2182
793 2129 2215
687 2082 2248
593 2035 2281
517 1987 2314
468 1938 2347
460 1965 2504
451 1993 2661
437 2021 2818
423 2049 2975
406 2078 3132
383 2107 3289
356 2136 3446
326 2166 3603
287 2196 3761
238 2226 3918
174 2257 4076
1556 2326 1650
1490 2329 1731
1423 2331 1813
1356 2333 1895
1289 2336 1976
1222 2338 2058
1155 2341 2140
1087 2343 2222
1020 2346 2304
931 2326 2363
820 2279 2396
718 2232 2428
627 2184 2461
556 2136 2494
509 2087 2527
503 2114 2684
492 2142 2842
481 2170 2999
467 2198 3156
449 2227 3313
428 2256 3470
404 2285 3627
374 2314 3784
339 2344 3941
295 2374 4095
1668 2493 1768
1602 2496 1850
1535 2498 1931
1468 2500 2013
1401 2502 2095
1334 2505 2176
1266 2507 2258
1199 2510 2340
1132 2512 2422
1064 2515 2504
958 2476 2544
850 2429 2577
750 2381 2609
662 2334 2642
594 2285 2675
552 2237 2708
545 2264 2865
535 2291 3022
523 2319 3179
509 2347 3336
493 2376 3493
474 2405 3650
451 2433 3807
422 2463 3964
389 2492 4095
1780 2660 1887
1714 2663 1968
1647 2665 2050
1580 2667 2131
1513 2669 2213
1446 2672 2295
1378 2674 2376
1311 2677 2458
1244 2679 2540
1176 2682 2622
1097 2673 2692
985 2626 2725
880 2578 2757
783 2531 2790
698 2483 2823
633 2435 2856
594 2386 2889
587 2413 3046
577 2441 3203
566 2469 3360
553 2496 3517
537 2525 3674
518 2553 3831
496 2582 3988
583 2610 4095
1892 2827 2005
1825 2829 2087
1758 2831 2168
1692 2834 2250
1624 2836 2331
1558 2838 2413
1490 2841 2495
1423 2843 2577
1355 2846 2658
1287 2848 2740
1220 2851 2822
1123 2822 2873
1013 2775 2905
909 2728 2938
815 2680 2971
735 2632 3003
673 2584 3036
637 2535 3069
629 2562 3226
620 2590 3384
610 2617 3541
596 2645 3698
580 2674 3855
563 2703 4011
735 2728 4095
2004 2994 2124
1937 2996 2206
1870 2999 2287
1803 3001 2368
1736 3003 2450
1669 3005 2531
1602 3007 2613
1535 3010 2695
1467 3012 2777
1399 3015 2858
1332 3017 2940
1263 3019 3021
1150 2972 3054
1042 2925 3086
941 2878 3119
849 2830 3152
772 2782 3184
713 2733 3217
680 2684 3250
672 2711 3407
663 2739 3564
652 2767 3721
640 2795 3878
625 2823 4035
909 2844 4095
2116 3161 2242
2049 3163 2324
1982 3165 2406
1915 3168 2487
1848 3170 2568
1781 3172 2650
1714 3174 2731
1647 3177 2813
1579 3179 2895
1511 3181 2977
1444 3184 3059
1376 3187 3141
1289 3169 3202
1178 3122 3235
1071 3075 3267
973 3027 3300
884 2979 3332
810 2931 3365
754 2882 3398
723 2833 3431
715 2861 3588
706 2888 3745
696 2916 3902
683 2944 4059
1074 2960 4095
2227 3328 2361
2161 3330 2442
2094 3332 2524
2027 3334 2605
1960 3336 2687
1893 3339 2768
1826 3341 2850
1758 3343 2931
1691 3346 3013
1623 3348 3095
1555 3350 3177
1488 3353 3259
1420 3356 3341
1316 3319 3383
1206 3271 3415
1102 3224 3448
1005 3176 3480
919 3128 3513
848 3080 3546
795 3031 3578
765 2982 3611
758 3010 3768
749 3037 3926
739 3065 4083
1193 3077 4095
2339 3495 2479
2273 3497 2561
2206 3499 2642
2139 3501 2724
2072 3503 2805
2005 3506 2887
1937 3508 2968
1870 3510 3050
1802 3512 3131
1735 3515 3213
1667 3517 3295
1600 3520 3377
1532 3522 3459
1455 3515 3531
1343 3468 3564
1235 3421 3596
1132 3374 3628
1038 3326 3661
955 3278 3694
886 3230 3726
837 3181 3759
809 3131 3792
802 3159 3949
793 3186 4095
1348 3191 4095
2451 3662 2598
2385 3664 2679
2318 3666 2761
2251 3668 2842
2184 3670 2924
2117 3672 3005
2049 3675 3087
1982 3677 3168
1914 3679 3250
1847 3681 3332
1779 3684 3413
1712 3686 3495
1644 3689 3577
1576 3691 3659
1481 3665 3712
1371 3618 3744
1264 3571 3777
1163 3523 3809
1071 3475 3842
991 3427 3874
925 3379 3907
878 3330 3940
852 3281 3972
845 3308 4095
1510 3304 4095
2563 3828 2716
2496 3831 2798
2430 3833 2879
2363 3835 2961
2296 3837 3042
2229 3839 3124
2161 3841 3205
2094 3843 3287
2026 3846 3368
1959 3848 3450
1891 3850 3532
1823 3853 3613
1755 3855 3695
1688 3858 3777
1620 3860 3859
1508 3815 3893
1399 3768 3925
1294 3720 3957
1195 3673 3990
1106 3625 4022
1028 3576 4055
965 3528 4088
919 3479 4095
1092 3421 4095
1636 3418 4095
2675 3995 2835
2608 3998 2917
2541 4000 2998
2474 4002 3079
2408 4004 3161
2340 4006 3242
2273 4008 3324
2206 4010 3405
2138 4013 3487
2071 4015 3568
2003 4017 3650
1935 4019 3732
1868 4022 3813
1800 4024 3895
1732 4027 3977
1647 4012 4041
1535 3965 4073
1427 3917 4095
1344 3869 4095
1553 3801 4095
1587 3746 4095
1696 3686 4095
1702 3635 4095
1771 3580 4095
1823 3526 4095
165 13 0
94 55 97
113 90 257
119 123 428
132 158 591
149 195 751
132 240 912
103 284 1072
84 322 1236
68 360 1403
48 399 1572
26 439 1741
3 479 1911
0 518 2080
0 558 2250
0 599 2420
0 637 2590
0 677 2760
0 717 2931
0 756 3101
0 796 3272
0 835 3443
0 875 3614
0 914 3786
0 954 3957
171 165 48
171 171 171
168 206 332
165 238 494
168 269 654
158 306 812
136 341 970
119 376 1131
100 412 1293
81 449 1458
58 486 1622
29 525 1787
0 562 1953
0 600 2119
0 639 2284
0 676 2450
0 715 2617
0 753 2783
0 792 2949
0 831 3116
0 869 3282
0 908 3449
0 946 3616
0 985 3783
0 1024 3949
280 332 161
280 332 282
212 318 347
195 351 506
189 383 664
177 414 822
165 446 981
149 481 1141
129 514 1302
107 550 1464
81 586 1626
52 622 1789
19 658 1953
0 696 2117
0 733 2282
0 770 2446
0 807 2612
0 845 2777
0 883 2942
0 921 3108
0 960 3274
0 998 3440
0 1036 3606
0 1074 3772
0 1113 3939
391 494 280
389 494 399
330 500 482
233 468 528
225 499 686
214 528 842
203 559 1001
189 592 1159
171 624 1318
145 657 1478
119 692 1638
90 726 1799
55 761 1961
19 797 2124
0 832 2286
0 869 2450
0 906 2614
0 942 2777
0 979 2942
0 1017 3106
0 1054 3271
0 1092 3436
0 1129 3602
0 1167 3767
0 1206 3933
500 660 399
499 659 516
437 664 597
369 661 673
260 617 709
250 647 866
240 676 1023
230 707 1180
214 738 1338
195 770 1497
171 802 1656
142 835 1815
107 869 1975
68 903 2136
26 937 2297
0 973 2459
0 1008 2621
0 1044 2784
0 1080 2947
0 1117 3110
0 1153 3274
0 1190 3438
0 1227 3602
0 1264 3766
0 1301 3931
612 826 517
610 825 632
547 829 715
485 833 798
396 811 854
289 766 889
280 795 1046
269 825 1203
257 855 1361
243 885 1518
222 917 1676
198 948 1834
168 981 1993
132 1013 2153
90 1047 2313
42 1080 2473
0 1115 2634
0 1149 2795
0 1184 2957
0 1219 3119
0 1255 3281
0 1291 3444
0 1327 3607
0 1364 3771
0 1400 3935
723 992 635
721 991 751
657 995 832
594 999 915
530 1003 997
422 961 1035
318 916 1070
310 944 1227
299 974 1384
289 1003 1541
273 1033 1699
255 1064 1856
230 1095 2014
201 1127 2173
165 1159 2331
119 1192 2491
68 1224 2650
13 1258 2810
0 1292 2971
0 1326 3132
0 1361 3293
0 1396 3455
0 1431 3617
0 1467 3779
0 1502 3942
834 1159 753
832 1157 868
768 1161 950
704 1164 1033
640 1168 1115
560 1156 1182
451 1111 1216
351 1065 1251
341 1094 1408
332 1122 1565
320 1151 1722
306 1182 1879
287 1212 2036
264 1242 2194
235 1273 2352
201 1305 2511
155 1337 2669
100 1370 2828
42 1403 2988
0 1436 3148
0 1470 3308
0 1504 3469
0 1538 3630
0 1573 3791
0 1608 3953
946 1325 872
943 1324 986
879 1327 1068
815 1330 1150
750 1334 1233
686 1337 1315
587 1306 1363
479 1260 1397
383 1214 1431
376 1243 1588
365 1271 1746
352 1300 1902
339 1330 2060
320 1359 2217
297 1390 2374
271 1420 2532
238 1452 2690
195 1484 2848
142 1515 3007
81 1548 3166
13 1581 3325
0 1614 3485
0 1648 3646
0 1682 3806
0 1716 3967
1057 1492 990
1055 1490 1105
990 1493 1186
926 1496 1269
861 1500 1351
796 1503 1433
725 1502 1510
614 1456 1544
509 1410 1578
417 1364 1612
409 1392 1769
399 1420 1926
388 1449 2083
374 1478 2240
356 1508 2397
334 1538 2555
308 1568 2712
278 1599 2870
238 1631 3028
189 1662 3187
126 1694 3345
55 1726 3504
0 1759 3664
0 1792 3823
0 1825 3983
1169 1659 1109
1167 1657 1223
1102 1660 1304
1036 1663 1386
971 1666 1468
906 1669 1551
841 1673 1633
752 1652 1691
643 1606 1725
540 1560 1759
454 1513 1793
445 1541 1950
436 1569 2107
423 1598 2264
409 1627 2421
393 1656 2578
372 1686 2735
347 1716 2893
318 1747 3050
280 1778 3208
238 1809 3366
180 1841 3525
107 1873 3683
29 1905 3842
0 1937 4001
