Creative/ColorHarmony - HueTwists.3dl
#25pt 3DLUT created by 3D LUT Creator Pro (c) Oleg Sharonov
#Copyright Oleg Sharonov
#IMAGEPROFILE 
#INPUTGAMMA 
#OUTPUTGAMMA 
0 256 512 768 1023
0 0 0
0 78 861
0 291 1752
0 532 2632
32 798 3468
220 1019 0
116 887 1824
0 903 2473
78 1073 2928
485 1361 3195
557 2164 71
631 2024 939
412 1955 2679
0 2051 3053
136 2219 3238
1093 3261 874
302 3069 907
451 3060 2079
238 3054 3199
0 3153 3466
1775 4095 1632
404 4095 1067
23 4095 2046
23 4095 3072
10 4095 4095
1006 23 23
765 393 642
299 362 2249
161 404 3182
603 741 3755
1063 1029 52
1024 1024 1024
981 1050 1985
961 1137 2794
1060 1326 3375
1639 2375 347
1177 2118 1081
1275 1968 2414
945 2082 2915
828 2253 3171
2594 3384 877
1482 3219 1361
1113 3064 2055
1098 3055 3173
653 3174 3478
2847 4095 1308
1855 4095 1722
1026 4095 2046
1027 4095 3072
1025 4095 4095
2001 152 126
1933 443 458
1623 868 1388
1260 1083 2607
1279 1165 3594
2081 1001 0
2009 1049 1033
1844 1216 1645
1568 1359 2750
1638 1470 3488
2413 2146 0
2290 2094 1142
2048 2048 2048
2018 2095 2828
2034 2195 3416
3547 3308 0
3431 3263 1127
2215 3119 2175
2086 3060 3115
1659 3210 3476
4095 3955 520
3863 3973 1254
2384 4095 2305
2047 4095 3071
2048 4095 4095
2887 603 427
2928 602 606
2826 919 1161
2668 1177 2280
2638 1333 3227
2862 1230 0
2880 1210 1074
2910 1277 1475
2834 1408 2461
2898 1476 3346
3015 2075 0
2984 2094 928
2918 2126 1986
3049 2103 2784
3400 1988 3577
3740 3105 0
3659 3085 1049
3385 3048 2216
3071 3071 3071
3032 3129 3760
4095 3889 3030
4095 3887 3023
4095 3887 2854
3189 4079 3157
3072 4095 4095
3561 1269 691
3807 973 945
3802 1098 1373
3863 1105 2396
3960 1094 3364
3504 1675 0
3568 1619 1120
3839 1434 1575
3924 1399 2575
4046 1363 3466
3632 2335 0
3641 2339 725
3657 2332 1916
3996 2152 2843
4095 2132 3637
4049 3091 0
4028 3102 945
3952 3138 1924
3879 3172 2941
4095 3097 3835
4095 3976 3705
4095 3979 3708
4095 3993 3743
4095 4028 3865
4095 4095 4095
