Creative/ColorHarmony - Cyan Orange.3dl
#25pt 3DLUT created by 3D LUT Creator Pro (c) Oleg Sharonov
#Copyright Oleg Sharonov
#IMAGEPROFILE sRGB IEC61966-2.1 v.2.10
#INPUTGAMMA sRGB IEC61966-2.1 v.2.10
#OUTPUTGAMMA sRGB IEC61966-2.1 v.2.10
0 43 86 128 171 214 256 299 341 384 427 469 512 555 597 640 682 725 768 810 853 896 938 981 1023 
0 0 0
6 13 19
16 32 42
32 58 81
55 97 132
81 149 198
116 206 267
158 267 334
203 324 399
250 384 467
297 443 535
343 503 603
389 562 670
436 622 737
484 681 805
530 740 873
576 800 941
623 859 1008
668 919 1076
715 978 1143
761 1037 1211
808 1097 1278
854 1156 1346
901 1215 1413
947 1274 1480
10 71 48
0 119 119
42 168 201
74 198 245
103 228 282
136 264 326
171 306 376
212 352 428
250 399 482
293 451 541
334 503 600
377 557 661
420 611 723
464 665 786
509 721 849
553 777 913
597 833 977
643 891 1043
688 948 1107
733 1005 1173
778 1063 1239
823 1120 1304
869 1178 1370
914 1237 1436
960 1295 1502
23 171 116
23 245 201
0 278 278
78 324 363
136 358 414
183 383 451
225 414 489
262 448 531
299 488 577
337 530 627
377 575 679
417 622 732
458 671 789
499 721 846
541 772 905
583 824 965
625 877 1026
668 931 1087
712 986 1149
755 1041 1212
799 1096 1275
843 1152 1339
888 1208 1403
932 1264 1467
977 1321 1531
42 295 217
48 339 267
45 425 377
0 442 442
119 482 528
201 513 578
264 542 622
312 569 657
351 600 696
389 632 736
428 671 782
465 711 828
504 753 878
542 798 929
582 843 982
623 891 1038
663 941 1094
704 990 1151
745 1041 1210
788 1093 1270
830 1145 1329
872 1199 1390
915 1252 1451
959 1306 1513
1002 1361 1575
65 398 304
68 428 337
74 481 401
74 596 547
0 592 592
158 636 685
264 669 741
337 702 790
394 728 830
439 754 864
479 785 903
517 818 943
556 854 986
593 893 1032
631 933 1080
669 976 1129
709 1021 1182
748 1066 1234
788 1113 1288
828 1161 1343
868 1210 1399
909 1260 1457
950 1311 1515
992 1362 1574
1035 1414 1633
90 482 377
94 506 403
100 546 445
107 634 550
100 759 709
0 746 746
195 791 839
324 827 905
404 859 954
472 891 1001
523 913 1036
566 940 1072
606 971 1110
645 1004 1150
683 1039 1193
721 1077 1237
759 1117 1284
798 1157 1332
835 1200 1382
874 1244 1433
914 1289 1485
953 1335 1538
993 1383 1593
1034 1431 1648
1077 1480 1703
119 569 451
119 590 472
129 622 506
145 683 573
149 803 715
116 915 865
0 904 904
230 948 997
383 985 1070
468 1016 1119
542 1048 1167
602 1075 1208
651 1098 1243
693 1126 1279
733 1156 1317
772 1189 1356
811 1224 1399
849 1260 1442
887 1299 1488
925 1339 1535
963 1380 1583
1002 1423 1633
1043 1467 1683
1085 1512 1734
1127 1557 1785
152 660 528
155 678 547
161 705 575
180 751 623
192 842 725
203 985 893
136 1074 1024
0 1066 1066
262 1107 1156
442 1145 1236
531 1175 1285
609 1206 1333
676 1236 1379
732 1260 1415
778 1285 1450
820 1312 1486
861 1342 1524
900 1375 1564
938 1409 1605
978 1445 1647
1018 1482 1692
1059 1521 1736
1100 1562 1783
1141 1603 1830
1183 1646 1878
195 755 609
195 771 626
201 794 649
214 832 689
235 895 755
243 1013 891
262 1177 1081
155 1236 1185
0 1230 1230
295 1270 1318
500 1306 1403
593 1335 1451
674 1364 1499
745 1394 1545
808 1423 1588
862 1444 1622
909 1470 1656
953 1498 1691
995 1528 1728
1037 1560 1767
1079 1594 1807
1119 1629 1848
1161 1666 1891
1202 1704 1935
1244 1743 1980
238 855 695
240 869 709
243 890 729
252 923 764
271 973 815
287 1060 912
297 1196 1067
324 1375 1275
180 1400 1349
6 1396 1396
336 1434 1483
550 1469 1565
665 1498 1621
751 1526 1667
827 1555 1712
897 1585 1756
955 1605 1789
1008 1628 1824
1053 1655 1858
1097 1683 1893
1141 1713 1929
1183 1745 1967
1224 1778 2007
1266 1813 2048
1308 1849 2089
295 965 789
297 977 802
302 995 820
310 1023 849
326 1066 894
352 1127 957
365 1241 1085
388 1390 1257
427 1579 1478
269 1571 1521
100 1570 1570
417 1604 1653
627 1637 1732
757 1665 1792
843 1692 1838
921 1719 1881
993 1747 1924
1052 1766 1956
1107 1788 1989
1159 1812 2023
1203 1838 2057
1248 1868 2092
1291 1898 2128
1334 1929 2166
1376 1963 2205
369 1082 893
370 1093 904
376 1109 920
383 1133 945
396 1170 983
417 1222 1037
443 1304 1126
462 1431 1270
496 1592 1456
513 1749 1649
374 1745 1694
243 1745 1745
516 1777 1825
716 1806 1901
859 1833 1964
944 1858 2008
1023 1884 2050
1094 1909 2090
1155 1927 2121
1211 1947 2153
1265 1970 2186
1315 1995 2221
1360 2023 2254
1404 2051 2289
1448 2082 2325
451 1207 1003
454 1217 1013
458 1231 1028
464 1253 1050
477 1285 1084
494 1330 1129
523 1390 1192
546 1493 1309
575 1630 1465
618 1799 1660
614 1921 1822
494 1920 1870
391 1922 1922
628 1950 1998
818 1977 2070
971 2002 2137
1055 2026 2179
1133 2050 2220
1202 2071 2255
1264 2088 2285
1322 2107 2316
1376 2129 2349
1429 2153 2383
1477 2179 2416
1522 2206 2450
543 1340 1122
546 1349 1132
550 1362 1144
556 1381 1164
566 1409 1194
583 1448 1234
607 1499 1287
637 1574 1368
664 1690 1501
701 1834 1666
756 2008 1868
730 2095 1998
627 2096 2047
543 2100 2100
754 2125 2172
932 2149 2241
1087 2172 2307
1174 2194 2349
1251 2216 2388
1318 2232 2418
1380 2249 2448
1438 2268 2478
1494 2288 2510
1548 2311 2543
1599 2335 2577
646 1482 1250
648 1490 1258
652 1501 1270
658 1518 1288
668 1543 1313
682 1577 1349
703 1622 1395
734 1678 1455
763 1771 1559
797 1894 1700
842 2042 1871
904 2216 2076
859 2270 2174
771 2273 2224
703 2279 2279
891 2300 2346
1058 2321 2411
1206 2342 2473
1303 2362 2519
1375 2378 2552
1441 2393 2580
1503 2409 2609
1562 2427 2639
1618 2448 2670
1672 2469 2702
759 1632 1387
762 1640 1394
765 1649 1405
771 1665 1420
781 1687 1444
793 1716 1474
812 1755 1515
838 1804 1567
871 1870 1638
902 1975 1759
942 2101 1905
995 2250 2079
1066 2422 2284
999 2443 2350
926 2449 2401
870 2456 2456
1040 2475 2520
1195 2493 2581
1336 2511 2640
1439 2527 2685
1507 2539 2712
1572 2553 2740
1633 2569 2769
1692 2587 2799
1749 2607 2829
885 1792 1533
887 1798 1540
891 1807 1549
896 1821 1563
905 1840 1583
917 1866 1611
933 1899 1646
956 1942 1691
986 1995 1748
1018 2075 1839
1055 2183 1964
1101 2310 2113
1160 2458 2288
1223 2612 2476
1151 2617 2525
1089 2624 2577
1043 2632 2632
1198 2648 2692
1343 2664 2750
1476 2680 2805
1581 2687 2844
1647 2699 2872
1711 2713 2900
1771 2729 2928
1830 2746 2957
1021 1958 1686
1023 1964 1693
1027 1972 1701
1033 1984 1714
1041 2002 1733
1052 2025 1757
1067 2054 1789
1087 2091 1828
1113 2137 1877
1147 2192 1937
1179 2285 2046
1220 2393 2174
1271 2519 2323
1335 2663 2495
1375 2781 2649
1313 2788 2700
1261 2797 2752
1223 2806 2806
1365 2820 2862
1500 2833 2916
1622 2842 2963
1731 2845 3002
1795 2858 3029
1857 2872 3057
1917 2888 3085
1166 2124 1842
1168 2129 1848
1171 2136 1856
1176 2147 1867
1184 2163 1884
1194 2183 1905
1208 2209 1933
1225 2241 1968
1248 2280 2010
1278 2327 2061
1312 2396 2140
1350 2492 2253
1396 2601 2383
1451 2726 2532
1517 2863 2698
1537 2950 2822
1484 2958 2872
1441 2968 2924
1411 2978 2978
1541 2990 3031
1665 2999 3079
1777 3001 3117
1882 3005 3156
1951 3017 3186
2011 3031 3213
1324 2301 2010
1325 2305 2015
1329 2312 2021
1333 2321 2032
1340 2335 2046
1350 2352 2065
1362 2375 2090
1378 2403 2120
1398 2437 2157
1424 2477 2201
1456 2525 2254
1490 2604 2348
1530 2697 2460
1578 2802 2587
1635 2920 2730
1703 3049 2890
1705 3111 2988
1665 3125 3042
1629 3136 3094
1605 3147 3147
1724 3155 3195
1834 3156 3233
1941 3159 3271
2041 3164 3309
2115 3175 3340
1496 2488 2188
1498 2492 2192
1500 2497 2198
1505 2506 2208
1511 2517 2220
1520 2533 2237
1531 2552 2259
1545 2576 2285
1563 2606 2317
1586 2640 2356
1614 2681 2401
1645 2736 2465
1681 2814 2561
1722 2903 2669
1771 3002 2791
1828 3111 2927
1896 3230 3076
1881 3267 3150
1847 3281 3202
1820 3296 3256
1803 3310 3310
1909 3310 3348
2013 3312 3386
2113 3317 3423
2208 3322 3460
1684 2686 2379
1686 2690 2383
1688 2695 2388
1693 2702 2396
1698 2712 2408
1705 2725 2422
1716 2742 2441
1728 2763 2464
1744 2787 2492
1764 2817 2525
1788 2851 2564
1817 2891 2610
1848 2953 2685
1884 3026 2778
1925 3109 2881
1973 3200 2995
2029 3299 3121
2094 3406 3259
2065 3422 3311
2038 3436 3361
2016 3450 3412
2004 3463 3463
2103 3465 3501
2200 3468 3538
2294 3473 3574
1889 2895 2582
1890 2898 2586
1893 2902 2590
1896 2909 2597
1901 2917 2607
1908 2929 2620
1917 2943 2637
1928 2961 2657
1942 2982 2681
1960 3007 2709
1980 3035 2742
2005 3069 2781
2034 3111 2831
2064 3171 2909
2098 3239 2996
2138 3313 3092
2185 3395 3198
2238 3482 3312
2285 3563 3424
2259 3576 3470
2237 3589 3518
2221 3603 3567
2213 3616 3616
2304 3619 3652
2395 3622 3688
2110 3115 2798
2112 3117 2801
2114 3121 2805
2117 3126 2811
2122 3133 2820
2128 3143 2831
2135 3155 2845
2145 3170 2862
2158 3187 2883
2172 3208 2907
2190 3232 2935
2211 3259 2968
2237 3290 3005
2263 3335 3063
2291 3389 3135
2323 3449 3215
2361 3514 3302
2404 3584 3396
2452 3659 3498
2481 3715 3584
2460 3728 3628
2443 3741 3674
2432 3754 3720
2428 3767 3767
2513 3770 3802
2350 3344 3027
2351 3347 3029
2353 3349 3033
2356 3354 3038
2360 3360 3045
2365 3368 3055
2372 3378 3067
2381 3390 3081
2391 3404 3099
2404 3421 3119
2419 3441 3143
2437 3463 3170
2458 3488 3201
2482 3517 3237
2504 3560 3297
2530 3606 3362
2559 3656 3432
2592 3711 3509
2629 3768 3590
2671 3828 3676
2685 3864 3742
2669 3877 3784
2658 3889 3827
2652 3902 3871
2651 3915 3915
103 0 0
90 39 36
68 65 103
74 94 139
94 132 189
119 183 248
152 235 304
192 291 365
233 347 430
276 403 492
320 461 558
363 517 622
408 575 687
452 634 754
497 692 819
543 751 887
588 810 953
633 868 1019
679 926 1086
725 986 1153
771 1044 1219
816 1103 1286
862 1162 1353
908 1221 1420
954 1280 1487
132 180 126
183 183 183
158 201 230
158 222 269
171 252 308
192 287 351
220 328 398
252 372 449
287 419 504
322 467 558
362 517 616
401 570 676
442 623 736
484 676 798
526 731 861
569 787 924
613 843 988
656 899 1052
700 955 1117
744 1013 1182
789 1070 1247
834 1127 1312
879 1185 1377
924 1242 1443
969 1300 1509
36 180 116
165 297 255
174 345 345
195 356 394
220 374 430
245 399 465
271 430 505
302 462 546
334 503 593
367 543 642
403 587 693
440 634 746
478 682 802
518 731 858
558 782 916
599 834 975
640 886 1035
682 940 1097
725 994 1158
767 1048 1220
811 1103 1283
854 1159 1346
898 1214 1410
942 1270 1473
986 1327 1538
48 287 203
165 398 328
186 455 404
165 503 503
238 517 562
280 533 597
320 554 633
352 579 668
386 611 707
420 645 749
454 682 793
489 721 839
525 764 889
562 807 940
600 853 994
639 900 1047
678 948 1103
717 997 1160
758 1049 1218
799 1100 1277
841 1151 1336
883 1205 1396
925 1258 1458
968 1312 1519
1011 1366 1581
71 383 287
171 481 391
186 522 439
214 623 570
152 641 641
280 672 723
339 696 769
389 713 802
433 736 837
470 764 874
505 793 912
541 827 952
577 863 996
613 902 1041
649 942 1089
686 984 1138
724 1028 1189
762 1073 1242
801 1120 1296
839 1167 1350
880 1216 1406
919 1266 1463
961 1316 1521
1002 1367 1579
1043 1419 1638
94 470 362
180 551 448
189 585 485
214 660 572
250 798 744
149 787 787
302 819 870
391 849 927
457 877 974
506 896 1007
552 920 1043
590 947 1078
627 977 1116
664 1010 1156
700 1046 1199
736 1083 1244
774 1123 1291
811 1163 1338
848 1206 1388
886 1250 1439
924 1294 1491
963 1341 1544
1003 1387 1599
1043 1436 1653
1086 1484 1708
119 557 436
198 629 510
206 658 542
228 710 597
250 821 731
257 946 894
145 937 937
326 972 1022
443 1004 1088
516 1032 1136
578 1060 1179
629 1080 1213
673 1105 1249
713 1132 1285
751 1162 1323
788 1195 1363
825 1230 1405
862 1266 1448
899 1304 1494
936 1344 1540
974 1385 1589
1012 1428 1638
1053 1471 1688
1094 1516 1738
1136 1562 1790
155 649 516
225 713 580
230 738 607
245 781 652
269 861 742
293 997 904
269 1099 1047
142 1091 1091
351 1127 1176
496 1160 1251
573 1188 1298
644 1217 1345
703 1242 1385
753 1264 1420
797 1289 1454
837 1317 1491
876 1348 1529
914 1379 1568
951 1414 1610
990 1450 1653
1030 1487 1696
1070 1526 1741
1110 1566 1787
1150 1607 1834
1192 1650 1883
195 745 599
255 802 655
260 824 678
271 861 716
295 917 776
314 1028 903
343 1185 1088
280 1256 1204
142 1250 1250
377 1286 1335
550 1319 1415
632 1346 1463
706 1374 1509
773 1403 1554
829 1426 1591
880 1448 1626
924 1474 1660
967 1502 1695
1008 1532 1732
1049 1564 1771
1090 1597 1811
1130 1633 1853
1170 1670 1895
1211 1708 1939
1252 1747 1984
238 847 685
291 898 736
295 917 756
304 948 788
322 997 838
345 1076 925
363 1207 1076
398 1380 1280
297 1417 1365
152 1413 1413
411 1447 1497
600 1480 1578
700 1508 1631
781 1535 1676
853 1563 1720
917 1588 1759
971 1608 1792
1022 1632 1827
1067 1658 1861
1109 1686 1896
1151 1717 1933
1193 1749 1971
1235 1782 2011
1276 1817 2051
1317 1853 2093
297 957 781
343 1002 826
347 1019 843
356 1047 872
370 1088 915
396 1147 977
417 1252 1095
443 1398 1264
492 1583 1482
363 1585 1533
235 1583 1583
482 1615 1665
671 1646 1742
788 1673 1800
870 1699 1845
944 1726 1888
1010 1749 1926
1067 1769 1958
1121 1790 1992
1170 1815 2026
1215 1842 2060
1258 1871 2095
1301 1901 2132
1343 1933 2169
1385 1966 2208
