Creative/ColorHarmony - Blue Orange.3dl
#25pt 3DLUT created by 3D LUT Creator Pro (c) Oleg Sharonov
#Copyright Oleg Sharonov
#IMAGEPROFILE sRGB IEC61966-2.1 v.2.10
#INPUTGAMMA sRGB IEC61966-2.1 v.2.10
#OUTPUTGAMMA sRGB IEC61966-2.1 v.2.10
0 128 256 384 512 640 768 896 1023
0 0 0
6 23 409
16 78 847
39 177 1287
71 293 1728
119 409 2168
177 527 2609
238 644 3049
302 760 3489
673 328 161
252 454 701
3 460 1232
0 471 1645
0 506 2059
0 579 2445
0 666 2844
3 759 3256
32 860 3671
1297 711 430
947 857 807
586 925 1345
113 944 1907
0 934 2376
0 946 2786
0 973 3195
0 1010 3610
0 1076 4000
1921 1094 699
1690 1196 1101
1155 1371 1449
919 1396 1989
328 1431 2567
103 1415 3075
0 1411 3519
0 1421 3927
401 1466 4095
2545 1478 968
2397 1538 1376
2011 1706 1620
1479 1850 2052
1251 1868 2632
705 1904 3219
339 1899 3748
195 1888 4095
1114 1946 4095
3169 1861 1237
3040 1912 1642
2743 2048 1912
2116 2273 2116
1828 2321 2684
1583 2339 3276
1083 2375 3870
1133 2388 4095
1651 2410 4095
3793 2245 1505
3671 2292 1906
3454 2393 2193
3064 2559 2431
2386 2757 2847
2178 2790 3325
1915 2811 3919
1938 2834 4095
2161 2866 4095
4095 2749 2189
4095 2739 2334
4095 2748 2491
3795 2901 2723
3313 3089 2924
2718 3234 3466
2524 3260 3965
2658 3260 4095
2818 3287 4095
4095 3370 3135
4095 3366 3181
4095 3371 3245
4095 3385 3261
4095 3411 3241
3353 3662 3487
3042 3714 4067
3323 3685 4095
3459 3702 4095
461 32 29
217 195 341
255 255 732
308 320 1197
345 384 1697
396 475 2145
452 577 2585
509 683 3024
566 792 3464
688 446 0
512 512 512
499 522 990
489 548 1437
488 595 1867
497 657 2291
516 733 2716
540 818 3142
570 910 3571
1336 767 0
1178 831 710
783 951 1209
615 967 1751
558 969 2234
522 982 2680
512 1010 3105
492 1059 3513
468 1124 3916
2000 1110 55
1837 1177 912
1255 1386 1351
1064 1412 1895
729 1442 2461
637 1433 2967
560 1432 3434
508 1442 3872
616 1480 4095
2658 1465 291
2483 1539 1132
2114 1693 1604
1547 1859 2022
1360 1878 2562
928 1916 3142
742 1910 3668
631 1901 4095
1164 1952 4095
3283 1841 651
3122 1909 1367
2827 2033 1886
2310 2236 2093
1873 2331 2649
1669 2347 3221
1232 2383 3810
1169 2394 4095
1676 2417 4095
3903 2222 973
3755 2283 1611
3534 2372 2157
3126 2550 2421
2420 2765 2812
2218 2798 3296
1984 2817 3876
1958 2843 4095
2181 2873 4095
4095 2770 2077
4095 2764 2212
4095 2758 2471
3847 2893 2708
3383 3076 2929
2750 3239 3448
2559 3266 3941
2665 3268 4095
2832 3294 4095
4095 3382 3104
4095 3381 3151
4095 3381 3237
4095 3395 3278
4095 3416 3255
3403 3662 3432
3070 3718 4054
3320 3693 4095
3471 3708 4095
937 116 100
694 363 394
522 484 735
550 548 1093
606 609 1535
659 674 1999
704 740 2486
737 803 2990
783 886 3451
1023 512 0
990 530 525
706 679 871
714 714 1268
745 751 1711
774 795 2171
798 841 2651
828 904 3103
870 984 3532
1322 913 0
1212 953 612
1024 1024 1024
1011 1032 1509
998 1048 1974
988 1074 2423
982 1111 2858
984 1160 3285
991 1219 3710
1962 1228 10
1881 1262 650
1689 1336 1223
1295 1456 1719
1155 1476 2258
1106 1478 2760
1067 1486 3234
1040 1502 3685
1026 1526 4095
2623 1559 0
2563 1587 676
2356 1668 1418
1699 1886 1921
1567 1908 2417
1283 1944 2980
1212 1937 3501
1147 1936 3989
1348 1977 4095
3289 1901 84
3237 1925 752
3015 2014 1620
2561 2194 2106
1981 2356 2571
1846 2368 3102
1509 2405 3680
1337 2410 4095
1775 2436 4095
3947 2252 370
3906 2272 876
3666 2371 1833
3279 2528 2388
2570 2775 2644
2310 2817 3230
2137 2833 3777
2016 2863 4095
2250 2890 4095
4095 2795 1974
4095 2804 2051
4095 2803 2277
3987 2865 2662
3529 3055 2923
2828 3251 3400
2642 3281 3885
2709 3285 4095
2865 3311 4095
4095 3404 3094
4095 3409 3121
4095 3409 3188
4095 3418 3313
4095 3437 3303
3623 3630 3352
3139 3727 4022
3348 3708 4095
3497 3723 4095
1415 248 220
1219 484 513
976 672 749
830 775 1129
851 843 1460
901 901 1891
957 963 2338
1010 1028 2803
1058 1094 3283
1536 512 0
1459 577 564
1149 796 845
953 904 1228
962 957 1579
1002 1002 2011
1045 1052 2455
1086 1107 2915
1124 1164 3391
1535 1023 0
1535 1023 512
1507 1036 1031
1203 1174 1389
1201 1200 1794
1221 1224 2243
1240 1254 2696
1258 1289 3161
1273 1327 3638
1956 1380 0
1888 1406 627
1729 1463 1152
1536 1536 1536
1523 1543 2024
1510 1555 2497
1497 1573 2957
1487 1599 3406
1480 1633 3844
2583 1693 136
2528 1716 692
2402 1768 1217
2197 1844 1736
1808 1963 2230
1681 1986 2762
1639 1989 3270
1602 1995 3758
1611 2016 4095
3247 2016 0
3205 2036 651
3095 2084 1255
2868 2168 1932
2179 2389 2455
2077 2409 2929
1831 2447 3486
1762 2445 4014
1944 2470 4095
3911 2352 0
3877 2368 669
3781 2411 1313
3534 2505 2128
3025 2699 2607
2448 2855 3112
2350 2865 3623
2111 2900 4095
2363 2920 4095
4095 2862 1950
4095 2863 1981
4095 2862 2053
4095 2874 2396
3747 3027 2890
2955 3280 3266
2773 3310 3789
2765 3318 4095
2934 3342 4095
4095 3449 3122
4095 3449 3127
4095 3455 3163
4095 3464 3264
4095 3476 3372
3946 3563 3421
3257 3745 3960
3385 3738 4095
3542 3750 4095
1892 386 351
1758 571 611
1491 813 862
1262 971 1153
1137 1066 1524
1150 1134 1850
1196 1195 2253
1252 1253 2692
1308 1316 3142
2048 512 0
1928 648 627
1639 896 934
1379 1065 1208
1226 1160 1597
1234 1220 1928
1272 1271 2341
1321 1323 2778
1370 1379 3227
2048 1024 0
2048 1024 512
1980 1066 1055
1638 1267 1333
1423 1369 1740
1422 1414 2094
1447 1447 2528
1482 1486 2967
1515 1529 3415
2048 1536 0
2048 1536 512
2047 1536 1024
2021 1546 1542
1707 1677 1904
1701 1700 2318
1715 1717 2772
1729 1740 3228
1742 1766 3690
2590 1846 0
2546 1864 606
2420 1909 1205
2243 1973 1679
2048 2048 2048
2035 2054 2538
2022 2064 3016
2009 2079 3484
1997 2099 3940
3217 2157 123
3171 2176 718
3066 2218 1279
2916 2278 1761
2708 2354 2249
2321 2472 2741
2200 2496 3269
2163 2500 3779
2184 2517 4095
3874 2476 0
3838 2492 665
3752 2530 1266
3613 2589 1817
3378 2673 2446
2670 2896 2980
2589 2914 3439
2373 2950 3991
2528 2964 4095
4095 2943 1920
4095 2946 1952
4095 2952 2026
4095 2967 2196
4047 3003 2640
3499 3206 3109
2936 3355 3650
2860 3365 4095
3014 3389 4095
4095 3508 3161
4095 3512 3178
4095 3518 3200
4095 3529 3252
4095 3539 3364
4095 3562 3458
3415 3778 3828
3447 3781 4095
3604 3791 4095
2368 525 479
2249 696 718
2016 933 983
1770 1127 1207
1584 1249 1597
1443 1357 1918
1451 1425 2246
1493 1488 2618
1546 1546 3050
2511 592 116
2397 736 706
2149 986 1028
1874 1195 1264
1663 1323 1647
1512 1428 1974
1515 1491 2307
1553 1549 2685
1602 1602 3117
2560 1023 0
2560 1023 512
2448 1111 1094
2114 1347 1393
1834 1503 1721
1670 1596 2097
1667 1648 2439
1695 1693 2838
1735 1735 3271
2559 1535 0
2559 1535 512
2559 1536 1023
2497 1568 1558
2141 1756 1837
1912 1856 2257
1905 1894 2618
1921 1921 3056
1948 1951 3497
2645 2013 0
2615 2025 509
2559 2048 1023
2559 2047 1536
2534 2057 2053
2216 2184 2418
2206 2205 2839
2217 2218 3299
2227 2236 3757
3224 2313 0
3195 2325 563
3095 2361 1219
2940 2417 1756
2755 2485 2200
2559 2559 2559
2547 2566 3051
2534 2575 3532
2521 2587 4004
3854 2620 0
3817 2635 685
3732 2669 1288
3591 2724 1837
3427 2789 2294
3218 2864 2761
2833 2982 3251
2718 3007 3778
2743 3019 4095
4095 3050 1946
4095 3054 1980
4095 3055 1990
4095 3070 2127
4095 3096 2362
3887 3180 2960
3167 3404 3501
3102 3420 3950
3128 3451 4095
4095 3591 3255
4095 3593 3258
4095 3596 3266
4095 3607 3304
4095 3624 3370
4095 3641 3503
3980 3715 3613
3494 3848 4095
3696 3845 4095
2845 662 610
2732 826 835
2549 1035 1091
2287 1262 1330
2053 1435 1562
1869 1548 1987
1750 1648 2312
1752 1716 2643
1794 1782 2984
2972 699 289
2869 838 798
2672 1063 1113
2379 1312 1375
2131 1490 1606
1936 1604 2036
1805 1704 2357
1804 1769 2690
1842 1832 3038
3072 1023 0
3072 1023 512
2915 1173 1147
2604 1427 1473
2317 1620 1710
2096 1737 2145
1934 1841 2461
1929 1898 2801
1959 1951 3164
3072 1536 0
3072 1535 512
3071 1536 1023
2968 1601 1585
2612 1823 1874
2324 1966 2256
2142 2062 2609
2131 2108 2963
2151 2147 3355
3071 2048 0
3071 2047 513
3071 2048 1023
3071 2048 1535
3013 2074 2065
2649 2254 2345
2410 2351 2774
2398 2385 3146
2410 2409 3582
3273 2479 0
3253 2488 481
3189 2513 1044
3084 2554 1541
3071 2559 2048
3047 2568 2564
2726 2693 2932
2713 2712 3357
2722 2723 3820
3858 2779 0
3841 2787 494
3759 2817 1211
3627 2865 1796
3456 2927 2295
3267 2996 2717
3071 3071 3071
3059 3077 3563
3046 3086 4048
4095 3181 2043
4095 3186 2075
4095 3189 2082
4095 3201 2156
4095 3232 2379
3938 3300 2821
3729 3375 3274
3345 3493 3761
3308 3519 4095
4095 3688 3366
4095 3690 3369
4095 3696 3388
4095 3708 3423
4095 3723 3464
4095 3746 3541
4095 3769 3670
3669 3912 4022
3806 3914 4095
3322 800 739
3216 955 959
3089 1118 1184
2813 1383 1452
2566 1579 1674
2338 1739 1937
2162 1844 2379
2057 1939 2706
2055 2007 3038
3438 815 442
3342 948 899
3169 1161 1202
2897 1420 1484
2636 1623 1712
2399 1785 1970
2214 1891 2419
2102 1985 2743
2098 2051 3078
3584 1023 0
3550 1067 556
3383 1247 1212
3109 1501 1553
2807 1727 1801
2549 1896 2051
2341 2004 2512
2210 2099 2832
2203 2160 3171
3583 1535 0
3584 1535 512
3582 1536 1024
3436 1647 1624
3091 1891 1941
2792 2075 2184
2554 2188 2653
2389 2288 2966
2375 2340 3314
3583 2048 0
3584 2047 512
3583 2048 1024
3583 2048 1535
3486 2101 2086
3117 2312 2367
2831 2441 2796
2626 2543 3126
2611 2585 3488
3583 2559 0
3583 2559 513
3583 2560 1024
3583 2560 1535
3583 2559 2048
3528 2583 2575
3159 2756 2856
2913 2852 3291
2897 2884 3670
3902 2945 0
3890 2951 417
3835 2973 1050
3744 3008 1585
3619 3057 2064
3583 3071 2560
3559 3079 3075
3236 3202 3445
3222 3221 3874
4095 3324 2146
4095 3329 2183
4095 3334 2187
4095 3350 2259
4095 3372 2352
3971 3437 2826
3779 3508 3234
3583 3583 3583
3571 3589 4076
4095 3803 3530
4095 3805 3532
4095 3812 3552
4095 3824 3583
4095 3838 3612
4095 3862 3676
4095 3888 3741
4095 3919 3864
3934 3998 4095
3799 937 868
3698 1084 1084
3590 1232 1285
3344 1489 1564
3085 1711 1799
2847 1890 2021
2623 2037 2341
2458 2138 2770
2363 2229 3099
3905 938 588
3815 1064 1005
3648 1281 1306
3422 1515 1586
3149 1746 1829
2904 1928 2052
2673 2077 2366
2501 2178 2804
2401 2269 3131
4056 1084 171
4009 1150 645
3853 1332 1288
3626 1567 1627
3308 1829 1902
3042 2019 2129
2796 2173 2427
2606 2275 2884
2494 2366 3207
4095 1535 0
4095 1535 512
4095 1536 1023
3903 1704 1673
3584 1958 2012
3272 2170 2255
3002 2332 2528
2781 2437 3011
2648 2529 3328
4095 2047 0
4095 2047 512
4095 2047 1024
4094 2048 1535
3957 2137 2116
3593 2370 2424
3284 2547 2673
3029 2657 3169
2861 2754 3477
4095 2559 0
4095 2559 512
4095 2559 1024
4094 2560 1535
4095 2559 2047
4003 2605 2591
3627 2807 2866
3343 2927 3331
3119 3034 3642
4095 3071 0
4095 3071 513
4095 3071 1024
4095 3071 1535
4095 3071 2048
4095 3071 2560
4042 3093 3085
3670 3261 3368
3417 3357 3807
4095 3492 2503
4095 3494 2504
4095 3503 2538
4095 3512 2509
4095 3535 2578
4095 3564 2612
4095 3583 3071
4071 3591 3587
3747 3713 3958
4095 3935 3756
4095 3937 3758
4095 3943 3776
4095 3954 3799
4095 3969 3824
4095 3990 3868
4095 4018 3930
4095 4052 3996
4095 4095 4095
