Creative/ColorHarmony - Orange Teal (Toned).3dl
#25pt 3DLUT created by 3D LUT Creator Pro (c) Oleg Sharonov
#Copyright Oleg Sharonov
#IMAGEPROFILE 
#INPUTGAMMA 
#OUTPUTGAMMA 
0 43 86 128 171 214 256 299 341 384 427 469 512 555 597 640 682 725 768 810 853 896 938 981 1023 
0 0 0
0 0 33
0 0 73
0 0 138
0 1 212
0 41 286
0 111 363
0 181 443
0 251 524
0 323 611
0 393 702
0 466 800
0 537 901
0 607 1005
0 677 1112
0 749 1220
0 822 1333
0 894 1446
0 966 1562
0 1039 1681
0 1112 1800
0 1185 1922
0 1259 2046
0 1331 2171
0 1405 2297
0 52 104
0 64 178
0 79 238
0 107 287
0 143 340
0 187 397
0 236 461
0 293 529
0 349 601
0 409 680
0 472 765
0 536 857
0 600 952
0 666 1050
0 733 1152
0 801 1257
0 869 1365
0 939 1476
0 1009 1589
0 1080 1705
0 1150 1822
0 1222 1942
0 1293 2063
0 1365 2187
0 1436 2311
7 248 221
0 258 277
0 265 332
0 277 398
0 301 453
0 333 509
0 368 569
0 411 631
0 457 703
0 508 781
0 561 861
0 616 944
0 676 1035
0 737 1127
0 798 1224
0 861 1323
0 926 1427
0 991 1532
0 1059 1642
0 1126 1754
0 1194 1868
0 1263 1985
0 1332 2104
0 1402 2224
0 1472 2347
28 447 344
0 455 399
0 462 430
0 468 497
0 480 572
0 499 636
0 526 698
0 558 763
0 595 833
0 636 904
0 681 983
0 728 1064
0 778 1150
0 831 1238
0 888 1329
0 946 1423
0 1007 1522
0 1067 1623
0 1130 1727
0 1194 1835
0 1258 1945
0 1324 2058
0 1390 2172
0 1457 2289
0 1524 2408
60 645 474
0 653 530
0 658 561
0 665 603
0 673 680
0 685 767
0 700 842
0 724 912
0 753 982
0 785 1052
0 823 1128
0 862 1204
0 906 1285
0 952 1371
0 1002 1460
0 1053 1552
0 1108 1648
0 1164 1744
0 1222 1843
0 1281 1946
0 1341 2050
0 1403 2158
0 1465 2268
0 1528 2381
0 1592 2495
98 844 614
0 852 675
0 856 705
0 862 742
0 869 798
0 877 886
0 888 979
0 904 1065
0 924 1139
0 951 1213
0 981 1286
0 1015 1363
0 1053 1441
0 1093 1523
0 1136 1608
0 1182 1696
0 1230 1789
0 1280 1883
0 1331 1982
0 1386 2083
0 1441 2182
0 1498 2285
0 1556 2390
0 1616 2497
0 1675 2607
138 1046 766
0 1052 833
0 1055 865
0 1060 901
0 1067 944
0 1075 1012
0 1083 1105
0 1094 1204
0 1109 1299
0 1129 1378
0 1154 1456
0 1181 1533
0 1212 1611
0 1247 1691
0 1284 1773
0 1324 1859
0 1367 1947
0 1412 2038
0 1458 2132
0 1507 2229
0 1557 2328
0 1609 2430
0 1662 2535
0 1717 2637
0 1773 2741
174 1249 934
0 1254 1003
0 1257 1036
0 1260 1071
0 1266 1112
0 1275 1158
0 1282 1238
0 1291 1338
0 1301 1440
0 1316 1539
0 1334 1627
0 1357 1709
0 1383 1789
0 1413 1869
0 1445 1951
0 1480 2035
0 1517 2120
0 1557 2209
0 1599 2299
0 1642 2391
0 1688 2487
0 1735 2585
0 1783 2685
0 1833 2787
0 1884 2891
213 1451 1109
0 1454 1179
0 1457 1214
0 1460 1249
0 1466 1288
0 1473 1332
0 1482 1383
0 1488 1475
0 1498 1579
0 1508 1685
0 1522 1789
0 1539 1884
0 1561 1969
0 1586 2053
0 1613 2136
0 1644 2219
0 1676 2304
0 1710 2389
0 1747 2477
0 1786 2567
0 1827 2659
0 1869 2753
0 1913 2849
0 1959 2946
0 2006 3046
256 1654 1293
0 1656 1363
0 1657 1398
0 1660 1434
0 1665 1472
0 1671 1515
0 1679 1563
0 1687 1624
0 1695 1721
0 1704 1829
0 1714 1939
0 1727 2046
0 1744 2148
0 1764 2237
0 1788 2323
0 1813 2408
0 1841 2493
0 1872 2579
0 1905 2665
0 1939 2753
0 1975 2842
0 2013 2932
0 2053 3025
0 2094 3119
0 2136 3214
301 1855 1482
0 1857 1553
0 1857 1590
0 1859 1626
0 1863 1663
0 1868 1705
0 1874 1751
0 1882 1802
0 1891 1874
0 1898 1975
0 1907 2086
0 1918 2199
0 1931 2309
0 1946 2417
0 1965 2509
0 1987 2598
0 2011 2685
0 2037 2771
0 2066 2857
0 2096 2944
0 2128 3031
0 2162 3120
0 2197 3209
0 2235 3300
0 2273 3392
349 2051 1677
0 2055 1749
0 2053 1785
0 2055 1823
0 2058 1860
0 2062 1901
0 2068 1945
0 2074 1993
0 2083 2048
0 2091 2132
0 2099 2236
0 2107 2349
0 2117 2465
0 2130 2577
0 2145 2686
0 2162 2785
0 2183 2875
0 2205 2964
0 2230 3051
0 2257 3137
0 2285 3223
0 2315 3310
0 2346 3398
0 2379 3486
0 2414 3575
401 2244 1877
0 2250 1952
0 2246 1986
0 2247 2024
0 2249 2062
0 2253 2102
0 2257 2145
0 2264 2192
0 2271 2244
0 2279 2300
0 2286 2394
0 2294 2501
0 2303 2616
0 2313 2734
0 2325 2847
0 2339 2958
0 2355 3062
0 2374 3153
0 2395 3243
0 2419 3331
0 2443 3417
0 2470 3503
0 2497 3589
0 2527 3676
0 2557 3762
455 2431 2081
117 2438 2156
0 2435 2192
0 2434 2229
0 2436 2268
0 2439 2307
0 2443 2349
0 2448 2395
0 2455 2444
0 2462 2498
0 2470 2559
0 2477 2661
0 2485 2769
0 2493 2886
0 2502 3005
0 2514 3119
0 2527 3231
0 2542 3339
0 2560 3431
0 2580 3521
0 2601 3609
0 2624 3695
0 2649 3780
0 2675 3865
0 2702 3950
517 2612 2289
226 2618 2363
0 2619 2401
0 2616 2437
0 2617 2476
0 2619 2516
0 2623 2557
0 2627 2601
0 2632 2648
0 2639 2700
0 2646 2756
0 2654 2827
0 2661 2930
0 2669 3040
0 2676 3157
0 2686 3276
0 2696 3391
0 2709 3502
0 2723 3612
0 2739 3706
0 2758 3796
0 2778 3883
0 2799 3968
0 2822 4053
187 2845 4095
583 2786 2499
323 2791 2573
25 2796 2613
0 2793 2649
0 2792 2687
0 2794 2726
0 2797 2767
0 2801 2810
0 2805 2855
0 2811 2905
0 2817 2958
0 2825 3016
0 2832 3096
0 2839 3200
0 2846 3310
0 2854 3428
0 2862 3546
0 2873 3660
0 2885 3771
0 2898 3879
0 2913 3977
105 2929 4064
464 2947 4095
1006 2970 4095
1317 2999 4095
652 2954 2710
417 2959 2783
240 2962 2822
0 2964 2862
0 2962 2899
0 2963 2938
0 2966 2978
0 2969 3020
0 2973 3064
0 2978 3112
0 2984 3162
0 2990 3217
0 2998 3276
0 3004 3365
0 3011 3470
0 3018 3580
0 3025 3696
0 3033 3814
0 3043 3926
137 3053 4032
359 3064 4095
1061 3074 4095
1378 3096 4095
1603 3125 4095
1784 3159 4095
728 3116 2921
512 3121 2994
369 3124 3032
142 3127 3073
0 3127 3112
0 3127 3150
0 3129 3189
0 3132 3230
0 3136 3273
0 3140 3319
0 3145 3368
0 3151 3419
0 3157 3475
0 3165 3534
0 3170 3631
0 3177 3736
0 3184 3846
137 3189 3957
232 3196 4070
800 3197 4095
1293 3203 4095
1594 3222 4095
1817 3250 4095
1949 3278 4095
1955 3291 4095
807 3273 3133
607 3278 3204
485 3280 3242
329 3283 3282
24 3288 3324
0 3287 3362
0 3289 3401
0 3291 3441
0 3294 3482
0 3298 3526
0 3302 3573
0 3307 3622
0 3313 3675
0 3320 3731
50 3326 3794
158 3330 3892
236 3335 3993
304 3341 4095
1020 3330 4095
1450 3332 4095
1728 3347 4095
1938 3370 4095
1981 3383 4095
1986 3393 4095
1992 3405 4095
892 3425 3342
707 3430 3412
598 3432 3450
472 3435 3489
317 3438 3530
63 3442 3572
0 3444 3611
0 3446 3649
11 3448 3690
88 3450 3731
136 3453 3775
176 3457 3821
213 3462 3870
249 3468 3921
284 3473 3976
326 3479 4046
591 3478 4095
1213 3461 4095
1565 3459 4095
1828 3470 4095
2007 3486 4095
2012 3493 4095
2017 3501 4095
2022 3510 4095
2026 3519 4095
981 3573 3549
809 3577 3618
711 3580 3654
602 3583 3692
480 3585 3732
344 3588 3773
249 3591 3812
265 3592 3850
287 3594 3888
310 3596 3929
333 3599 3970
356 3603 4014
382 3607 4060
414 3612 4095
790 3605 4095
1124 3596 4095
1435 3587 4095
1710 3585 4095
1930 3592 4095
2038 3601 4095
2042 3606 4095
2047 3612 4095
2052 3619 4095
2087 3627 4095
2268 3636 4095
1076 3718 3753
915 3722 3820
827 3724 3855
731 3727 3893
627 3729 3931
519 3732 3971
428 3735 4010
427 3736 4046
453 3738 4081
484 3742 4095
818 3731 4095
1089 3719 4095
1296 3711 4095
1470 3706 4095
1624 3703 4095
1763 3703 4095
1893 3705 4095
2064 3707 4095
2073 3711 4095
2078 3715 4095
2083 3719 4095
2087 3724 4095
2195 3728 4095
2391 3731 4095
2558 3734 4095
1176 3859 3951
1032 3864 4013
956 3867 4044
879 3871 4076
802 3874 4095
925 3865 4095
1115 3849 4095
1278 3837 4095
1429 3826 4095
1562 3818 4095
1682 3811 4095
1794 3805 4095
1900 3801 4095
2000 3798 4095
2095 3797 4095
2110 3800 4095
2114 3804 4095
2119 3809 4095
2122 3812 4095
2127 3815 4095
2130 3819 4095
2370 3817 4095
2540 3815 4095
2795 3808 4095
2931 3805 4095
1351 3986 4095
1483 3961 4095
1563 3947 4095
1641 3934 4095
1718 3922 4095
1793 3911 4095
1867 3901 4095
1941 3893 4095
2023 3887 4095
2101 3881 4095
2153 3878 4095
2156 3880 4095
2159 3882 4095
2162 3884 4095
2165 3887 4095
2169 3890 4095
2173 3893 4095
2177 3897 4095
2182 3901 4095
2337 3898 4095
2547 3892 4095
2755 3884 4095
2980 3872 4095
3120 3865 4095
3261 3856 4095
2058 4002 4095
2134 3982 4095
2172 3974 4095
2212 3965 4095
2254 3958 4095
2258 3955 4095
2237 3956 4095
2220 3957 4095
2217 3958 4095
2219 3958 4095
2222 3960 4095
2224 3961 4095
2227 3963 4095
2232 3964 4095
2236 3966 4095
2240 3968 4095
2273 3970 4095
2542 3961 4095
2601 3961 4095
2809 3950 4095
3075 3931 4095
3227 3920 4095
3369 3908 4095
3458 3901 4095
3519 3898 4095
130 0 0
28 0 81
17 0 145
18 0 205
21 18 268
29 76 336
36 137 403
39 203 479
46 270 560
50 335 643
56 406 736
63 474 830
67 542 929
64 613 1035
49 682 1139
0 753 1251
0 823 1361
0 894 1474
0 967 1589
0 1039 1708
0 1111 1827
0 1184 1949
0 1257 2072
0 1330 2197
0 1403 2323
170 56 83
170 71 133
128 93 223
100 124 294
78 161 358
64 206 420
57 254 487
50 306 558
50 363 634
45 420 713
44 480 799
41 544 891
28 607 987
0 671 1086
0 737 1188
0 804 1292
0 873 1401
0 941 1510
0 1011 1623
0 1081 1739
0 1151 1856
0 1222 1975
0 1293 2096
0 1365 2219
0 1436 2344
203 250 197
174 260 241
197 267 298
142 288 382
93 316 455
61 347 522
42 386 589
27 425 658
9 472 732
0 522 810
0 575 892
0 630 979
0 688 1069
0 747 1161
0 808 1256
0 870 1355
0 934 1457
0 1000 1564
0 1067 1672
0 1133 1783
0 1202 1897
0 1269 2014
0 1338 2132
0 1407 2251
0 1477 2374
232 447 314
193 457 359
170 463 414
203 468 471
164 485 554
103 510 635
56 539 710
24 571 784
0 609 861
0 649 939
0 693 1018
0 739 1098
0 790 1182
0 843 1267
0 898 1357
0 956 1451
0 1015 1547
0 1075 1648
0 1138 1753
0 1201 1859
0 1265 1968
0 1330 2080
0 1396 2194
0 1463 2311
0 1529 2429
268 645 434
218 653 485
149 661 547
184 666 585
203 672 658
170 686 750
112 709 839
42 734 922
0 763 1003
0 797 1082
0 833 1156
0 873 1232
0 917 1314
0 962 1399
0 1011 1488
0 1062 1579
0 1116 1670
0 1172 1766
0 1229 1865
0 1288 1966
0 1348 2070
0 1408 2178
0 1471 2287
0 1534 2399
0 1597 2513
307 845 563
249 851 624
141 859 691
147 865 732
185 871 781
189 879 869
157 890 967
106 909 1059
0 934 1149
0 961 1233
0 991 1312
0 1024 1386
0 1061 1464
0 1101 1546
0 1144 1631
0 1189 1719
0 1237 1812
0 1287 1906
0 1338 2004
0 1392 2101
0 1448 2200
0 1504 2302
0 1562 2407
0 1621 2514
0 1681 2623
341 1047 702
279 1051 776
136 1059 851
107 1065 894
133 1071 936
156 1078 1000
147 1087 1096
98 1098 1198
75 1113 1292
0 1136 1386
0 1162 1476
0 1189 1553
0 1221 1632
0 1255 1712
0 1292 1794
0 1332 1879
0 1374 1967
0 1418 2057
0 1465 2152
0 1513 2248
0 1563 2347
0 1614 2449
0 1667 2550
0 1722 2652
0 1778 2756
385 1250 868
307 1253 943
119 1262 1021
0 1268 1065
0 1274 1108
92 1279 1153
75 1287 1231
22 1296 1333
0 1306 1438
0 1320 1536
0 1340 1631
0 1364 1726
0 1391 1806
0 1419 1887
0 1451 1969
0 1486 2052
0 1524 2138
0 1563 2226
0 1604 2316
0 1648 2409
0 1693 2504
0 1739 2601
0 1788 2701
0 1837 2803
0 1888 2907
430 1452 1041
337 1455 1117
102 1464 1199
0 1468 1243
0 1472 1285
0 1479 1330
0 1488 1380
0 1494 1471
0 1502 1576
0 1513 1685
0 1526 1787
0 1545 1886
0 1568 1984
0 1592 2068
0 1619 2151
0 1649 2235
0 1682 2319
0 1716 2405
0 1753 2493
0 1791 2582
0 1832 2674
0 1875 2768
0 1919 2864
0 1963 2961
0 2010 3061
475 1653 1223
368 1658 1300
100 1666 1383
0 1667 1427
0 1671 1469
0 1677 1513
0 1684 1561
0 1694 1620
0 1700 1719
0 1708 1828
0 1718 1941
0 1732 2047
0 1748 2147
0 1770 2249
0 1793 2336
0 1819 2422
0 1846 2506
0 1877 2592
0 1909 2679
0 1943 2766
0 1980 2856
0 2017 2946
0 2057 3038
0 2098 3132
0 2140 3228
522 1853 1412
404 1857 1489
108 1865 1573
0 1866 1619
0 1868 1660
0 1873 1703
0 1879 1750
0 1887 1801
0 1895 1871
0 1903 1974
0 1911 2087
0 1922 2203
0 1935 2311
0 1949 2414
0 1970 2519
0 1991 2609
0 2016 2696
0 2042 2783
0 2070 2869
0 2100 2955
0 2133 3043
0 2166 3132
0 2202 3221
0 2238 3312
0 2277 3404
