Creative/ColorShaping-Skintone.3dl
#25pt 3DLUT created by 3D LUT Creator Pro (c) Oleg Sharonov
#Copyright Oleg Sharonov
#IMAGEPROFILE sRGB IEC61966-2.1 v.2.10
#INPUTGAMMA sRGB IEC61966-2.1 v.2.10
#OUTPUTGAMMA sRGB IEC61966-2.1 v.2.10
0 43 86 128 171 214 256 299 341 384 427 469 512 555 597 640 682 725 768 810 853 896 938 981 1023 
0 0 0
0 0 171
0 0 330
3 3 499
3 3 664
6 6 827
10 13 993
16 16 1159
23 26 1317
32 36 1479
45 48 1637
61 68 1795
81 90 1948
100 113 2106
123 139 2263
149 171 2420
177 201 2578
206 233 2732
235 267 2887
269 302 3038
297 332 3195
322 360 3355
347 386 3514
372 412 3674
396 439 3834
0 171 0
0 171 177
0 168 352
0 171 514
0 177 664
3 183 818
6 195 971
13 206 1124
19 220 1276
29 235 1432
39 255 1585
55 273 1739
68 293 1895
87 312 2052
107 334 2208
129 358 2362
158 384 2514
186 412 2666
217 440 2816
248 470 2968
273 492 3128
297 516 3288
324 538 3448
349 563 3608
374 586 3767
0 339 0
3 339 174
3 339 349
3 336 533
0 337 693
0 341 855
0 349 1004
3 356 1147
10 369 1293
19 383 1438
32 401 1579
45 420 1717
61 437 1873
78 454 2027
97 472 2180
119 493 2332
145 514 2483
174 537 2632
206 563 2782
233 584 2940
257 604 3099
284 625 3258
310 646 3418
334 668 3577
360 690 3737
0 512 0
3 512 174
3 510 349
6 509 526
10 506 715
6 503 893
3 506 1047
0 510 1198
0 520 1342
6 528 1481
13 542 1622
26 557 1758
39 575 1894
58 594 2029
81 616 2164
107 637 2304
132 657 2456
158 677 2604
186 695 2760
212 713 2919
240 731 3076
264 750 3235
291 769 3393
318 788 3552
343 808 3711
0 682 0
3 682 174
6 681 347
10 681 523
13 679 701
19 676 894
19 670 1087
10 672 1242
3 676 1394
0 681 1540
3 691 1679
6 701 1814
19 714 1948
32 730 2082
48 747 2216
71 766 2351
97 787 2486
126 809 2619
158 832 2754
189 851 2904
217 868 3060
243 884 3217
271 902 3374
297 919 3531
324 937 3689
0 853 0
3 853 174
6 852 347
13 852 522
16 851 698
19 849 877
29 845 1070
32 839 1269
19 838 1436
10 842 1588
3 845 1737
0 851 1885
3 860 2023
10 871 2158
19 883 2293
36 898 2426
55 915 2560
78 933 2692
103 952 2825
136 973 2959
171 994 3092
209 1017 3227
245 1041 3361
271 1058 3517
299 1074 3673
0 1023 0
3 1023 174
6 1023 347
13 1023 521
19 1022 696
26 1020 873
29 1018 1053
39 1015 1247
45 1010 1446
39 1004 1632
23 1007 1787
10 1010 1936
3 1015 2083
0 1021 2227
3 1030 2364
10 1041 2499
23 1054 2634
39 1068 2767
58 1083 2900
84 1100 3033
113 1118 3166
149 1137 3299
186 1157 3433
222 1180 3565
260 1203 3696
0 1195 0
3 1195 174
6 1194 347
13 1194 520
19 1193 695
29 1192 871
36 1190 1048
42 1189 1229
55 1185 1421
61 1179 1619
65 1173 1821
42 1174 1978
23 1177 2131
10 1180 2280
3 1185 2426
0 1192 2570
3 1201 2707
10 1211 2843
23 1223 2977
39 1237 3110
61 1251 3244
90 1268 3376
123 1286 3506
161 1305 3636
201 1325 3767
3 1364 0
3 1365 174
6 1364 345
13 1364 518
23 1364 693
32 1363 868
39 1362 1045
45 1360 1222
55 1359 1403
68 1355 1595
78 1350 1792
84 1343 1993
65 1341 2167
42 1344 2322
23 1346 2473
10 1351 2623
3 1355 2769
0 1362 2912
3 1371 3048
10 1382 3182
26 1394 3314
45 1408 3446
68 1423 3577
100 1439 3708
136 1456 3838
3 1535 0
3 1535 174
6 1535 345
13 1535 518
23 1534 692
32 1534 867
42 1533 1043
52 1532 1219
61 1531 1396
68 1529 1577
84 1525 1769
97 1520 1965
103 1514 2166
97 1509 2355
68 1511 2511
42 1514 2664
23 1517 2814
10 1521 2962
3 1527 3108
0 1534 3249
3 1543 3384
13 1554 3517
29 1566 3650
48 1580 3781
74 1595 3912
6 1707 0
3 1706 174
6 1706 345
13 1705 518
23 1705 692
32 1705 865
45 1704 1041
58 1703 1216
71 1702 1394
78 1701 1573
87 1699 1753
110 1695 1946
126 1690 2143
136 1684 2344
139 1676 2548
100 1677 2705
68 1681 2855
42 1684 3003
23 1688 3152
10 1693 3299
3 1698 3444
0 1706 3586
3 1715 3720
16 1726 3853
32 1738 3985
6 1877 0
3 1877 171
6 1877 345
13 1876 518
23 1876 692
36 1875 865
48 1875 1040
65 1874 1215
78 1873 1391
90 1872 1570
103 1870 1749
113 1868 1930
136 1864 2124
155 1859 2322
171 1853 2523
174 1846 2727
149 1843 2904
107 1845 3056
71 1848 3206
45 1852 3353
23 1857 3498
10 1862 3642
3 1869 3783
0 1878 3918
6 1889 4049
10 2047 0
0 2048 171
6 2047 345
13 2047 518
23 2047 691
36 2046 865
52 2045 1039
68 2045 1214
84 2044 1390
100 2043 1567
113 2041 1745
126 2040 1925
142 2038 2107
168 2034 2301
189 2029 2499
206 2022 2701
212 2015 2907
203 2008 3103
155 2011 3255
110 2014 3404
74 2018 3550
45 2023 3694
23 2029 3835
10 2035 3975
0 2043 4095
10 2218 0
0 2218 171
6 2218 345
13 2218 517
23 2217 691
36 2217 864
52 2216 1038
68 2216 1213
87 2215 1389
107 2214 1565
129 2213 1743
145 2211 1922
158 2209 2103
177 2207 2287
212 2202 2484
235 2197 2685
252 2190 2889
262 2182 3097
264 2173 3308
217 2175 3463
158 2179 3603
107 2185 3740
71 2190 3882
42 2195 4025
19 2202 4095
3 2389 0
0 2389 171
6 2389 345
16 2388 518
29 2388 692
45 2387 866
65 2387 1041
84 2386 1215
103 2385 1390
126 2384 1566
145 2383 1743
168 2382 1921
192 2380 2103
203 2378 2284
222 2376 2469
255 2371 2667
282 2365 2872
304 2357 3080
314 2349 3290
316 2339 3503
289 2335 3684
233 2339 3828
177 2344 3969
123 2349 4095
493 2355 4095
3 2559 0
0 2559 171
6 2559 345
13 2559 518
26 2559 692
45 2558 865
65 2558 1040
87 2557 1215
116 2556 1391
145 2555 1568
168 2554 1744
186 2553 1921
209 2551 2100
230 2549 2282
245 2547 2465
269 2544 2652
299 2539 2851
328 2533 3057
349 2525 3266
362 2517 3480
369 2506 3697
362 2496 3908
308 2499 4055
250 2504 4095
909 2504 4095
3 2730 0
0 2730 171
6 2730 345
13 2730 518
26 2730 692
42 2729 865
65 2729 1039
87 2728 1214
116 2727 1390
145 2726 1566
177 2725 1743
206 2724 1921
230 2722 2099
252 2721 2280
271 2719 2461
282 2717 2645
310 2713 2833
347 2708 3037
374 2701 3244
396 2693 3455
411 2684 3670
420 2673 3889
422 2661 4095
804 2656 4095
1184 2655 4095
3 2900 0
0 2900 171
6 2900 345
16 2900 518
29 2900 693
48 2900 867
74 2899 1041
97 2898 1215
126 2898 1390
158 2897 1566
192 2896 1743
222 2894 1920
248 2893 2099
273 2891 2278
299 2889 2461
318 2887 2644
328 2885 2827
356 2882 3017
391 2876 3221
423 2868 3432
448 2860 3646
464 2850 3863
472 2840 4083
983 2817 4095
1462 2799 4095
0 3071 0
0 3071 171
6 3071 345
16 3071 518
29 3071 692
48 3070 866
74 3070 1041
103 3069 1216
139 3068 1391
177 3067 1568
212 3066 1745
240 3065 1921
269 3064 2099
293 3062 2278
316 3061 2458
341 3059 2641
360 3056 2825
372 3054 3010
403 3050 3201
437 3044 3407
468 3037 3618
494 3028 3833
513 3018 4053
1028 2993 4095
1631 2959 4095
0 3242 0
0 3242 171
6 3242 345
13 3242 518
29 3242 692
48 3241 865
71 3241 1040
103 3240 1215
139 3239 1390
177 3238 1566
214 3237 1743
250 3236 1920
284 3235 2099
316 3233 2278
337 3232 2457
360 3230 2638
383 3228 2821
399 3225 3006
412 3223 3191
448 3219 3385
484 3212 3592
516 3205 3805
541 3196 4021
1077 3169 4095
1615 3134 4095
0 3412 0
0 3412 171
3 3412 343
13 3412 517
26 3412 691
45 3412 865
71 3411 1039
100 3411 1214
136 3410 1389
177 3409 1565
214 3408 1741
252 3407 1918
289 3406 2096
322 3404 2275
352 3403 2455
379 3401 2636
404 3399 2818
423 3397 3001
440 3394 3186
449 3392 3372
488 3387 3566
526 3381 3775
559 3373 3989
886 3355 4095
1715 3302 4095
0 3583 0
0 3583 171
3 3583 343
13 3583 517
29 3583 692
48 3582 865
74 3582 1040
107 3581 1215
145 3581 1390
189 3580 1566
228 3579 1742
264 3578 1919
299 3577 2096
334 3575 2274
365 3574 2453
393 3572 2633
419 3570 2814
443 3568 2997
464 3566 3181
479 3563 3367
488 3561 3552
528 3556 3748
565 3550 3957
599 3542 4095
1723 3477 4095
0 3754 0
0 3754 171
3 3754 343
13 3754 517
26 3753 691
48 3753 865
74 3753 1039
107 3752 1214
145 3752 1389
186 3751 1565
230 3750 1741
271 3749 1918
310 3748 2095
345 3746 2274
377 3745 2452
408 3743 2632
434 3742 2812
460 3740 2993
482 3738 3177
501 3735 3361
517 3733 3546
527 3730 3733
569 3725 3929
606 3718 4095
1865 3640 4095
0 3924 0
0 3924 171
3 3924 343
13 3924 517
26 3924 691
45 3924 865
71 3923 1039
103 3923 1214
142 3922 1388
186 3921 1564
230 3921 1740
271 3920 1916
310 3918 2093
349 3917 2271
384 3916 2450
417 3914 2629
448 3913 2810
475 3911 2990
500 3909 3172
522 3907 3356
540 3904 3540
553 3902 3726
565 3899 3913
607 3894 4095
1846 3817 4095
0 4095 0
0 4095 171
3 4095 343
13 4095 516
26 4095 690
48 4094 864
74 4094 1038
107 4094 1212
145 4093 1387
192 4092 1562
235 4091 1738
278 4091 1914
318 4090 2091
358 4088 2268
393 4087 2447
428 4086 2626
461 4084 2805
492 4082 2986
521 4080 3168
546 4078 3351
569 4076 3535
584 4074 3720
597 4071 3906
611 4068 4093
2083 3969 4095
180 0 0
171 0 171
168 0 337
168 0 506
165 3 674
168 6 846
165 10 1005
165 16 1173
165 23 1339
168 32 1495
171 48 1657
177 65 1812
186 84 1970
198 103 2134
209 129 2289
225 155 2449
243 186 2605
262 217 2760
282 250 2915
306 280 3071
326 306 3231
349 332 3391
370 356 3551
393 383 3712
416 408 3872
180 174 3
168 174 168
171 171 337
171 171 504
174 174 671
174 174 835
177 180 1000
183 186 1164
189 192 1327
198 201 1483
209 214 1639
222 230 1797
235 243 1955
248 260 2113
264 278 2270
282 297 2427
302 320 2584
322 343 2739
345 369 2890
367 396 3044
386 417 3203
408 439 3363
428 461 3522
448 485 3681
470 508 3841
195 337 0
180 337 180
183 337 354
177 339 520
171 341 685
165 345 838
165 352 988
165 362 1135
171 374 1283
177 388 1431
189 398 1586
201 411 1744
212 425 1898
225 442 2053
243 460 2206
260 478 2359
278 499 2510
299 521 2662
320 545 2812
339 564 2969
360 584 3130
381 604 3289
401 625 3448
422 646 3606
443 667 3766
195 508 0
183 509 183
180 509 356
195 505 536
195 504 716
183 506 878
174 510 1034
168 514 1182
165 523 1329
168 533 1472
174 546 1613
180 560 1751
195 578 1890
209 597 2027
225 616 2172
243 632 2323
262 650 2473
282 669 2622
302 687 2781
322 703 2938
341 721 3096
362 739 3254
383 758 3413
404 777 3571
425 796 3730
198 679 0
183 681 183
186 680 354
186 679 531
201 676 711
206 673 901
198 672 1073
183 674 1228
174 679 1381
168 685 1527
168 695 1666
168 706 1802
177 720 1939
186 735 2075
201 751 2210
217 771 2346
238 791 2480
260 812 2615
280 831 2762
299 846 2918
320 862 3074
341 878 3231
363 895 3388
384 912 3546
408 931 3704
217 849 0
183 852 183
186 851 354
189 850 528
192 849 705
206 848 885
214 842 1076
217 838 1268
201 840 1425
186 843 1576
177 848 1728
171 854 1872
168 863 2011
171 874 2148
180 887 2284
192 902 2418
206 918 2553
225 935 2686
245 955 2820
269 975 2954
291 997 3088
318 1020 3223
341 1038 3372
363 1053 3528
386 1070 3684
225 1020 0
183 1022 183
189 1022 354
192 1022 527
198 1020 701
201 1020 880
214 1018 1060
225 1013 1252
233 1007 1450
220 1006 1622
201 1008 1776
186 1012 1926
177 1017 2075
171 1024 2218
168 1033 2355
174 1044 2491
183 1057 2626
195 1070 2760
212 1086 2895
230 1103 3028
252 1120 3161
276 1140 3295
302 1160 3429
328 1182 3561
356 1206 3692
250 1190 0
183 1194 183
189 1193 352
192 1193 525
198 1192 699
203 1191 875
209 1190 1053
222 1188 1234
235 1183 1425
243 1178 1623
240 1173 1812
220 1175 1969
201 1178 2122
186 1182 2271
177 1187 2418
171 1194 2561
171 1203 2699
174 1214 2835
183 1225 2970
198 1239 3105
214 1253 3239
235 1270 3370
260 1288 3501
284 1307 3632
312 1328 3762
295 1359 0
183 1364 180
189 1364 352
192 1364 525
201 1363 697
206 1362 872
214 1361 1049
217 1359 1226
233 1358 1407
245 1354 1599
255 1348 1796
260 1342 1996
240 1342 2160
220 1344 2314
201 1347 2466
186 1352 2616
177 1357 2763
171 1364 2905
171 1373 3041
177 1384 3175
186 1396 3308
203 1410 3441
222 1425 3573
243 1441 3703
269 1459 3834
351 1527 0
183 1535 180
186 1535 352
192 1535 523
201 1534 696
209 1533 871
217 1533 1046
225 1531 1222
228 1530 1400
243 1528 1580
257 1524 1772
269 1519 1968
276 1513 2168
264 1510 2349
240 1512 2505
217 1514 2657
201 1518 2807
186 1523 2956
177 1528 3102
171 1535 3242
171 1545 3378
177 1556 3512
189 1568 3645
206 1582 3776
228 1596 3908
376 1697 0
183 1706 180
189 1705 352
195 1705 523
201 1705 696
209 1704 869
220 1703 1044
230 1703 1220
238 1701 1397
243 1700 1576
260 1698 1756
276 1694 1950
287 1689 2146
295 1683 2347
295 1676 2545
267 1678 2699
240 1681 2848
217 1685 2998
198 1689 3147
183 1694 3294
174 1700 3439
171 1707 3580
171 1717 3715
180 1728 3848
192 1740 3980
