Creative/ColorHarmony - Orange Teal (CMYK).3dl
#25pt 3DLUT created by 3D LUT Creator Pro (c) Oleg Sharonov
#Copyright Oleg Sharonov
#IMAGEPROFILE 
#INPUTGAMMA 
#OUTPUTGAMMA 
0 128 256 384 512 640 768 896 1023
0 0 0
0 90 493
3 192 977
0 316 1461
0 434 1963
0 552 2465
0 669 2967
0 786 3468
0 902 3970
326 490 345
84 443 540
52 533 1011
0 629 1488
0 732 1971
0 839 2459
0 950 2951
0 1062 3446
0 1175 3942
661 991 701
462 1001 948
177 894 1081
145 979 1553
74 1068 2026
0 1164 2502
0 1264 2982
0 1368 3465
0 1474 3952
997 1492 1057
798 1500 1303
572 1483 1524
302 1341 1624
271 1425 2095
201 1513 2566
65 1604 3040
0 1700 3516
0 1798 3994
1333 1993 1412
1133 2000 1658
931 2008 1903
657 1933 2067
427 1789 2166
396 1872 2637
337 1958 3108
230 2048 3580
26 2140 4054
1668 2493 1768
1468 2500 2013
1266 2507 2258
1064 2515 2504
750 2381 2609
552 2237 2708
523 2319 3179
474 2405 3650
389 2492 4095
2004 2994 2124
1803 3001 2368
1602 3007 2613
1399 3015 2858
1150 2972 3054
849 2830 3152
680 2684 3250
652 2767 3721
909 2844 4095
2339 3495 2479
2139 3501 2724
1937 3508 2968
1735 3515 3213
1532 3522 3459
1235 3421 3596
955 3278 3694
809 3131 3792
1348 3191 4095
2675 3995 2835
2474 4002 3079
2273 4008 3324
2071 4015 3568
1868 4022 3813
1647 4012 4041
1344 3869 4095
1696 3686 4095
1823 3526 4095
506 39 0
308 183 314
383 316 794
399 437 1296
393 562 1810
362 685 2331
299 808 2859
180 932 3392
0 1055 3931
514 499 155
512 512 512
508 619 980
485 717 1458
449 822 1942
394 930 2431
314 1041 2923
183 1153 3417
0 1267 3913
848 997 506
845 995 855
626 958 1045
591 1053 1517
556 1148 1991
508 1246 2468
436 1348 2949
330 1453 3433
145 1560 3920
1179 1493 858
1175 1490 1203
994 1503 1449
706 1406 1587
674 1496 2058
636 1588 2530
585 1682 3004
509 1780 3480
398 1880 3960
1513 1992 1212
1507 1987 1556
1320 1998 1802
1110 1988 2026
793 1854 2129
764 1942 2600
725 2032 3071
673 2123 3544
600 2218 4018
1847 2491 1566
1841 2486 1910
1650 2496 2155
1460 2507 2401
1192 2439 2568
888 2302 2671
859 2389 3142
823 2477 3613
771 2567 4085
2182 2991 1921
2175 2986 2264
1983 2995 2509
1790 3005 2755
1597 3016 3001
1276 2889 3111
989 2750 3213
961 2836 3684
1041 2919 4095
2517 3491 2276
2509 3486 2619
2316 3494 2863
2122 3503 3109
1927 3513 3355
1686 3476 3553
1365 3338 3654
1095 3198 3755
1418 3265 4095
2853 3992 2631
2844 3986 2974
2650 3994 3219
2455 4003 3463
2259 4012 3709
2063 4021 3955
1768 3926 4095
1802 3760 4095
1888 3598 4095
1008 90 0
831 297 420
658 409 670
762 547 1162
815 679 1679
842 811 2213
848 942 2762
832 1075 3323
792 1208 3895
1013 540 136
991 610 551
822 684 829
868 806 1304
886 926 1797
887 1046 2302
874 1167 2818
844 1290 3342
797 1415 3873
1031 999 306
1026 1007 711
1024 1024 1024
1033 1145 1484
1015 1239 1960
993 1338 2438
964 1439 2919
926 1545 3404
877 1652 3892
1372 1505 668
1362 1503 1039
1366 1503 1366
1179 1471 1551
1131 1572 2022
1099 1668 2495
1067 1765 2970
1029 1864 3447
981 1965 3927
1700 1998 1017
1692 1995 1379
1692 1993 1711
1526 2008 1954
1254 1918 2091
1215 2013 2563
1182 2106 3035
1145 2201 3508
1102 2297 3982
2031 2495 1369
2023 2491 1726
2022 2488 2060
1846 2501 2305
1648 2494 2529
1333 2365 2634
1298 2457 3104
1265 2549 3576
1227 2642 4048
2364 2993 1722
2356 2988 2076
2354 2984 2412
2173 2996 2656
1991 3009 2902
1731 2945 3071
1417 2813 3176
1384 2903 3646
1351 2993 4095
2698 3491 2075
2689 3486 2427
2687 3482 2764
2502 3493 3009
2316 3505 3255
2131 3517 3501
1814 3395 3614
1505 3261 3718
1658 3338 4095
3032 3991 2430
3024 3986 2780
3020 3981 3118
2833 3991 3363
2645 4002 3608
2457 4013 3854
2223 3979 4054
2005 3834 4095
2059 3669 4095
1520 139 0
1361 372 461
1199 540 815
1036 646 1056
1160 793 1571
1240 935 2113
1291 1077 2679
1320 1220 3263
1328 1364 3867
1516 585 129
1496 659 550
1329 797 915
1167 885 1181
1246 1025 1676
1294 1160 2193
1322 1295 2727
1334 1430 3277
1329 1567 3840
1528 1038 291
1513 1077 699
1480 1174 1107
1337 1209 1343
1379 1325 1824
1396 1441 2316
1402 1559 2819
1396 1678 3331
1379 1799 3852
1548 1499 460
1541 1507 862
1536 1516 1269
1536 1536 1536
1557 1671 1988
1541 1764 2463
1523 1860 2940
1500 1958 3418
1474 2059 3898
1896 2014 830
1885 2012 1210
1878 2011 1574
1888 2012 1878
1732 1983 2056
1670 2092 2527
1637 2190 2999
1607 2286 3474
1577 2383 3949
2222 2505 1177
2212 2502 1548
2207 2500 1902
2211 2499 2221
2060 2515 2459
1806 2430 2596
1758 2530 3067
1722 2626 3539
1689 2720 4012
2551 3000 1527
2542 2996 1892
2537 2993 2243
2539 2991 2568
2373 3006 2810
2188 3002 3034
1882 2877 3138
1840 2973 3609
1806 3066 4080
2883 3496 1879
2873 3492 2240
2869 3488 2589
2869 3485 2918
2696 3499 3161
2522 3513 3405
2273 3452 3575
1960 3324 3680
1997 3411 4095
3216 3994 2232
3206 3989 2590
3201 3985 2938
3201 3982 3268
3023 3994 3512
2844 4007 3757
2666 4021 4003
2355 3902 4095
2328 3741 4095
2032 189 0
1894 437 481
1749 632 890
1604 790 1227
1451 899 1480
1595 1058 2028
1698 1213 2608
1772 1368 3214
1824 1525 3846
2022 633 129
2005 710 550
1852 881 961
1704 1020 1304
1553 1120 1575
1658 1274 2100
1732 1425 2650
1785 1574 3223
1819 1724 3816
2027 1081 280
2010 1132 694
1983 1222 1103
1838 1329 1436
1695 1406 1709
1763 1544 2210
1808 1679 2731
1838 1815 3269
1854 1952 3821
2044 1537 445
2031 1565 851
2013 1613 1257
1969 1738 1664
1856 1745 1860
1900 1858 2347
1919 1972 2842
1927 2088 3346
1926 2206 3859
2064 1999 613
2058 2007 1016
2052 2015 1421
2048 2024 1828
2048 2048 2048
2077 2192 2495
2066 2290 2967
2049 2384 3443
2030 2480 3920
2421 2524 993
2409 2522 1376
2399 2520 1752
2395 2520 2110
2407 2522 2391
2270 2495 2564
2209 2612 3032
2172 2711 3504
2143 2808 3978
2745 3013 1338
2734 3010 1714
2726 3008 2080
2723 3007 2429
2732 3007 2733
2595 3023 2965
2358 2942 3102
2301 3047 3572
2262 3145 4044
3073 3506 1687
3063 3503 2058
3056 3500 2418
3053 3497 2763
3058 3496 3078
2902 3512 3317
2728 3510 3539
2433 3389 3643
2385 3488 4095
3404 4001 2038
3393 3997 2404
3386 3994 2761
3384 3991 3104
3386 3989 3426
3220 4003 3667
3055 4018 3909
2815 3961 4080
2665 3815 4095
2544 240 0
2430 496 492
2307 710 936
2181 896 1330
2057 1058 1675
1916 1177 1955
2080 1349 2547
2206 1519 3173
2304 1690 3831
2530 682 126
2515 760 550
2384 955 991
2254 1124 1383
2127 1273 1731
1989 1385 2020
2119 1554 2584
2218 1721 3178
2295 1887 3799
2530 1127 271
2513 1184 690
2489 1272 1103
2357 1417 1484
2231 1545 1827
2098 1645 2120
2193 1802 2656
2264 1956 3216
2318 2110 3797
2542 1579 431
2527 1618 842
2506 1677 1250
2471 1785 1659
2352 1876 1971
2232 1949 2245
2297 2085 2756
2343 2221 3283
2375 2358 3826
2560 2037 597
2549 2060 1003
2535 2092 1409
2513 2149 1814
2466 2283 2205
2380 2281 2383
2428 2397 2872
2450 2511 3372
2460 2627 3879
2581 2499 766
2574 2507 1169
2568 2515 1573
2563 2523 1980
2559 2534 2370
2559 2559 2559
2589 2704 3007
2590 2816 3471
2574 2909 3946
2947 3033 1155
2934 3031 1542
2923 3029 1922
2914 3029 2295
2912 3029 2646
2918 3033 2902
2782 3007 3075
2748 3132 3537
2706 3233 4009
3270 3522 1500
3258 3519 1880
3248 3517 2252
3242 3515 2614
3241 3514 2956
3254 3515 3245
3130 3531 3472
2911 3454 3607
2844 3565 4077
3596 4014 1847
3585 4010 2222
3576 4007 2589
3571 4005 2945
3569 4003 3285
3578 4003 3589
3431 4019 3824
3269 4020 4045
3039 3892 4095
3055 291 0
2969 548 497
2873 777 967
2772 984 1401
2670 1175 1803
2569 1351 2177
2442 1483 2493
2628 1671 3138
2779 1858 3821
3040 730 119
3026 811 551
2922 1022 1012
2816 1215 1439
2711 1392 1836
2608 1556 2206
2485 1684 2527
2640 1870 3140
2765 2055 3787
3035 1174 264
3018 1236 687
2997 1323 1103
2887 1495 1518
2780 1655 1906
2677 1803 2269
2559 1924 2591
2681 2099 3171
2779 2273 3779
3042 1623 420
3026 1669 835
3006 1734 1246
2976 1834 1656
2870 1968 2024
2769 2094 2369
2659 2199 2682
2750 2358 3230
2822 2516 3800
3057 2078 584
3043 2110 993
3026 2154 1399
3003 2222 1807
2960 2349 2215
2870 2433 2513
2776 2506 2788
2844 2642 3310
2892 2779 3845
3077 2537 751
3066 2557 1156
3054 2582 1560
3038 2619 1966
3014 2686 2373
2977 2795 2716
2911 2810 2914
2962 2943 3401
2986 3057 3905
3097 2999 920
3090 3007 1323
3084 3014 1726
3078 3023 2132
3073 3032 2539
3070 3046 2882
3071 3071 3071
3101 3216 3518
3115 3342 3975
3472 3543 1318
3459 3541 1707
3447 3539 2090
3437 3538 2469
3429 3538 2839
3430 3538 3182
3429 3544 3413
3293 3518 3587
3287 3652 4042
3794 4031 1662
3782 4028 2045
3771 4026 2421
3763 4024 2790
3757 4023 3149
3759 4023 3484
3777 4024 3757
3665 4040 3979
3464 3967 4095
3567 341 0
3511 597 499
3447 835 986
3377 1060 1453
3303 1273 1901
3228 1478 2330
3153 1674 2745
3040 1824 3108
3252 2030 3815
3550 780 116
3538 862 551
3465 1084 1027
3389 1295 1481
3312 1495 1918
3234 1688 2338
3158 1873 2745
3051 2020 3107
3233 2225 3779
3541 1221 257
3526 1287 686
3507 1374 1104
3426 1567 1544
3346 1752 1967
3266 1930 2376
3189 2103 2773
3089 2244 3133
3239 2440 3766
3544 1668 411
3528 1720 831
3508 1788 1243
3482 1885 1656
3400 2050 2060
3321 2209 2452
3244 2365 2832
3151 2497 3184
3270 2678 3780
3556 2120 572
3541 2160 984
3523 2211 1393
3499 2283 1802
3464 2397 2211
3388 2530 2572
3316 2660 2925
3233 2775 3255
3325 2936 3816
3573 2577 736
3560 2605 1144
3545 2640 1550
3526 2690 1957
3499 2767 2363
3449 2913 2772
3390 2996 3061
3329 3073 3339
3400 3210 3869
3593 3037 904
3583 3054 1309
3571 3076 1713
3559 3104 2118
3542 3146 2524
3514 3223 2931
3489 3306 3227
3446 3344 3449
3500 3494 3933
3614 3499 1074
3607 3507 1476
3600 3514 1879
3594 3522 2284
3589 3531 2690
3584 3540 3098
3582 3557 3394
3583 3583 3583
3613 3728 4030
3998 4053 1481
3984 4051 1871
3972 4049 2257
3960 4048 2639
3951 4047 3017
3945 4047 3383
3947 4048 3719
3940 4056 3924
3805 4030 4095
4078 393 0
4057 641 496
4029 885 999
3994 1124 1491
3954 1358 1975
3911 1586 2452
3866 1812 2924
3820 2034 3393
3724 2203 3810
4060 829 110
4049 912 550
4013 1141 1036
3972 1366 1513
3928 1586 1981
3882 1803 2445
3836 2017 2903
3789 2229 3359
3701 2398 3773
4049 1270 250
4035 1339 684
4017 1425 1105
3971 1634 1564
3923 1840 2016
3875 2043 2463
3827 2245 2907
3779 2445 3349
3698 2611 3757
4048 1714 403
4032 1771 827
4014 1841 1242
3990 1935 1656
3939 2125 2088
3889 2312 2517
3841 2499 2942
3793 2685 3366
3719 2844 3764
4057 2164 560
4041 2209 977
4022 2265 1388
4000 2340 1798
3968 2446 2210
3919 2614 2612
3871 2781 3013
3825 2949 3413
3760 3097 3793
4071 2618 724
4057 2653 1134
4040 2696 1542
4020 2752 1950
3994 2832 2358
3952 2960 2767
3910 3099 3128
3869 3239 3490
3818 3367 3839
4089 3076 890
4077 3101 1297
4063 3132 1702
4047 3171 2108
4027 3226 2514
3996 3313 2921
3938 3477 3329
3915 3565 3614
3889 3651 3897
4095 3536 1058
4095 3553 1462
4089 3571 1866
4077 3595 2270
4064 3626 2676
4046 3673 3083
4014 3759 3489
4000 3818 3739
3985 3881 3988
4095 3999 1228
4095 4006 1630
4095 4014 2033
4095 4022 2436
4095 4030 2843
4095 4039 3249
4095 4049 3656
4094 4069 3905
4095 4095 4095
