Creative/ColorHarmony - Jungle.3dl
#25pt 3DLUT created by 3D LUT Creator Pro (c) Oleg Sharonov
#Copyright Oleg Sharonov
#IMAGEPROFILE sRGB IEC61966-2.1 v.2.10
#INPUTGAMMA sRGB IEC61966-2.1 v.2.10
#OUTPUTGAMMA sRGB IEC61966-2.1 v.2.10
0 128 256 384 512 640 768 896 1023
0 0 0
26 58 132
94 196 376
212 362 622
339 528 868
465 695 1114
593 863 1360
720 1030 1607
847 1198 1853
3 492 350
48 506 504
220 519 753
334 600 920
439 712 1103
548 841 1303
661 981 1515
778 1129 1736
896 1282 1963
7 989 741
26 1002 767
171 1015 1011
442 998 1320
567 1053 1483
679 1133 1650
786 1233 1825
892 1348 2011
1000 1473 2207
17 1487 1134
27 1495 1149
1 1517 1195
336 1523 1518
663 1485 1877
793 1525 2053
913 1588 2214
1026 1667 2380
1133 1761 2551
30 1985 1526
30 1991 1537
153 2003 1567
1 2032 1626
497 2031 2025
888 1975 2428
1014 2006 2618
1140 2056 2782
1259 2122 2944
46 2483 1919
43 2488 1927
104 2498 1948
59 2518 1990
1 2547 2060
661 2540 2532
1116 2467 2976
1234 2491 3178
1363 2533 3350
69 2981 2311
63 2985 2318
95 2993 2334
292 3005 2366
1 3033 2418
1 3063 2494
824 3048 3038
1347 2959 3522
1455 2979 3735
98 3479 2704
89 3482 2709
102 3489 2722
237 3500 2748
303 3518 2788
2 3547 2849
1 3579 2930
986 3556 3545
2093 3411 3915
134 3977 3096
125 3980 3100
125 3986 3112
213 3995 3132
433 4007 3166
73 4034 3213
2 4062 3281
2 4095 3365
1962 3999 3989
511 80 46
426 119 396
271 287 625
320 429 772
414 579 975
522 734 1195
637 894 1425
756 1056 1660
877 1220 1897
365 540 210
512 512 512
471 554 766
490 637 953
551 745 1140
632 870 1337
727 1006 1546
832 1151 1763
925 1301 2005
81 1028 753
500 1002 816
557 1018 1015
634 1014 1313
695 1071 1493
771 1152 1665
856 1251 1843
948 1364 2029
1027 1489 2243
56 1512 1147
500 1495 1181
504 1516 1224
633 1525 1520
816 1495 1870
899 1536 2053
992 1599 2221
1086 1679 2389
1156 1774 2583
56 2003 1535
505 1991 1559
533 2004 1588
465 2033 1645
734 2033 2026
1012 1981 2422
1104 2013 2616
1208 2064 2783
1279 2132 2970
69 2497 1925
512 2488 1944
524 2498 1964
548 2516 2006
434 2549 2073
851 2541 2533
1218 2471 2971
1312 2496 3176
1378 2541 3371
89 2992 2316
521 2985 2331
525 2993 2347
596 3006 2378
469 3033 2429
422 3065 2505
980 3049 3040
1432 2962 3518
1464 2986 3752
115 3488 2708
533 3482 2720
531 3489 2733
576 3500 2758
649 3516 2798
367 3550 2856
436 3580 2939
1118 3557 3546
2125 3416 3917
150 3985 3100
134 3987 3104
121 3993 3115
188 4003 3136
408 4015 3169
131 4041 3217
2 4069 3285
416 4095 3373
2015 4001 3990
1022 160 91
1023 160 469
878 314 823
660 530 1020
616 674 1241
668 816 1395
751 964 1584
848 1116 1791
954 1271 2008
1018 518 112
1023 518 470
956 560 913
769 701 1186
730 817 1353
767 938 1509
835 1067 1688
920 1204 1884
1000 1348 2110
774 1071 490
858 1056 643
1024 1024 1024
969 1052 1304
954 1114 1514
973 1196 1701
1019 1294 1883
1083 1405 2071
1097 1528 2338
350 1572 1092
613 1554 1169
1009 1512 1300
1061 1529 1528
1104 1518 1853
1123 1563 2053
1170 1628 2236
1230 1708 2412
1219 1805 2664
241 2045 1559
568 2034 1582
1005 2004 1643
1008 2029 1697
1120 2036 2031
1262 1997 2406
1302 2032 2609
1367 2084 2787
1331 2157 3038
196 2530 1943
554 2521 1961
1005 2497 2007
1039 2513 2047
987 2547 2112
1195 2543 2535
1434 2482 2957
1488 2510 3168
1417 2562 3424
185 3019 2330
553 3011 2344
1007 2993 2382
1025 3007 2412
1016 3030 2461
978 3063 2534
1286 3051 3041
1620 2970 3506
1489 3005 3795
191 3510 2719
558 3504 2731
1012 3488 2761
1021 3501 2785
1093 3515 2826
969 3548 2882
982 3579 2962
1390 3558 3548
2203 3427 3922
211 4003 3109
185 4006 3113
137 4012 3124
141 4023 3144
337 4036 3178
275 4058 3226
2 4088 3295
953 4095 3393
2142 4004 3994
1533 239 137
1534 240 502
1534 240 915
1331 522 1253
1058 774 1411
980 916 1710
967 1063 1865
1019 1206 2020
1095 1352 2201
1534 583 137
1535 583 503
1536 583 916
1390 691 1318
1140 892 1522
1048 1020 1826
1040 1153 1943
1085 1286 2096
1139 1423 2296
1494 1009 385
1517 1004 562
1536 1000 916
1473 1040 1423
1282 1157 1724
1203 1256 1943
1201 1360 2091
1233 1470 2253
1230 1589 2508
1185 1602 770
1239 1593 873
1359 1571 1103
1536 1536 1536
1475 1557 1828
1443 1606 2062
1438 1674 2261
1458 1756 2448
1343 1853 2815
644 2117 1414
817 2105 1472
1127 2074 1614
1518 2024 1795
1570 2041 2038
1597 2025 2382
1588 2064 2601
1611 2118 2798
1437 2195 3166
512 2585 1914
722 2576 1955
1080 2553 2038
1510 2514 2120
1517 2542 2182
1620 2547 2542
1740 2502 2936
1750 2533 3156
1495 2597 3524
420 3062 2356
669 3056 2370
1060 3038 2405
1508 3006 2472
1547 3024 2518
1504 3060 2590
1683 3054 3047
1897 2986 3486
1537 3036 3875
376 3547 2739
645 3542 2751
1052 3527 2781
1509 3500 2835
1531 3516 2872
1513 3544 2928
1502 3577 3006
1758 3561 3551
2337 3447 3931
356 4035 3126
328 4038 3129
252 4045 3139
141 4057 3159
211 4072 3192
884 4074 3250
955 4095 3325
1463 4095 3429
2349 4010 4001
2045 319 183
2046 320 541
2046 320 939
2047 320 1380
1784 732 1683
1460 1017 1805
1372 1161 2097
1304 1303 2396
1318 1451 2491
2046 658 183
2047 658 541
2047 658 940
2048 658 1381
1829 856 1732
1523 1106 1885
1427 1240 2181
1357 1376 2440
1359 1515 2576
2047 1035 183
2047 1036 541
2048 1037 940
2048 1037 1382
1908 1129 1824
1649 1313 2049
1540 1424 2359
1480 1546 2536
1446 1666 2771
1961 1523 656
1979 1518 768
2022 1506 1002
2048 1500 1382
1988 1538 1934
1799 1638 2256
1701 1722 2517
1673 1814 2674
1557 1909 3057
1595 2134 1050
1633 2127 1125
1724 2111 1294
1866 2085 1584
2047 2047 2047
1984 2065 2349
1942 2106 2598
1923 2164 2814
1635 2238 3380
944 2664 1727
1066 2654 1772
1314 2631 1884
1643 2591 2079
2029 2535 2294
2081 2553 2550
2097 2534 2905
2073 2568 3141
1646 2636 3697
796 3129 2249
941 3121 2283
1226 3102 2366
1592 3070 2508
2019 3025 2606
2027 3054 2673
2125 3058 3055
2233 3009 3459
1894 3061 3885
681 3601 2731
850 3594 2757
1168 3579 2812
1571 3554 2864
2013 3516 2944
2051 3536 2997
2019 3573 3075
2182 3565 3558
2524 3477 3944
981 4064 3165
976 4067 3168
970 4073 3178
979 4083 3197
1094 4092 3234
1498 4084 3300
1655 4095 3378
1966 4095 3483
2621 4020 4012
2555 399 228
2556 399 582
2557 400 970
2558 400 1381
2558 399 1859
2236 940 2112
1865 1259 2202
1768 1406 2486
1693 1547 2786
2556 735 229
2558 736 582
2558 736 970
2559 736 1383
2559 736 1860
2271 1037 2150
1915 1329 2263
1812 1469 2549
1729 1601 2885
2558 1096 229
2559 1096 583
2559 1097 971
2560 1097 1384
2560 1097 1862
2343 1257 2230
2023 1495 2396
1911 1619 2693
1804 1732 3130
2531 1516 523
2543 1514 675
2559 1512 971
2560 1512 1384
2561 1512 1861
2426 1598 2335
2167 1767 2579
2049 1865 2900
1895 1956 3435
2425 2045 916
2439 2041 995
2474 2031 1175
2530 2013 1445
2560 2005 1862
2501 2043 2447
2314 2130 2781
2208 2200 3079
1981 2265 3718
2005 2665 1331
2034 2660 1389
2104 2648 1521
2221 2627 1744
2375 2597 2073
2559 2559 2559
2495 2575 2867
2401 2605 3215
2122 2654 3799
1247 3211 2033
1338 3204 2070
1537 3185 2160
1823 3153 2321
2158 3107 2556
2540 3047 2795
2592 3064 3061
2551 3048 3467
2315 3089 3889
1086 3674 2576
1193 3668 2605
1421 3652 2675
1738 3625 2798
2106 3586 2981
2443 3553 3082
2498 3575 3163
2676 3562 3558
2765 3515 3961
2121 4036 3192
2114 4039 3203
2094 4046 3233
2049 4059 3291
2026 4077 3326
2071 4093 3371
2357 4080 3460
2467 4095 3558
2945 4033 4026
3066 479 274
3067 479 624
3068 479 1005
3069 479 1408
3069 479 1830
3069 479 2347
2689 1149 2541
2271 1500 2600
2166 1651 2876
3067 814 274
3069 814 624
3069 814 1005
3070 814 1408
3070 815 1830
3070 815 2348
2717 1227 2572
2312 1557 2648
2211 1696 2954
3068 1165 274
3070 1165 624
3070 1166 1006
3070 1167 1410
3071 1166 1832
3072 1166 2349
2779 1409 2640
2405 1694 2758
2315 1807 3147
3070 1553 274
3071 1553 624
3070 1555 1006
3072 1555 1410
3073 1555 1832
3073 1555 2350
2861 1699 2737
2538 1923 2920
2463 1992 3475
3006 2015 830
3017 2012 923
3040 2007 1122
3072 2000 1410
3073 2000 1832
3073 2000 2349
2943 2084 2846
2686 2239 3109
2578 2287 3694
2888 2570 1167
2899 2567 1228
2926 2559 1371
2974 2544 1597
3040 2523 1899
3072 2514 2350
3014 2550 2960
2839 2614 3368
2695 2669 3783
2415 3196 1612
2438 3192 1658
2495 3183 1766
2590 3166 1946
2723 3142 2209
2886 3110 2569
3071 3071 3071
2980 3080 3438
2833 3104 3881
1551 3759 2334
1623 3753 2365
1786 3737 2441
2079 3703 2592
2543 3630 2856
2784 3596 3080
3030 3564 3291
3115 3574 3571
3065 3558 3979
2865 4009 3251
2866 4011 3259
2866 4016 3280
2863 4026 3319
2848 4042 3383
2800 4068 3490
2808 4094 3551
2966 4095 3655
3305 4050 4045
3577 559 320
3578 559 667
3579 559 1042
3580 559 1438
3581 559 1850
3581 559 2290
3581 558 2839
3141 1358 2971
2679 1741 3000
3578 893 320
3580 893 667
3581 893 1042
3582 893 1439
3582 893 1851
3582 894 2291
3582 894 2840
3165 1423 2996
2728 1779 3062
3580 1239 320
3581 1239 667
3581 1240 1044
3582 1241 1440
3583 1241 1853
3583 1241 2292
3583 1240 2842
3219 1577 3055
2846 1871 3213
3581 1611 320
3582 1612 668
3582 1613 1044
3583 1613 1441
3584 1613 1853
3584 1613 2293
3585 1612 2843
3296 1826 3143
3033 2026 3468
3565 2029 614
3573 2028 761
3582 2027 1044
3583 2027 1440
3584 2027 1853
3584 2028 2292
3585 2027 2843
3380 2163 3247
3173 2299 3662
3475 2525 1113
3485 2522 1179
3507 2517 1331
3542 2507 1563
3584 2497 1858
3585 2497 2293
3585 2497 2842
3483 2565 3378
3250 2688 3743
3350 3097 1413
3358 3095 1461
3381 3088 1579
3420 3076 1771
3479 3057 2029
3544 3035 2376
3585 3023 2843
3531 3056 3472
3350 3124 3852
2889 3706 2028
2923 3697 2094
3001 3677 2245
3113 3649 2474
3242 3619 2751
3336 3609 2953
3432 3605 3168
3583 3583 3583
3480 3588 3980
3410 4000 3403
3413 4002 3409
3423 4005 3425
3440 4011 3454
3462 4021 3499
3485 4035 3563
3493 4059 3656
3470 4094 3777
3690 4070 4068
4088 638 365
4089 639 711
4090 639 1081
4091 639 1471
4092 639 1877
4092 639 2295
4093 639 2760
4092 638 3335
3594 1568 3400
4089 972 365
4090 973 711
4091 974 1082
4092 974 1472
4093 974 1878
4094 974 2296
4094 973 2761
4093 972 3336
3650 1594 3454
4090 1315 366
4091 1316 712
4092 1316 1083
4093 1317 1473
4094 1317 1879
4095 1317 2296
4095 1317 2762
4095 1315 3337
3790 1658 3586
4091 1678 370
4093 1678 714
4094 1679 1084
4094 1679 1474
4095 1679 1880
4095 1680 2297
4095 1679 2763
4095 1679 3338
3872 1877 3675
4092 2071 374
4093 2071 715
4094 2072 1085
4095 2073 1475
4095 2073 1880
4095 2074 2298
4095 2073 2763
4095 2073 3339
3898 2218 3722
4028 2524 1029
4035 2523 1103
4054 2518 1265
4088 2511 1500
4095 2509 1881
4095 2510 2298
4095 2510 2763
4095 2509 3339
3933 2620 3787
3917 3048 1486
3923 3046 1533
3941 3041 1644
3973 3033 1820
4021 3020 2047
4090 3001 2311
4095 2999 2764
4095 2999 3339
3977 3076 3872
3804 3624 1733
3810 3622 1779
3826 3617 1888
3854 3608 2062
3896 3594 2288
3954 3576 2566
4033 3553 2887
4095 3533 3339
4031 3573 3975
3862 4011 3621
3866 4012 3628
3874 4015 3643
3890 4021 3672
3914 4029 3715
3945 4040 3773
3986 4055 3850
4036 4073 3959
4095 4095 4095
