Creative/ColorShaping-Skintone.3dl
#25pt 3DLUT created by 3D LUT Creator Pro (c) Oleg Sharonov
#Copyright Oleg Sharonov
#IMAGEPROFILE sRGB IEC61966-2.1 v.2.10
#INPUTGAMMA sRGB IEC61966-2.1 v.2.10
#OUTPUTGAMMA sRGB IEC61966-2.1 v.2.10
0 256 512 768 1023
0 0 0
10 13 993
81 90 1948
235 267 2887
396 439 3834
0 1023 0
29 1018 1053
3 1015 2083
58 1083 2900
260 1203 3696
10 2047 0
52 2045 1039
142 2038 2107
155 2011 3255
0 2043 4095
0 3071 0
74 3070 1041
269 3064 2099
403 3050 3201
1631 2959 4095
0 4095 0
74 4094 1038
318 4090 2091
521 4080 3168
2083 3969 4095
1028 3 0
1023 0 1023
1006 55 2024
979 233 2983
977 398 3944
1047 1017 71
1049 1014 1046
1023 1040 1978
1046 1063 2948
1084 1108 3902
1224 2018 0
1076 2038 1074
1136 2020 2162
1076 2022 3175
1010 2063 4040
1167 3059 0
1095 3064 1094
1122 3058 2136
1210 3037 3247
1867 2961 4095
1103 4090 58
1105 4089 1105
1147 4085 2123
1206 4075 3198
2425 3948 4095
2020 97 81
2069 0 868
2048 0 2048
2030 103 3052
2000 310 4031
1930 1086 525
2120 983 909
2007 1059 2012
2000 1072 3026
1983 1110 4012
2057 2040 455
2277 1974 1000
2061 2042 2059
2039 2062 3002
2046 2088 3930
2119 3056 318
2225 3037 1042
2207 3032 2206
2303 2994 3328
2285 3018 4095
2076 4089 526
2137 4081 1180
2204 4068 2203
2207 4059 3293
3197 3893 4095
2938 490 488
3090 0 764
3129 0 1727
3071 3 3071
3055 142 4079
2754 1289 845
3069 1028 997
3198 942 1696
3042 1067 3044
3032 1088 4057
3037 2052 752
3058 2050 1112
3084 2050 1956
2951 2121 2970
2957 2125 4000
3190 3030 613
3222 3016 1305
3322 2980 2221
3007 3096 3007
3046 3092 3999
3178 4069 668
3206 4062 1264
3326 4034 2188
3346 4015 3340
3692 3946 4095
3907 739 735
4095 71 870
4095 161 1638
4095 201 2786
4095 3 4095
3761 1422 931
3958 1211 1199
4095 1045 1693
4095 1070 2839
4070 1077 4072
3895 2172 725
3886 2183 1153
4056 2081 1996
4039 2120 2864
3992 2141 4004
4095 3005 1428
4095 3018 1617
4095 3044 2095
4010 3111 3033
3837 3205 3887
4095 3991 3007
4095 3986 3215
4095 3983 3667
4095 4024 3881
4095 4090 4065
