Creative/ColorHarmony - HueTwists.3dl
#25pt 3DLUT created by 3D LUT Creator Pro (c) Oleg Sharonov
#Copyright Oleg Sharonov
#IMAGEPROFILE 
#INPUTGAMMA 
#OUTPUTGAMMA 
0 43 86 128 171 214 256 299 341 384 427 469 512 555 597 640 682 725 768 810 853 896 938 981 1023 
0 0 0
0 6 129
0 13 267
0 23 417
0 36 565
0 55 711
0 78 861
0 103 1011
0 136 1156
0 174 1306
0 214 1454
0 252 1604
0 291 1752
0 332 1899
0 370 2047
0 411 2194
0 451 2342
0 490 2487
0 532 2632
0 573 2777
0 616 2920
0 659 3062
0 702 3203
0 747 3342
32 798 3468
13 168 0
6 126 446
0 116 580
0 119 686
0 132 793
0 149 904
0 171 1026
0 198 1149
0 228 1273
0 260 1403
0 291 1535
0 326 1671
0 362 1807
0 399 1944
0 436 2081
0 475 2219
0 514 2355
0 556 2493
0 597 2629
0 640 2764
0 684 2897
0 729 3029
0 776 3159
0 824 3286
90 884 3380
36 334 0
78 324 222
13 271 732
0 260 876
0 260 984
0 267 1091
0 278 1199
0 295 1307
0 316 1424
0 337 1544
0 365 1663
0 394 1783
0 427 1909
0 460 2035
0 496 2162
0 532 2289
0 570 2416
0 610 2543
0 651 2670
0 694 2797
0 738 2921
0 783 3044
0 831 3165
48 885 3267
171 948 3343
65 504 0
116 500 132
132 485 470
26 423 1020
0 409 1173
0 404 1283
0 408 1388
0 417 1493
0 430 1599
0 445 1704
0 467 1817
0 489 1928
0 514 2042
0 543 2155
0 576 2271
0 610 2387
0 646 2504
0 684 2619
0 725 2734
0 766 2850
0 811 2963
10 858 3072
78 912 3158
171 969 3237
267 1028 3310
107 673 0
113 674 107
228 660 349
220 643 715
45 575 1303
0 560 1463
0 554 1574
0 556 1680
0 563 1782
0 572 1881
0 587 1984
0 605 2084
0 627 2187
0 651 2291
0 679 2395
52 716 2474
90 755 2563
81 789 2673
81 827 2777
94 870 2876
123 915 2969
168 963 3055
225 1015 3135
289 1068 3208
352 1124 3276
158 845 0
129 846 68
255 836 276
316 822 591
306 799 965
74 728 1573
0 714 1737
0 709 1851
0 709 1954
0 715 2052
0 725 2148
0 739 2243
0 757 2336
0 778 2429
0 803 2522
0 831 2613
0 864 2704
94 906 2759
195 952 2811
262 998 2871
278 1039 2956
304 1085 3035
339 1133 3108
381 1183 3176
428 1236 3239
220 1019 0
161 1018 3
248 1011 248
374 998 486
388 984 833
381 957 1210
116 887 1824
0 875 1991
0 871 2103
0 871 2203
0 878 2298
0 888 2387
0 903 2473
0 921 2558
0 944 2640
0 969 2721
0 999 2801
0 1032 2876
78 1073 2928
189 1117 2967
282 1164 3004
360 1214 3039
422 1265 3074
451 1312 3137
485 1361 3195
280 1198 0
203 1190 0
243 1185 212
389 1174 422
467 1161 716
446 1147 1068
445 1118 1447
174 1052 2046
0 1043 2215
0 1040 2321
0 1043 2416
0 1051 2504
0 1063 2586
0 1079 2665
0 1099 2740
0 1122 2811
0 1149 2880
0 1180 2947
0 1214 3009
94 1254 3047
209 1297 3077
302 1343 3104
376 1391 3130
439 1441 3153
494 1493 3175
337 1381 0
238 1365 0
243 1358 152
379 1349 383
499 1337 629
537 1325 948
492 1312 1292
496 1282 1667
238 1222 2234
0 1218 2401
0 1219 2500
0 1224 2587
0 1234 2668
0 1248 2742
0 1266 2811
0 1287 2876
0 1312 2937
0 1340 2995
0 1371 3049
19 1406 3097
132 1444 3123
240 1486 3146
322 1530 3168
391 1575 3187
451 1623 3206
393 1570 0
262 1545 0
235 1531 74
354 1524 352
501 1513 569
579 1502 850
590 1491 1174
537 1478 1500
532 1450 1864
299 1400 2386
61 1401 2536
0 1404 2637
0 1413 2716
0 1425 2788
0 1440 2853
0 1460 2913
0 1482 2969
0 1508 3021
0 1536 3069
0 1568 3114
68 1602 3144
174 1639 3167
267 1679 3187
337 1720 3206
399 1763 3223
445 1766 0
278 1730 0
233 1709 65
324 1699 314
486 1689 522
588 1679 778
635 1669 1072
625 1658 1385
572 1648 1692
556 1623 2037
352 1582 2506
155 1588 2634
0 1596 2736
0 1606 2807
0 1620 2870
0 1637 2927
0 1657 2979
0 1681 3027
0 1707 3071
0 1735 3112
13 1766 3148
103 1800 3172
198 1834 3193
273 1872 3212
337 1911 3230
492 1965 0
299 1918 26
238 1892 90
284 1872 269
460 1864 484
577 1856 725
646 1846 995
668 1837 1285
644 1829 1581
588 1820 1868
563 1799 2188
391 1768 2601
225 1777 2710
48 1788 2801
0 1801 2869
0 1816 2925
0 1834 2976
0 1855 3021
0 1878 3064
0 1904 3102
0 1932 3138
29 1962 3168
107 1994 3192
186 2028 3213
257 2063 3233
557 2164 71
341 2108 110
255 2077 145
235 2046 220
423 2039 446
550 2031 684
631 2024 939
675 2016 1208
680 2008 1485
648 2001 1761
587 1994 2028
557 1978 2318
412 1955 2679
264 1966 2773
100 1979 2851
0 1994 2916
0 2011 2966
0 2029 3011
0 2051 3053
0 2074 3091
0 2099 3127
0 2127 3160
3 2156 3190
68 2187 3215
136 2219 3238
647 2360 243
396 2299 228
289 2264 225
225 2226 222
383 2213 416
513 2207 655
601 2200 900
655 2194 1153
680 2188 1411
674 2181 1670
637 2176 1926
570 2170 2174
537 2159 2436
419 2142 2750
273 2155 2831
113 2170 2900
0 2186 2959
0 2203 3005
0 2222 3047
0 2243 3085
0 2266 3122
0 2291 3156
0 2317 3188
0 2346 3218
0 2376 3248
739 2553 398
462 2489 345
345 2452 312
271 2410 271
337 2386 394
468 2381 637
557 2376 877
617 2370 1117
653 2365 1358
664 2360 1601
651 2355 1842
613 2351 2080
548 2347 2311
505 2340 2547
408 2328 2822
255 2343 2893
84 2358 2955
0 2375 3007
0 2392 3050
0 2411 3090
0 2431 3128
0 2454 3163
0 2478 3197
0 2504 3229
0 2531 3261
832 2740 535
538 2676 458
417 2638 403
334 2596 343
289 2558 389
416 2554 634
504 2550 867
565 2546 1096
606 2542 1324
628 2538 1552
629 2534 1780
612 2531 2004
575 2528 2225
516 2525 2441
462 2521 2656
381 2513 2899
214 2528 2964
26 2544 3021
0 2560 3067
0 2577 3109
0 2596 3148
0 2616 3186
0 2638 3221
0 2662 3256
0 2687 3289
923 2922 659
622 2858 564
500 2821 496
404 2780 428
278 2736 433
358 2727 646
442 2724 870
504 2721 1089
546 2718 1306
572 2715 1521
583 2712 1736
579 2710 1948
559 2707 2158
523 2705 2366
470 2703 2568
409 2700 2768
343 2695 2987
145 2711 3047
0 2727 3099
0 2742 3143
0 2760 3184
0 2778 3224
0 2798 3261
0 2819 3298
0 2842 3333
1010 3095 772
706 3036 665
586 3000 586
481 2961 517
334 2919 521
295 2899 669
374 2897 885
433 2894 1094
475 2892 1300
504 2890 1505
520 2888 1709
523 2886 1910
514 2884 2111
493 2883 2309
460 2881 2504
412 2880 2697
349 2879 2887
293 2876 3086
58 2892 3143
0 2906 3192
0 2922 3235
0 2939 3277
0 2957 3317
0 2977 3355
0 2998 3392
1093 3261 874
790 3208 758
673 3175 673
560 3139 605
401 3101 606
230 3071 701
302 3069 907
356 3068 1107
396 3066 1304
425 3065 1499
443 3063 1694
451 3062 1887
451 3060 2079
439 3059 2269
419 3058 2458
388 3057 2645
345 3056 2830
291 3056 3013
238 3054 3199
0 3070 3254
0 3084 3300
0 3099 3344
0 3116 3386
0 3134 3427
0 3153 3466
1171 3420 965
871 3374 845
757 3345 758
640 3313 690
477 3280 686
203 3245 745
228 3241 932
276 3240 1124
314 3239 1313
341 3238 1501
360 3237 1688
370 3236 1874
372 3235 2060
369 3234 2244
356 3233 2427
336 3233 2609
308 3232 2789
271 3232 2969
225 3232 3146
177 3231 3325
0 3246 3377
0 3260 3424
0 3275 3468
0 3291 3511
0 3309 3552
1243 3573 1046
948 3535 925
835 3510 836
717 3483 767
556 3454 758
304 3424 810
152 3412 957
195 3411 1142
228 3411 1325
252 3410 1508
271 3409 1689
282 3409 1869
287 3408 2049
287 3408 2229
280 3407 2407
267 3407 2585
250 3407 2762
225 3406 2939
195 3406 3114
155 3406 3288
116 3406 3463
0 3420 3514
0 3434 3561
0 3449 3606
0 3465 3649
1311 3721 1118
1021 3691 997
909 3671 909
793 3649 838
636 3625 823
404 3601 867
90 3583 980
119 3583 1159
142 3582 1337
165 3582 1515
180 3582 1693
192 3581 1869
198 3581 2045
201 3581 2221
195 3580 2397
189 3580 2572
177 3580 2746
161 3580 2920
142 3580 3093
119 3579 3266
94 3580 3438
71 3580 3611
0 3593 3661
0 3607 3709
0 3622 3754
1373 3865 1182
1090 3843 1064
979 3828 979
866 3811 904
716 3793 883
503 3774 917
65 3754 999
65 3754 1173
78 3753 1348
90 3753 1523
100 3753 1697
110 3753 1871
113 3753 2045
116 3753 2218
116 3752 2391
113 3752 2564
107 3752 2737
97 3752 2909
87 3752 3081
78 3752 3253
65 3752 3424
52 3752 3596
39 3752 3767
0 3765 3818
0 3779 3865
1433 4006 1239
1155 3993 1126
1043 3982 1043
935 3970 965
793 3957 937
597 3943 962
257 3929 1035
29 3924 1183
36 3924 1356
42 3924 1528
48 3924 1701
52 3924 1873
55 3924 2045
58 3924 2217
58 3924 2389
58 3924 2561
55 3924 2732
52 3923 2904
48 3923 3075
42 3923 3246
36 3923 3417
29 3923 3588
26 3923 3759
19 3924 3930
0 3936 3980
1775 4095 1632
1490 4095 1465
1385 4095 1385
1151 4095 1170
983 4095 1087
687 4095 1003
404 4095 1067
10 4095 1189
13 4095 1361
16 4095 1532
19 4095 1704
19 4095 1875
23 4095 2046
23 4095 2217
23 4095 2388
23 4095 2560
23 4095 2731
23 4095 2901
23 4095 3072
19 4095 3243
16 4095 3414
16 4095 3585
13 4095 3755
10 4095 3926
10 4095 4095
161 0 0
97 32 71
48 45 278
16 26 585
0 26 755
0 39 882
0 58 1004
0 84 1140
0 113 1279
0 145 1415
0 183 1561
0 222 1701
0 260 1844
0 299 1992
0 337 2135
0 376 2283
0 414 2429
0 452 2575
0 490 2722
0 530 2870
0 568 3016
0 606 3163
0 646 3310
0 686 3456
94 743 3566
174 168 3
171 171 171
165 174 339
152 177 508
139 183 675
119 189 839
100 198 1006
74 209 1173
45 222 1340
13 235 1501
0 262 1640
0 297 1771
0 332 1902
0 369 2036
0 404 2172
0 442 2309
0 481 2448
0 518 2584
0 558 2722
0 599 2861
0 640 2998
0 681 3134
0 724 3270
68 778 3379
214 844 3459
126 351 3
180 339 158
260 308 462
225 306 656
195 306 821
174 310 963
168 322 1090
168 337 1204
149 352 1349
116 367 1502
84 384 1653
48 403 1805
13 425 1953
0 454 2086
0 489 2212
0 525 2338
0 562 2464
0 601 2592
0 642 2719
0 683 2844
0 726 2970
0 771 3095
52 823 3198
155 882 3283
264 944 3362
97 521 0
195 509 145
260 496 374
322 449 777
264 442 986
209 437 1165
165 436 1315
136 440 1443
126 452 1558
132 470 1665
149 492 1765
174 518 1860
145 538 1998
110 560 2136
78 586 2271
48 615 2402
29 647 2529
16 682 2650
16 722 2767
29 765 2876
58 811 2978
110 861 3074
180 914 3162
257 970 3243
334 1028 3317
149 686 0
217 680 126
291 670 304
304 654 651
367 595 1095
284 585 1312
198 577 1496
123 571 1649
74 573 1780
55 582 1893
52 595 1994
68 614 2086
100 640 2174
142 669 2258
192 703 2338
214 736 2432
195 766 2549
183 800 2663
183 837 2770
195 877 2870
217 921 2965
255 968 3053
299 1018 3135
351 1071 3210
408 1126 3279
212 857 0
243 852 100
289 845 284
388 829 532
393 807 909
401 746 1401
293 733 1618
174 724 1802
68 719 1955
0 718 2083
0 728 2180
0 742 2273
0 758 2365
16 782 2450
68 811 2522
129 844 2589
201 882 2654
264 921 2714
324 965 2771
330 1004 2864
343 1045 2951
365 1090 3032
394 1137 3107
431 1186 3177
474 1238 3241
280 1033 0
273 1026 74
297 1017 252
419 1004 458
457 989 786
467 964 1162
427 900 1685
299 888 1894
152 881 2071
23 877 2218
0 883 2320
0 892 2409
0 907 2496
0 925 2580
0 947 2662
16 974 2738
87 1007 2793
171 1044 2844
250 1084 2892
318 1128 2935
379 1174 2976
436 1222 3015
468 1269 3072
494 1315 3137
526 1364 3196
354 1216 0
312 1205 52
314 1189 195
419 1179 422
514 1166 681
510 1151 1033
528 1122 1404
451 1060 1936
312 1052 2131
149 1048 2295
3 1048 2432
0 1056 2521
0 1067 2603
0 1083 2681
0 1103 2755
0 1126 2827
0 1154 2896
78 1186 2941
171 1223 2982
255 1263 3019
326 1305 3052
388 1350 3083
445 1397 3111
497 1446 3137
545 1498 3161
434 1406 0
356 1387 36
330 1363 171
403 1355 399
535 1341 611
586 1328 917
552 1316 1266
576 1285 1631
475 1228 2150
332 1225 2326
171 1225 2473
23 1230 2595
0 1239 2680
0 1252 2754
0 1270 2823
0 1291 2887
0 1316 2948
19 1344 3002
103 1377 3039
192 1412 3072
271 1450 3101
339 1492 3128
399 1535 3152
454 1580 3174
503 1627 3194
518 1603 0
411 1576 39
343 1541 168
388 1528 369
532 1517 563
618 1505 828
636 1493 1149
585 1482 1480
611 1453 1834
499 1403 2324
360 1405 2478
214 1410 2606
68 1417 2712
0 1429 2796
0 1445 2861
0 1464 2921
0 1486 2977
0 1512 3029
61 1541 3067
139 1572 3099
220 1607 3127
291 1644 3152
351 1683 3174
406 1724 3194
455 1767 3213
606 1805 0
472 1768 68
358 1723 183
367 1702 328
514 1693 527
624 1682 765
675 1671 1052
671 1661 1366
619 1650 1676
630 1625 2014
518 1584 2461
388 1590 2593
257 1599 2703
129 1610 2795
36 1624 2871
0 1641 2933
0 1661 2985
0 1685 3033
39 1710 3072
97 1739 3105
168 1770 3134
235 1803 3159
295 1838 3182
351 1875 3203
399 1914 3222
