Creative/ColorHarmony - Orange Teal (CMYK-Toned).3dl
#25pt 3DLUT created by 3D LUT Creator Pro (c) Oleg Sharonov
#Copyright Oleg Sharonov
#IMAGEPROFILE sRGB IEC61966-2.1 v.2.10
#INPUTGAMMA sRGB IEC61966-2.1 v.2.10
#OUTPUTGAMMA sRGB IEC61966-2.1 v.2.10
0 128 256 384 512 640 768 896 1023
113 0 0
149 42 293
165 132 793
152 238 1214
186 336 1639
230 442 2047
271 554 2462
304 681 2879
308 828 3291
434 383 250
271 367 398
230 448 888
225 513 1298
225 604 1705
209 722 2099
165 856 2501
126 988 2907
90 1120 3310
724 895 542
508 933 793
318 819 999
289 894 1406
271 984 1802
245 1082 2187
203 1192 2577
139 1308 2968
19 1441 3364
917 1465 942
676 1487 1169
475 1476 1380
379 1287 1512
369 1367 1915
341 1459 2293
289 1565 2674
209 1677 3056
68 1798 3447
1067 2025 1391
838 2049 1598
652 2079 1794
452 1995 1914
451 1773 2023
430 1856 2403
394 1948 2781
336 2051 3164
220 2167 3551
1320 2584 1807
1087 2612 2010
874 2636 2197
661 2660 2379
443 2505 2426
533 2251 2514
508 2335 2892
454 2438 3276
356 2556 3660
1634 3128 2198
1400 3149 2394
1175 3172 2568
946 3197 2750
673 3165 2883
467 3003 2925
614 2734 3005
563 2838 3390
484 2951 3775
2041 3617 2568
1807 3635 2763
1587 3654 2952
1357 3681 3137
1127 3703 3325
729 3645 3396
490 3507 3432
684 3234 3506
607 3350 3894
2640 3989 2942
2432 3996 3147
2227 4002 3350
2029 4011 3547
1847 4019 3741
1621 4021 3915
1114 3980 3941
652 3954 3959
743 3743 4015
545 0 0
384 123 161
446 243 536
442 358 1055
461 468 1511
486 586 1968
504 725 2409
496 879 2857
482 1038 3291
612 358 132
588 408 351
554 465 692
514 569 1177
517 674 1617
500 809 2050
484 949 2471
455 1095 2902
430 1246 3307
967 899 406
880 864 644
667 827 810
575 937 1277
536 1052 1709
500 1176 2130
460 1307 2543
411 1442 2948
349 1582 3352
1219 1467 736
1053 1431 1080
835 1449 1292
626 1350 1379
579 1454 1818
533 1570 2236
489 1687 2641
431 1813 3027
341 1946 3430
1428 2027 1155
1237 1997 1520
1015 2017 1728
839 2022 1885
627 1870 1928
583 1977 2347
540 2086 2735
484 2201 3128
394 2325 3528
1669 2569 1568
1521 2557 1928
1297 2581 2128
1098 2606 2313
852 2540 2417
648 2386 2455
611 2485 2839
556 2596 3234
467 2718 3635
1959 3103 1972
1846 3098 2311
1621 3121 2508
1408 3143 2685
1196 3168 2862
880 3049 2909
686 2893 2952
631 3001 3348
552 3117 3749
2343 3589 2354
2263 3589 2675
2027 3616 2870
1806 3637 3063
1596 3659 3250
1284 3663 3387
919 3550 3421
724 3404 3464
652 3516 3868
2879 3982 2728
2822 3981 3052
2622 3991 3257
2423 3999 3458
2229 4009 3661
2047 4020 3856
1653 3988 3936
1164 3951 3965
787 3902 3990
1043 42 0
863 222 255
701 324 423
756 451 891
777 584 1415
817 731 1911
850 887 2382
880 1047 2857
902 1215 3322
1115 384 90
1064 465 365
858 527 568
824 655 1038
817 802 1524
830 951 1993
846 1102 2442
859 1258 2898
873 1419 3317
1182 799 235
1121 859 482
1031 936 850
927 923 1187
900 1074 1662
895 1219 2115
900 1359 2543
901 1501 2975
905 1652 3366
1509 1472 570
1388 1461 877
1188 1412 1228
997 1366 1353
948 1480 1789
928 1608 2221
923 1735 2636
914 1870 3039
903 2010 3437
1751 2025 942
1603 2012 1292
1414 1975 1650
1218 1995 1849
1003 1900 1910
975 2012 2334
962 2128 2742
948 2254 3126
928 2387 3530
2001 2561 1345
1860 2552 1701
1717 2531 2050
1511 2554 2245
1312 2554 2406
1030 2423 2448
1015 2531 2834
994 2651 3228
970 2778 3636
2297 3080 1742
2166 3080 2094
2063 3069 2420
1845 3093 2620
1645 3121 2803
1372 3066 2903
1070 2939 2943
1050 3052 3338
1028 3170 3750
2645 3567 2134
2557 3569 2466
2478 3568 2786
2258 3593 2981
2035 3623 3174
1830 3648 3365
1445 3565 3417
1117 3451 3455
1099 3561 3870
3099 3979 2514
3057 3978 2840
3005 3977 3168
2813 3989 3372
2623 4002 3576
2437 4014 3779
2175 4001 3927
1714 3953 3964
1238 3923 3995
1578 71 0
1404 284 293
1224 440 575
1038 541 802
1044 699 1372
1131 871 1880
1214 1041 2373
1286 1213 2870
1351 1388 3367
1637 414 68
1592 504 365
1365 651 689
1122 744 961
1086 914 1483
1158 1084 1958
1221 1249 2426
1276 1414 2900
1330 1584 3360
1723 835 203
1639 920 485
1519 1043 888
1216 1041 1154
1174 1182 1627
1228 1341 2073
1273 1493 2515
1312 1650 2970
1358 1812 3380
1710 1317 347
1642 1376 612
1550 1436 977
1360 1518 1474
1292 1454 1760
1331 1614 2198
1364 1762 2632
1393 1911 3073
1430 2060 3455
2043 1989 714
1939 2027 1087
1783 2016 1443
1602 1973 1789
1413 1928 1916
1402 2028 2321
1416 2153 2736
1437 2289 3148
1462 2430 3539
2339 2554 1127
2196 2554 1479
2058 2545 1839
1918 2518 2174
1740 2539 2365
1484 2449 2440
1482 2555 2844
1493 2683 3236
1506 2816 3641
2609 3066 1516
2504 3069 1870
2381 3065 2216
2282 3050 2536
2082 3073 2733
1871 3085 2905
1552 2967 2948
1553 3081 3339
1561 3204 3754
2918 3552 1910
2843 3557 2251
2767 3557 2581
2690 3552 2904
2482 3580 3099
2281 3609 3290
1970 3581 3406
1618 3479 3454
1637 3586 3873
3329 3981 2296
3282 3979 2630
3240 3978 2957
3191 3978 3289
3007 3993 3494
2828 4008 3700
2653 4024 3902
2246 3966 3960
1810 3916 4000
2126 81 0
1974 328 314
1791 526 665
1580 693 1030
1338 812 1310
1442 1008 1863
1583 1193 2368
1704 1377 2882
1823 1566 3331
2174 442 61
2143 540 365
1917 747 754
1665 912 1125
1399 1023 1428
1486 1213 1939
1601 1393 2417
1703 1572 2909
1800 1754 3366
2258 872 180
2179 969 482
2060 1094 895
1779 1213 1268
1506 1293 1576
1564 1463 2045
1654 1629 2499
1738 1798 2969
1816 1965 3452
2270 1346 322
2186 1423 612
2071 1512 1006
1917 1647 1482
1632 1602 1736
1670 1740 2173
1744 1892 2607
1813 2046 3060
1881 2208 3476
2247 1824 468
2174 1883 746
2076 1941 1123
1963 1999 1541
1835 2096 2024
1802 2017 2301
1864 2157 2723
1919 2310 3167
1972 2467 3560
2584 2467 838
2511 2512 1218
2407 2556 1617
2274 2557 1984
2130 2529 2314
1961 2492 2441
1959 2572 2834
1985 2704 3259
2025 2846 3651
2900 3057 1304
2818 3060 1651
2717 3063 2004
2599 3061 2347
2504 3044 2661
2337 3066 2849
2060 2992 2947
2064 3100 3340
2088 3229 3759
3202 3537 1694
3127 3542 2038
3059 3545 2377
2990 3547 2706
2897 3545 3029
2711 3574 3224
2502 3594 3392
2151 3499 3446
2171 3611 3874
3570 3985 2081
3512 3984 2417
3467 3985 2753
3426 3985 3084
3380 3987 3418
3204 4003 3625
3038 4021 3828
2770 3990 3950
2357 3932 3999
2678 78 0
2564 356 312
2395 594 718
2193 811 1143
1987 1000 1524
1776 1135 1820
1954 1341 2358
2133 1536 2884
2297 1736 3337
2718 471 58
2712 572 349
2502 820 777
2264 1029 1208
2042 1205 1593
1829 1337 1899
1980 1534 2402
2138 1725 2910
2279 1916 3354
2795 909 158
2736 1009 462
2630 1134 878
2368 1315 1309
2130 1463 1693
1917 1581 2003
2043 1763 2475
2176 1942 2963
2293 2123 3406
2830 1371 295
2750 1456 592
2635 1557 994
2503 1685 1459
2251 1785 1828
2034 1861 2130
2137 2021 2576
2245 2184 3042
2341 2355 3509
2807 1842 443
2747 1910 728
2644 1986 1119
2524 2078 1554
2394 2216 2027
2167 2173 2276
2256 2291 2689
2344 2443 3140
2423 2603 3597
2760 2311 592
2722 2364 869
2640 2420 1246
2543 2477 1654
2459 2540 2077
2387 2637 2522
2398 2589 2824
2475 2702 3248
2539 2862 3677
3080 2930 971
3038 2975 1349
2992 3016 1737
2932 3060 2133
2836 3072 2481
2731 3067 2810
2557 3044 2942
2581 3111 3346
2617 3247 3767
3451 3512 1459
3413 3535 1828
3341 3540 2170
3280 3544 2505
3215 3545 2836
3118 3544 3162
2963 3572 3349
2701 3519 3439
2718 3626 3874
3815 3994 1869
3756 3994 2207
3700 3995 2547
3655 3997 2882
3609 4000 3221
3569 4003 3559
3414 4020 3759
3243 4034 3941
2908 3954 3993
3231 61 0
3162 369 304
3045 643 727
2862 899 1189
2678 1125 1634
2511 1330 2023
2346 1481 2326
2586 1691 2842
2782 1895 3355
3275 497 42
3279 604 334
3113 874 775
2913 1114 1236
2719 1327 1673
2543 1520 2059
2386 1669 2368
2590 1873 2885
2763 2072 3367
3328 945 136
3292 1043 446
3207 1168 857
2992 1384 1313
2788 1575 1743
2605 1748 2126
2456 1890 2438
2624 2079 2948
2773 2271 3404
3326 1405 280
3289 1486 575
3211 1588 975
3100 1713 1429
2884 1875 1848
2696 2016 2223
2551 2140 2534
2687 2317 3021
2815 2497 3474
3310 1864 430
3271 1935 714
3217 2015 1105
3112 2112 1533
2998 2244 1997
2811 2335 2348
2656 2413 2643
2777 2574 3117
2884 2740 3572
3281 2321 578
3242 2382 857
3195 2446 1238
3129 2519 1645
3033 2615 2083
2951 2737 2520
2790 2734 2792
2890 2837 3222
2978 2990 3708
3250 2780 724
3211 2832 1001
3171 2884 1376
3126 2935 1765
3066 2991 2172
3009 3055 2572
2960 3144 3000
3004 3136 3352
3116 3240 3814
3586 3377 1109
3554 3421 1479
3522 3464 1865
3492 3505 2247
3481 3542 2624
3448 3558 2971
3329 3571 3314
3152 3560 3452
3246 3629 3881
3988 3953 1591
3969 3993 1968
3949 4011 2337
3894 4014 2681
3845 4017 3018
3798 4021 3360
3758 4027 3708
3642 4044 3895
3419 3995 3985
3743 107 0
3729 406 295
3669 696 732
3538 968 1214
3400 1218 1682
3271 1449 2106
3170 1666 2485
3036 1835 2814
3258 2060 3379
3785 569 36
3786 675 332
3700 933 772
3555 1187 1249
3411 1418 1714
3277 1638 2139
3169 1845 2516
3042 2011 2849
3229 2238 3388
3794 1020 132
3768 1114 446
3733 1224 843
3599 1443 1311
3447 1658 1765
3310 1861 2192
3194 2049 2572
3070 2215 2908
3229 2434 3422
3783 1464 278
3753 1545 572
3718 1637 963
3662 1750 1403
3507 1939 1847
3370 2116 2262
3245 2287 2644
3125 2445 2995
3258 2653 3482
3775 1908 420
3741 1981 709
3705 2059 1093
3657 2150 1514
3583 2269 1962
3446 2417 2362
3320 2558 2733
3205 2694 3085
3322 2885 3564
3767 2349 568
3735 2412 849
3696 2481 1227
3651 2558 1634
3598 2651 2061
3520 2783 2497
3407 2870 2850
3290 2957 3180
3399 3137 3668
3752 2793 713
3719 2850 993
3685 2907 1365
3651 2968 1760
3608 3038 2168
3566 3128 2573
3497 3236 3002
3394 3270 3315
3504 3394 3785
3741 3234 857
3707 3285 1140
3674 3333 1505
3642 3382 1891
3613 3430 2278
3597 3479 2657
3569 3547 3059
3524 3628 3488
3597 3671 3906
4091 3828 1251
4073 3869 1612
4054 3911 1989
4037 3952 2366
4021 3993 2750
4008 4035 3129
3991 4050 3500
3914 4060 3855
3768 4052 3991
4033 439 74
4012 729 377
3990 989 795
3932 1231 1264
3854 1470 1729
3782 1699 2179
3715 1923 2617
3661 2140 3047
3588 2298 3423
4027 869 129
4017 968 412
3983 1199 823
3927 1427 1285
3850 1653 1745
3777 1871 2189
3712 2082 2620
3654 2294 3043
3582 2460 3428
4029 1259 214
4014 1343 501
3987 1445 877
3940 1653 1328
3873 1861 1781
3795 2066 2221
3726 2271 2645
3667 2471 3065
3592 2644 3455
4036 1654 326
4015 1733 607
3993 1818 984
3970 1915 1398
3914 2104 1841
3836 2297 2281
3767 2487 2699
3704 2673 3110
3640 2843 3506
4056 2057 446
4035 2126 725
4013 2199 1099
3985 2287 1506
3955 2389 1934
3897 2560 2357
3830 2729 2778
3765 2898 3178
3710 3064 3580
4086 2463 577
4066 2526 853
4043 2593 1227
4016 2668 1621
3990 2753 2037
3949 2865 2464
3902 3005 2872
3841 3149 3269
3786 3293 3659
4095 2874 712
4095 2930 990
4076 2992 1359
4054 3054 1748
4030 3124 2150
4001 3210 2561
3962 3334 2998
3919 3435 3379
3875 3534 3751
4095 3287 851
4095 3337 1133
4095 3388 1496
4095 3441 1879
4081 3498 2267
4051 3566 2665
4025 3650 3072
3998 3739 3504
3966 3816 3874
4095 3700 1472
4095 3748 1281
4095 3792 1637
4095 3836 2013
4095 3879 2393
4095 3923 2774
4095 3969 3152
4079 4039 3570
4061 4095 4006
