Creative/ColorHarmony - Orange Teal (Toned).3dl
#25pt 3DLUT created by 3D LUT Creator Pro (c) Oleg Sharonov
#Copyright Oleg Sharonov
#IMAGEPROFILE 
#INPUTGAMMA 
#OUTPUTGAMMA 
0 256 512 768 1023
0 0 0
0 111 363
0 537 901
0 966 1562
0 1405 2297
138 1046 766
0 1083 1105
0 1212 1611
0 1458 2132
0 1773 2741
401 2244 1877
0 2257 2145
0 2303 2616
0 2395 3243
0 2557 3762
807 3273 3133
0 3289 3401
0 3313 3675
1020 3330 4095
1992 3405 4095
2058 4002 4095
2237 3956 4095
2227 3963 4095
2601 3961 4095
3519 3898 4095
990 48 0
492 461 654
406 727 1221
440 1079 1817
494 1472 2505
1118 1068 663
1115 1112 908
860 1275 1649
681 1517 2265
569 1819 2899
1299 2247 1731
1172 2275 1958
1209 2308 2495
850 2423 3239
491 2594 3850
1547 3274 2909
1361 3286 3182
1083 3318 3632
1345 3344 4095
2169 3430 4095
2030 4071 4041
2337 3995 4095
2375 3970 4095
2755 3963 4095
3571 3902 4095
2049 419 0
1666 840 663
1121 1186 1615
964 1429 2364
950 1739 2989
2118 1188 634
2198 1180 836
1482 1559 1862
1296 1747 2665
1231 2002 3295
2307 2279 1649
2304 2297 1792
2298 2351 2195
2026 2479 3125
1814 2652 3846
2499 3272 2889
2474 3285 2974
2347 3324 3333
2477 3342 3889
2692 3505 4095
2864 4010 3966
2859 4014 3995
3002 3975 4095
3005 3980 4095
3689 3919 4095
3142 808 0
3038 969 658
2239 1660 1481
1771 1912 2729
1593 2139 3576
3227 1367 220
3272 1349 776
2581 1871 1661
2007 2141 2914
1823 2339 3767
3252 2386 1768
3290 2389 1839
3399 2398 2132
2624 2700 3273
2476 2859 4095
3482 3302 2789
3480 3310 2880
3473 3335 3144
3465 3383 3585
3410 3581 4095
3693 3937 3866
3683 3941 3897
3661 3953 3991
3630 3973 4095
3885 3948 4095
4095 1348 703
4095 1415 1128
3560 1938 1713
2840 2368 2787
2441 2596 3855
4095 1788 877
4095 1820 1286
3842 2064 1835
3044 2530 2781
2608 2740 3980
4095 2613 1946
4095 2634 2031
4095 2706 2434
3647 2915 2963
3151 3198 4095
4095 3458 3087
4095 3465 3157
4095 3491 3336
4095 3550 3611
3746 3695 4095
4095 3950 3830
4095 3952 3857
4095 3959 3939
4095 3973 4080
4095 3996 4095
