Creative/ColorHarmony - Orange Teal.3dl
#25pt 3DLUT created by 3D LUT Creator Pro (c) Oleg Sharonov
#Copyright Oleg Sharonov
#IMAGEPROFILE 
#INPUTGAMMA 
#OUTPUTGAMMA 
0 43 86 128 171 214 256 299 341 384 427 469 512 555 597 640 682 725 768 810 853 896 938 981 1023 
0 0 0
0 13 42
0 32 94
0 58 177
0 97 271
3 145 363
3 203 458
3 262 552
3 320 644
6 379 738
6 437 831
6 497 925
6 556 1018
10 614 1111
13 672 1205
13 731 1298
16 791 1393
19 849 1485
19 907 1578
23 966 1672
26 1025 1765
29 1083 1858
32 1142 1952
36 1200 2045
39 1259 2139
10 155 132
0 165 228
0 177 304
0 201 365
0 230 430
0 267 499
0 308 573
0 354 650
0 401 727
0 451 809
0 503 892
0 556 978
0 609 1064
0 663 1151
0 718 1240
0 773 1329
0 829 1419
0 885 1510
0 942 1600
0 999 1692
0 1055 1782
0 1113 1874
0 1170 1966
0 1227 2058
0 1285 2150
23 318 282
0 326 352
0 332 420
0 341 500
0 362 564
0 388 628
0 417 694
0 452 759
0 490 832
0 532 907
0 576 982
0 622 1057
0 671 1138
0 721 1218
0 771 1301
0 823 1385
0 875 1470
0 928 1555
0 982 1643
0 1036 1730
0 1091 1818
0 1147 1908
0 1202 1997
0 1257 2086
0 1313 2176
42 482 436
0 489 501
0 494 538
0 500 615
0 509 697
0 525 765
0 547 827
0 573 891
0 604 956
0 637 1022
0 675 1093
0 713 1164
0 755 1238
0 798 1313
0 844 1389
0 891 1467
0 940 1547
0 989 1627
0 1039 1709
0 1091 1792
0 1142 1876
0 1195 1961
0 1248 2047
0 1302 2134
0 1355 2221
71 646 588
0 652 652
0 656 685
0 662 730
0 668 810
0 678 894
0 691 965
0 711 1028
0 735 1091
0 760 1153
0 792 1219
0 823 1284
0 859 1353
0 896 1423
0 937 1496
0 978 1571
0 1022 1647
0 1067 1721
0 1113 1798
0 1161 1877
0 1209 1956
0 1258 2036
0 1308 2118
0 1359 2201
0 1410 2284
107 809 742
0 815 804
0 819 835
0 823 871
0 830 924
0 836 1004
0 845 1088
0 858 1164
0 874 1229
0 896 1291
0 920 1353
0 948 1417
0 978 1481
0 1010 1547
0 1045 1615
0 1081 1684
0 1120 1756
0 1160 1829
0 1201 1904
0 1245 1980
0 1289 2054
0 1335 2130
0 1382 2207
0 1430 2286
0 1478 2365
152 973 894
13 979 957
0 982 986
0 986 1018
0 992 1057
0 997 1117
0 1004 1199
0 1013 1284
0 1024 1363
0 1040 1429
0 1060 1493
0 1082 1554
0 1107 1616
0 1135 1679
0 1164 1744
0 1197 1809
0 1231 1877
0 1267 1946
0 1304 2016
0 1343 2088
0 1383 2162
0 1425 2236
0 1468 2312
0 1512 2387
0 1558 2462
203 1137 1047
36 1143 1109
0 1146 1138
0 1149 1169
0 1154 1203
0 1160 1244
0 1166 1312
0 1173 1394
0 1180 1478
0 1192 1559
0 1206 1628
0 1224 1693
0 1245 1755
0 1269 1817
0 1294 1880
0 1322 1943
0 1352 2007
0 1384 2073
0 1417 2139
0 1452 2207
0 1489 2277
0 1527 2348
0 1567 2421
0 1607 2494
0 1649 2569
255 1300 1200
71 1306 1259
0 1309 1290
0 1312 1319
0 1316 1352
0 1321 1389
10 1328 1431
0 1333 1505
0 1340 1589
0 1348 1673
0 1359 1754
0 1372 1827
0 1390 1893
0 1409 1956
0 1431 2018
0 1455 2080
0 1481 2142
0 1509 2205
0 1539 2270
0 1570 2335
0 1604 2402
0 1638 2470
0 1674 2539
0 1712 2609
0 1750 2681
308 1464 1353
113 1470 1412
23 1473 1442
0 1475 1471
0 1478 1502
0 1483 1536
0 1489 1575
0 1496 1623
0 1502 1700
0 1508 1783
0 1516 1868
0 1526 1949
0 1539 2026
0 1555 2092
0 1574 2156
0 1594 2219
0 1617 2280
0 1642 2343
0 1668 2406
0 1696 2469
0 1726 2533
0 1757 2598
0 1790 2664
0 1824 2732
0 1860 2800
360 1628 1506
168 1633 1564
58 1637 1594
0 1639 1623
0 1642 1653
0 1646 1686
0 1651 1721
0 1657 1761
0 1664 1817
0 1669 1894
0 1676 1978
0 1684 2063
0 1694 2145
0 1705 2224
0 1721 2291
0 1739 2356
0 1758 2419
0 1780 2481
0 1803 2543
0 1828 2606
0 1855 2668
0 1884 2732
0 1913 2796
0 1944 2861
0 1977 2927
404 1792 1661
225 1797 1715
107 1800 1746
3 1803 1776
0 1805 1805
0 1809 1836
0 1813 1870
0 1819 1906
0 1825 1948
0 1831 2011
0 1837 2088
0 1843 2172
0 1851 2258
0 1861 2339
0 1873 2419
0 1887 2490
0 1904 2556
0 1923 2619
0 1943 2682
0 1966 2744
0 1989 2806
0 2015 2868
0 2042 2931
0 2071 2995
0 2100 3059
455 1956 1814
282 1960 1868
165 1964 1897
39 1967 1928
0 1970 1957
0 1972 1987
0 1976 2019
0 1981 2054
0 1987 2093
0 1994 2135
0 1999 2204
0 2005 2283
0 2011 2367
0 2019 2452
0 2029 2534
0 2040 2614
0 2053 2689
0 2070 2755
0 2088 2819
0 2107 2882
0 2129 2944
0 2152 3007
0 2176 3069
0 2202 3131
0 2229 3194
508 2119 1967
337 2124 2020
225 2127 2049
87 2130 2080
0 2134 2110
0 2136 2139
0 2139 2170
0 2143 2203
0 2149 2239
0 2155 2279
19 2162 2323
0 2167 2398
0 2173 2477
0 2180 2561
0 2187 2647
0 2196 2729
0 2208 2810
0 2220 2887
0 2236 2954
0 2253 3019
0 2272 3082
0 2292 3145
0 2314 3207
0 2338 3269
0 2363 3332
559 2283 2120
391 2288 2172
284 2291 2201
149 2294 2231
13 2297 2261
0 2299 2290
0 2302 2321
0 2306 2353
0 2311 2387
0 2316 2425
0 2323 2466
0 2329 2517
0 2335 2592
0 2341 2671
0 2347 2756
0 2355 2842
0 2364 2924
0 2375 3005
0 2387 3084
0 2402 3153
0 2418 3218
0 2437 3283
0 2456 3345
0 2477 3408
0 2500 3470
611 2447 2273
446 2451 2325
343 2454 2353
217 2457 2383
58 2461 2414
0 2463 2443
0 2466 2472
0 2469 2503
0 2473 2536
0 2478 2572
0 2484 2611
0 2491 2652
0 2497 2710
0 2503 2786
0 2509 2866
0 2515 2951
0 2523 3037
0 2532 3119
0 2542 3200
0 2554 3280
0 2568 3352
0 2584 3418
0 2602 3483
0 2621 3546
0 2642 3609
662 2611 2426
501 2615 2477
401 2618 2505
280 2621 2535
119 2624 2566
0 2627 2595
0 2630 2624
0 2632 2654
0 2636 2687
0 2641 2721
0 2646 2757
0 2652 2797
0 2659 2840
0 2665 2904
0 2671 2980
0 2677 3060
0 2683 3145
0 2691 3231
0 2700 3314
0 2710 3395
0 2722 3475
0 2735 3551
0 2750 3617
0 2767 3682
0 2786 3746
713 2774 2579
554 2779 2629
458 2781 2657
343 2784 2686
195 2788 2717
26 2791 2748
0 2793 2776
0 2796 2806
0 2799 2837
0 2803 2870
0 2808 2905
0 2814 2943
0 2820 2983
29 2827 3026
0 2833 3097
0 2839 3174
0 2845 3255
0 2851 3340
0 2859 3426
0 2867 3509
0 2877 3590
0 2889 3670
0 2901 3749
0 2916 3816
0 2933 3882
763 2938 2733
609 2942 2782
514 2945 2809
403 2948 2838
267 2951 2869
84 2955 2899
0 2957 2929
0 2960 2958
0 2962 2988
0 2966 3020
0 2971 3054
0 2976 3090
0 2982 3129
0 2988 3170
29 2995 3217
0 3001 3291
0 3006 3368
0 3013 3449
0 3019 3534
0 3027 3621
0 3035 3704
0 3045 3786
0 3056 3866
0 3069 3945
0 3083 4015
815 3102 2886
662 3106 2934
570 3109 2962
462 3112 2990
334 3115 3020
158 3118 3052
0 3122 3081
0 3123 3110
0 3126 3140
0 3129 3171
0 3133 3204
0 3138 3239
0 3144 3276
0 3150 3315
0 3157 3357
0 3163 3411
0 3169 3485
0 3175 3563
0 3181 3644
0 3187 3729
0 3194 3815
0 3203 3899
0 3213 3981
0 3224 4061
0 3236 4095
866 3265 3038
716 3269 3087
625 3272 3114
520 3275 3142
396 3278 3172
240 3282 3203
42 3285 3233
0 3287 3262
0 3290 3291
0 3293 3322
0 3296 3354
0 3300 3388
0 3306 3423
0 3311 3461
0 3318 3501
0 3325 3544
0 3331 3604
0 3336 3679
0 3342 3756
0 3348 3838
0 3355 3923
0 3362 4010
0 3371 4094
412 3376 4095
1043 3367 4095
918 3429 3192
770 3433 3239
680 3436 3266
577 3439 3294
460 3442 3324
314 3445 3355
116 3449 3385
0 3451 3415
0 3453 3443
0 3456 3473
0 3459 3504
0 3463 3537
0 3468 3572
0 3473 3608
0 3479 3647
0 3486 3688
13 3493 3731
0 3499 3797
0 3504 3873
0 3510 3951
0 3516 4033
0 3523 4095
747 3517 4095
1254 3504 4095
1571 3494 4095
968 3593 3345
823 3597 3392
735 3599 3418
634 3602 3446
520 3605 3476
383 3609 3506
201 3612 3537
0 3615 3567
0 3617 3596
0 3620 3625
0 3623 3656
0 3626 3688
0 3631 3721
0 3636 3757
0 3641 3794
0 3647 3833
0 3654 3875
78 3661 3917
0 3667 3991
0 3672 4067
0 3678 4095
1129 3655 4095
1480 3641 4095
1911 3615 4095
2113 3606 4095
1020 3756 3498
876 3761 3544
788 3763 3571
691 3766 3599
579 3769 3628
449 3772 3658
284 3775 3689
65 3779 3719
0 3781 3748
0 3783 3777
0 3786 3807
0 3789 3838
0 3793 3871
0 3798 3905
0 3803 3941
0 3809 3979
0 3815 4019
0 3822 4061
39 3829 4095
922 3814 4095
1417 3793 4095
1792 3771 4095
2141 3745 4095
2339 3732 4095
2538 3719 4095
1071 3920 3651
929 3924 3697
843 3927 3723
746 3929 3751
639 3932 3780
513 3935 3809
362 3939 3840
152 3942 3871
0 3945 3900
0 3947 3929
0 3950 3959
0 3953 3989
0 3956 4021
0 3961 4055
0 3966 4090
0 3971 4095
419 3972 4095
1311 3944 4095
1431 3943 4095
1813 3920 4095
2231 3883 4095
2453 3864 4095
2671 3844 4095
2813 3834 4095
2913 3830 4095
136 10 0
42 45 103
32 61 186
32 87 262
36 126 341
42 174 425
48 225 505
52 280 594
58 336 684
61 389 771
68 448 864
74 504 953
81 560 1044
87 619 1137
94 676 1228
103 735 1321
110 792 1413
116 849 1504
126 908 1597
136 966 1690
142 1024 1782
152 1082 1875
161 1141 1968
171 1199 2061
180 1257 2154
116 174 110
171 171 171
132 189 284
107 214 374
87 245 452
74 282 526
68 322 603
61 365 682
61 412 762
58 460 842
58 509 924
58 562 1010
58 614 1095
58 667 1182
58 722 1269
58 777 1357
61 832 1447
61 887 1536
65 943 1626
68 999 1717
68 1056 1807
71 1113 1898
74 1170 1989
81 1227 2080
81 1284 2172
149 330 250
174 328 308
195 334 379
145 351 481
100 374 566
71 399 642
55 431 715
42 464 787
29 503 860
19 543 935
13 587 1010
6 633 1088
0 681 1168
0 729 1248
0 779 1329
0 830 1411
0 882 1495
0 935 1580
0 988 1666
0 1041 1752
0 1097 1840
0 1151 1928
0 1206 2017
0 1262 2106
0 1317 2195
186 488 394
192 490 454
171 496 520
201 500 585
165 513 677
110 533 764
68 558 839
42 584 910
19 615 982
6 649 1053
0 685 1123
0 723 1194
0 765 1265
0 807 1338
0 852 1412
0 899 1489
0 947 1567
0 996 1647
0 1046 1729
0 1096 1810
0 1148 1894
0 1200 1979
0 1253 2064
0 1306 2149
0 1359 2236
233 649 540
214 652 602
152 658 670
183 662 712
201 667 788
171 679 878
119 697 961
65 718 1037
26 743 1110
0 771 1179
0 800 1243
0 832 1308
0 868 1377
0 904 1447
0 944 1519
0 985 1592
0 1028 1664
0 1073 1739
0 1119 1815
0 1166 1892
0 1214 1971
0 1263 2051
0 1313 2132
0 1364 2214
0 1415 2298
280 811 687
243 815 752
145 821 821
152 826 861
186 831 908
192 837 989
168 846 1077
136 861 1157
65 882 1236
13 904 1308
0 928 1374
0 955 1436
0 984 1500
0 1017 1565
0 1052 1634
0 1088 1703
0 1126 1774
0 1166 1846
0 1207 1921
0 1250 1993
0 1295 2067
0 1340 2143
0 1386 2220
0 1434 2298
0 1482 2377
330 975 833
276 977 904
155 984 972
136 988 1011
158 993 1049
180 999 1106
180 1005 1188
158 1014 1275
158 1026 1354
71 1046 1434
3 1067 1508
0 1088 1570
0 1114 1633
0 1141 1696
0 1171 1760
0 1203 1825
0 1237 1892
0 1272 1960
0 1309 2031
0 1348 2102
0 1388 2175
0 1429 2250
0 1472 2323
0 1517 2398
0 1562 2473
377 1138 988
312 1141 1055
171 1147 1124
126 1151 1161
126 1156 1198
168 1161 1237
168 1167 1303
165 1174 1386
142 1182 1473
165 1193 1551
84 1210 1630
0 1230 1706
0 1251 1768
0 1274 1830
0 1299 1893
0 1327 1956
0 1357 2021
0 1389 2085
0 1422 2152
0 1457 2220
0 1493 2290
0 1531 2360
0 1570 2432
0 1611 2506
0 1652 2580
427 1301 1142
351 1303 1207
195 1310 1275
129 1315 1312
107 1319 1348
123 1324 1385
186 1328 1424
152 1335 1499
142 1341 1584
123 1351 1671
149 1360 1749
103 1375 1827
0 1395 1904
0 1414 1967
0 1436 2029
0 1460 2091
0 1486 2154
0 1514 2217
0 1543 2281
0 1575 2347
0 1608 2413
0 1642 2480
0 1678 2549
0 1715 2619
0 1754 2691
475 1464 1296
391 1467 1359
228 1473 1426
142 1478 1464
97 1482 1498
90 1486 1534
126 1491 1571
189 1496 1616
132 1503 1696
116 1510 1781
97 1518 1868
126 1528 1947
132 1541 2023
6 1559 2101
0 1578 2166
0 1599 2228
0 1621 2290
0 1646 2353
0 1672 2415
0 1700 2478
0 1730 2543
0 1761 2608
0 1794 2674
0 1828 2741
0 1863 2810
525 1627 1450
434 1631 1512
262 1637 1578
165 1641 1615
97 1645 1649
71 1649 1684
81 1654 1720
136 1659 1758
171 1664 1811
107 1672 1892
87 1678 1978
68 1687 2065
100 1696 2145
168 1707 2218
23 1725 2298
0 1742 2364
0 1762 2427
0 1784 2490
0 1807 2552
0 1832 2614
0 1859 2677
0 1887 2740
0 1916 2805
0 1948 2870
0 1980 2936
