Creative/ColorHarmony - HueTwists.3dl
#25pt 3DLUT created by 3D LUT Creator Pro (c) Oleg Sharonov
#Copyright Oleg Sharonov
#IMAGEPROFILE 
#INPUTGAMMA 
#OUTPUTGAMMA 
0 128 256 384 512 640 768 896 1023
0 0 0
0 23 417
0 78 861
0 174 1306
0 291 1752
0 411 2194
0 532 2632
0 659 3062
32 798 3468
65 504 0
26 423 1020
0 408 1388
0 445 1704
0 514 2042
0 610 2387
0 725 2734
10 858 3072
267 1028 3310
220 1019 0
374 998 486
116 887 1824
0 871 2203
0 903 2473
0 969 2721
78 1073 2928
360 1214 3039
485 1361 3195
393 1570 0
354 1524 352
590 1491 1174
299 1400 2386
0 1413 2716
0 1460 2913
0 1536 3069
174 1639 3167
399 1763 3223
557 2164 71
235 2046 220
631 2024 939
648 2001 1761
412 1955 2679
0 1994 2916
0 2051 3053
0 2127 3160
136 2219 3238
832 2740 535
334 2596 343
504 2550 867
628 2538 1552
575 2528 2225
381 2513 2899
0 2560 3067
0 2616 3186
0 2687 3289
1093 3261 874
560 3139 605
302 3069 907
425 3065 1499
451 3060 2079
388 3057 2645
238 3054 3199
0 3099 3344
0 3153 3466
1311 3721 1118
793 3649 838
90 3583 980
165 3582 1515
198 3581 2045
189 3580 2572
142 3580 3093
71 3580 3611
0 3622 3754
1775 4095 1632
1151 4095 1170
404 4095 1067
16 4095 1532
23 4095 2046
23 4095 2560
23 4095 3072
16 4095 3585
10 4095 4095
503 6 6
360 142 287
142 155 1078
0 119 1653
0 233 2033
0 341 2444
0 446 2876
0 546 3321
273 709 3660
521 509 16
512 512 512
488 520 1017
446 537 1512
389 568 1991
332 620 2439
314 706 2837
391 828 3170
552 984 3432
401 1066 0
551 1025 482
742 934 1390
599 931 1925
509 957 2304
499 1021 2575
548 1120 2779
590 1238 2997
651 1371 3204
673 1650 0
640 1569 477
773 1504 1066
831 1415 2151
611 1435 2566
486 1482 2828
474 1558 2993
530 1658 3102
609 1780 3180
1093 2276 152
796 2150 577
778 2032 906
834 2008 1711
814 1957 2589
575 2001 2850
440 2060 3018
411 2137 3131
448 2229 3217
1543 2856 617
1004 2726 798
696 2554 865
815 2541 1530
787 2531 2205
731 2513 2870
452 2564 3052
248 2625 3186
149 2697 3295
1876 3344 967
1220 3249 1043
601 3070 911
686 3065 1494
708 3061 2072
673 3058 2638
623 3054 3191
217 3107 3349
0 3163 3477
2075 3755 1211
1410 3713 1241
669 3597 1029
568 3582 1515
583 3581 2044
580 3580 2570
563 3580 3092
542 3580 3609
0 3630 3763
2291 4095 1580
1777 4095 1634
865 4095 1141
517 4095 1532
520 4095 2046
521 4095 2559
520 4095 3072
517 4095 3585
516 4095 4095
1006 23 23
955 161 165
765 393 642
520 499 1329
299 362 2249
174 345 2759
161 404 3182
347 547 3513
603 741 3755
1083 471 0
1017 516 514
893 619 795
681 679 1476
614 646 2145
579 651 2640
585 694 3063
667 788 3404
819 930 3662
1063 1029 52
1049 1025 541
1024 1024 1024
1004 1033 1517
981 1050 1985
962 1083 2415
961 1137 2794
991 1218 3114
1060 1326 3375
1151 1668 103
1126 1650 590
1072 1550 1023
1238 1458 1813
1111 1487 2250
1015 1535 2571
957 1607 2801
935 1703 2967
939 1819 3089
1639 2375 347
1554 2312 697
1177 2118 1081
1171 2023 1590
1275 1968 2414
1080 2019 2711
945 2082 2915
865 2161 3061
828 2253 3171
2211 2936 587
2052 2883 869
1324 2690 1207
1152 2549 1486
1155 2537 2155
1194 2514 2806
967 2573 3006
809 2638 3156
712 2712 3277
2594 3384 877
2404 3353 1089
1482 3219 1361
1089 3068 1484
1113 3064 2055
1097 3060 2622
1098 3055 3173
844 3112 3339
653 3174 3478
2774 3754 1120
2585 3745 1284
1628 3694 1499
1041 3583 1514
1052 3582 2041
1053 3581 2567
1045 3580 3088
1041 3580 3605
753 3635 3766
2847 4095 1308
2673 4095 1437
1855 4095 1722
1024 4095 1532
1026 4095 2046
1027 4095 2559
1027 4095 3072
1025 4095 3584
1025 4095 4095
1509 58 55
1485 180 183
1396 416 430
1181 641 1004
910 781 1659
787 777 2397
696 701 3131
777 782 3479
921 922 3728
1561 485 0
1516 530 526
1456 636 645
1277 789 1114
1010 904 1764
909 902 2462
885 885 3046
952 953 3396
1067 1067 3658
1636 971 0
1604 989 520
1524 1029 1025
1428 1103 1314
1220 1170 1931
1179 1175 2506
1202 1201 2923
1255 1255 3271
1340 1340 3548
1692 1583 61
1664 1570 584
1603 1544 1077
1536 1536 1536
1518 1548 1995
1504 1572 2412
1500 1611 2778
1515 1668 3091
1551 1745 3354
2076 2279 103
2037 2257 619
1939 2203 1136
1600 2071 1565
1682 1997 2214
1516 2054 2541
1386 2121 2784
1291 2200 2967
1225 2292 3110
2753 2928 280
2708 2906 723
2528 2838 1244
1710 2633 1651
1597 2547 2079
1664 2521 2719
1443 2589 2943
1279 2660 3115
1164 2737 3255
3328 3396 497
3209 3370 842
2878 3309 1330
1829 3173 1756
1574 3067 2034
1571 3064 2598
1593 3056 3145
1355 3122 3325
1178 3189 3475
3472 3725 804
3362 3718 1037
3046 3702 1449
1939 3664 1850
1546 3582 2038
1549 3582 2562
1545 3581 3083
1548 3580 3600
1301 3641 3768
3498 4034 1066
3400 4040 1232
3111 4060 1569
2063 4095 1956
1536 4095 2046
1536 4095 2559
1536 4095 3071
1536 4095 3584
1536 4095 4095
2001 152 126
1996 228 228
1933 443 458
1837 662 711
1623 868 1388
1386 1015 2016
1260 1083 2607
1216 1103 3203
1279 1165 3594
2030 537 0
2004 566 553
1972 658 665
1886 814 860
1700 973 1473
1473 1102 2093
1355 1166 2658
1322 1192 3214
1397 1263 3553
2081 1001 0
2067 1013 472
2009 1049 1033
1968 1124 1160
1844 1216 1645
1660 1305 2239
1568 1359 2750
1565 1395 3209
1638 1470 3488
2160 1485 0
2139 1495 523
2084 1519 1030
2019 1548 1530
1981 1589 1854
1895 1625 2391
1860 1659 2834
1874 1708 3168
1914 1772 3453
2413 2146 0
2378 2130 580
2290 2094 1142
2164 2052 1620
2048 2048 2048
2030 2065 2464
2018 2095 2828
2019 2138 3144
2034 2195 3416
2956 2800 0
2921 2782 482
2828 2738 1105
2670 2665 1603
2118 2579 2095
2115 2537 2630
1899 2614 2879
1733 2691 3077
1607 2772 3238
3547 3308 0
3516 3296 443
3431 3263 1127
3257 3209 1669
2215 3119 2175
2064 3067 2570
2086 3060 3115
1844 3136 3312
1659 3210 3476
3984 3668 0
3959 3661 537
3842 3647 1161
3437 3631 1705
2305 3627 2247
2054 3582 2558
2053 3582 3077
2058 3581 3593
1809 3651 3773
4095 3955 520
4031 3960 810
3863 3973 1254
3503 4006 1788
2384 4095 2305
2047 4095 2559
2047 4095 3071
2047 4095 3583
2048 4095 4095
2466 341 267
2484 332 328
2445 496 509
2374 697 765
2263 906 1110
2112 1057 1809
1975 1174 2403
1887 1275 2885
1904 1337 3325
2476 649 0
2466 656 605
2469 701 704
2407 845 903
2316 1007 1206
2178 1135 1878
2058 1235 2464
1977 1330 2927
1999 1392 3346
2490 1084 0
2488 1088 443
2466 1101 1050
2464 1149 1180
2410 1245 1429
2308 1329 2026
2240 1386 2590
2183 1466 3015
2219 1521 3391
2552 1540 0
2548 1545 422
2505 1570 963
2472 1584 1523
2490 1612 1744
2450 1651 2216
2479 1649 2743
2473 1698 3121
2535 1738 3450
2695 2027 0
2671 2024 523
2615 2024 1044
2554 2051 1520
2501 2072 2020
2537 2077 2397
2675 2033 2870
2744 2042 3218
2733 2107 3507
3126 2658 0
3101 2645 419
3010 2619 1141
2867 2579 1692
2704 2549 2151
2559 2559 2559
2539 2582 2940
2525 2614 3273
2524 2658 3566
3645 3202 0
3628 3192 0
3551 3167 1021
3420 3128 1639
3244 3077 2139
2625 3079 2608
2577 3065 3089
2329 3153 3305
2141 3234 3489
4062 3602 0
4049 3597 0
3992 3584 946
3889 3563 1597
3738 3533 2140
2703 3596 2669
2562 3583 3073
2565 3582 3588
2311 3663 3782
4095 3892 2726
4095 3892 2653
4095 3891 2472
4095 3894 2101
3854 3948 2077
2772 4085 2719
2561 4095 3072
2561 4095 3583
2561 4095 4095
2887 603 427
2942 513 482
2928 602 606
2882 759 840
2826 919 1161
2739 1083 1630
2668 1177 2280
2652 1234 2832
2638 1333 3227
2866 860 129
2884 827 682
2943 784 784
2903 902 963
2855 1030 1262
2784 1161 1710
2722 1242 2337
2724 1280 2882
2718 1372 3264
2862 1230 0
2865 1231 437
2880 1210 1074
2942 1197 1216
2910 1277 1475
2875 1352 1894
2834 1408 2461
2885 1402 2991
2898 1476 3346
2902 1648 0
2911 1646 326
2881 1666 905
2886 1659 1514
2967 1644 1742
2972 1668 2155
2963 1699 2625
3099 1634 3135
3152 1672 3460
3015 2075 0
3014 2078 367
2984 2094 928
2936 2119 1425
2918 2126 1986
3022 2094 2379
3049 2103 2784
3282 2000 3262
3400 1988 3577
3275 2561 0
3259 2557 436
3200 2553 1036
3105 2550 1551
3036 2575 2010
2986 2596 2505
3077 2575 2929
3380 2466 3365
3556 2426 3679
3740 3105 0
3731 3098 0
3659 3085 1049
3539 3067 1689
3385 3048 2216
3220 3044 2666
3071 3071 3071
3048 3096 3436
3032 3129 3760
4095 3548 0
4095 3544 0
4095 3536 832
4004 3525 1559
3875 3509 2133
3721 3499 2624
3128 3579 3112
3073 3583 3585
2813 3675 3795
4095 3889 3030
4095 3889 3028
4095 3887 3023
4095 3886 2869
4095 3887 2854
4095 3899 2575
3189 4079 3157
3072 4095 3583
3072 4095 4095
3251 922 576
3358 764 663
3383 762 761
3358 871 941
3332 982 1271
3317 1071 1707
3291 1155 2244
3291 1200 2804
3352 1202 3289
3207 1134 287
3248 1079 766
3388 922 909
3372 1003 1047
3350 1093 1352
3342 1161 1784
3328 1224 2309
3333 1263 2848
3406 1251 3326
3197 1434 0
3201 1433 451
3245 1388 1099
3399 1276 1280
3386 1338 1524
3392 1374 1950
3404 1398 2459
3420 1425 2947
3523 1385 3405
3222 1802 0
3239 1796 240
3222 1810 855
3257 1783 1501
3427 1696 1755
3447 1709 2158
3490 1695 2669
3521 1713 3078
3678 1635 3512
3329 2190 0
3344 2187 126
3321 2201 821
3288 2222 1342
3300 2213 1949
3481 2135 2330
3544 2100 2888
3589 2115 3208
3815 2008 3617
3511 2592 0
3511 2594 352
3488 2605 919
3450 2624 1419
3399 2650 1896
3383 2657 2452
3553 2584 2987
3609 2585 3327
3898 2470 3719
3856 3058 0
3852 3055 201
3804 3056 986
3724 3059 1556
3617 3066 2061
3536 3092 2513
3486 3112 3003
3600 3081 3447
3931 2971 3833
4095 3525 1529
4095 3522 1436
4095 3516 1434
4095 3510 1625
4012 3512 2213
3872 3521 2723
3725 3543 3174
3583 3583 3583
3559 3608 3946
4095 3915 3399
4095 3915 3399
4095 3915 3360
4095 3916 3359
4095 3920 3357
4095 3927 3350
4095 3946 3283
3631 4082 3616
3583 4095 4095
3561 1269 691
3730 1063 835
3807 973 945
3806 1031 1065
3802 1098 1373
3817 1131 1832
3863 1105 2396
3905 1099 2903
3960 1094 3364
3509 1438 396
3562 1380 838
3797 1121 1053
3817 1144 1159
3814 1202 1436
3833 1225 1887
3883 1192 2452
3931 1175 2951
3988 1171 3395
3504 1675 0
3506 1675 470
3568 1619 1120
3839 1386 1383
3839 1434 1575
3865 1444 2005
3924 1399 2575
3986 1364 3061
4046 1363 3466
3526 1991 0
3547 1983 155
3539 1991 813
3595 1951 1487
3873 1771 1790
3900 1779 2153
3968 1728 2725
4048 1678 3215
4095 1684 3561
3632 2335 0
3651 2330 0
3641 2339 725
3620 2355 1271
3657 2332 1916
3929 2192 2303
3996 2152 2843
4087 2094 3374
4095 2132 3637
3815 2701 0
3828 2700 0
3813 2709 765
3784 2726 1304
3746 2748 1801
3757 2742 2402
4000 2631 2898
4092 2571 3515
4095 2613 3723
4049 3091 0
4046 3093 404
4028 3102 945
3996 3117 1444
3952 3138 1924
3897 3165 2391
3879 3172 2941
4073 3086 3538
4095 3097 3835
4095 3560 2244
4095 3560 2244
4095 3563 2349
4095 3562 2353
4095 3564 2401
4095 3573 2574
4048 3603 3024
3996 3624 3511
4095 3592 3959
4095 3976 3705
4095 3977 3706
4095 3979 3708
4095 3985 3736
4095 3993 3743
4095 4007 3802
4095 4028 3865
4095 4057 3952
4095 4095 4095
