Creative/ColorHarmony - HueTwists YUV.3dl
#25pt 3DLUT created by 3D LUT Creator Pro (c) Oleg Sharonov
#Copyright Oleg Sharonov
#INPUTGAMMA sRGB IEC61966-2.1 v.2.10
#IMAGEPROFILE sRGB IEC61966-2.1 v.2.10
#OUTPUTGAMMA sRGB IEC61966-2.1 v.2.10
0 43 86 128 171 214 256 299 341 384 427 469 512 555 597 640 682 725 768 810 853 896 938 981 1023 
0 0 0
26 26 58
26 26 243
36 36 398
39 39 556
42 42 707
42 42 852
42 42 1005
45 45 1158
45 45 1311
48 48 1463
48 48 1614
52 52 1765
58 61 1915
65 90 2063
78 126 2210
94 161 2356
119 206 2501
152 250 2645
198 297 2786
248 349 2926
306 404 3064
370 467 3199
442 533 3331
520 606 3460
32 32 32
29 42 171
23 58 328
23 78 468
26 100 614
26 119 755
29 139 903
29 161 1052
32 183 1202
32 203 1352
36 225 1502
39 243 1652
42 262 1802
48 282 1950
58 304 2099
71 328 2246
90 352 2392
116 383 2536
152 414 2679
198 452 2820
250 493 2959
310 541 3095
376 594 3229
448 653 3361
527 719 3489
58 192 36
29 212 195
19 235 343
13 264 501
13 271 657
13 291 801
16 312 947
19 332 1095
19 352 1243
23 372 1392
26 393 1541
29 412 1689
36 433 1838
42 454 1986
52 477 2133
65 500 2279
84 525 2424
110 552 2567
149 583 2709
195 616 2849
250 654 2987
312 696 3123
379 744 3256
454 797 3387
533 856 3515
189 324 32
142 343 209
94 367 358
16 406 522
10 439 677
6 458 842
6 472 995
10 493 1139
13 516 1286
16 537 1432
19 559 1579
23 582 1726
26 604 1873
36 626 2019
45 649 2166
58 673 2311
78 698 2455
107 725 2597
145 755 2738
195 787 2877
250 822 3014
314 861 3149
383 904 3281
460 953 3411
541 1006 3538
297 464 61
257 485 230
214 503 374
149 531 530
39 572 696
6 610 856
3 649 1014
3 656 1183
6 675 1330
6 698 1474
10 723 1619
16 746 1764
19 770 1909
26 793 2054
39 818 2198
52 842 2342
71 869 2485
100 896 2626
142 926 2765
192 957 2903
250 991 3039
316 1028 3173
388 1069 3304
465 1114 3433
548 1164 3560
401 601 87
362 623 248
322 643 396
282 664 545
201 699 707
97 740 871
6 781 1034
3 819 1192
3 851 1352
3 855 1521
3 880 1662
10 906 1804
13 931 1947
19 957 2089
32 982 2232
45 1008 2374
65 1035 2515
94 1064 2655
136 1094 2793
189 1125 2929
250 1159 3063
318 1195 3196
389 1234 3327
470 1277 3455
556 1324 3580
509 742 110
471 765 269
430 785 417
391 805 566
352 827 717
252 868 884
152 908 1047
52 949 1209
3 990 1368
0 1032 1524
0 1051 1687
3 1062 1847
6 1089 1987
13 1115 2127
23 1142 2267
36 1170 2407
58 1198 2546
87 1227 2684
129 1257 2820
183 1289 2955
248 1323 3088
316 1359 3219
391 1397 3349
474 1439 3476
562 1483 3601
618 883 136
580 906 291
540 926 440
500 946 590
462 967 739
403 996 895
304 1037 1061
206 1077 1223
110 1118 1383
16 1161 1541
0 1203 1696
0 1246 1851
0 1254 2016
3 1271 2168
13 1299 2305
26 1328 2443
45 1357 2579
74 1387 2715
116 1418 2849
174 1450 2982
240 1484 3114
312 1520 3244
391 1558 3372
475 1598 3498
566 1641 3621
728 1023 161
690 1046 314
650 1066 462
610 1086 613
571 1106 762
535 1128 911
454 1164 1073
356 1205 1237
260 1246 1397
165 1287 1555
71 1330 1712
0 1374 1867
0 1419 2019
0 1449 2176
0 1460 2337
10 1482 2480
29 1512 2614
58 1543 2748
100 1575 2880
158 1608 3011
230 1642 3141
306 1677 3269
388 1715 3396
475 1754 3521
569 1796 3643
839 1164 186
801 1186 336
760 1206 486
721 1225 635
682 1246 784
645 1267 933
606 1290 1083
508 1332 1249
411 1373 1411
316 1414 1570
222 1456 1726
129 1498 1881
36 1543 2035
0 1589 2186
0 1635 2335
0 1655 2492
10 1668 2648
36 1697 2783
78 1729 2913
136 1762 3042
212 1796 3170
293 1832 3297
379 1869 3422
471 1908 3545
569 1949 3667
950 1304 212
912 1326 360
871 1345 509
831 1365 659
793 1384 808
755 1405 957
718 1427 1105
659 1457 1260
562 1498 1423
467 1540 1584
372 1581 1741
280 1623 1896
189 1667 2049
97 1711 2201
6 1758 2351
0 1805 2497
0 1850 2644
16 1864 2797
42 1880 2949
100 1914 3075
180 1948 3201
271 1983 3326
365 2020 3450
462 2058 3572
565 2098 3692
1060 1442 238
1022 1464 386
982 1484 535
942 1503 685
904 1522 834
865 1542 981
828 1563 1129
793 1586 1276
714 1622 1436
618 1664 1597
523 1705 1756
431 1747 1911
339 1790 2065
250 1834 2216
161 1878 2365
71 1925 2512
10 1973 2657
16 2021 2799
32 2058 2944
71 2074 3094
136 2096 3235
240 2131 3359
341 2167 3481
446 2205 3601
556 2244 3720
1170 1582 264
1131 1603 414
1091 1622 563
1052 1640 712
1013 1659 860
976 1678 1008
939 1699 1155
903 1721 1302
865 1745 1449
770 1787 1611
675 1828 1771
582 1870 1927
490 1912 2081
401 1955 2232
314 1999 2381
230 2044 2527
149 2090 2671
71 2138 2813
45 2187 2954
68 2236 3092
123 2266 3236
206 2285 3381
308 2312 3514
423 2349 3633
541 2387 3750
1278 1720 293
1240 1740 443
1200 1759 593
1161 1777 742
1122 1796 890
1084 1814 1038
1047 1834 1184
1011 1855 1330
977 1877 1475
919 1908 1626
826 1949 1787
733 1991 1944
642 2033 2098
553 2075 2250
465 2118 2398
383 2162 2543
304 2208 2687
235 2254 2828
177 2302 2967
126 2350 3106
149 2398 3242
209 2448 3378
299 2474 3519
398 2495 3659
518 2526 3784
1386 1857 328
1347 1877 477
1308 1895 625
1269 1913 774
1230 1931 923
1192 1949 1070
1154 1968 1216
1118 1988 1362
1083 2010 1506
1049 2032 1649
973 2069 1805
882 2110 1962
791 2151 2117
703 2193 2268
617 2236 2416
535 2279 2561
457 2323 2704
386 2369 2844
328 2415 2983
287 2462 3120
269 2509 3257
267 2557 3392
330 2605 3525
409 2653 3657
514 2679 3794
1492 1993 367
1454 2013 514
1414 2031 663
1375 2048 811
1336 2065 959
1297 2083 1106
1260 2101 1252
1223 2120 1397
1188 2141 1541
1153 2163 1683
1117 2187 1826
1027 2228 1984
937 2269 2139
850 2310 2290
765 2351 2438
685 2394 2582
607 2438 2724
537 2482 2864
475 2526 3002
430 2572 3138
403 2618 3273
401 2664 3407
423 2711 3540
465 2758 3672
552 2805 3801
1597 2129 411
1558 2148 558
1518 2165 707
1478 2182 855
1439 2199 1003
1400 2216 1149
1362 2233 1295
1325 2252 1439
1289 2271 1581
1254 2292 1723
1221 2314 1864
1166 2344 2010
1079 2384 2165
993 2425 2315
910 2466 2462
831 2507 2606
755 2550 2748
685 2592 2887
624 2636 3024
573 2680 3160
540 2725 3294
528 2769 3427
541 2814 3558
578 2859 3689
639 2905 3817
1699 2263 464
1660 2282 611
1619 2298 758
1579 2314 905
1539 2331 1052
1500 2347 1198
1461 2364 1343
1423 2381 1486
1387 2400 1628
1351 2420 1769
1317 2441 1909
1284 2463 2047
1212 2499 2196
1129 2538 2346
1048 2578 2493
970 2618 2636
896 2660 2777
827 2701 2915
766 2744 3051
716 2786 3186
679 2829 3319
660 2872 3451
663 2916 3581
690 2960 3710
741 3004 3837
1797 2397 527
1757 2415 672
1716 2431 818
1676 2446 965
1635 2461 1111
1595 2477 1256
1556 2493 1400
1517 2510 1543
1480 2527 1684
1443 2546 1823
1408 2566 1962
1374 2588 2098
1338 2612 2235
1256 2651 2384
1178 2689 2529
1102 2729 2672
1030 2769 2811
963 2809 2949
904 2850 3084
853 2891 3218
815 2932 3350
793 2974 3481
791 3016 3609
810 3058 3737
852 3101 3862
1890 2531 600
1849 2547 744
1808 2562 889
1767 2577 1035
1725 2591 1180
1684 2606 1325
1644 2621 1467
1604 2637 1609
1566 2653 1749
1529 2671 1887
1493 2691 2024
1458 2711 2159
1425 2734 2292
1374 2762 2431
1297 2800 2575
1223 2838 2716
1154 2877 2854
1090 2915 2990
1032 2955 3124
983 2994 3256
946 3034 3387
923 3074 3516
918 3115 3644
932 3155 3770
968 3196 3893
1976 2664 687
1935 2679 830
1893 2693 974
1850 2707 1118
1808 2720 1263
1766 2734 1406
1725 2748 1547
1685 2762 1687
1645 2778 1825
1607 2795 1962
1570 2813 2097
1534 2833 2230
1500 2854 2361
1468 2877 2491
1405 2910 2629
1334 2947 2768
1267 2984 2905
1205 3021 3039
1150 3059 3172
1103 3097 3303
1068 3135 3432
1046 3173 3559
1039 3212 3685
1052 3251 3809
1084 3290 3931
2056 2796 788
2013 2811 930
1970 2823 1073
1926 2836 1216
1883 2848 1358
1840 2861 1500
1798 2874 1640
1756 2887 1778
1716 2902 1914
1677 2918 2049
1638 2935 2182
1602 2954 2312
1567 2974 2440
1535 2996 2567
1501 3021 2694
1432 3056 2831
1368 3091 2965
1310 3126 3097
1257 3163 3228
1214 3199 3357
1180 3235 3484
1160 3272 3610
1155 3309 3734
1167 3346 3855
1199 3383 3975
2127 2928 904
2084 2941 1045
2039 2953 1187
1994 2964 1328
1950 2975 1469
1906 2986 1608
1862 2998 1746
1820 3011 1882
1778 3024 2016
1738 3039 2148
1699 3055 2278
1662 3073 2405
1626 3093 2531
1593 3114 2655
1562 3137 2777
1519 3165 2903
1458 3198 3035
1403 3232 3165
1354 3266 3293
1314 3300 3419
1284 3335 3544
1266 3370 3668
1263 3405 3789
1277 3440 3909
1311 3475 4026
2191 3058 1038
2146 3070 1177
2100 3080 1317
2054 3090 1456
2008 3100 1594
1963 3110 1731
1919 3121 1866
1875 3132 1999
1833 3145 2130
1792 3159 2258
1752 3174 2385
1714 3192 2509
1678 3210 2631
1645 3231 2751
1614 3253 2870
1586 3276 2988
1537 3306 3113
1486 3338 3240
1441 3370 3366
1405 3402 3489
1379 3435 3612
1366 3468 3732
1367 3501 3851
1385 3534 3967
1422 3567 4081
2245 3187 1189
2199 3197 1326
2152 3206 1462
2105 3215 1598
2059 3223 1733
2013 3232 1867
1968 3242 1998
1923 3252 2127
1880 3264 2254
1839 3277 2379
1799 3292 2501
1761 3308 2621
1725 3326 2739
1692 3346 2856
1662 3367 2971
1634 3389 3085
1609 3413 3200
1563 3443 3323
1523 3473 3445
1493 3504 3565
1472 3534 3684
1464 3565 3801
1471 3596 3917
1494 3627 4030
1541 3659 4095
42 29 29
65 65 65
58 58 248
61 61 408
58 58 566
55 55 714
48 61 859
48 81 1008
48 103 1157
48 126 1308
48 149 1458
52 171 1608
55 195 1757
58 220 1906
68 243 2055
81 267 2202
97 293 2349
123 322 2494
155 356 2637
201 394 2779
250 437 2919
308 486 3057
372 541 3192
443 602 3324
521 669 3453
171 32 32
42 94 220
29 155 334
26 214 461
29 233 606
29 248 746
29 267 894
32 284 1044
32 302 1193
36 320 1343
36 339 1493
39 356 1643
45 376 1792
52 396 1941
58 417 2089
71 439 2236
90 464 2382
116 490 2526
152 521 2669
198 554 2810
252 593 2948
312 636 3085
377 685 3219
449 740 3351
530 801 3479
262 168 19
155 233 209
87 264 365
16 308 525
13 360 650
16 403 788
16 423 933
19 445 1080
23 465 1229
23 485 1378
26 506 1526
29 527 1675
36 548 1824
42 569 1972
52 591 2119
65 614 2265
84 639 2410
113 665 2554
149 694 2696
198 725 2836
252 761 2974
314 800 3110
383 844 3243
457 894 3374
537 948 3502
354 310 16
260 362 222
222 386 369
139 422 531
32 467 698
6 513 845
6 571 977
10 601 1120
13 624 1266
16 647 1413
19 669 1560
23 693 1708
26 715 1855
36 738 2002
45 762 2148
58 786 2293
81 811 2437
107 838 2580
145 866 2721
198 897 2860
252 931 2997
316 968 3132
386 1009 3265
462 1055 3395
545 1105 3522
445 449 48
363 496 238
324 518 384
287 543 535
189 588 703
87 631 868
3 675 1031
3 726 1173
3 778 1308
6 802 1452
10 827 1597
13 852 1742
19 877 1887
26 902 2033
39 927 2177
52 953 2321
74 979 2464
103 1006 2606
142 1035 2746
195 1066 2884
252 1099 3020
318 1136 3154
389 1175 3285
467 1218 3414
552 1265 3541
535 590 81
468 632 257
431 655 404
393 679 553
336 712 710
238 755 877
139 798 1041
45 842 1203
0 885 1363
0 942 1499
3 981 1637
6 1008 1780
13 1034 1923
19 1060 2066
29 1087 2208
45 1114 2351
65 1142 2492
94 1170 2632
136 1200 2771
189 1232 2907
250 1265 3042
318 1301 3175
393 1339 3305
472 1380 3434
558 1425 3559
630 735 113
576 770 278
537 793 425
500 815 573
464 840 723
386 879 885
289 923 1052
195 965 1214
100 1009 1375
6 1054 1536
0 1098 1692
0 1160 1821
3 1187 1961
10 1215 2101
19 1244 2242
36 1272 2382
55 1301 2521
84 1330 2659
126 1361 2796
183 1393 2931
248 1427 3065
316 1463 3196
393 1500 3326
475 1540 3453
564 1584 3578
725 880 145
683 909 299
645 931 448
607 953 595
571 976 744
535 1002 894
437 1047 1062
341 1090 1227
248 1133 1388
155 1177 1547
61 1222 1705
0 1268 1861
0 1318 2009
0 1367 2141
10 1396 2278
23 1426 2416
42 1456 2553
71 1486 2689
113 1518 2824
171 1551 2957
238 1585 3089
312 1621 3219
391 1658 3347
475 1698 3473
568 1740 3597
827 1023 174
791 1047 322
752 1068 470
715 1090 618
679 1113 766
644 1137 914
587 1169 1071
490 1214 1237
396 1257 1400
302 1301 1560
209 1345 1717
116 1390 1873
26 1437 2028
0 1484 2180
0 1539 2320
6 1577 2452
23 1608 2587
52 1639 2720
94 1672 2853
152 1705 2985
222 1740 3114
302 1775 3243
384 1813 3370
472 1851 3495
568 1893 3618
936 1162 198
899 1185 345
862 1206 493
823 1228 642
788 1250 790
751 1273 937
717 1297 1086
641 1336 1247
546 1381 1411
451 1424 1572
358 1469 1730
267 1513 1886
174 1559 2040
81 1606 2192
0 1654 2343
0 1703 2491
0 1757 2623
26 1789 2755
65 1822 2885
123 1856 3015
201 1890 3143
284 1926 3270
372 1963 3395
465 2002 3519
565 2042 3640
1046 1300 222
1009 1323 370
971 1344 518
933 1365 666
896 1386 814
860 1409 961
826 1432 1109
790 1458 1257
696 1503 1422
602 1547 1584
508 1591 1743
416 1636 1899
324 1681 2053
233 1726 2205
142 1773 2354
52 1822 2503
0 1871 2649
0 1921 2792
26 1970 2920
81 2003 3047
161 2039 3174
257 2074 3299
354 2111 3423
454 2149 3545
558 2188 3665
