Creative/ColorHarmony - HueTwists YUV.3dl
#25pt 3DLUT created by 3D LUT Creator Pro (c) Oleg Sharonov
#Copyright Oleg Sharonov
#INPUTGAMMA sRGB IEC61966-2.1 v.2.10
#IMAGEPROFILE sRGB IEC61966-2.1 v.2.10
#OUTPUTGAMMA sRGB IEC61966-2.1 v.2.10
0 128 256 384 512 640 768 896 1023
0 0 0
36 36 398
42 42 852
45 45 1311
52 52 1765
78 126 2210
152 250 2645
306 404 3064
520 606 3460
189 324 32
16 406 522
6 472 995
16 537 1432
26 604 1873
58 673 2311
145 755 2738
314 861 3149
541 1006 3538
509 742 110
391 805 566
152 908 1047
0 1032 1524
6 1089 1987
36 1170 2407
129 1257 2820
316 1359 3219
562 1483 3601
839 1164 186
721 1225 635
606 1290 1083
316 1414 1570
36 1543 2035
0 1655 2492
78 1729 2913
293 1832 3297
569 1949 3667
1170 1582 264
1052 1640 712
939 1699 1155
770 1787 1611
490 1912 2081
230 2044 2527
45 2187 2954
206 2285 3381
541 2387 3750
1492 1993 367
1375 2048 811
1260 2101 1252
1153 2163 1683
937 2269 2139
685 2394 2582
475 2526 3002
401 2664 3407
552 2805 3801
1797 2397 527
1676 2446 965
1556 2493 1400
1443 2546 1823
1338 2612 2235
1102 2729 2672
904 2850 3084
793 2974 3481
852 3101 3862
2056 2796 788
1926 2836 1216
1798 2874 1640
1677 2918 2049
1567 2974 2440
1432 3056 2831
1257 3163 3228
1160 3272 3610
1199 3383 3975
2245 3187 1189
2105 3215 1598
1968 3242 1998
1839 3277 2379
1725 3326 2739
1634 3389 3085
1523 3473 3445
1464 3565 3801
1541 3659 4095
467 13 13
464 87 269
87 358 784
68 443 1241
65 472 1711
87 513 2172
165 576 2621
316 681 3041
530 836 3436
691 264 0
423 464 558
180 653 973
16 838 1385
29 939 1818
61 1013 2257
152 1093 2686
326 1188 3097
554 1312 3487
986 650 29
717 845 595
560 953 1064
291 1105 1539
58 1294 1937
32 1474 2333
126 1567 2748
320 1669 3149
571 1786 3531
1271 1077 119
1027 1241 659
931 1319 1097
721 1447 1576
451 1591 2053
198 1758 2476
61 1955 2845
269 2112 3217
560 2227 3588
1558 1507 225
1342 1641 740
1244 1711 1171
1152 1793 1603
894 1938 2080
636 2084 2532
393 2234 2964
306 2410 3340
509 2604 3679
1833 1938 358
1651 2040 848
1549 2102 1274
1454 2175 1695
1313 2277 2127
1074 2417 2576
852 2558 3001
691 2702 3410
689 2846 3805
2085 2364 550
1932 2437 1010
1822 2491 1433
1720 2553 1845
1627 2627 2245
1452 2742 2665
1256 2871 3079
1113 3002 3477
1086 3132 3858
2295 2781 849
2162 2829 1277
2042 2872 1687
1929 2925 2082
1826 2990 2462
1735 3070 2830
1569 3183 3224
1456 3297 3604
1449 3410 3967
2457 3180 1273
2326 3210 1668
2198 3244 2050
2079 3287 2414
1973 3344 2760
1886 3414 3096
1806 3497 3437
1741 3591 3787
1785 3686 4095
1022 0 0
1055 23 23
1003 293 445
735 566 1067
339 794 1590
116 994 2039
192 1034 2499
339 1096 2939
551 1196 3352
1119 345 0
1073 492 262
961 666 787
681 907 1295
358 1124 1757
81 1330 2187
183 1455 2618
356 1532 3045
587 1641 3436
1446 620 0
1250 831 492
975 1015 1103
752 1213 1515
522 1409 1922
306 1606 2320
161 1807 2707
345 1979 3085
601 2091 3466
1750 979 16
1515 1198 584
1258 1379 1139
1122 1495 1596
877 1660 2062
663 1855 2446
475 2056 2820
420 2256 3183
586 2460 3530
2018 1403 90
1770 1604 687
1548 1753 1206
1470 1839 1627
1289 1975 2086
1055 2131 2542
841 2303 2948
707 2496 3302
735 2689 3645
2267 1842 222
2019 2016 821
1833 2131 1307
1750 2209 1717
1674 2300 2124
1464 2448 2571
1264 2596 2996
1099 2744 3406
1047 2911 3766
2476 2292 454
2241 2430 1016
2088 2512 1470
1997 2580 1869
1915 2660 2259
1804 2767 2654
1632 2901 3066
1498 3035 3462
1446 3167 3840
2624 2744 812
2421 2836 1312
2292 2892 1725
2190 2949 2108
2099 3020 2476
2022 3105 2833
1909 3213 3208
1812 3328 3582
1797 3442 3937
2713 3178 1300
2561 3223 1718
2445 3261 2085
2341 3310 2432
2250 3371 2766
2176 3445 3091
2128 3529 3412
2077 3623 3754
2113 3718 4076
1563 0 0
1616 0 0
1616 222 39
1576 465 648
1367 751 1297
984 1028 1892
600 1260 2387
389 1482 2817
588 1644 3218
1647 336 0
1640 493 0
1628 637 465
1515 866 1013
1275 1126 1562
951 1374 2067
647 1599 2521
504 1817 2931
646 2042 3304
1850 710 0
1683 944 310
1613 1062 835
1493 1220 1331
1248 1456 1806
967 1685 2255
706 1905 2674
570 2121 3062
666 2339 3425
2162 999 0
1991 1198 454
1780 1390 1054
1526 1561 1634
1330 1761 2030
1129 1961 2420
940 2162 2800
810 2364 3165
830 2564 3513
2446 1352 0
2247 1556 579
2019 1748 1149
1795 1913 1670
1683 2031 2101
1480 2198 2540
1304 2392 2907
1161 2586 3266
1113 2778 3612
2655 1804 13
2449 1981 725
2231 2141 1272
2055 2270 1749
1991 2361 2144
1853 2494 2566
1685 2644 2988
1545 2807 3372
1474 2987 3715
2810 2283 337
2612 2419 953
2419 2537 1461
2285 2630 1893
2215 2713 2272
2156 2810 2642
2018 2943 3046
1911 3077 3434
1868 3210 3804
2894 2768 800
2724 2855 1297
2574 2928 1739
2470 2993 2125
2394 3066 2481
2332 3152 2827
2268 3254 3179
2196 3367 3545
2192 3481 3890
2924 3225 1353
2804 3264 1746
2711 3297 2104
2627 3346 2437
2552 3411 2758
2493 3486 3074
2460 3570 3385
2438 3663 3709
2476 3757 4022
2094 0 0
2154 0 0
2159 165 19
2169 408 278
2135 654 862
1970 935 1514
1641 1242 2136
1264 1513 2674
988 1763 3124
2188 299 0
2176 475 0
2202 609 168
2158 834 680
2063 1070 1241
1862 1333 1808
1567 1605 2339
1270 1855 2814
1076 2095 3228
2271 801 0
2193 991 52
2184 1089 550
2144 1227 1057
2016 1433 1570
1807 1675 2067
1549 1923 2533
1310 2159 2962
1168 2388 3349
2530 1107 0
2374 1324 271
2194 1524 897
2123 1628 1396
2018 1771 1865
1809 1995 2306
1581 2222 2724
1376 2444 3117
1262 2660 3484
2799 1430 0
2638 1616 434
2464 1790 1044
2276 1952 1601
2080 2104 2121
1917 2296 2497
1758 2489 2868
1621 2682 3230
1547 2873 3578
3022 1820 0
2838 1998 631
2654 2160 1202
2474 2308 1708
2323 2442 2165
2244 2558 2558
2108 2712 2961
1985 2892 3318
1910 3070 3664
3110 2336 189
2934 2467 912
2772 2582 1423
2632 2687 1875
2533 2784 2279
2487 2879 2637
2407 3000 3017
2333 3130 3395
2292 3274 3746
3123 2851 830
2979 2928 1318
2859 2994 1742
2770 3056 2127
2709 3126 2479
2660 3212 2815
2630 3308 3146
2585 3418 3500
2593 3531 3834
3109 3316 1438
3018 3346 1800
2952 3374 2130
2915 3406 2439
2872 3462 2745
2826 3538 3053
2803 3622 3357
2803 3712 3663
2841 3805 3969
2607 0 0
2677 0 0
2689 100 13
2695 393 87
2706 620 516
2670 870 1100
2536 1144 1738
2259 1465 2357
1930 1764 2909
2711 255 0
2695 443 0
2711 630 0
2711 815 394
2673 1049 919
2587 1287 1487
2419 1547 2058
2162 1835 2592
1900 2107 3070
2734 845 0
2701 1019 0
2701 1125 269
2710 1235 786
2630 1446 1302
2518 1656 1828
2344 1895 2335
2119 2154 2805
1916 2404 3230
2907 1224 0
2753 1472 74
2674 1608 673
2652 1700 1157
2606 1820 1639
2493 1993 2128
2323 2210 2582
2130 2446 3002
1972 2674 3391
3115 1591 0
2960 1781 238
2801 1956 922
2635 2118 1487
2591 2206 1930
2527 2315 2374
2365 2517 2783
2199 2730 3167
2074 2938 3530
3287 1989 0
3129 2146 526
2980 2283 1138
2844 2408 1650
2727 2525 2116
2637 2638 2542
2512 2813 2909
2404 2989 3269
2335 3163 3615
3379 2449 94
3221 2573 911
3081 2678 1418
2967 2775 1859
2883 2867 2260
2835 2961 2628
2795 3071 2982
2736 3203 3347
2681 3363 3688
3323 2984 928
3204 3048 1383
3111 3103 1782
3047 3157 2144
3016 3214 2479
3003 3283 2802
2982 3377 3124
2964 3481 3459
2981 3592 3782
3287 3437 1558
3222 3459 1881
3181 3481 2181
3163 3508 2467
3169 3543 2746
3167 3600 3034
3149 3684 3334
3159 3772 3628
3194 3865 3929
3105 0 0
3186 0 0
3203 42 0
3194 383 152
3205 645 354
3208 882 807
3167 1135 1378
3052 1402 1993
2817 1726 2585
3219 174 0
3198 408 0
3202 620 0
3216 823 192
3195 1057 677
3152 1297 1208
3067 1538 1775
2924 1791 2336
2704 2087 2853
3227 838 0
3192 1022 0
3183 1179 0
3193 1296 545
3158 1480 1064
3079 1695 1596
2976 1902 2131
2831 2130 2639
2643 2396 3093
3275 1372 0
3161 1601 0
3136 1696 443
3121 1795 945
3111 1897 1427
3019 2069 1941
2923 2231 2444
2790 2435 2901
2637 2674 3308
3419 1788 0
3263 1984 94
3111 2156 849
3035 2264 1347
3024 2339 1771
3001 2431 2208
2932 2541 2690
2814 2724 3108
2692 2939 3481
3505 2233 0
3355 2379 513
3217 2506 1122
3098 2618 1622
3002 2722 2075
3018 2787 2430
3018 2847 2855
2908 3021 3239
2815 3213 3586
3513 2712 356
3388 2801 995
3285 2877 1470
3210 2945 1887
3166 3012 2268
3154 3082 2620
3177 3156 2950
3089 3310 3310
3041 3465 3649
3489 3163 1106
3410 3202 1502
3342 3245 1863
3302 3289 2197
3289 3336 2511
3303 3390 2815
3333 3455 3114
3329 3557 3432
3334 3672 3750
3471 3574 1713
3431 3589 1992
3411 3606 2259
3410 3630 2520
3426 3661 2782
3461 3700 3047
3492 3757 3326
3497 3845 3619
3532 3937 3910
3592 0 0
3688 0 0
3690 29 0
3678 416 262
3669 725 455
3672 964 726
3658 1210 1174
3601 1467 1722
3490 1735 2306
3717 45 0
3689 377 0
3680 627 0
3693 862 212
3666 1111 577
3633 1355 1040
3575 1599 1570
3481 1842 2126
3354 2089 2670
3701 852 0
3660 1052 0
3636 1255 3
3638 1390 408
3625 1553 900
3556 1772 1429
3469 1983 1970
3366 2186 2504
3247 2404 2997
3638 1540 0
3583 1715 0
3554 1820 316
3535 1928 809
3523 2039 1283
3463 2189 1795
3374 2348 2323
3290 2499 2827
3195 2687 3274
3686 2037 0
3530 2230 245
3425 2361 825
3397 2437 1260
3385 2513 1679
3390 2595 2079
3327 2695 2590
3282 2790 3073
3210 2955 3484
3681 2524 0
3540 2652 681
3415 2761 1208
3311 2857 1674
3286 2920 2057
3322 2972 2389
3354 3028 2763
3352 3076 3235
3295 3230 3610
3613 3002 744
3509 3070 1201
3428 3126 1612
3374 3178 1991
3350 3230 2341
3356 3286 2670
3434 3332 2947
3491 3362 3338
3439 3516 3678
3571 3411 1387
3520 3433 1710
3492 3453 2018
3486 3476 2312
3503 3505 2597
3541 3542 2879
3597 3588 3159
3672 3646 3434
3632 3784 3758
3646 3731 1919
3640 3734 2146
3649 3741 2371
3660 3763 2605
3685 3792 2846
3723 3829 3099
3772 3873 3362
3825 3931 3634
3851 4021 3921
4074 78 78
4095 55 55
4095 220 198
4095 512 414
4095 845 666
4094 1124 863
4074 1367 1187
4032 1618 1632
3950 1882 2154
4095 332 29
4095 506 65
4095 705 180
4095 948 411
4095 1227 669
4055 1480 1043
3998 1726 1506
3915 1971 2028
3805 2217 2564
4095 975 23
4095 1141 10
4059 1355 255
4040 1540 497
4034 1688 882
3961 1911 1373
3873 2123 1901
3772 2328 2437
3669 2530 2950
4023 1687 129
3958 1868 245
3915 2004 461
3886 2118 836
3865 2235 1263
3825 2368 1732
3735 2522 2271
3650 2667 2790
3585 2816 3266
3897 2346 295
3762 2505 583
3719 2581 919
3688 2656 1304
3672 2732 1696
3671 2812 2079
3636 2898 2551
3592 2985 3044
3577 3083 3495
3805 2847 610
3678 2952 999
3571 3038 1415
3514 3100 1796
3527 3139 2122
3563 3185 2437
3618 3242 2741
3621 3285 3208
3649 3346 3637
3691 3294 1167
3611 3341 1504
3555 3378 1842
3524 3414 2171
3518 3451 2485
3567 3485 2760
3652 3523 3016
3730 3565 3329
3782 3607 3735
3667 3643 1725
3641 3653 1982
3633 3664 2238
3644 3680 2493
3671 3703 2749
3716 3733 3008
3774 3774 3272
3872 3819 3513
3948 3865 3842
3781 3910 2201
3793 3913 2379
3814 3921 2563
3848 3936 2758
3891 3959 2969
3944 3988 3197
4004 4024 3444
4068 4067 3708
4095 4095 3998
