Creative/ColorHarmony - Jungle.3dl
#25pt 3DLUT created by 3D LUT Creator Pro (c) Oleg Sharonov
#Copyright Oleg Sharonov
#IMAGEPROFILE sRGB IEC61966-2.1 v.2.10
#INPUTGAMMA sRGB IEC61966-2.1 v.2.10
#OUTPUTGAMMA sRGB IEC61966-2.1 v.2.10
0 256 512 768 1023
0 0 0
94 196 376
339 528 868
593 863 1360
847 1198 1853
7 989 741
171 1015 1011
567 1053 1483
786 1233 1825
1000 1473 2207
30 1985 1526
153 2003 1567
497 2031 2025
1014 2006 2618
1259 2122 2944
69 2981 2311
95 2993 2334
1 3033 2418
824 3048 3038
1455 2979 3735
134 3977 3096
125 3986 3112
433 4007 3166
2 4062 3281
1962 3999 3989
1022 160 91
878 314 823
616 674 1241
751 964 1584
954 1271 2008
774 1071 490
1024 1024 1024
954 1114 1514
1019 1294 1883
1097 1528 2338
241 2045 1559
1005 2004 1643
1120 2036 2031
1302 2032 2609
1331 2157 3038
185 3019 2330
1007 2993 2382
1016 3030 2461
1286 3051 3041
1489 3005 3795
211 4003 3109
137 4012 3124
337 4036 3178
2 4088 3295
2142 4004 3994
2045 319 183
2046 320 939
1784 732 1683
1372 1161 2097
1318 1451 2491
2047 1035 183
2048 1037 940
1908 1129 1824
1540 1424 2359
1446 1666 2771
1595 2134 1050
1724 2111 1294
2047 2047 2047
1942 2106 2598
1635 2238 3380
796 3129 2249
1226 3102 2366
2019 3025 2606
2125 3058 3055
1894 3061 3885
981 4064 3165
970 4073 3178
1094 4092 3234
1655 4095 3378
2621 4020 4012
3066 479 274
3068 479 1005
3069 479 1830
2689 1149 2541
2166 1651 2876
3068 1165 274
3070 1166 1006
3071 1166 1832
2779 1409 2640
2315 1807 3147
3006 2015 830
3040 2007 1122
3073 2000 1832
2943 2084 2846
2578 2287 3694
2415 3196 1612
2495 3183 1766
2723 3142 2209
3071 3071 3071
2833 3104 3881
2865 4009 3251
2866 4016 3280
2848 4042 3383
2808 4094 3551
3305 4050 4045
4088 638 365
4090 639 1081
4092 639 1877
4093 639 2760
3594 1568 3400
4090 1315 366
4092 1316 1083
4094 1317 1879
4095 1317 2762
3790 1658 3586
4092 2071 374
4094 2072 1085
4095 2073 1880
4095 2073 2763
3898 2218 3722
3917 3048 1486
3941 3041 1644
4021 3020 2047
4095 2999 2764
3977 3076 3872
3862 4011 3621
3874 4015 3643
3914 4029 3715
3986 4055 3850
4095 4095 4095
