Creative/ColorShaping-Skintone.3dl
#25pt 3DLUT created by 3D LUT Creator Pro (c) Oleg Sharonov
#Copyright Oleg Sharonov
#IMAGEPROFILE sRGB IEC61966-2.1 v.2.10
#INPUTGAMMA sRGB IEC61966-2.1 v.2.10
#OUTPUTGAMMA sRGB IEC61966-2.1 v.2.10
0 128 256 384 512 640 768 896 1023
0 0 0
3 3 499
10 13 993
32 36 1479
81 90 1948
149 171 2420
235 267 2887
322 360 3355
396 439 3834
0 512 0
6 509 526
3 506 1047
6 528 1481
39 575 1894
107 637 2304
186 695 2760
264 750 3235
343 808 3711
0 1023 0
13 1023 521
29 1018 1053
39 1004 1632
3 1015 2083
10 1041 2499
58 1083 2900
149 1137 3299
260 1203 3696
3 1535 0
13 1535 518
42 1533 1043
68 1529 1577
103 1514 2166
42 1514 2664
3 1527 3108
13 1554 3517
74 1595 3912
10 2047 0
13 2047 518
52 2045 1039
100 2043 1567
142 2038 2107
206 2022 2701
155 2011 3255
45 2023 3694
0 2043 4095
3 2559 0
13 2559 518
65 2558 1040
145 2555 1568
209 2551 2100
269 2544 2652
349 2525 3266
362 2496 3908
909 2504 4095
0 3071 0
16 3071 518
74 3070 1041
177 3067 1568
269 3064 2099
341 3059 2641
403 3050 3201
494 3028 3833
1631 2959 4095
0 3583 0
13 3583 517
74 3582 1040
189 3580 1566
299 3577 2096
393 3572 2633
464 3566 3181
528 3556 3748
1723 3477 4095
0 4095 0
13 4095 516
74 4094 1038
192 4092 1562
318 4090 2091
428 4086 2626
521 4080 3168
584 4074 3720
2083 3969 4095
521 0 0
512 0 512
508 3 1019
497 32 1510
490 81 1993
492 149 2473
503 250 2941
527 332 3418
560 409 3898
531 513 10
518 509 518
512 517 999
520 525 1489
533 541 1970
556 570 2440
587 607 2909
624 649 3385
666 696 3861
580 1013 0
540 1018 540
573 1008 1086
541 1010 1589
510 1025 2043
499 1053 2464
509 1095 2874
540 1148 3281
585 1206 3700
696 1516 0
538 1532 537
545 1531 1058
573 1524 1595
588 1510 2168
542 1518 2637
514 1533 3083
505 1562 3492
520 1603 3892
779 2027 0
541 2045 537
552 2043 1052
566 2041 1579
600 2034 2121
630 2018 2712
594 2014 3231
541 2027 3671
512 2048 4093
771 2544 0
548 2557 547
564 2556 1055
586 2553 1578
610 2549 2113
654 2541 2664
702 2521 3278
700 2499 3884
956 2510 4095
668 3065 0
556 3069 554
573 3068 1058
605 3066 1579
639 3062 2109
672 3057 2653
727 3047 3213
790 3024 3845
1672 2960 4095
607 3580 0
559 3581 559
577 3580 1059
613 3578 1578
658 3575 2106
704 3571 2643
743 3564 3192
807 3553 3759
1881 3469 4095
580 4093 0
560 4093 560
577 4093 1057
616 4091 1574
670 4088 2100
728 4084 2634
783 4079 3176
823 4072 3729
2153 3967 4095
1028 3 0
1027 0 485
1023 0 1023
1017 16 1528
1006 55 2024
990 136 2505
979 233 2983
975 316 3464
977 398 3944
1001 535 113
1022 513 501
1003 528 1006
1001 533 1515
994 547 2011
984 573 2497
981 603 2980
982 640 3462
989 683 3942
1047 1017 71
1123 991 525
1049 1014 1046
1022 1029 1510
1023 1040 1978
1033 1049 2467
1046 1063 2948
1063 1083 3427
1084 1108 3902
1107 1520 0
1185 1507 372
1077 1522 1076
1104 1512 1614
1064 1519 2108
1032 1530 2578
1006 1552 3017
994 1582 3438
995 1622 3848
1224 2018 0
1218 2023 343
1076 2038 1074
1074 2035 1612
1136 2020 2162
1126 2013 2708
1076 2022 3175
1037 2038 3620
1010 2063 4040
1270 2532 0
1221 2540 381
1083 2551 1083
1093 2549 1605
1098 2544 2146
1167 2529 2701
1196 2509 3309
1154 2506 3824
1185 2522 4095
1167 3059 0
1160 3060 494
1095 3064 1094
1105 3062 1604
1122 3058 2136
1133 3052 2683
1210 3037 3247
1253 3013 3875
1867 2961 4095
1103 3578 42
1129 3576 543
1102 3576 1101
1115 3575 1606
1136 3572 2129
1159 3567 2668
1173 3560 3218
1257 3545 3788
2136 3457 4095
1103 4090 58
1122 4089 558
1105 4089 1105
1121 4088 1603
1147 4085 2123
1177 4081 2654
1206 4075 3198
1224 4069 3751
2425 3948 4095
1530 16 10
1543 0 433
1545 0 975
1535 0 1535
1529 23 2041
1515 87 2535
1500 180 3024
1487 276 3509
1477 365 3991
1427 607 238
1558 493 472
1539 522 954
1517 535 1519
1514 542 2027
1505 562 2526
1494 591 3017
1484 628 3504
1475 673 3987
1520 1027 336
1576 1006 460
1556 1018 981
1480 1057 1489
1485 1056 2006
1486 1062 2509
1483 1073 3004
1480 1090 3493
1478 1112 3978
1540 1531 273
1638 1504 500
1699 1483 1014
1571 1522 1567
1533 1540 2025
1531 1550 2493
1536 1561 2963
1546 1571 3450
1559 1585 3930
1582 2037 94
1655 2023 434
1767 1999 900
1613 2025 1611
1629 2018 2135
1585 2028 2625
1548 2041 3093
1516 2061 3537
1493 2088 3961
1660 2539 0
1707 2533 367
1750 2524 967
1632 2538 1631
1618 2533 2210
1746 2500 2776
1683 2508 3269
1619 2522 3727
1567 2542 4095
1682 3052 0
1685 3052 475
1689 3050 1052
1643 3053 1642
1643 3049 2181
1636 3043 2742
1773 3012 3318
1789 2990 3926
2038 2985 4095
1608 3575 206
1621 3573 611
1654 3569 1101
1647 3567 1647
1656 3564 2168
1662 3559 2711
1660 3553 3269
1793 3526 3846
2449 3446 4095
1580 4090 318
1603 4088 651
1655 4083 1110
1652 4081 1652
1664 4079 2158
1680 4075 2690
1692 4069 3236
1694 4062 3794
2779 3924 4095
2020 97 81
2058 0 352
2069 0 868
2068 0 1445
2048 0 2048
2042 32 2553
2030 103 3052
2015 209 3544
2000 310 4031
1881 693 394
2079 472 440
2125 428 827
2081 504 1409
2034 536 2035
2030 547 2543
2021 571 3043
2008 605 3537
1995 652 4025
1930 1086 525
1972 1069 597
2120 983 909
2074 1035 1337
2007 1059 2012
2005 1063 2523
2000 1072 3026
1992 1088 3521
1983 1110 4012
2028 1532 588
2074 1519 659
2143 1500 911
2096 1521 1465
1969 1577 1983
1965 1580 2498
1973 1582 3004
1975 1589 3502
1974 1600 3994
2057 2040 455
2122 2022 628
2277 1974 1000
2220 1991 1555
2061 2042 2059
2042 2053 2531
2039 2062 3002
2038 2076 3457
2046 2088 3930
2089 2547 372
2134 2538 609
2254 2512 950
2330 2492 1487
2140 2531 2139
2158 2523 2662
2110 2535 3148
2063 2552 3607
2022 2574 4044
2119 3056 318
2149 3051 618
2225 3037 1042
2263 3028 1582
2207 3032 2206
2165 3023 2861
2303 2994 3328
2234 3005 3820
2285 3018 4095
2128 3570 347
2136 3568 679
2160 3563 1140
2216 3554 1637
2202 3552 2201
2193 3546 2771
2172 3538 3363
2394 3487 3948
2773 3445 4095
2076 4089 526
2090 4087 780
2137 4081 1180
2210 4071 1651
2204 4068 2203
2208 4065 2734
2207 4059 3293
2195 4050 3869
3197 3893 4095
2473 318 312
2567 0 349
2582 0 784
2600 0 1277
2600 0 1876
2559 0 2559
2554 36 3066
2543 119 3566
2529 233 4061
2338 794 585
2548 533 512
2703 201 669
2698 278 1236
2616 479 1877
2549 537 2549
2544 550 3057
2535 578 3559
2522 622 4053
2336 1178 697
2378 1159 739
2618 977 923
2668 962 1244
2588 1042 1843
2525 1063 2529
2523 1068 3039
2516 1081 3541
2505 1102 4037
2445 1579 771
2480 1567 822
2539 1550 984
2616 1515 1408
2556 1568 1818
2488 1586 2498
2488 1588 3014
2486 1594 3518
2481 1605 4016
2610 2015 707
2634 2010 786
2645 2010 1064
2688 2003 1405
2561 2050 2013
2467 2092 2485
2426 2113 2978
2447 2109 3489
2454 2113 3988
2629 2533 506
2652 2526 753
2738 2499 1139
2815 2472 1620
2692 2512 2116
2505 2581 2505
2545 2569 3026
2539 2579 3491
2536 2594 3944
2614 3054 585
2623 3051 823
2699 3034 1139
2801 3009 1565
2931 2973 2060
2663 3038 2662
2690 3027 3190
2637 3041 3674
2584 3060 4095
2631 3566 557
2655 3561 768
2689 3554 1174
2731 3544 1661
2834 3521 2144
2787 3521 2786
2687 3521 3471
2839 3495 3859
2968 3491 4095
2624 4081 607
2632 4079 842
2651 4075 1244
2707 4065 1698
2791 4050 2181
2769 4047 2768
2751 4040 3371
2712 4031 4001
3540 3887 4095
2938 490 488
3077 0 339
3090 0 764
3117 0 1154
3129 0 1727
3115 0 2388
3071 3 3071
3066 42 3578
3055 142 4079
2810 899 732
2996 655 645
3184 209 684
3242 0 1102
3226 155 1724
3129 474 2389
3062 538 3063
3058 554 3570
3048 590 4072
2754 1289 845
2813 1252 879
3069 1028 997
3242 858 1145
3198 942 1696
3101 1046 2362
3042 1067 3044
3039 1074 3554
3032 1088 4057
2861 1649 904
2883 1641 953
2942 1620 1070
3156 1488 1385
3157 1514 1732
3047 1584 2383
3009 1591 3017
3007 1596 3528
3001 1606 4031
3037 2052 752
3056 2047 817
3058 2050 1112
3088 2046 1420
3084 2050 1956
2994 2109 2366
2951 2121 2970
2953 2122 3492
2957 2125 4000
3235 2487 647
3254 2479 851
3225 2491 1221
3229 2496 1545
3156 2529 2010
3035 2576 2532
2944 2618 2971
2854 2658 3436
2898 2646 3956
3190 3030 613
3195 3027 878
3222 3016 1305
3352 2971 1753
3322 2980 2221
3195 3025 2655
3007 3096 3007
3054 3082 3535
3046 3092 3999
3173 3553 654
3180 3551 875
3226 3540 1203
3273 3527 1667
3378 3498 2134
3459 3477 2589
3177 3548 3177
3204 3537 3702
3196 3548 4095
3178 4069 668
3186 4067 883
3206 4062 1264
3238 4054 1726
3326 4034 2188
3440 4005 2689
3346 4015 3340
3208 4028 3992
3692 3946 4095
3387 685 684
3536 299 531
3596 0 817
3619 0 1178
3641 0 1647
3658 0 2180
3621 0 2928
3583 3 3583
3578 52 4090
3274 1023 890
3428 822 819
3632 396 793
3724 0 1109
3743 0 1621
3753 0 2201
3622 499 2945
3575 541 3576
3571 559 4084
3223 1379 984
3276 1339 1020
3514 1109 1091
3746 819 1131
3751 845 1640
3702 944 2222
3585 1061 2965
3558 1070 3560
3554 1079 4068
3307 1725 909
3328 1716 954
3365 1702 1122
3604 1524 1462
3686 1484 1728
3629 1547 2268
3551 1595 2936
3525 1599 3532
3522 1606 4041
3484 2095 721
3480 2098 872
3471 2107 1162
3468 2117 1509
3568 2065 1962
3554 2093 2334
3498 2123 2912
3474 2130 3489
3474 2133 4006
3685 2504 610
3677 2509 798
3645 2525 1172
3597 2549 1606
3592 2562 1950
3523 2592 2503
3426 2655 2843
3375 2674 3412
3388 2669 3952
3821 2973 664
3826 2969 921
3838 2961 1358
3788 2982 1749
3741 3006 2141
3656 3044 2559
3536 3090 3047
3448 3131 3478
3334 3179 3930
3753 3526 654
3761 3522 899
3783 3513 1323
3841 3490 1825
3901 3463 2366
3848 3485 2759
3702 3538 3176
3514 3610 3510
3565 3595 4038
3738 4051 683
3745 4049 892
3764 4043 1263
3803 4032 1711
3872 4012 2189
4029 3966 2670
3979 3984 3112
3707 4054 3688
3829 4027 4095
3907 739 735
3988 552 715
4095 71 870
4095 0 1236
4095 161 1638
4095 243 2177
4095 201 2786
4095 0 3510
4095 3 4095
3803 1077 905
3944 863 854
4078 588 921
4095 510 1251
4095 556 1653
4095 604 2194
4095 571 2804
4095 520 3507
4088 543 4089
3761 1422 931
3817 1371 960
3958 1211 1199
4095 1017 1308
4095 1045 1693
4095 1066 2230
4095 1070 2839
4094 1070 3487
4070 1077 4072
3774 1803 834
3773 1806 959
3796 1792 1225
4031 1597 1561
4095 1539 1776
4095 1548 2287
4095 1579 2852
4054 1605 3483
4039 1609 4045
3895 2172 725
3892 2176 871
3886 2183 1153
3849 2209 1591
4056 2081 1996
4063 2095 2360
4039 2120 2864
4008 2135 3449
3992 2141 4004
4095 2550 526
4095 2555 735
4055 2576 1175
3989 2610 1650
3964 2631 2015
3961 2634 2522
3976 2647 2859
3946 2666 3387
3923 2674 3948
4095 3005 1428
4095 3005 1431
4095 3018 1617
4095 3027 1778
4095 3044 2095
4060 3088 2540
4010 3111 3033
3905 3178 3335
3837 3205 3887
4095 3506 2225
4095 3502 2234
4095 3504 2465
4095 3506 2649
4095 3523 2766
4095 3542 2920
4095 3563 3131
4041 3604 3561
3979 3640 3950
4095 3991 3007
4095 3990 3013
4095 3986 3215
4095 3982 3483
4095 3983 3667
4095 3997 3788
4095 4024 3881
4095 4055 3968
4095 4090 4065
