Creative/ColorHarmony - Orange Teal.3dl
#25pt 3DLUT created by 3D LUT Creator Pro (c) Oleg Sharonov
#Copyright Oleg Sharonov
#IMAGEPROFILE 
#INPUTGAMMA 
#OUTPUTGAMMA 
0 128 256 384 512 640 768 896 1023
0 0 0
0 58 177
3 203 458
6 379 738
6 556 1018
13 731 1298
19 907 1578
29 1083 1858
39 1259 2139
42 482 436
0 500 615
0 547 827
0 637 1022
0 755 1238
0 891 1467
0 1039 1709
0 1195 1961
0 1355 2221
152 973 894
0 986 1018
0 1004 1199
0 1040 1429
0 1107 1616
0 1197 1809
0 1304 2016
0 1425 2236
0 1558 2462
308 1464 1353
0 1475 1471
0 1489 1575
0 1508 1783
0 1539 2026
0 1594 2219
0 1668 2406
0 1757 2598
0 1860 2800
455 1956 1814
39 1967 1928
0 1976 2019
0 1994 2135
0 2011 2367
0 2040 2614
0 2088 2819
0 2152 3007
0 2229 3194
611 2447 2273
217 2457 2383
0 2466 2472
0 2478 2572
0 2497 2710
0 2515 2951
0 2542 3200
0 2584 3418
0 2642 3609
763 2938 2733
403 2948 2838
0 2957 2929
0 2966 3020
0 2982 3129
0 3001 3291
0 3019 3534
0 3045 3786
0 3083 4015
918 3429 3192
577 3439 3294
116 3449 3385
0 3456 3473
0 3468 3572
0 3486 3688
0 3504 3873
0 3523 4095
1571 3494 4095
1071 3920 3651
746 3929 3751
362 3939 3840
0 3947 3929
0 3956 4021
0 3971 4095
1431 3943 4095
2453 3864 4095
2913 3830 4095
449 42 0
183 201 370
139 306 631
158 443 864
203 597 1111
233 759 1373
262 927 1642
291 1097 1913
320 1269 2187
403 521 384
512 512 512
399 575 828
322 666 1067
278 781 1294
255 912 1528
240 1057 1770
238 1208 2021
238 1365 2278
512 988 824
537 990 934
565 1003 1135
417 1054 1412
262 1128 1643
139 1218 1858
58 1324 2074
0 1444 2292
0 1575 2511
646 1471 1261
604 1475 1378
493 1493 1552
564 1508 1746
472 1545 2005
235 1608 2238
0 1685 2450
0 1773 2641
0 1874 2841
793 1959 1700
696 1963 1830
446 1981 2002
523 1995 2117
535 2013 2345
503 2043 2597
230 2098 2833
0 2164 3038
0 2241 3225
937 2447 2161
806 2452 2284
455 2470 2455
409 2484 2564
540 2498 2692
481 2518 2939
461 2546 3192
276 2592 3425
0 2652 3632
1084 2937 2623
920 2943 2744
513 2959 2910
345 2972 3014
401 2986 3124
497 3003 3280
398 3024 3531
388 3049 3784
370 3087 4014
1231 3427 3084
1049 3433 3201
609 3449 3364
343 3461 3466
235 3475 3571
427 3489 3683
427 3507 3867
262 3529 4095
1750 3488 4095
1379 3917 3545
1185 3923 3658
731 3939 3818
406 3951 3920
107 3963 4020
132 3977 4095
1531 3943 4095
2457 3871 4095
2941 3833 4095
918 152 0
695 365 365
464 493 783
398 591 1071
393 713 1296
414 852 1530
451 1000 1770
497 1155 2019
531 1316 2279
943 538 389
984 537 488
667 686 902
585 759 1207
548 858 1437
542 975 1660
558 1105 1887
571 1247 2125
583 1397 2373
840 1039 808
897 1035 877
1024 1024 1024
907 1080 1367
804 1155 1638
726 1247 1877
669 1352 2103
630 1470 2330
599 1598 2562
944 1501 1250
986 1500 1290
1039 1500 1438
1094 1510 1649
944 1563 1953
789 1631 2214
665 1709 2446
566 1799 2666
489 1900 2886
1062 1978 1686
1094 1977 1715
1084 1982 1872
1023 2000 2075
1119 2011 2269
1014 2050 2549
822 2112 2806
653 2182 3036
501 2263 3253
1196 2461 2123
1218 2461 2146
1150 2467 2317
969 2488 2527
1066 2500 2648
1117 2514 2879
1030 2549 3149
865 2601 3400
648 2666 3631
1339 2947 2562
1352 2948 2581
1233 2954 2767
950 2976 2978
975 2989 3096
1071 3003 3240
1098 3020 3481
1019 3050 3748
921 3094 3991
1486 3435 3001
1487 3435 3033
1328 3442 3219
969 3464 3431
914 3477 3547
993 3491 3661
1056 3507 3833
1065 3525 4080
1836 3500 4095
1632 3923 3457
1624 3923 3494
1425 3932 3677
1013 3952 3884
885 3966 3998
893 3979 4095
1708 3948 4095
2539 3879 4095
2999 3843 4095
1387 308 0
1275 445 417
941 690 727
748 788 1197
666 882 1509
645 995 1735
648 1123 1961
669 1261 2193
702 1406 2432
1412 607 289
1443 599 470
1132 807 812
883 917 1285
795 997 1602
758 1098 1835
746 1214 2058
754 1341 2282
776 1478 2513
1427 1037 849
1450 1038 885
1500 1043 998
1161 1182 1419
1070 1242 1756
1008 1323 2011
969 1418 2240
950 1526 2463
949 1645 2685
1277 1558 1232
1313 1555 1275
1399 1548 1377
1536 1536 1536
1417 1590 1891
1305 1657 2188
1210 1736 2447
1132 1827 2685
1069 1928 2913
1384 2015 1674
1412 2014 1703
1478 2011 1774
1545 2011 1945
1615 2018 2162
1464 2072 2479
1304 2138 2763
1171 2210 3016
1061 2291 3250
1488 2488 2112
1512 2488 2134
1569 2487 2188
1579 2491 2374
1544 2509 2593
1654 2515 2784
1538 2558 3080
1357 2618 3357
1195 2686 3605
1612 2968 2548
1633 2967 2565
1677 2967 2610
1631 2974 2812
1489 2996 3048
1593 3006 3174
1671 3017 3402
1559 3055 3687
1415 3106 3951
1747 3450 2985
1763 3450 3000
1795 3451 3039
1696 3459 3256
1458 3483 3498
1511 3495 3624
1606 3508 3777
1669 3521 4012
1993 3520 4095
1888 3936 3423
1899 3936 3436
1921 3938 3471
1774 3945 3705
1458 3970 3949
1451 3984 4074
1939 3961 4095
2658 3896 4095
3087 3861 4095
1856 462 0
1878 448 334
1509 808 806
1169 996 1232
1031 1084 1611
945 1174 1933
906 1282 2175
896 1402 2400
904 1532 2627
1897 689 0
1903 687 458
1676 880 870
1325 1080 1254
1128 1177 1677
1037 1259 2005
992 1359 2248
973 1473 2471
973 1596 2696
1897 1088 797
1916 1088 823
1965 1082 975
1611 1282 1299
1346 1384 1800
1249 1453 2143
1192 1538 2393
1155 1637 2623
1137 1748 2846
1892 1546 1297
1914 1545 1324
1958 1545 1386
2015 1552 1509
1665 1686 1934
1571 1740 2293
1496 1810 2570
1438 1892 2818
1397 1986 3048
1713 2076 1655
1739 2074 1686
1801 2069 1760
1904 2060 1882
2048 2048 2048
1929 2100 2411
1813 2163 2725
1709 2235 3002
1616 2317 3255
1823 2532 2076
1845 2530 2106
1895 2527 2175
1979 2523 2269
2054 2523 2455
2132 2528 2674
1981 2583 3001
1820 2646 3301
1679 2716 3571
1921 3001 2537
1939 3000 2555
1984 2999 2597
2059 2997 2671
2081 3001 2879
2063 3018 3110
2182 3022 3298
2056 3067 3604
1883 3127 3896
2036 3477 2974
2052 3477 2988
2092 3476 3023
2154 3476 3087
2124 3482 3313
2005 3505 3566
2114 3514 3698
2210 3522 3918
2251 3545 4095
2164 3957 3410
2177 3957 3422
2210 3957 3452
2260 3958 3509
2177 3966 3751
1969 3992 4017
2086 3997 4095
2777 3930 4095
3204 3891 4095
2325 617 0
2373 557 332
2088 889 860
1751 1143 1147
1364 1318 1649
1313 1379 2024
1228 1467 2350
1170 1570 2614
1152 1686 2839
2331 826 0
2364 793 449
2240 926 880
1866 1205 1205
1453 1389 1704
1388 1450 2076
1299 1533 2406
1239 1632 2669
1214 1742 2895
2364 1157 701
2388 1153 715
2423 1142 958
2138 1341 1336
1708 1537 1813
1562 1615 2183
1466 1689 2524
1402 1778 2788
1364 1878 3019
2386 1579 1265
2399 1580 1286
2427 1585 1332
2484 1582 1486
2107 1773 1803
1832 1872 2318
1731 1933 2679
1661 2008 2949
1608 2095 3192
2360 2057 1710
2373 2057 1741
2404 2056 1806
2469 2054 1891
2529 2062 2021
2172 2193 2449
2077 2244 2820
1997 2307 3118
1926 2381 3381
2150 2594 2079
2170 2592 2103
2217 2589 2159
2299 2582 2257
2414 2572 2391
2559 2559 2559
2442 2610 2929
2323 2671 3254
2212 2739 3546
2260 3051 2473
2277 3049 2498
2319 3046 2554
2389 3040 2654
2483 3035 2769
2564 3034 2966
2648 3038 3187
2497 3093 3520
2335 3157 3831
2359 3514 2962
2373 3514 2977
2408 3513 3012
2469 3511 3074
2556 3508 3166
2585 3512 3385
2580 3527 3625
2706 3530 3811
2573 3577 4095
2465 3989 3400
2478 3988 3412
2511 3987 3441
2566 3986 3493
2642 3985 3570
2622 3992 3815
2521 4015 4082
2970 3969 4095
3385 3926 4095
2793 771 0
2847 700 360
2682 928 845
2323 1249 1243
1998 1466 1505
1631 1617 2065
1596 1674 2438
1511 1760 2767
1439 1861 3051
2778 967 0
2828 914 442
2827 931 818
2426 1292 1282
2084 1518 1545
1693 1676 2109
1656 1730 2480
1567 1814 2812
1494 1911 3095
2844 1234 521
2874 1220 506
2882 1219 944
2679 1389 1360
2290 1639 1646
1848 1813 2209
1798 1866 2572
1705 1942 2911
1629 2032 3194
2850 1637 1202
2862 1637 1219
2894 1637 1254
2945 1627 1464
2628 1821 1819
2130 2022 2341
2027 2084 2699
1928 2150 3051
1851 2230 3336
2870 2078 1724
2880 2078 1740
2903 2080 1778
2940 2086 1840
3000 2087 1996
2610 2271 2314
2328 2368 2835
2227 2425 3210
2148 2494 3497
2825 2571 2106
2837 2570 2132
2863 2568 2192
2904 2567 2293
2978 2564 2397
3042 2573 2534
2681 2702 2964
2585 2750 3343
2502 2809 3656
2586 3113 2502
2602 3111 2522
2640 3108 2567
2705 3103 2645
2801 3095 2757
2924 3084 2903
3071 3071 3071
2954 3121 3445
2834 3180 3777
2696 3570 2873
2710 3568 2892
2745 3565 2938
2803 3560 3020
2888 3553 3143
2989 3547 3272
3074 3546 3477
3162 3549 3698
3013 3604 4038
2799 4028 3386
2811 4028 3399
2840 4027 3429
2889 4025 3481
2962 4023 3556
3057 4019 3661
3092 4023 3893
3099 4037 4095
3589 3973 4095
3262 926 0
3320 847 383
3288 917 738
2902 1331 1298
2564 1589 1589
2250 1776 1927
1913 1911 2482
1879 1969 2852
1794 2054 3183
3232 1111 0
3293 1043 433
3349 988 780
2997 1359 1318
2643 1628 1628
2316 1822 1946
1963 1960 2519
1928 2015 2886
1841 2098 3220
3335 1311 6
3336 1316 322
3342 1311 933
3241 1417 1345
2835 1720 1717
2478 1931 2001
2083 2076 2604
2047 2128 2965
1956 2206 3304
3317 1707 1109
3331 1705 1121
3371 1696 1137
3404 1687 1446
3155 1865 1843
2752 2099 2117
2288 2266 2729
2243 2315 3082
2147 2385 3430
3341 2125 1675
3349 2126 1689
3369 2128 1722
3406 2132 1772
3465 2124 1973
3129 2312 2311
2596 2511 2866
2508 2567 3217
2408 2628 3579
3344 2582 2177
3354 2582 2191
3376 2582 2222
3410 2585 2274
3454 2592 2351
3515 2595 2507
3116 2774 2829
2828 2870 3351
2727 2923 3735
3282 3087 2494
3293 3086 2516
3318 3084 2568
3357 3081 2656
3411 3077 2785
3489 3075 2904
3555 3084 3045
3191 3212 3478
3095 3259 3862
3023 3631 2926
3036 3630 2942
3068 3627 2979
3121 3623 3044
3202 3616 3140
3305 3607 3261
3435 3596 3413
3583 3583 3583
3466 3633 3959
3131 4089 3275
3143 4088 3291
3173 4085 3330
3223 4081 3397
3296 4075 3496
3391 4066 3633
3497 4060 3776
3585 4057 3988
3812 4032 4095
3730 1081 0
3791 997 404
3807 994 697
3491 1384 1307
3137 1689 1679
2808 1920 1930
2516 2062 2480
2203 2203 2899
2162 2263 3265
3690 1258 0
3758 1178 422
3822 1107 800
3582 1398 1309
3209 1719 1706
2870 1954 1962
2566 2106 2477
2244 2244 2931
2203 2302 3294
3762 1449 0
3784 1434 235
3803 1415 924
3821 1415 1278
3388 1790 1766
3025 2038 2039
2693 2209 2475
2344 2343 3004
2304 2399 3363
3793 1782 965
3809 1778 969
3858 1758 955
3863 1759 1431
3701 1896 1842
3286 2172 2171
2914 2370 2502
2512 2510 3118
2474 2560 3469
3804 2187 1608
3812 2187 1619
3834 2187 1647
3879 2183 1682
3926 2172 1952
3649 2350 2333
3232 2575 2605
2751 2737 3254
2708 2783 3597
3829 2620 2139
3835 2620 2150
3852 2622 2178
3878 2626 2224
3921 2631 2286
3983 2626 2484
3635 2809 2809
3078 3007 3391
2998 3058 3735
3808 3092 2625
3818 3091 2637
3839 3090 2664
3874 3090 2709
3918 3092 2774
3968 3099 2860
4029 3105 3019
3623 3279 3346
3332 3375 3867
3734 3606 2875
3743 3605 2895
3766 3602 2941
3802 3598 3018
3854 3593 3131
3918 3588 3279
3999 3587 3412
4067 3596 3557
3702 3723 3991
3570 4095 3487
3572 4095 3489
3604 4095 3527
3639 4095 3568
3678 4095 3612
3747 4095 3692
3843 4095 3805
3945 4095 3924
4095 4095 4095
