Creative/ColorHarmony - Yellow Purple.3dl
#25pt 3DLUT created by 3D LUT Creator Pro (c) Oleg Sharonov
#Copyright Oleg Sharonov
#IMAGEPROFILE 
#INPUTGAMMA 
#OUTPUTGAMMA 
0 256 512 768 1023
0 0 0
358 0 460
809 0 989
1202 0 1451
1614 0 1933
812 891 665
883 248 1441
1207 0 1719
1481 39 1984
1814 94 2348
1662 1807 1395
1608 1373 2157
1774 627 2782
2175 195 3162
2491 0 3436
2513 2723 2124
2566 2533 2971
2552 1847 3746
2801 1491 4095
3012 1679 4095
3363 3638 2854
3293 3632 3293
3517 3305 4095
3471 3175 4095
3593 3270 4095
888 235 13
862 186 812
1129 0 1196
1469 0 1602
1855 0 2058
1353 1099 0
1024 1024 1024
1339 727 1534
1642 556 1930
1992 454 2357
1923 1839 860
1758 1871 1559
1804 1326 2432
2137 977 2917
2484 786 3310
2672 2751 1708
2571 2761 2223
2616 2159 3535
2881 1753 4095
3070 1824 4095
3440 3671 2531
3401 3665 2922
3562 3394 4095
3527 3263 4095
3636 3346 4095
1815 618 52
1679 696 735
1710 505 1622
1940 3 1993
2235 0 2366
2176 1298 0
1946 1142 977
1858 1056 1787
2141 682 2210
2455 530 2612
2556 2109 0
2378 2066 1193
2048 2048 2048
2412 1747 2655
2729 1501 3112
3067 2805 955
3014 2820 1450
2749 2878 2531
2935 2490 3604
3242 2224 4095
3819 3694 1905
3765 3709 2169
3528 3748 3137
3678 3499 4095
3760 3553 4095
2720 993 126
2694 919 802
2443 1197 1670
2583 835 2456
2808 245 2841
2927 1443 0
2822 1352 956
2612 1463 1705
2689 1216 2571
2954 765 2997
3327 2342 0
3225 2284 1030
2972 2131 1987
2917 2062 2836
3315 1674 3388
3656 3031 0
3574 3026 1179
3351 3026 2231
3071 3071 3071
3527 2832 3798
4095 3777 1768
4095 3789 1513
4075 3820 2334
3756 3894 3527
3933 3832 4095
3608 1360 228
3614 1259 785
3425 1490 1524
3261 1633 2724
3498 1181 3329
3729 1682 0
3689 1621 956
3590 1653 1654
3369 1832 2748
3575 1463 3413
4016 2403 0
3986 2366 877
3843 2268 1935
3638 2374 2754
3782 2168 3641
4095 3265 1295
4095 3244 1446
4095 3191 2031
3988 3133 2997
3990 3106 3900
4095 3964 3627
4095 3970 3657
4095 3988 3722
4095 4027 3852
4095 4095 4095
