Creative/ColorHarmony - Fade Colds.3dl
#25pt 3DLUT created by 3D LUT Creator Pro (c) Oleg Sharonov
#Copyright Oleg Sharonov
#INPUTGAMMA sRGB IEC61966-2.1 v.2.10
#IMAGEPROFILE sRGB IEC61966-2.1 v.2.10
#OUTPUTGAMMA sRGB IEC61966-2.1 v.2.10
0 256 512 768 1023
0 0 0
214 145 442
578 448 990
940 751 1538
1302 1055 2086
599 944 585
637 962 979
856 1037 1391
1176 1138 2019
1500 1336 2455
1274 1903 1249
1289 1911 1464
1345 1936 1965
1574 1982 2414
1802 2083 2845
1950 2862 1913
1943 2871 2027
2003 2879 2417
2052 2909 2952
2295 2940 3435
3052 3703 3029
3062 3707 3078
3122 3712 3255
3221 3730 3506
3360 3765 3788
1023 0 0
1023 0 1023
987 454 1480
1180 789 1826
1466 1088 2283
1047 1008 367
1024 1024 1024
1152 1064 1648
1374 1192 2082
1657 1353 2625
1441 1945 1230
1407 1967 1372
1456 1982 1996
1670 2024 2450
1904 2084 3086
2055 2887 1903
2031 2900 1989
2062 2912 2403
2121 2937 2970
2330 2967 3494
3114 3717 3056
3116 3724 3096
3168 3731 3263
3267 3748 3522
3403 3783 3804
2048 0 0
2048 0 1024
2048 0 2048
1992 504 2786
2000 1083 2922
2055 1013 257
2047 1024 1024
2048 1023 2048
2042 1133 2768
2186 1310 3221
2091 2018 852
2079 2033 1137
2048 2048 2048
2113 2073 2785
2416 2011 3727
2346 2965 1852
2353 2974 1934
2266 3020 2205
2314 3024 3029
2559 3035 3588
3294 3765 3144
3300 3771 3180
3312 3791 3297
3405 3805 3572
3535 3839 3856
3071 3 3
3071 3 1024
3071 0 2048
3071 0 3071
3071 3 4094
3083 1006 230
3071 1023 1023
3071 1023 2048
3071 1023 3071
3074 1022 4093
3065 2040 678
3067 2045 1126
3070 2048 2048
3071 2048 3071
3151 2021 4037
3134 3029 1337
3128 3037 1519
3076 3069 2064
3071 3071 3071
3215 3058 3877
3590 3856 3317
3588 3863 3357
3613 3880 3452
3646 3914 3638
3768 3942 3952
4094 3 3
4094 6 1025
4094 3 2048
4095 0 3071
4095 0 4095
4087 1028 334
4095 1024 1024
4095 1024 2048
4095 1024 3071
4095 1023 4095
4058 2058 865
4068 2055 1267
4095 2048 2048
4095 2047 3071
4095 2048 4095
4002 3083 1470
4010 3082 1711
4038 3080 2292
4095 3071 3071
4095 3071 4095
4018 3982 3575
4022 3988 3604
4035 4006 3695
4059 4041 3858
4095 4095 4095
