Creative/ColorHarmony - Blue Orange.3dl
#25pt 3DLUT created by 3D LUT Creator Pro (c) Oleg Sharonov
#Copyright Oleg Sharonov
#IMAGEPROFILE sRGB IEC61966-2.1 v.2.10
#INPUTGAMMA sRGB IEC61966-2.1 v.2.10
#OUTPUTGAMMA sRGB IEC61966-2.1 v.2.10
0 43 86 128 171 214 256 299 341 384 427 469 512 555 597 640 682 725 768 810 853 896 938 981 1023 
0 0 0
0 6 126
3 13 262
6 23 409
6 36 556
13 55 699
16 78 847
23 107 996
29 139 1139
39 177 1287
48 214 1434
61 255 1582
71 293 1728
87 332 1875
100 370 2022
119 409 2168
136 449 2317
155 488 2462
177 527 2609
198 565 2756
217 604 2902
238 644 3049
260 682 3196
280 721 3343
302 760 3489
257 87 36
61 142 273
6 145 460
0 142 614
0 149 751
0 155 885
0 171 1025
0 195 1153
0 222 1281
0 252 1416
0 282 1552
3 314 1691
6 349 1829
13 383 1968
19 417 2108
26 454 2249
36 489 2390
45 526 2533
58 563 2676
71 600 2820
87 636 2963
103 674 3107
123 712 3251
142 749 3396
165 787 3540
464 198 84
220 287 308
142 295 486
23 306 678
6 302 846
0 302 995
0 306 1132
0 314 1265
0 324 1403
0 337 1543
0 362 1671
0 386 1797
0 416 1930
0 445 2064
0 474 2199
0 505 2337
3 537 2474
10 570 2610
16 604 2749
26 639 2889
36 673 3029
48 709 3169
61 744 3310
78 781 3452
94 817 3594
673 328 161
508 398 370
330 448 509
252 454 701
84 465 896
26 462 1071
3 460 1232
0 460 1374
0 464 1511
0 471 1645
0 481 1783
0 492 1919
0 506 2059
0 526 2189
0 552 2316
0 579 2445
0 607 2577
0 636 2709
0 666 2844
0 696 2981
0 727 3119
3 759 3256
13 793 3394
23 826 3532
32 860 3671
881 455 250
751 512 467
553 585 531
445 605 718
363 611 916
198 624 1114
58 625 1293
23 620 1461
0 618 1616
0 618 1753
0 623 1891
0 629 2026
0 637 2161
0 648 2298
0 660 2436
0 674 2576
0 693 2710
0 718 2835
0 744 2963
0 771 3093
0 800 3224
0 828 3357
0 859 3491
0 888 3627
0 919 3764
1089 583 341
987 627 559
859 682 640
631 750 773
562 761 933
475 767 1130
316 779 1330
110 788 1514
61 782 1685
19 777 1847
0 776 1996
0 777 2135
0 781 2270
0 788 2406
0 795 2542
0 805 2678
0 816 2816
0 828 2954
0 842 3093
0 859 3230
0 884 3355
0 910 3481
0 937 3610
0 964 3740
0 992 3871
1297 711 430
1222 741 650
1101 797 736
947 857 807
743 909 981
677 917 1145
586 925 1345
433 936 1546
174 950 1732
113 944 1907
58 939 2075
13 935 2232
0 934 2376
0 936 2514
0 940 2651
0 946 2786
0 953 2923
0 962 3058
0 973 3195
0 984 3333
0 997 3471
0 1010 3610
0 1026 3750
0 1050 3874
0 1076 4000
1506 838 520
1435 867 738
1339 912 831
1210 967 910
960 1050 979
851 1068 1182
792 1074 1359
696 1083 1560
547 1093 1761
320 1107 1950
180 1106 2128
113 1101 2299
52 1096 2461
3 1093 2617
0 1093 2757
0 1095 2895
0 1099 3031
0 1105 3167
0 1111 3303
0 1119 3438
0 1129 3575
0 1140 3712
0 1152 3850
0 1165 3988
0 1178 4095
1713 966 610
1645 993 826
1574 1025 922
1452 1081 1006
1304 1139 1079
1041 1213 1237
958 1230 1380
905 1231 1573
807 1239 1774
661 1251 1977
452 1264 2167
255 1268 2347
183 1262 2522
110 1257 2688
45 1253 2847
0 1251 2999
0 1251 3138
0 1253 3275
0 1257 3411
0 1263 3547
0 1269 3683
0 1277 3818
0 1286 3954
0 1296 4091
0 1308 4095
1921 1094 699
1855 1119 914
1809 1139 1013
1690 1196 1101
1560 1251 1179
1356 1327 1223
1155 1371 1449
1077 1385 1594
1019 1388 1787
919 1396 1989
774 1407 2192
578 1420 2383
328 1431 2567
260 1424 2743
183 1419 2912
103 1415 3075
32 1411 3232
0 1410 3380
0 1411 3519
0 1413 3656
0 1416 3792
0 1421 3927
0 1428 4063
139 1441 4095
401 1466 4095
2130 1222 788
2065 1247 1002
2027 1263 1102
1926 1310 1194
1802 1365 1276
1659 1423 1350
1369 1514 1444
1264 1530 1653
1195 1541 1808
1132 1546 2001
1029 1554 2203
886 1564 2407
700 1577 2600
422 1592 2785
334 1587 2963
262 1581 3135
180 1576 3300
94 1572 3461
16 1569 3617
0 1568 3760
0 1569 3898
0 1572 4036
0 1575 4095
508 1603 4095
664 1626 4095
2337 1350 878
2274 1373 1090
2237 1389 1190
2162 1424 1286
2041 1480 1372
1910 1535 1449
1736 1601 1512
1450 1675 1700
1372 1690 1853
1312 1697 2022
1244 1702 2215
1139 1711 2417
999 1721 2623
819 1734 2816
569 1748 3002
408 1749 3182
337 1742 3356
262 1737 3525
174 1733 3688
81 1729 3847
0 1726 4001
0 1726 4095
455 1741 4095
745 1764 4095
942 1791 4095
2545 1478 968
2484 1501 1178
2448 1515 1278
2397 1538 1376
2278 1595 1465
2153 1649 1546
2011 1706 1620
1720 1805 1673
1565 1833 1916
1479 1850 2052
1428 1854 2235
1356 1859 2428
1251 1868 2632
1110 1878 2837
937 1890 3032
705 1904 3219
479 1911 3401
412 1905 3577
339 1899 3748
257 1894 3914
165 1890 4075
195 1888 4095
623 1900 4095
966 1925 4095
1114 1946 4095
2753 1606 1057
2693 1628 1266
2658 1642 1366
2618 1660 1465
2514 1709 1558
2393 1764 1642
2261 1819 1719
2098 1882 1787
1778 1976 1909
1676 1991 2122
1589 2010 2255
1543 2011 2449
1468 2016 2642
1361 2025 2847
1222 2035 3052
1053 2048 3248
835 2061 3437
552 2074 3619
486 2067 3797
416 2061 3970
337 2056 4095
677 2058 4095
917 2067 4095
1160 2084 4095
1295 2101 4095
2961 1734 1147
2902 1755 1354
2868 1769 1454
2829 1785 1553
2749 1823 1649
2629 1879 1736
2503 1934 1817
2362 1990 1891
2147 2069 1932
1860 2138 2164
1785 2151 2324
1709 2165 2469
1658 2167 2662
1580 2174 2857
1472 2182 3061
1334 2192 3267
1168 2204 3464
961 2218 3653
672 2233 3837
559 2229 4016
552 2223 4095
862 2223 4095
1135 2229 4095
1293 2239 4095
1467 2255 4095
3169 1861 1237
3111 1883 1441
3078 1896 1541
3040 1912 1642
2985 1937 1739
2866 1993 1829
2743 2048 1912
2611 2104 1990
2454 2164 2059
2116 2273 2116
1976 2294 2382
1893 2311 2525
1828 2321 2684
1772 2324 2876
1692 2331 3071
1583 2339 3276
1445 2349 3482
1283 2361 3679
1083 2375 3870
819 2389 4055
769 2391 4095
1133 2388 4095
1354 2390 4095
1494 2397 4095
1651 2410 4095
3377 1990 1326
3320 2010 1530
3288 2023 1629
3251 2039 1730
3210 2056 1829
3102 2108 1921
2981 2163 2007
2854 2218 2086
2713 2274 2161
2525 2345 2218
2186 2439 2375
2088 2453 2590
2000 2472 2724
1945 2477 2898
1887 2481 3089
1804 2488 3285
1694 2496 3490
1557 2507 3697
1397 2519 3895
1204 2531 4086
1133 2544 4095
1298 2550 4095
1511 2549 4095
1688 2554 4095
1820 2563 4095
3585 2117 1415
3529 2138 1618
3497 2150 1717
3461 2165 1817
3421 2182 1917
3337 2222 2012
3217 2278 2100
3093 2333 2182
2961 2388 2260
2807 2447 2330
2526 2548 2341
2269 2601 2627
2197 2612 2794
2107 2632 2923
2062 2634 3111
2000 2638 3303
1916 2645 3499
1804 2653 3705
1668 2664 3912
1510 2675 4095
1557 2684 4095
1615 2695 4095
1718 2707 4095
1867 2708 4095
1975 2715 4095
3793 2245 1505
3738 2265 1706
3706 2278 1805
3671 2292 1906
3632 2308 2005
3572 2336 2103
3454 2393 2193
3332 2448 2277
3204 2502 2356
3064 2559 2431
2888 2625 2494
2534 2736 2560
2386 2757 2847
2306 2772 2996
2221 2790 3130
2178 2790 3325
2113 2795 3517
2027 2802 3713
1915 2811 3919
1780 2821 4095
1847 2826 4095
1938 2834 4095
1987 2846 4095
2064 2859 4095
2161 2866 4095
4001 2373 1595
3946 2393 1794
3915 2405 1893
3881 2419 1993
3843 2435 2093
3801 2453 2192
3689 2507 2285
3569 2562 2371
3444 2617 2452
3312 2672 2529
3161 2731 2601
2937 2813 2639
2595 2902 2839
2499 2915 3057
2414 2933 3196
2341 2946 3345
2294 2947 3538
2227 2952 3730
2139 2959 3928
2026 2968 4095
2112 2969 4095
2193 2976 4095
2239 2986 4095
2307 2997 4095
2369 3011 4095
4095 2527 1782
4095 2522 1889
4095 2532 1981
4090 2546 2081
4053 2561 2181
4013 2579 2280
3925 2621 2376
3805 2677 2464
3683 2732 2547
3554 2786 2627
3415 2843 2701
3246 2907 2767
2886 3024 2813
2678 3064 3090
2609 3074 3263
2521 3093 3396
2460 3101 3559
2409 3103 3752
2339 3108 3944
2250 3116 4095
2346 3114 4095
2433 3117 4095
2499 3125 4095
2540 3136 4095
2596 3148 4095
4095 2749 2189
4095 2746 2262
4095 2744 2298
4095 2739 2334
4095 2741 2388
4095 2745 2449
4095 2748 2491
4041 2792 2557
3920 2847 2642
3795 2901 2723
3662 2956 2799
3513 3015 2871
3313 3089 2924
2944 3199 3022
2796 3219 3311
2718 3234 3466
2628 3253 3594
2578 3257 3773
2524 3260 3965
2464 3265 4095
2586 3259 4095
2658 3260 4095
2712 3267 4095
2767 3275 4095
2818 3287 4095
4095 2962 2536
4095 2961 2588
4095 2959 2614
4095 2957 2641
4095 2963 2690
4095 2959 2717
4095 2963 2763
4095 2963 2754
4095 2970 2752
4034 3016 2818
3905 3071 2897
3766 3127 2971
3602 3190 3039
3328 3288 3041
3003 3365 3303
2910 3377 3524
2827 3394 3668
2734 3414 3792
2695 3414 3987
2689 3412 4095
2804 3403 4095
2887 3402 4095
2938 3407 4095
2990 3415 4095
3036 3425 4095
4095 3169 2848
4095 3164 2874
4095 3163 2894
4095 3166 2923
4095 3165 2944
4095 3169 2979
4095 3169 3007
4095 3170 3012
4095 3180 3019
4095 3184 3012
4095 3194 3010
4012 3240 3069
3864 3299 3142
3678 3368 3201
3272 3495 3264
3087 3526 3553
3020 3536 3731
2934 3554 3868
2853 3570 4005
2896 3560 4095
3010 3548 4095
3103 3544 4095
3160 3548 4095
3208 3554 4095
3245 3564 4095
4095 3370 3135
4095 3367 3154
4095 3366 3167
4095 3366 3181
4095 3368 3202
4095 3367 3217
4095 3371 3245
4095 3375 3261
4095 3377 3258
4095 3385 3261
4095 3389 3256
4095 3400 3255
4095 3411 3241
3956 3473 3310
3726 3556 3345
3353 3662 3487
3206 3682 3776
3130 3695 3935
3042 3714 4067
3096 3709 4095
3226 3691 4095
3323 3685 4095
3375 3687 4095
3425 3693 4095
3459 3702 4095
142 6 6
48 45 90
55 55 198
65 65 345
74 81 501
87 97 670
94 110 833
107 139 982
123 171 1131
139 203 1273
158 240 1424
174 273 1568
195 310 1714
214 347 1863
233 384 2007
252 422 2156
273 460 2302
293 497 2448
312 535 2594
332 572 2742
351 611 2888
370 649 3035
391 687 3182
411 725 3329
431 764 3475
264 136 0
171 171 171
165 174 332
161 180 486
158 189 635
158 201 778
158 217 921
161 238 1064
168 262 1207
171 287 1346
180 316 1487
189 345 1631
198 376 1773
209 408 1916
222 440 2060
235 474 2204
248 508 2349
262 542 2493
278 578 2637
293 614 2783
308 649 2928
324 686 3073
341 722 3218
358 758 3364
374 796 3509
479 240 0
391 273 235
262 316 403
214 322 584
198 322 751
183 324 907
174 330 1057
171 337 1199
161 354 1339
155 372 1476
149 393 1611
145 417 1749
142 442 1885
145 470 2023
149 499 2161
152 528 2299
158 559 2438
165 591 2579
174 624 2720
186 656 2860
198 691 3003
209 725 3145
222 759 3287
238 794 3429
252 830 3573
698 351 0
614 386 302
396 458 468
351 465 634
255 477 822
233 475 997
209 475 1159
192 477 1311
180 481 1459
171 489 1603
168 499 1742
171 510 1879
161 530 2014
152 551 2147
145 575 2280
142 600 2414
139 626 2548
139 654 2683
142 683 2820
145 713 2956
149 744 3093
158 775 3231
168 807 3370
177 840 3510
189 874 3650
920 465 6
834 501 370
685 560 531
492 615 685
445 619 862
330 632 1056
267 633 1234
238 630 1400
212 630 1559
189 631 1711
174 634 1856
161 641 1997
158 650 2138
158 660 2275
165 673 2411
168 691 2545
155 712 2675
145 735 2808
139 760 2940
132 786 3072
132 813 3205
129 841 3339
132 870 3474
136 900 3610
142 931 3746
1140 583 36
1050 622 442
924 672 626
692 755 705
602 769 904
543 775 1088
419 786 1282
306 793 1464
271 789 1636
238 786 1798
209 786 1955
183 787 2104
161 789 2248
149 795 2390
142 802 2528
142 812 2665
145 824 2802
155 838 2936
171 852 3071
158 874 3202
145 897 3332
136 922 3463
129 947 3594
123 974 3727
119 1001 3860
1359 702 81
1265 743 516
1160 785 717
1010 848 804
776 914 960
713 924 1122
644 931 1309
514 942 1506
351 954 1691
310 949 1866
271 945 2033
233 942 2192
201 942 2347
171 943 2495
145 946 2639
129 951 2780
119 958 2919
116 966 3055
119 977 3192
129 989 3326
145 1003 3461
165 1018 3594
161 1038 3726
145 1061 3855
132 1086 3985
1567 828 195
1478 865 594
1396 897 806
1254 961 901
1052 1036 953
880 1073 1168
823 1080 1338
746 1087 1529
615 1098 1727
430 1112 1915
354 1110 2093
310 1105 2263
267 1102 2427
225 1099 2584
189 1099 2735
152 1100 2883
126 1103 3028
107 1107 3168
94 1114 3307
87 1122 3445
90 1131 3580
97 1142 3715
110 1155 3850
129 1169 3984
155 1185 4095
1774 955 306
1689 990 674
1614 1018 893
1492 1074 995
1347 1133 1076
1067 1217 1206
984 1233 1369
934 1236 1554
850 1243 1747
717 1254 1948
537 1268 2137
404 1272 2318
356 1266 2491
308 1262 2658
262 1258 2818
214 1257 2973
171 1256 3123
132 1257 3271
100 1260 3414
78 1264 3555
61 1270 3694
55 1277 3832
52 1286 3968
58 1296 4095
87 1309 4095
1981 1082 412
1901 1115 757
1827 1143 979
1728 1188 1088
1593 1246 1174
1418 1313 1240
1175 1374 1435
1096 1390 1579
1044 1392 1769
956 1400 1965
822 1411 2167
648 1424 2358
457 1433 2540
406 1427 2716
356 1423 2885
304 1418 3049
252 1415 3207
201 1414 3361
149 1414 3510
107 1415 3656
71 1417 3800
42 1421 3942
26 1427 4081
139 1439 4095
451 1469 4095
2188 1209 514
2112 1240 839
2039 1267 1064
1964 1301 1178
1833 1360 1269
1689 1418 1347
1403 1514 1408
1283 1533 1643
1213 1545 1795
1155 1549 1985
1063 1557 2182
928 1568 2385
758 1580 2577
516 1595 2761
461 1589 2939
408 1584 3111
352 1579 3277
297 1576 3438
240 1573 3595
183 1571 3747
126 1572 3896
74 1573 4042
36 1575 4095
512 1603 4095
762 1636 4095
