Creative/ColorHarmony - Yellow Purple.3dl
#25pt 3DLUT created by 3D LUT Creator Pro (c) Oleg Sharonov
#Copyright Oleg Sharonov
#IMAGEPROFILE 
#INPUTGAMMA 
#OUTPUTGAMMA 
0 43 86 128 171 214 256 299 341 384 427 469 512 555 597 640 682 725 768 810 853 896 938 981 1023 
0 0 0
29 0 42
65 0 97
123 0 180
201 0 273
278 0 365
358 0 460
440 0 556
518 0 647
599 0 742
676 0 832
745 0 914
809 0 989
874 0 1065
939 0 1141
1004 0 1218
1071 0 1296
1136 0 1373
1202 0 1451
1270 0 1530
1337 0 1609
1406 0 1688
1474 0 1769
1543 0 1851
1614 0 1933
110 132 78
165 23 363
235 3 425
287 0 467
337 0 516
389 3 568
446 10 629
516 6 707
585 3 785
653 0 862
714 0 931
773 0 997
831 0 1065
892 0 1133
953 0 1204
1015 0 1275
1078 0 1348
1142 0 1422
1206 0 1496
1272 0 1573
1337 0 1649
1404 0 1727
1472 0 1805
1540 0 1885
1609 0 1966
245 280 177
264 136 478
332 52 613
404 23 682
464 3 730
514 0 771
565 0 819
614 3 867
662 13 916
709 23 964
762 16 1022
817 10 1083
876 6 1148
934 0 1213
992 0 1278
1050 0 1344
1109 0 1412
1170 0 1480
1232 0 1551
1295 0 1624
1359 0 1698
1424 0 1773
1490 0 1850
1557 0 1927
1625 0 2006
386 434 299
404 328 585
417 186 746
497 94 862
569 48 930
627 16 975
673 0 1008
713 0 1037
754 0 1073
796 3 1111
839 13 1153
883 23 1197
928 32 1246
981 32 1303
1038 26 1366
1097 16 1431
1156 10 1498
1216 0 1565
1275 0 1632
1336 0 1701
1397 0 1771
1460 0 1842
1524 0 1916
1589 0 1991
1655 0 2067
528 586 422
540 501 692
528 386 805
548 230 959
628 139 1058
698 81 1127
755 39 1172
806 10 1210
847 0 1240
887 0 1270
930 0 1308
973 3 1349
1016 10 1391
1061 23 1436
1107 36 1484
1155 52 1535
1209 55 1593
1266 45 1657
1325 36 1723
1386 26 1792
1448 13 1861
1510 3 1933
1573 0 2004
1636 0 2075
1700 0 2148
670 739 543
685 681 806
663 565 910
647 431 1017
676 282 1151
753 192 1247
825 119 1319
884 78 1368
937 29 1410
984 3 1446
1024 0 1475
1066 0 1509
1109 0 1548
1154 0 1592
1198 10 1635
1244 23 1681
1291 39 1730
1340 55 1781
1390 74 1835
1443 84 1893
1503 71 1960
1564 58 2028
1627 45 2099
1690 36 2171
1754 23 2244
812 891 665
798 885 823
810 746 1032
781 620 1119
765 470 1228
806 336 1347
883 248 1441
956 171 1516
1015 129 1568
1071 61 1614
1122 19 1654
1166 0 1688
1207 0 1719
1250 0 1755
1294 0 1796
1341 0 1842
1387 6 1888
1434 23 1935
1481 39 1984
1531 58 2036
1582 78 2090
1634 103 2147
1688 123 2207
1751 107 2276
1814 94 2348
954 1044 787
928 1044 926
961 931 1157
929 807 1244
899 671 1328
885 503 1441
939 393 1548
1017 304 1642
1090 225 1719
1151 177 1775
1209 107 1823
1262 48 1866
1311 13 1905
1354 0 1938
1397 0 1973
1441 0 2011
1487 0 2055
1535 0 2102
1583 6 2150
1631 23 2198
1680 39 2249
1731 61 2302
1783 84 2358
1836 110 2416
1891 139 2476
1095 1197 908
1065 1197 1044
1118 1117 1274
1082 993 1374
1046 862 1451
1018 718 1539
1010 532 1662
1077 451 1756
1155 363 1850
1230 284 1929
1293 233 1989
1351 171 2039
1408 90 2085
1459 39 2127
1507 3 2167
1551 0 2200
1595 0 2237
1640 0 2278
1688 0 2323
1737 0 2372
1788 3 2424
1837 19 2474
1888 39 2526
1940 65 2581
1993 90 2637
1237 1349 1030
1207 1349 1161
1215 1331 1280
1237 1180 1505
1201 1053 1585
1166 918 1662
1142 764 1757
1150 592 1878
1220 512 1973
1299 425 2067
1375 345 2148
1440 289 2211
1500 243 2264
1559 152 2313
1613 78 2358
1663 29 2400
1711 0 2439
1756 0 2475
1802 0 2515
1850 0 2558
1898 0 2605
1950 0 2656
2002 0 2710
2053 16 2763
2106 39 2817
1379 1502 1151
1350 1502 1279
1350 1499 1351
1392 1370 1632
1358 1244 1721
1322 1114 1797
1290 973 1879
1272 808 1984
1298 658 2104
1371 577 2199
1450 489 2294
1526 408 2376
1595 349 2443
1655 314 2498
1716 225 2551
1773 136 2598
1826 65 2643
1878 16 2686
1926 0 2725
1972 0 2763
2019 0 2805
2069 0 2852
2120 0 2902
2173 0 2955
2227 0 3010
1521 1655 1273
1493 1654 1396
1480 1654 1472
1556 1556 1746
1516 1434 1857
1481 1308 1937
1447 1175 2015
1420 1028 2106
1409 854 2224
1454 726 2339
1528 645 2436
1608 556 2531
1686 475 2616
1756 412 2686
1819 372 2744
1881 302 2798
1941 209 2849
1997 119 2897
2051 52 2942
2103 3 2987
2150 0 3025
2198 0 3067
2249 0 3112
2300 0 3161
2353 0 3213
1662 1807 1395
1636 1807 1515
1619 1807 1590
1632 1779 1747
1673 1624 1988
1642 1501 2077
1608 1373 2157
1579 1238 2242
1559 1086 2345
1556 899 2478
1616 799 2585
1692 716 2684
1774 627 2782
1854 545 2868
1926 479 2940
1991 434 3001
2053 379 3058
2116 287 3112
2175 195 3162
2232 107 3211
2286 39 3258
2339 0 3303
2388 0 3344
2438 0 3388
2491 0 3436
1804 1960 1516
1779 1959 1634
1761 1960 1707
1771 1954 1780
1830 1814 2111
1802 1694 2216
1771 1570 2301
1742 1442 2386
1718 1303 2481
1707 1144 2597
1716 955 2745
1787 877 2845
1866 792 2946
1949 702 3045
2031 617 3134
2104 550 3209
2172 501 3273
2234 462 3329
2300 367 3387
2362 273 3441
2421 180 3492
2479 90 3542
2535 23 3591
2587 0 3636
2638 0 3680
1946 2112 1638
1921 2111 1753
1903 2112 1824
1898 2110 1898
1997 2000 2221
1960 1885 2349
1934 1766 2444
1906 1643 2532
1883 1514 2626
1867 1372 2734
1864 1206 2867
1893 1037 3015
1968 958 3118
2049 871 3221
2134 781 3323
2217 695 3414
2293 625 3491
2362 572 3558
2426 537 3616
2493 451 3676
2558 356 3733
2621 262 3788
2681 165 3840
2739 74 3892
2797 6 3943
2088 2265 1759
2064 2264 1872
2046 2265 1941
2033 2265 2018
2049 2227 2218
2117 2076 2477
2096 1960 2584
2072 1843 2679
2050 1721 2774
2033 1590 2880
2026 1444 3003
2034 1271 3155
2080 1125 3300
2158 1044 3405
2241 956 3512
2329 863 3615
2414 776 3709
2491 703 3789
2563 647 3858
2629 607 3919
2696 540 3980
2765 443 4041
2830 347 4095
2893 250 4095
2942 271 4095
2229 2418 1881
2206 2417 1992
2190 2417 2059
2173 2418 2135
2192 2409 2214
2273 2264 2595
2255 2153 2720
2237 2041 2823
2218 1926 2924
2202 1803 3030
2194 1671 3150
2197 1521 3291
2215 1338 3464
2278 1218 3600
2359 1135 3709
2444 1046 3818
2534 951 3924
2621 862 4020
2701 786 4095
2774 726 4095
2805 806 4095
2848 837 4095
2895 845 4095
2933 877 4095
2949 971 4095
2371 2570 2002
2348 2569 2112
2332 2569 2177
2314 2570 2252
2321 2565 2322
2440 2447 2697
2412 2344 2849
2399 2237 2964
2385 2127 3072
2372 2013 3182
2365 1891 3302
2366 1756 3438
2380 1600 3598
2411 1409 3795
2486 1316 3916
2570 1231 4029
2659 1139 4095
2720 1115 4095
2761 1139 4095
2802 1166 4095
2845 1193 4095
2874 1247 4095
2915 1279 4095
2953 1304 4095
2977 1352 4095
2513 2723 2124
2490 2722 2232
2475 2722 2295
2457 2723 2369
2450 2721 2444
2478 2674 2689
2566 2533 2971
2560 2430 3101
2551 2327 3217
2543 2220 3333
2538 2106 3456
2540 1984 3591
2552 1847 3746
2577 1686 3928
2624 1500 4095
2672 1481 4095
2717 1474 4095
2763 1472 4095
2801 1491 4095
2846 1503 4095
2885 1529 4095
2915 1569 4095
2954 1599 4095
2986 1639 4095
3012 1679 4095
2655 2875 2246
2632 2874 2352
2618 2875 2414
2600 2875 2486
2586 2875 2563
2612 2864 2649
2723 2718 3084
2717 2622 3232
2715 2524 3359
2712 2424 3482
2711 2319 3610
2715 2207 3747
2728 2083 3900
2751 1943 4076
2746 1842 4095
2745 1788 4095
2788 1779 4095
2823 1786 4095
2866 1789 4095
2900 1809 4095
2942 1824 4095
2978 1850 4095
3008 1886 4095
3043 1915 4095
3073 1954 4095
2796 3028 2367
2774 3027 2472
2760 3027 2533
2743 3027 2603
2726 3028 2680
2744 3020 2749
2884 2898 3176
2871 2810 3356
2875 2718 3496
2878 2624 3628
2883 2527 3762
2891 2424 3903
2906 2313 4058
2905 2222 4095
2886 2155 4095
2865 2094 4095
2874 2068 4095
2908 2070 4095
2945 2074 4095
2980 2087 4095
3012 2108 4095
3050 2125 4095
3083 2152 4095
3112 2185 4095
3145 2216 4095
2938 3181 2489
2917 3179 2592
2903 3179 2652
2886 3180 2721
2868 3181 2797
2870 3177 2869
2916 3122 3161
3022 2996 3472
3033 2909 3627
3043 2822 3770
3053 2733 3911
3066 2639 4058
3063 2564 4095
3047 2506 4095
3030 2451 4095
3012 2399 4095
2995 2351 4095
3013 2343 4095
3042 2353 4095
3075 2361 4095
3107 2376 4095
3136 2398 4095
3171 2418 4095
3199 2448 4095
3230 2477 4095
3080 3333 2611
3059 3332 2713
3045 3332 2772
3029 3332 2839
3010 3333 2914
3002 3332 2990
3031 3319 3086
3178 3176 3577
3186 3098 3752
3204 3018 3907
3221 2935 4057
3223 2871 4095
3210 2822 4095
3196 2775 4095
3183 2729 4095
3165 2690 4095
3153 2648 4095
3138 2613 4095
3161 2622 4095
3190 2632 4095
3218 2646 4095
3246 2664 4095
3278 2683 4095
3306 2708 4095
3332 2738 4095
3221 3486 2732
3201 3484 2833
3187 3484 2891
3171 3485 2957
3153 3486 3031
3139 3485 3108
3165 3476 3179
3332 3354 3659
3336 3283 3869
3361 3209 4038
3375 3149 4095
3371 3107 4095
3362 3068 4095
3353 3029 4095
3338 2997 4095
3326 2964 4095
3315 2934 4095
3304 2907 4095
3301 2888 4095
3324 2901 4095
3348 2916 4095
3373 2933 4095
3400 2953 4095
3428 2974 4095
3454 3001 4095
3363 3638 2854
3343 3637 2954
3330 3637 3011
3314 3637 3076
3296 3638 3148
3280 3638 3226
3293 3632 3293
3356 3574 3636
3485 3464 3978
3512 3405 4095
3523 3367 4095
3523 3334 4095
3517 3305 4095
3509 3278 4095
3503 3251 4095
3494 3228 4095
3484 3209 4095
3479 3190 4095
3471 3175 4095
3476 3173 4095
3499 3187 4095
3522 3204 4095
3545 3223 4095
3567 3247 4095
3593 3270 4095
126 16 0
126 13 113
174 0 183
230 0 252
293 0 330
367 0 414
437 0 496
510 0 584
585 0 673
657 0 760
729 0 846
792 0 921
855 0 997
920 0 1074
982 0 1149
1048 0 1226
1113 0 1303
1177 0 1379
1243 0 1457
1310 0 1536
1376 0 1615
1444 0 1695
1512 0 1775
1580 0 1856
1650 0 1938
262 183 0
171 171 171
243 129 284
304 100 370
365 78 451
427 65 528
493 55 609
560 45 691
630 39 774
694 32 849
754 26 921
815 19 994
876 13 1066
938 6 1139
1001 0 1213
1061 0 1285
1124 0 1358
1186 0 1431
1249 0 1505
1314 0 1581
1379 0 1657
1444 0 1734
1511 0 1813
1579 0 1892
1647 0 1972
343 297 32
287 308 250
322 248 434
379 189 541
440 145 624
499 116 695
554 103 760
606 97 818
663 84 883
720 71 947
777 58 1011
834 48 1077
891 42 1143
950 32 1210
1010 26 1279
1071 16 1349
1132 10 1420
1195 3 1494
1257 0 1565
1318 0 1637
1383 0 1710
1446 0 1785
1512 0 1861
1577 0 1937
1645 0 2016
467 443 136
416 454 351
433 345 613
471 299 692
532 238 791
595 180 868
649 139 929
697 113 980
744 100 1029
791 94 1077
836 94 1126
883 97 1176
937 84 1237
994 74 1299
1051 61 1364
1109 52 1429
1168 42 1496
1228 32 1565
1290 23 1636
1352 13 1708
1415 6 1781
1478 0 1854
1542 0 1927
1606 0 2001
1672 0 2077
593 595 269
551 601 460
559 492 735
552 372 855
606 334 923
670 271 1014
731 209 1084
785 158 1141
835 123 1190
881 103 1236
926 94 1280
970 90 1324
1016 90 1372
1062 97 1420
1109 107 1472
1161 107 1528
1218 94 1591
1276 81 1657
1336 68 1724
1396 58 1792
1457 45 1861
1520 36 1933
1583 23 2007
1649 13 2081
1715 0 2158
717 748 416
688 751 573
697 658 858
674 530 967
679 409 1074
740 369 1144
804 302 1229
865 245 1296
921 186 1353
971 139 1399
1019 110 1444
1063 94 1486
1107 87 1529
1153 87 1573
1198 90 1620
1245 97 1668
1293 110 1719
1342 123 1772
1392 139 1827
1451 123 1893
1511 107 1960
1572 94 2028
1634 81 2099
1698 68 2171
1762 55 2245
838 903 562
826 902 690
842 835 975
811 697 1088
787 560 1184
808 451 1284
871 403 1358
939 336 1441
1000 284 1507
1058 220 1564
1111 165 1613
1159 126 1656
1206 100 1699
1251 87 1741
1296 81 1784
1341 84 1829
1387 87 1875
1434 97 1924
1483 110 1975
1533 126 2028
1584 145 2084
1637 165 2141
1695 161 2207
1757 145 2276
1821 129 2348
978 1054 684
965 1053 807
948 1036 1012
957 874 1216
922 738 1301
901 591 1400
939 496 1493
1006 442 1571
1076 372 1655
1138 326 1722
1198 260 1779
1252 198 1829
1303 149 1874
1351 113 1917
1397 90 1959
1443 81 2002
1489 78 2046
1536 81 2092
1583 87 2139
1632 97 2190
1681 113 2241
1732 132 2295
1785 152 2352
1838 177 2410
1893 201 2471
1119 1206 807
1105 1203 926
1080 1202 1080
1107 1055 1346
1069 919 1431
1036 779 1514
1021 617 1621
1075 545 1706
1145 486 1788
1218 416 1874
1282 365 1942
1342 308 2000
1399 240 2052
1452 180 2099
1502 136 2142
1550 103 2186
1597 84 2229
1644 74 2273
1691 71 2318
1739 78 2365
1788 84 2414
1838 100 2466
1889 116 2519
1941 136 2574
1995 161 2632
1260 1358 928
1246 1356 1045
1212 1355 1199
1259 1241 1471
1222 1104 1567
1185 968 1644
1156 821 1732
1154 661 1843
1218 597 1928
1290 536 2013
1364 462 2099
1431 411 2169
1491 362 2228
1551 289 2282
1606 222 2331
1658 168 2377
1708 123 2421
1757 94 2465
1805 74 2510
1854 68 2555
1903 68 2603
1952 71 2652
2003 84 2703
2054 100 2756
2107 119 2811
1401 1510 1051
1386 1508 1165
1352 1508 1315
1422 1425 1582
1378 1291 1702
1340 1157 1782
1305 1018 1862
1283 863 1959
1299 721 2070
1368 655 2158
1442 590 2245
1517 516 2332
1585 460 2404
1647 422 2464
1709 345 2521
1767 273 2573
1821 209 2620
1873 155 2667
1924 110 2712
1974 84 2758
2024 68 2804
2074 61 2852
2125 61 2901
2176 68 2952
2228 81 3005
