Creative/ColorHarmony - Green Yellow Orange.3dl
#25pt 3DLUT created by 3D LUT Creator Pro (c) Oleg Sharonov
#Copyright Oleg Sharonov
#IMAGEPROFILE 
#INPUTGAMMA 
#OUTPUTGAMMA 
0 43 86 128 171 214 256 299 341 384 427 469 512 555 597 640 682 725 768 810 853 896 938 981 1023 
0 0 0
10 13 10
19 32 26
39 61 48
61 100 78
94 149 119
136 209 168
183 271 222
230 328 276
280 388 330
330 448 384
379 508 439
428 566 492
477 626 546
526 686 601
575 745 654
624 806 709
672 865 762
722 924 816
771 984 870
819 1043 924
868 1102 978
918 1162 1031
967 1221 1086
1016 1281 1139
26 161 23
45 171 45
74 180 81
97 203 110
126 235 145
161 271 186
201 314 235
240 360 278
280 408 322
324 458 370
367 510 417
411 564 467
457 618 516
501 673 566
548 729 617
594 785 668
641 842 720
689 899 772
735 957 824
783 1014 877
831 1071 929
879 1129 982
927 1188 1035
975 1246 1087
1023 1304 1141
61 326 52
68 336 68
107 339 110
158 347 168
195 367 209
230 393 250
264 423 291
299 458 334
339 497 379
379 538 427
419 584 470
457 630 513
499 680 559
541 730 605
584 782 653
627 835 701
671 888 750
716 941 798
761 995 849
807 1051 899
853 1106 950
899 1162 1001
946 1219 1052
993 1275 1103
1040 1332 1155
116 493 100
113 501 113
136 506 136
195 510 201
262 517 273
299 532 316
334 554 356
369 582 396
404 613 437
440 646 479
478 683 523
517 722 569
556 764 616
595 807 660
634 854 704
674 902 749
716 952 794
758 1002 840
800 1053 888
844 1105 935
888 1157 984
932 1211 1032
977 1265 1081
1022 1319 1131
1067 1374 1182
192 659 165
186 665 180
192 671 192
228 677 230
293 681 299
362 688 372
406 700 423
440 720 462
474 744 503
508 771 542
545 802 584
580 834 626
617 869 669
655 907 713
694 947 759
734 989 807
774 1033 853
812 1079 896
852 1126 940
892 1175 984
933 1223 1030
975 1273 1076
1018 1325 1123
1061 1376 1170
1104 1429 1218
269 826 238
267 830 257
262 836 262
282 842 282
324 848 328
391 851 399
460 857 472
512 868 531
545 885 570
579 907 610
614 932 649
649 960 689
684 990 730
720 1022 772
757 1057 815
794 1094 859
833 1133 904
871 1173 950
912 1214 998
952 1258 1044
990 1304 1087
1029 1350 1131
1069 1398 1175
1110 1446 1220
1151 1496 1265
347 992 310
349 995 334
339 1001 334
345 1006 345
370 1013 372
420 1018 425
489 1022 497
558 1027 572
616 1036 637
651 1053 677
686 1073 717
720 1095 756
754 1120 796
788 1148 836
823 1178 877
859 1211 919
896 1245 961
933 1281 1005
971 1318 1049
1010 1358 1095
1049 1398 1141
1089 1440 1188
1129 1483 1236
1168 1528 1279
1207 1574 1322
425 1159 384
425 1162 404
419 1166 408
417 1172 414
433 1178 431
462 1184 464
517 1188 523
587 1193 596
655 1197 671
716 1206 738
757 1220 784
791 1239 824
825 1260 863
859 1284 903
894 1310 942
928 1337 982
964 1368 1023
999 1399 1066
1036 1433 1108
1073 1468 1151
1110 1505 1195
1149 1543 1240
1187 1583 1286
1227 1624 1332
1267 1666 1379
504 1325 457
500 1327 474
501 1330 485
493 1336 486
499 1342 497
521 1349 521
554 1355 557
614 1359 622
684 1362 696
754 1368 771
815 1375 838
862 1387 891
897 1406 931
931 1426 971
965 1448 1010
999 1472 1049
1034 1498 1089
1068 1526 1129
1103 1556 1170
1139 1588 1212
1176 1621 1254
1212 1656 1297
1250 1692 1341
1287 1729 1385
1326 1768 1430
582 1491 530
577 1494 546
584 1495 563
572 1501 560
571 1507 568
584 1513 584
610 1519 611
649 1525 654
712 1529 720
782 1533 794
852 1538 869
914 1545 938
968 1556 999
1003 1573 1038
1037 1592 1077
1071 1613 1117
1105 1636 1156
1139 1661 1196
1174 1687 1236
1209 1715 1276
1244 1745 1317
1279 1777 1359
1315 1809 1401
1352 1844 1443
1389 1879 1487
660 1658 604
653 1660 617
661 1662 634
653 1666 636
647 1671 640
653 1678 651
671 1684 671
700 1690 701
745 1696 751
809 1700 818
880 1703 893
949 1708 969
1013 1715 1038
1072 1724 1104
1108 1740 1145
1143 1758 1185
1177 1778 1224
1211 1800 1263
1245 1824 1303
1279 1849 1342
1314 1876 1383
1349 1905 1423
1384 1934 1464
1419 1966 1505
1455 1998 1547
738 1825 677
730 1826 689
735 1828 704
735 1830 713
725 1836 713
725 1842 720
736 1849 735
759 1854 759
791 1861 794
842 1866 849
907 1870 917
977 1873 992
1047 1878 1067
1112 1884 1138
1171 1893 1204
1214 1907 1252
1248 1925 1292
1283 1944 1331
1317 1965 1371
1351 1988 1410
1385 2012 1449
1419 2038 1489
1454 2064 1529
1489 2093 1570
1524 2123 1611
816 1991 750
807 1993 761
811 1994 775
819 1996 792
806 2001 789
802 2007 793
807 2013 803
823 2019 822
849 2026 849
883 2032 887
938 2036 946
1004 2040 1015
1074 2043 1090
1145 2048 1167
1210 2055 1238
1271 2063 1304
1319 2075 1359
1354 2092 1399
1388 2111 1438
1423 2131 1478
1456 2152 1517
1491 2176 1556
1525 2200 1596
1559 2226 1636
1594 2254 1676
895 2157 823
885 2159 833
888 2160 846
896 2162 865
888 2166 865
880 2172 866
880 2178 874
890 2184 888
909 2190 909
938 2196 940
975 2203 981
1035 2207 1044
1101 2210 1113
1172 2214 1189
1243 2218 1265
1309 2225 1337
1370 2233 1405
1424 2243 1466
1459 2260 1506
1494 2278 1546
1528 2297 1585
1562 2318 1624
1596 2340 1663
1631 2364 1703
1665 2389 1743
973 2323 896
963 2325 906
965 2327 917
971 2328 934
970 2331 942
959 2337 941
956 2343 946
961 2349 957
975 2355 974
998 2361 998
1029 2367 1031
1071 2373 1078
1132 2377 1142
1198 2381 1212
1270 2384 1288
1341 2389 1364
1407 2395 1436
1469 2402 1504
1527 2412 1570
1565 2427 1613
1599 2445 1653
1634 2463 1692
1668 2483 1731
1702 2505 1770
1736 2528 1810
1051 2490 970
1040 2492 979
1041 2493 989
1047 2494 1004
1053 2496 1021
1040 2502 1017
1033 2507 1019
1034 2514 1027
1043 2520 1041
1061 2526 1061
1087 2532 1088
1120 2538 1124
1167 2543 1175
1229 2547 1240
1296 2551 1311
1368 2555 1387
1439 2559 1463
1505 2565 1536
1567 2572 1604
1626 2582 1670
1670 2595 1720
1705 2612 1760
1739 2630 1799
1774 2650 1838
1808 2671 1878
1129 2656 1043
1118 2658 1051
1118 2659 1061
1123 2660 1076
1133 2662 1095
1122 2667 1094
1113 2673 1094
1110 2678 1099
1115 2684 1110
1127 2691 1126
1149 2697 1149
1177 2703 1178
1212 2709 1217
1264 2714 1273
1326 2718 1338
1393 2722 1409
1465 2725 1486
1536 2729 1562
1603 2735 1635
1666 2742 1704
1726 2751 1770
1776 2763 1827
1811 2780 1867
1845 2797 1906
1880 2816 1946
1208 2822 1116
1196 2824 1123
1195 2825 1133
1199 2827 1146
1208 2828 1164
1205 2831 1171
1193 2837 1169
1187 2843 1172
1188 2849 1180
1197 2855 1193
1213 2861 1212
1237 2867 1237
1267 2873 1270
1304 2880 1310
1360 2884 1370
1423 2888 1436
1491 2892 1508
1562 2895 1584
1634 2899 1661
1701 2905 1734
1765 2912 1803
1825 2921 1870
1881 2931 1934
1916 2947 1974
1951 2964 2013
1286 2989 1189
1274 2991 1196
1273 2992 1205
1275 2993 1217
1283 2994 1235
1288 2996 1250
1274 3002 1246
1266 3008 1247
1264 3014 1252
1269 3020 1263
1280 3026 1278
1300 3032 1300
1326 3038 1327
1358 3044 1361
1397 3050 1405
1456 3055 1467
1520 3058 1535
1588 3062 1606
1660 3066 1683
1732 3070 1760
1799 3075 1833
1863 3082 1903
1924 3091 1970
1982 3100 2035
2022 3115 2081
1364 3155 1263
1352 3157 1269
1351 3158 1277
1352 3159 1289
1359 3161 1305
1369 3162 1325
1356 3167 1323
1346 3173 1322
1341 3179 1325
1343 3185 1333
1351 3191 1346
1365 3197 1364
1388 3203 1388
1416 3209 1417
1449 3215 1454
1493 3221 1502
1553 3225 1565
1618 3229 1633
1686 3233 1705
1758 3236 1782
1829 3240 1859
1897 3246 1932
1962 3252 2003
2023 3260 2070
2081 3269 2136
1442 3321 1336
1430 3323 1342
1428 3324 1349
1429 3325 1360
1434 3327 1375
1444 3328 1395
1439 3332 1400
1427 3337 1398
1420 3343 1399
1418 3349 1405
1423 3355 1416
1434 3361 1431
1451 3367 1451
1476 3374 1476
1506 3380 1508
1541 3386 1546
1589 3391 1599
1650 3395 1663
1715 3399 1731
1783 3403 1804
1855 3406 1881
1927 3410 1958
1995 3416 2031
2060 3422 2102
2121 3430 2170
1520 3488 1409
1508 3490 1415
1506 3491 1422
1506 3492 1432
1510 3493 1446
1519 3494 1465
1523 3497 1478
1509 3503 1474
1499 3508 1474
1495 3514 1478
1497 3520 1486
1504 3526 1499
1518 3532 1517
1539 3538 1538
1565 3545 1565
1596 3551 1599
1632 3557 1639
1685 3562 1696
1747 3566 1761
1812 3569 1829
1881 3573 1902
1953 3577 1979
2025 3581 2057
2093 3586 2130
2158 3593 2201
1599 3654 1482
1586 3656 1488
1583 3657 1495
1583 3658 1504
1587 3659 1518
1594 3661 1535
1606 3662 1556
1591 3667 1552
1580 3673 1550
1574 3679 1552
1573 3685 1559
1577 3691 1569
1587 3697 1584
1604 3703 1603
1627 3709 1627
1655 3716 1656
1687 3722 1691
1724 3728 1733
1782 3732 1794
1844 3736 1859
1909 3740 1928
1978 3744 2001
2051 3747 2078
2122 3751 2155
2191 3756 2229
1677 3821 1555
1664 3822 1561
1661 3823 1567
1661 3824 1576
1663 3825 1589
1670 3827 1605
1680 3828 1625
1674 3832 1629
1661 3838 1627
1653 3844 1627
1649 3850 1632
1651 3855 1640
1658 3862 1652
1671 3868 1669
1690 3874 1690
1715 3880 1715
1745 3886 1746
1778 3892 1783
1819 3898 1829
1878 3902 1891
1941 3906 1957
2007 3910 2026
2076 3914 2100
2148 3917 2177
2220 3921 2254
1755 3987 1629
1742 3989 1634
1739 3990 1640
1738 3991 1649
1740 3992 1661
1746 3993 1676
1755 3994 1695
1757 3997 1707
1743 4003 1703
1733 4009 1702
1727 4014 1705
1727 4020 1712
1731 4026 1722
1741 4032 1736
1756 4039 1755
1778 4045 1777
1804 4051 1804
1835 4057 1837
1870 4063 1876
1915 4069 1926
1975 4073 1988
2038 4077 2055
2104 4080 2125
2173 4084 2198
2246 4088 2276
152 3 0
116 29 36
90 55 74
107 84 113
123 123 155
145 180 192
171 235 230
217 291 276
264 349 326
308 403 374
356 462 427
403 518 477
449 577 528
499 635 582
546 693 632
594 752 686
642 811 738
690 869 791
738 928 844
787 988 897
835 1046 950
884 1105 1003
933 1164 1057
981 1223 1110
1030 1283 1163
145 177 19
171 171 171
155 195 174
165 222 192
183 255 217
209 291 245
240 332 282
276 376 322
314 423 363
352 471 408
393 521 452
436 573 500
479 627 548
523 681 596
569 735 647
614 791 696
661 848 748
707 904 798
753 961 850
801 1018 902
848 1075 953
895 1133 1006
942 1190 1058
990 1248 1110
1038 1306 1163
107 349 68
201 334 195
225 341 228
230 360 238
248 383 264
271 408 295
302 437 332
332 470 372
365 509 411
399 552 449
437 595 490
475 643 533
514 690 577
556 740 623
597 790 669
641 842 716
684 895 765
728 948 813
773 1003 862
818 1057 912
864 1113 963
909 1168 1013
956 1224 1064
1002 1280 1115
1049 1337 1167
161 508 110
243 499 233
250 505 250
291 510 295
320 523 330
341 543 358
369 566 391
398 592 427
430 622 465
464 656 506
499 692 548
536 730 593
572 773 634
609 817 675
647 863 718
687 910 762
727 959 807
768 1008 852
811 1060 899
853 1111 946
896 1163 994
940 1216 1043
984 1270 1091
1030 1324 1141
1074 1378 1190
235 669 177
295 663 280
293 670 293
316 677 316
369 681 374
409 692 420
440 708 457
468 727 490
499 751 527
530 778 565
563 809 604
597 841 645
633 877 688
670 914 733
709 954 777
746 995 822
783 1039 863
822 1086 906
861 1132 950
901 1180 994
942 1229 1039
983 1279 1084
1025 1329 1131
1068 1381 1178
1111 1433 1226
314 833 255
356 829 334
351 835 347
362 842 362
394 848 396
452 852 458
500 859 512
540 873 559
570 892 594
600 913 630
632 939 668
665 965 707
698 995 746
734 1028 788
770 1063 830
807 1099 874
844 1138 919
883 1177 964
922 1219 1011
959 1263 1053
997 1308 1095
1036 1355 1138
1076 1402 1182
1117 1451 1227
1157 1500 1273
393 997 334
420 995 391
417 999 408
417 1006 416
436 1013 437
478 1018 482
540 1022 547
593 1029 606
642 1039 662
672 1058 698
704 1078 735
735 1100 772
769 1126 811
802 1154 850
836 1184 891
871 1216 932
907 1250 974
944 1285 1017
981 1323 1061
1019 1362 1106
1058 1402 1153
1098 1444 1199
1136 1487 1243
1174 1532 1285
1212 1578 1328
468 1162 404
488 1161 452
489 1164 474
481 1171 475
490 1177 490
517 1184 518
565 1188 570
630 1192 639
687 1198 701
741 1208 762
776 1223 802
807 1243 840
840 1264 877
873 1288 916
906 1314 955
940 1341 994
975 1372 1035
1010 1403 1076
1045 1437 1118
1082 1472 1161
1119 1509 1205
1156 1547 1250
1195 1586 1295
1234 1627 1341
1274 1669 1389
542 1328 474
557 1327 517
557 1330 537
550 1336 541
552 1342 550
570 1348 570
601 1355 603
655 1359 661
721 1362 731
782 1368 798
838 1377 860
880 1391 908
912 1409 946
944 1429 983
977 1451 1022
1010 1476 1061
1044 1502 1099
1079 1530 1139
1113 1560 1180
1148 1591 1221
1184 1624 1263
1220 1659 1306
1257 1696 1350
1295 1732 1393
1333 1771 1439
618 1494 545
629 1493 583
626 1496 602
624 1500 611
619 1507 614
629 1513 628
652 1519 653
689 1525 693
747 1529 754
814 1533 826
877 1538 894
935 1546 958
983 1558 1013
1016 1575 1051
1049 1595 1090
1082 1616 1128
1115 1638 1166
1149 1663 1206
1183 1690 1245
1217 1718 1285
1252 1749 1325
1287 1780 1367
1323 1813 1409
1359 1847 1451
1396 1883 1495
694 1660 616
701 1660 650
697 1662 667
700 1665 682
691 1671 682
695 1677 692
710 1684 710
737 1690 738
779 1696 784
840 1699 849
908 1703 921
972 1709 990
1031 1716 1056
1087 1726 1119
1120 1742 1157
1154 1761 1196
1187 1781 1234
1220 1803 1273
1254 1826 1312
1287 1852 1351
1322 1879 1390
1356 1907 1431
1391 1937 1471
1426 1968 1512
1462 2001 1554
