Creative/ColorHarmony - Orange Teal (CMYK).3dl
#25pt 3DLUT created by 3D LUT Creator Pro (c) Oleg Sharonov
#Copyright Oleg Sharonov
#IMAGEPROFILE 
#INPUTGAMMA 
#OUTPUTGAMMA 
0 256 512 768 1023
0 0 0
3 192 977
0 434 1963
0 669 2967
0 902 3970
661 991 701
177 894 1081
74 1068 2026
0 1264 2982
0 1474 3952
1333 1993 1412
931 2008 1903
427 1789 2166
337 1958 3108
26 2140 4054
2004 2994 2124
1602 3007 2613
1150 2972 3054
680 2684 3250
909 2844 4095
2675 3995 2835
2273 4008 3324
1868 4022 3813
1344 3869 4095
1823 3526 4095
1008 90 0
658 409 670
815 679 1679
848 942 2762
792 1208 3895
1031 999 306
1024 1024 1024
1015 1239 1960
964 1439 2919
877 1652 3892
1700 1998 1017
1692 1993 1711
1254 1918 2091
1182 2106 3035
1102 2297 3982
2364 2993 1722
2354 2984 2412
1991 3009 2902
1417 2813 3176
1351 2993 4095
3032 3991 2430
3020 3981 3118
2645 4002 3608
2223 3979 4054
2059 3669 4095
2032 189 0
1749 632 890
1451 899 1480
1698 1213 2608
1824 1525 3846
2027 1081 280
1983 1222 1103
1695 1406 1709
1808 1679 2731
1854 1952 3821
2064 1999 613
2052 2015 1421
2048 2048 2048
2066 2290 2967
2030 2480 3920
2745 3013 1338
2726 3008 2080
2732 3007 2733
2358 2942 3102
2262 3145 4044
3404 4001 2038
3386 3994 2761
3386 3989 3426
3055 4018 3909
2665 3815 4095
3055 291 0
2873 777 967
2670 1175 1803
2442 1483 2493
2779 1858 3821
3035 1174 264
2997 1323 1103
2780 1655 1906
2559 1924 2591
2779 2273 3779
3057 2078 584
3026 2154 1399
2960 2349 2215
2776 2506 2788
2892 2779 3845
3097 2999 920
3084 3014 1726
3073 3032 2539
3071 3071 3071
3115 3342 3975
3794 4031 1662
3771 4026 2421
3757 4023 3149
3777 4024 3757
3464 3967 4095
4078 393 0
4029 885 999
3954 1358 1975
3866 1812 2924
3724 2203 3810
4049 1270 250
4017 1425 1105
3923 1840 2016
3827 2245 2907
3698 2611 3757
4057 2164 560
4022 2265 1388
3968 2446 2210
3871 2781 3013
3760 3097 3793
4089 3076 890
4063 3132 1702
4027 3226 2514
3938 3477 3329
3889 3651 3897
4095 3999 1228
4095 4014 2033
4095 4030 2843
4095 4049 3656
4095 4095 4095
