Creative/ColorHarmony - Orange Teal (CMYK-Toned).3dl
#25pt 3DLUT created by 3D LUT Creator Pro (c) Oleg Sharonov
#Copyright Oleg Sharonov
#IMAGEPROFILE sRGB IEC61966-2.1 v.2.10
#INPUTGAMMA sRGB IEC61966-2.1 v.2.10
#OUTPUTGAMMA sRGB IEC61966-2.1 v.2.10
0 43 86 128 171 214 256 299 341 384 427 469 512 555 597 640 682 725 768 810 853 896 938 981 1023 
113 0 0
149 0 39
149 13 142
149 42 293
152 74 449
161 103 618
165 132 793
152 165 946
149 203 1082
152 238 1214
161 269 1357
174 302 1498
186 336 1639
201 370 1774
214 406 1910
230 442 2047
245 478 2186
260 516 2324
271 554 2462
284 594 2603
295 635 2742
304 681 2879
306 730 3016
308 779 3154
308 828 3291
245 94 42
186 87 81
180 113 180
174 149 322
174 183 474
177 212 645
174 238 819
165 264 973
165 291 1107
171 322 1239
177 352 1379
186 383 1518
192 416 1658
201 451 1792
212 486 1926
222 522 2062
233 560 2199
240 600 2336
248 641 2473
248 686 2613
243 735 2751
240 783 2886
235 831 3022
230 880 3159
222 930 3294
337 235 145
291 243 195
225 225 225
214 260 356
206 289 505
201 318 676
195 339 850
189 362 1003
192 384 1136
192 412 1265
198 440 1404
201 471 1541
203 504 1678
209 538 1811
214 575 1944
217 612 2078
220 652 2214
212 698 2348
203 744 2484
192 792 2623
180 838 2760
168 887 2894
155 935 3027
152 979 3164
145 1024 3300
434 383 250
386 386 297
336 386 349
271 367 398
248 398 548
235 427 716
230 448 888
222 468 1039
222 489 1171
225 513 1298
225 541 1435
228 572 1570
225 604 1705
225 639 1837
220 679 1968
209 722 2099
198 766 2233
183 811 2366
165 856 2501
145 902 2638
132 946 2775
126 988 2907
116 1032 3038
103 1076 3175
90 1120 3310
536 536 341
484 537 389
430 546 458
354 541 535
278 509 590
269 543 755
262 565 925
255 584 1078
255 603 1207
257 626 1334
257 653 1470
252 685 1603
243 723 1735
230 761 1865
217 802 1995
203 842 2125
186 885 2257
168 926 2389
158 967 2522
142 1008 2659
123 1049 2795
110 1091 2923
97 1134 3054
78 1177 3189
55 1221 3324
642 702 439
584 701 492
521 713 570
451 741 678
374 702 739
306 660 793
295 687 963
287 708 1115
282 728 1244
278 753 1370
271 785 1505
262 819 1637
250 854 1768
238 891 1896
225 928 2024
217 963 2155
206 1000 2286
192 1038 2417
174 1077 2548
155 1117 2683
132 1157 2816
116 1198 2944
94 1240 3075
71 1282 3209
39 1327 3342
724 895 542
657 897 597
584 914 687
508 933 793
434 927 882
367 877 942
318 819 999
302 845 1152
297 868 1280
289 894 1406
282 924 1540
276 955 1671
271 984 1802
264 1015 1931
257 1047 2058
245 1082 2187
235 1117 2317
220 1154 2447
203 1192 2577
183 1230 2710
158 1269 2841
139 1308 2968
103 1351 3099
65 1396 3232
19 1441 3364
807 1084 658
731 1087 723
652 1097 800
572 1114 896
494 1130 999
416 1100 1074
354 1048 1134
318 987 1186
316 1006 1315
314 1028 1441
312 1055 1577
308 1083 1709
302 1111 1840
295 1141 1967
289 1172 2093
278 1204 2220
267 1238 2350
252 1273 2479
238 1309 2609
214 1348 2739
186 1388 2868
152 1429 2995
113 1471 3124
68 1515 3257
19 1559 3389
867 1275 796
781 1276 868
702 1287 946
627 1302 1027
556 1312 1103
481 1315 1197
409 1262 1263
370 1202 1307
349 1137 1351
347 1157 1477
343 1184 1613
339 1211 1747
334 1239 1878
326 1268 2005
320 1298 2130
314 1328 2256
302 1361 2385
284 1397 2514
262 1435 2642
238 1473 2770
209 1512 2898
177 1552 3024
132 1593 3153
84 1636 3286
32 1679 3417
917 1465 942
831 1466 1013
752 1476 1091
676 1487 1169
603 1498 1246
531 1508 1322
475 1476 1380
430 1413 1427
394 1352 1471
379 1287 1512
376 1313 1649
372 1340 1784
369 1367 1915
363 1395 2042
352 1426 2168
341 1459 2293
326 1493 2421
308 1528 2549
289 1565 2674
267 1600 2802
238 1638 2931
209 1677 3056
168 1716 3185
119 1757 3317
68 1798 3447
965 1652 1090
874 1654 1164
799 1662 1238
726 1671 1311
654 1682 1388
592 1694 1458
528 1702 1528
470 1647 1556
428 1582 1603
411 1514 1645
411 1444 1685
404 1472 1820
396 1500 1951
388 1530 2078
377 1561 2203
367 1592 2330
352 1626 2458
336 1661 2584
318 1694 2710
302 1727 2838
278 1763 2966
250 1800 3091
214 1839 3219
168 1879 3351
113 1919 3481
1009 1838 1243
917 1840 1317
840 1851 1390
777 1861 1456
717 1871 1521
655 1881 1590
588 1890 1660
517 1881 1714
464 1818 1733
434 1751 1778
423 1682 1820
428 1610 1855
422 1637 1986
412 1666 2113
404 1695 2239
394 1726 2366
384 1756 2494
370 1789 2619
358 1820 2745
339 1854 2874
316 1889 3002
291 1926 3127
260 1963 3255
220 2002 3386
165 2043 3515
1067 2025 1391
970 2028 1466
902 2038 1533
838 2049 1598
773 2060 1663
715 2071 1727
652 2079 1794
585 2087 1863
508 2055 1897
452 1995 1914
430 1926 1956
434 1850 1990
451 1773 2023
445 1799 2151
439 1827 2276
430 1856 2403
419 1887 2529
408 1917 2654
394 1948 2781
379 1981 2910
358 2015 3040
336 2051 3164
304 2089 3291
267 2128 3422
220 2167 3551
1142 2212 1531
1051 2216 1604
977 2225 1674
904 2234 1742
845 2245 1803
787 2257 1865
718 2267 1932
650 2275 1998
583 2277 2060
501 2227 2076
446 2167 2092
445 2087 2125
455 2011 2159
478 1932 2188
471 1960 2314
462 1988 2440
454 2018 2565
445 2045 2691
434 2075 2817
417 2108 2947
398 2143 3077
374 2179 3202
347 2216 3329
312 2255 3459
271 2294 3588
1225 2398 1670
1134 2404 1745
1064 2414 1812
995 2424 1878
927 2432 1941
861 2442 2003
793 2452 2067
725 2460 2130
653 2469 2196
578 2448 2236
501 2394 2249
442 2337 2262
452 2254 2292
477 2172 2323
505 2092 2351
497 2120 2476
492 2146 2603
482 2174 2728
471 2205 2855
455 2237 2984
436 2272 3114
414 2308 3239
388 2345 3366
356 2383 3495
314 2424 3624
1320 2584 1807
1232 2591 1880
1159 2601 1947
1087 2612 2010
1017 2620 2071
948 2628 2132
874 2636 2197
802 2645 2260
731 2653 2320
661 2660 2379
573 2618 2398
500 2562 2412
443 2505 2426
462 2420 2453
494 2336 2484
533 2251 2514
527 2276 2640
520 2304 2766
508 2335 2892
492 2368 3022
474 2402 3151
454 2438 3276
425 2477 3402
393 2516 3531
356 2556 3660
1422 2769 1941
1335 2777 2011
1260 2786 2078
1186 2794 2139
1114 2801 2200
1042 2810 2262
967 2819 2323
894 2827 2382
819 2833 2441
748 2841 2501
666 2834 2550
572 2785 2561
503 2728 2576
451 2671 2592
474 2585 2617
521 2493 2648
564 2407 2678
556 2435 2804
543 2466 2930
527 2500 3059
509 2536 3188
488 2572 3313
464 2610 3439
434 2648 3569
399 2687 3698
1523 2951 2073
1440 2958 2142
1366 2966 2205
1292 2973 2269
1218 2981 2330
1144 2988 2387
1069 2997 2445
995 3005 2505
918 3013 2565
842 3021 2626
764 3028 2687
670 3000 2717
572 2951 2729
505 2894 2743
460 2837 2758
478 2756 2781
533 2662 2812
591 2568 2841
578 2600 2967
563 2634 3096
546 2669 3226
525 2705 3351
501 2742 3478
475 2780 3607
442 2820 3736
1634 3128 2198
1552 3135 2267
1475 3142 2334
1400 3149 2394
1326 3157 2451
1251 3164 2509
1175 3172 2568
1099 3179 2629
1023 3188 2690
946 3197 2750
865 3205 2811
784 3212 2871
673 3165 2883
573 3117 2895
508 3061 2910
467 3003 2925
486 2926 2947
553 2828 2977
614 2734 3005
600 2768 3135
583 2803 3265
563 2838 3390
538 2877 3517
512 2914 3646
484 2951 3775
1748 3301 2323
1668 3309 2391
1591 3316 2454
1514 3323 2514
1438 3331 2574
1363 3338 2634
1286 3346 2694
1209 3353 2755
1132 3362 2815
1053 3370 2875
974 3379 2937
894 3388 2998
791 3376 3038
680 3330 3049
582 3282 3062
516 3228 3076
479 3169 3093
488 3099 3113
565 2999 3146
636 2902 3175
617 2938 3304
600 2972 3429
579 3008 3556
556 3044 3685
530 3081 3815
1881 3467 2447
1799 3474 2512
1723 3480 2574
1649 3487 2636
1574 3494 2699
1496 3502 2761
1417 3509 2822
1340 3518 2883
1263 3527 2943
1185 3536 3004
1105 3545 3066
1025 3554 3128
945 3561 3190
823 3531 3210
695 3492 3220
588 3448 3231
520 3395 3245
486 3336 3263
490 3272 3280
582 3167 3312
658 3069 3343
642 3103 3468
622 3139 3596
601 3174 3725
573 3213 3855
2041 3617 2568
1966 3621 2633
1886 3628 2698
1807 3635 2763
1734 3643 2827
1659 3650 2889
1587 3654 2952
1510 3663 3013
1433 3672 3075
1357 3681 3137
1279 3690 3200
1205 3696 3263
1127 3703 3325
1026 3707 3377
855 3685 3385
729 3645 3396
616 3605 3406
526 3563 3418
490 3507 3432
488 3448 3447
592 3340 3477
684 3234 3506
661 3272 3633
635 3311 3763
607 3350 3894
2246 3740 2692
2172 3744 2757
2098 3748 2823
2026 3752 2890
1948 3760 2958
1874 3765 3023
1803 3770 3086
1734 3775 3148
1666 3780 3211
1590 3788 3275
1518 3795 3339
1448 3801 3403
1376 3807 3466
1306 3813 3528
1165 3810 3559
981 3799 3566
789 3789 3573
651 3761 3581
558 3720 3592
512 3670 3605
496 3618 3617
595 3517 3643
696 3409 3672
674 3446 3803
648 3484 3935
2447 3863 2817
2376 3866 2883
2303 3870 2949
2230 3875 3018
2158 3878 3087
2090 3880 3153
2018 3884 3219
1947 3890 3283
1878 3895 3347
1813 3898 3411
1751 3901 3477
1684 3906 3541
1616 3912 3604
1548 3918 3667
1480 3923 3731
1310 3908 3741
1133 3896 3750
957 3885 3757
772 3881 3762
595 3877 3767
551 3826 3779
538 3773 3792
613 3686 3815
713 3580 3842
691 3617 3974
2640 3989 2942
2572 3991 3009
2501 3993 3078
2432 3996 3147
2364 3998 3217
2295 4001 3283
2227 4002 3350
2160 4005 3416
2092 4008 3482
2029 4011 3547
1967 4013 3613
1906 4016 3677
1847 4019 3741
1785 4023 3805
1722 4026 3870
1621 4021 3915
1453 4005 3925
1281 3993 3933
1114 3980 3941
942 3975 3947
777 3969 3953
652 3954 3959
583 3927 3968
644 3847 3988
743 3743 4015
257 0 0
233 6 13
240 39 103
248 71 201
248 107 362
257 142 528
267 177 711
252 212 876
240 250 1028
243 282 1164
252 314 1306
262 347 1456
271 381 1602
280 416 1744
293 452 1882
306 489 2021
316 527 2162
328 566 2303
337 607 2444
345 649 2589
345 697 2733
343 747 2872
341 797 3013
337 847 3153
334 898 3292
293 90 26
291 110 81
282 123 161
284 155 257
282 192 411
284 228 579
282 260 759
267 289 924
264 316 1071
267 347 1205
273 377 1346
280 409 1493
287 442 1635
293 475 1776
302 512 1911
310 550 2048
318 587 2186
326 628 2325
330 672 2464
326 720 2606
320 768 2748
316 817 2885
310 866 3024
306 916 3160
297 965 3297
404 243 107
377 238 180
326 233 214
322 257 299
312 295 443
304 332 612
299 358 789
289 383 953
284 408 1098
284 434 1231
289 465 1370
291 496 1514
295 530 1655
297 564 1794
302 601 1928
306 640 2064
302 684 2200
295 730 2338
289 777 2475
278 824 2616
267 872 2757
257 921 2893
245 970 3027
230 1019 3163
212 1068 3301
503 384 212
478 377 278
431 383 324
369 363 349
349 399 488
339 436 652
332 464 826
318 486 987
312 510 1131
312 536 1262
312 565 1400
312 596 1543
312 630 1681
308 667 1818
302 709 1951
293 752 2085
282 797 2219
271 842 2355
257 888 2491
240 935 2631
222 981 2771
201 1029 2905
186 1076 3036
171 1121 3172
155 1166 3310
609 537 299
583 530 367
530 533 417
474 532 472
388 509 528
374 548 693
363 577 865
349 600 1025
341 623 1168
339 647 1296
337 676 1434
332 713 1574
320 751 1711
308 790 1846
297 831 1977
287 872 2110
271 915 2243
255 959 2378
238 1003 2512
214 1049 2650
195 1091 2789
180 1134 2920
168 1178 3050
145 1222 3186
123 1267 3323
716 707 389
689 696 467
631 696 521
573 704 594
493 698 676
411 665 732
394 697 903
377 722 1062
365 748 1205
356 775 1332
347 808 1469
337 845 1607
326 881 1743
314 919 1876
302 957 2006
287 997 2138
269 1038 2271
257 1077 2404
243 1117 2537
225 1158 2674
203 1199 2809
186 1241 2938
165 1284 3070
132 1328 3204
87 1376 3340
802 895 493
777 885 576
713 888 631
642 899 710
566 917 814
482 879 880
417 830 939
393 860 1098
376 888 1241
367 914 1368
358 946 1504
349 980 1642
337 1015 1777
322 1050 1910
314 1084 2039
306 1119 2169
293 1155 2301
280 1193 2434
264 1231 2566
248 1271 2702
225 1311 2833
198 1354 2961
158 1399 3091
110 1445 3226
61 1492 3361
888 1086 604
861 1075 696
778 1076 766
701 1084 842
631 1099 922
551 1097 1008
468 1052 1073
408 1001 1132
391 1028 1275
381 1053 1403
370 1084 1540
365 1115 1678
358 1144 1814
351 1175 1947
343 1207 2074
334 1241 2203
322 1275 2334
310 1312 2466
293 1349 2597
264 1392 2729
235 1434 2858
203 1476 2986
161 1519 3115
110 1564 3250
55 1610 3385
967 1277 725
912 1266 841
828 1266 912
751 1275 990
679 1288 1067
610 1299 1143
531 1270 1196
452 1223 1261
411 1164 1310
406 1185 1438
401 1212 1576
394 1242 1715
388 1272 1852
379 1302 1984
372 1332 2111
365 1364 2239
349 1401 2368
328 1439 2500
306 1477 2630
280 1518 2757
252 1558 2886
220 1599 3014
177 1642 3144
123 1686 3278
55 1732 3412
1018 1465 873
962 1455 988
877 1456 1060
802 1463 1134
728 1474 1211
657 1485 1286
587 1489 1355
527 1433 1383
472 1375 1429
437 1315 1473
431 1341 1611
427 1371 1751
419 1400 1888
408 1431 2019
396 1464 2147
383 1498 2275
367 1533 2404
349 1570 2535
328 1607 2661
304 1645 2790
276 1684 2919
240 1725 3046
192 1769 3175
129 1814 3308
68 1856 3441
1068 1652 1020
1009 1642 1139
919 1643 1213
845 1651 1286
775 1660 1357
713 1671 1426
654 1682 1495
584 1663 1537
523 1603 1557
481 1540 1604
461 1473 1647
451 1504 1786
440 1535 1923
430 1566 2054
419 1598 2182
406 1631 2311
391 1666 2440
372 1702 2570
351 1739 2695
326 1776 2823
295 1815 2952
262 1855 3079
225 1895 3208
174 1935 3341
113 1977 3474
