Creative/ColorHarmony - Jungle.3dl
#25pt 3DLUT created by 3D LUT Creator Pro (c) Oleg Sharonov
#Copyright Oleg Sharonov
#IMAGEPROFILE sRGB IEC61966-2.1 v.2.10
#INPUTGAMMA sRGB IEC61966-2.1 v.2.10
#OUTPUTGAMMA sRGB IEC61966-2.1 v.2.10
0 43 86 128 171 214 256 299 341 384 427 469 512 555 597 640 682 725 768 810 853 896 938 981 1023 
0 0 0
6 14 32
13 31 71
26 58 132
45 95 212
68 139 291
94 196 376
129 251 458
168 305 539
212 362 622
255 416 703
297 472 786
339 528 868
381 583 950
424 639 1032
465 695 1114
508 752 1197
551 807 1278
593 863 1360
636 919 1443
677 975 1525
720 1030 1607
762 1086 1689
804 1142 1771
847 1198 1853
0 162 98
10 168 168
39 167 269
58 189 322
84 217 377
107 251 436
139 291 499
174 334 566
212 378 633
248 425 705
287 473 778
326 524 854
365 574 929
406 626 1006
446 678 1083
486 731 1161
527 784 1239
569 837 1319
610 891 1398
651 945 1478
693 999 1558
734 1053 1638
775 1108 1718
817 1163 1799
859 1218 1879
0 324 218
0 334 237
26 336 336
78 327 452
110 342 510
145 365 566
183 394 622
217 425 678
252 461 739
289 501 803
324 542 867
362 586 933
398 633 1005
436 679 1075
474 728 1147
513 776 1221
552 826 1295
591 877 1370
631 927 1446
671 979 1523
711 1031 1600
752 1084 1678
792 1137 1756
833 1190 1834
874 1243 1913
3 492 350
10 497 362
0 507 380
48 506 504
139 490 638
177 500 699
220 519 753
260 542 808
297 571 865
334 600 920
369 636 981
404 673 1041
439 712 1103
475 753 1168
512 796 1235
548 841 1303
586 887 1373
623 933 1443
661 981 1515
699 1030 1588
738 1079 1662
778 1129 1736
817 1179 1811
856 1230 1887
896 1282 1963
4 657 480
7 662 489
7 668 502
0 678 525
81 676 672
212 654 821
253 662 886
295 678 944
336 698 998
376 721 1051
412 748 1108
449 778 1164
484 811 1222
520 847 1281
555 884 1342
590 924 1406
626 965 1471
662 1007 1536
699 1051 1604
736 1096 1673
773 1142 1742
811 1189 1813
849 1236 1884
887 1285 1957
925 1333 2030
4 824 611
7 827 618
20 831 627
0 840 644
0 850 669
119 845 842
289 817 1002
326 824 1073
369 837 1132
411 854 1187
451 875 1240
491 899 1295
527 926 1350
564 956 1407
600 988 1464
635 1022 1523
670 1058 1584
705 1096 1645
741 1136 1708
777 1177 1773
813 1219 1838
850 1262 1905
886 1306 1973
923 1351 2042
960 1397 2112
7 989 741
7 993 747
17 996 755
26 1002 767
0 1011 787
0 1022 813
171 1015 1011
367 981 1184
400 988 1258
442 998 1320
486 1013 1377
527 1031 1430
567 1053 1483
605 1077 1538
643 1104 1594
679 1133 1650
716 1165 1707
751 1198 1765
786 1233 1825
821 1270 1886
856 1308 1947
892 1348 2011
928 1388 2075
964 1430 2140
1000 1473 2207
10 1156 872
10 1159 877
13 1162 884
39 1166 894
7 1174 909
1 1183 931
1 1194 959
228 1185 1181
436 1148 1358
475 1151 1441
516 1160 1506
559 1173 1565
602 1190 1620
643 1209 1673
682 1231 1727
721 1255 1782
759 1282 1837
795 1311 1893
831 1342 1950
866 1374 2008
902 1409 2067
937 1445 2127
972 1482 2188
1007 1520 2250
1043 1560 2313
14 1321 1003
10 1324 1007
14 1326 1012
30 1330 1021
62 1335 1034
1 1346 1052
1 1355 1075
13 1365 1112
280 1354 1349
496 1317 1526
551 1314 1625
590 1322 1692
633 1334 1753
676 1349 1809
718 1367 1863
759 1387 1916
798 1409 1970
836 1434 2025
874 1460 2080
910 1489 2136
946 1519 2193
981 1551 2250
1017 1585 2309
1053 1620 2368
1088 1656 2429
17 1487 1134
14 1489 1137
17 1492 1142
27 1495 1149
62 1499 1160
39 1507 1175
1 1517 1195
1 1527 1219
49 1535 1275
336 1523 1518
553 1486 1694
626 1478 1807
663 1485 1877
706 1496 1939
750 1509 1998
793 1525 2053
834 1544 2106
874 1565 2159
913 1588 2214
951 1612 2269
989 1639 2324
1026 1667 2380
1062 1697 2436
1097 1729 2493
1133 1761 2551
20 1654 1265
17 1655 1267
20 1658 1272
27 1660 1278
52 1664 1287
111 1669 1300
10 1679 1317
1 1688 1338
1 1699 1364
97 1704 1440
389 1693 1687
611 1656 1862
703 1642 1990
738 1649 2061
779 1658 2126
823 1670 2185
866 1685 2241
909 1702 2296
949 1722 2349
989 1743 2402
1028 1766 2457
1067 1791 2512
1104 1817 2567
1141 1845 2623
1177 1875 2679
23 1820 1395
23 1821 1398
23 1823 1402
27 1826 1407
46 1829 1416
91 1833 1427
88 1841 1441
1 1850 1459
1 1860 1482
1 1870 1509
156 1874 1604
443 1862 1856
668 1825 2030
780 1806 2171
813 1812 2245
853 1820 2311
897 1831 2372
940 1845 2430
983 1861 2485
1024 1879 2539
1065 1899 2591
1104 1921 2645
1144 1944 2700
1182 1969 2755
1219 1995 2810
30 1985 1526
27 1987 1528
27 1988 1532
30 1991 1537
43 1995 1544
78 1999 1554
153 2003 1567
49 2012 1583
1 2022 1602
1 2032 1626
1 2042 1654
218 2043 1769
497 2031 2025
726 1994 2199
857 1970 2353
888 1975 2428
927 1983 2496
970 1993 2559
1014 2006 2618
1057 2021 2674
1099 2038 2728
1140 2056 2782
1180 2077 2834
1220 2099 2888
1259 2122 2944
33 2151 1657
33 2153 1659
30 2154 1662
33 2157 1667
43 2160 1673
72 2164 1682
130 2167 1693
153 2174 1707
7 2185 1724
1 2193 1746
1 2204 1771
1 2215 1799
281 2213 1935
552 2201 2194
782 2164 2367
935 2134 2534
964 2139 2611
1002 2146 2681
1043 2156 2745
1087 2167 2805
1130 2181 2862
1173 2197 2917
1215 2215 2971
1256 2234 3025
1295 2255 3077
40 2317 1788
37 2318 1790
37 2320 1793
37 2322 1797
46 2325 1802
69 2329 1810
114 2333 1820
199 2337 1833
111 2346 1848
1 2356 1867
1 2365 1890
1 2375 1915
1 2386 1944
340 2382 2101
606 2370 2363
839 2333 2536
1013 2298 2716
1040 2303 2794
1076 2309 2865
1117 2318 2930
1160 2329 2991
1204 2342 3050
1247 2356 3106
1289 2373 3161
1331 2391 3214
46 2483 1919
43 2484 1921
43 2486 1923
43 2488 1927
50 2491 1932
66 2494 1939
104 2498 1948
175 2502 1960
231 2507 1974
59 2518 1990
1 2527 2010
1 2537 2034
1 2547 2060
1 2559 2089
398 2552 2266
661 2540 2532
894 2503 2705
1079 2466 2888
1116 2467 2976
1151 2473 3049
1191 2481 3115
1234 2491 3178
1277 2503 3238
1321 2517 3295
1363 2533 3350
53 2649 2050
53 2650 2051
50 2652 2053
50 2654 2057
53 2656 2062
66 2659 2068
98 2663 2077
156 2667 2087
244 2671 2100
187 2679 2114
4 2690 2132
1 2699 2154
1 2708 2178
1 2719 2204
1 2731 2235
456 2722 2432
715 2709 2701
950 2672 2873
1139 2635 3056
1193 2631 3159
1226 2637 3232
1265 2644 3300
1307 2654 3364
1350 2665 3424
1394 2678 3483
63 2815 2180
59 2816 2182
56 2817 2184
56 2819 2187
59 2821 2191
69 2825 2198
95 2828 2205
143 2832 2215
224 2836 2226
309 2840 2240
130 2851 2256
1 2861 2275
1 2870 2297
1 2880 2322
1 2891 2349
46 2901 2391
514 2891 2599
769 2878 2869
1006 2841 3042
1198 2804 3224
1270 2795 3340
1302 2800 3415
1340 2807 3484
1381 2816 3549
1424 2827 3611
69 2981 2311
66 2982 2312
66 2983 2314
63 2985 2318
63 2987 2322
72 2990 2327
95 2993 2334
137 2997 2343
205 3001 2353
292 3005 2366
270 3012 2381
66 3023 2398
1 3033 2418
1 3042 2441
1 3052 2466
1 3063 2494
130 3071 2555
571 3060 2765
824 3048 3038
1062 3011 3211
1256 2974 3391
1347 2959 3522
1378 2964 3598
1414 2970 3669
1455 2979 3735
79 3147 2442
76 3148 2443
72 3149 2445
72 3151 2448
72 3153 2452
79 3155 2457
95 3158 2464
131 3162 2471
191 3166 2481
270 3170 2493
365 3174 2506
218 3184 2522
1 3195 2540
1 3204 2561
1 3214 2585
1 3224 2611
1 3235 2639
224 3241 2719
628 3230 2931
878 3217 3207
1117 3180 3380
1314 3143 3559
1425 3123 3704
1453 3128 3781
1489 3134 3852
89 3313 2573
85 3314 2574
82 3315 2575
79 3316 2578
79 3318 2582
85 3321 2587
98 3324 2593
127 3327 2600
179 3331 2609
252 3335 2620
339 3339 2632
348 3345 2647
150 3357 2663
1 3366 2683
1 3375 2705
1 3385 2729
1 3395 2755
1 3407 2784
305 3410 2883
684 3399 3098
932 3386 3376
1173 3350 3549
1372 3312 3727
1502 3287 3885
1748 3276 3900
98 3479 2704
95 3480 2705
92 3481 2706
89 3482 2709
89 3484 2712
92 3486 2717
102 3489 2722
128 3492 2729
173 3496 2738
237 3500 2748
318 3504 2759
411 3508 2773
303 3518 2788
73 3529 2805
2 3538 2826
2 3547 2849
1 3557 2873
1 3567 2900
1 3579 2930
379 3579 3047
740 3569 3264
986 3556 3545
1228 3519 3718
1429 3482 3895
2093 3411 3915
108 3645 2834
108 3646 2835
105 3647 2837
102 3648 2839
99 3650 2842
99 3652 2847
108 3655 2852
131 3658 2859
170 3661 2866
227 3665 2876
299 3669 2887
386 3673 2899
427 3679 2913
247 3690 2929
2 3701 2948
2 3709 2969
2 3719 2993
2 3728 3018
2 3739 3045
2 3751 3075
448 3749 3212
796 3738 3431
1041 3725 3714
1283 3689 3887
2092 3600 3937
121 3811 2965
118 3812 2966
115 3812 2968
112 3814 2970
108 3815 2973
108 3817 2977
115 3820 2982
134 3823 2988
166 3826 2995
219 3830 3004
284 3834 3014
365 3838 3026
457 3842 3039
386 3851 3054
170 3862 3071
2 3872 3090
2 3881 3113
2 3890 3136
2 3900 3162
2 3911 3190
2 3923 3220
516 3919 3377
852 3907 3597
1095 3895 3883
2020 3801 3965
134 3977 3096
131 3978 3097
128 3978 3098
125 3980 3100
121 3981 3103
121 3983 3107
125 3986 3112
137 3988 3117
166 3992 3124
213 3995 3132
273 3999 3142
347 4003 3153
433 4007 3166
504 4012 3180
335 4023 3195
73 4034 3213
2 4043 3234
2 4052 3256
2 4062 3281
2 4072 3307
2 4083 3335
2 4095 3365
1110 4066 3544
1614 4031 3747
1962 3999 3989
168 26 15
126 32 115
74 61 171
68 92 243
77 128 295
100 173 363
126 221 430
158 273 504
198 327 580
235 378 655
276 432 735
314 486 813
354 539 892
396 595 973
437 649 1052
478 705 1133
520 760 1214
561 815 1294
602 870 1375
645 926 1457
686 981 1537
727 1036 1619
770 1092 1700
812 1147 1782
853 1203 1863
100 186 53
171 171 171
152 182 262
149 205 332
155 236 394
171 269 454
195 307 518
222 348 584
252 394 653
285 438 721
318 485 793
354 535 867
391 584 942
428 635 1017
467 687 1094
505 738 1171
546 792 1250
585 844 1327
625 898 1406
665 952 1486
705 1005 1565
746 1059 1645
787 1113 1725
828 1168 1805
866 1222 1889
26 353 213
165 332 266
183 339 339
198 337 446
206 354 513
222 377 572
245 404 631
269 436 689
295 473 751
326 512 814
356 553 879
389 596 946
424 641 1015
460 687 1085
496 735 1157
532 783 1230
570 833 1304
608 884 1379
646 934 1454
685 985 1530
725 1037 1608
764 1089 1685
804 1142 1762
844 1195 1840
881 1248 1923
16 509 360
165 497 384
165 505 400
203 508 505
252 496 630
267 509 698
289 529 757
316 551 814
343 578 871
372 610 929
403 644 988
433 680 1049
465 720 1113
499 761 1177
534 804 1244
568 848 1312
603 893 1380
640 939 1450
677 988 1523
714 1036 1595
752 1084 1668
790 1134 1742
828 1184 1817
867 1235 1893
902 1286 1973
13 671 487
165 661 506
174 666 519
159 677 539
230 677 673
310 658 815
330 668 885
356 683 943
386 704 999
417 728 1057
448 755 1113
480 784 1169
512 818 1229
544 853 1288
577 891 1350
610 930 1413
644 971 1477
679 1013 1543
715 1057 1610
750 1101 1678
786 1146 1748
823 1193 1818
860 1241 1889
898 1289 1962
931 1337 2039
13 835 617
165 827 631
171 831 641
168 839 657
155 850 681
260 847 843
372 820 997
395 829 1070
425 842 1132
457 859 1187
491 881 1243
524 904 1298
557 931 1354
590 960 1411
622 993 1469
655 1026 1528
689 1063 1589
723 1101 1650
757 1140 1713
791 1181 1778
826 1223 1843
862 1266 1910
898 1310 1978
934 1355 2046
966 1401 2120
13 999 746
168 992 758
171 996 766
195 1000 779
152 1012 797
155 1023 823
295 1016 1012
439 983 1180
461 991 1255
492 1002 1319
527 1017 1377
563 1035 1431
598 1058 1486
632 1082 1542
667 1108 1598
701 1138 1654
735 1169 1711
768 1202 1769
802 1237 1829
836 1274 1890
870 1312 1951
905 1351 2014
940 1392 2079
975 1433 2144
1006 1476 2215
13 1163 876
168 1158 887
172 1161 893
187 1166 903
184 1173 918
136 1184 938
162 1194 966
334 1185 1181
505 1148 1359
529 1153 1438
562 1163 1505
598 1177 1564
635 1193 1620
671 1213 1674
708 1235 1729
744 1259 1784
778 1286 1841
813 1315 1896
847 1346 1953
881 1378 2011
916 1412 2070
950 1448 2130
984 1485 2191
1019 1523 2253
1049 1563 2321
17 1328 1007
172 1323 1015
172 1326 1021
184 1331 1029
218 1335 1042
162 1345 1059
123 1356 1081
175 1365 1113
376 1354 1350
558 1318 1527
599 1316 1622
631 1325 1690
668 1337 1752
707 1352 1809
745 1369 1863
782 1390 1917
819 1412 1972
856 1437 2027
891 1464 2083
926 1492 2139
961 1522 2195
995 1554 2254
1030 1588 2312
1064 1622 2371
1093 1660 2436
20 1494 1137
175 1490 1144
175 1492 1149
181 1496 1156
207 1500 1167
212 1506 1182
136 1518 1201
110 1529 1225
207 1535 1276
420 1524 1518
610 1487 1695
670 1480 1805
701 1487 1875
739 1498 1938
779 1511 1997
817 1528 2053
856 1547 2106
894 1568 2160
932 1590 2215
968 1615 2270
1004 1642 2326
1040 1670 2382
1075 1700 2439
1109 1731 2496
1138 1765 2559
23 1659 1267
178 1655 1274
178 1658 1278
181 1661 1285
201 1665 1294
243 1669 1306
184 1679 1323
107 1690 1343
101 1700 1369
243 1705 1441
465 1693 1688
662 1656 1863
742 1644 1987
773 1650 2060
810 1660 2125
850 1672 2185
890 1687 2241
929 1704 2296
968 1724 2350
1006 1745 2403
1044 1768 2459
1081 1793 2514
1117 1820 2569
1153 1848 2625
1182 1878 2686
