Creative/ColorHarmony - Green Yellow Orange.3dl
#25pt 3DLUT created by 3D LUT Creator Pro (c) Oleg Sharonov
#Copyright Oleg Sharonov
#IMAGEPROFILE 
#INPUTGAMMA 
#OUTPUTGAMMA 
0 256 512 768 1023
0 0 0
136 209 168
428 566 492
722 924 816
1016 1281 1139
347 992 310
489 1022 497
754 1120 796
971 1318 1049
1207 1574 1322
816 1991 750
807 2013 803
1074 2043 1090
1388 2111 1438
1594 2254 1676
1286 2989 1189
1274 3002 1246
1326 3038 1327
1660 3066 1683
2022 3115 2081
1755 3987 1629
1755 3994 1695
1731 4026 1722
1870 4063 1876
2246 4088 2276
979 68 0
840 377 414
801 688 813
921 1015 1064
1129 1353 1314
942 1040 289
1024 1024 1024
998 1180 1081
1128 1379 1245
1321 1628 1462
977 2039 798
1237 2007 1206
1384 2045 1393
1524 2140 1572
1689 2286 1776
1426 3013 1243
1568 2999 1500
1586 3037 1586
1860 3066 1878
2118 3131 2175
1892 3998 1694
1959 3994 1855
1939 4024 1926
2050 4063 2053
2388 4088 2414
1966 264 0
2054 220 220
1715 874 939
1546 1216 1405
1642 1498 1711
2048 1024 0
2026 1041 995
1866 1250 1290
1770 1476 1671
1764 1737 1923
1899 2078 711
1936 2070 1213
2048 2048 2048
1962 2201 2067
2016 2363 2174
1646 3111 1324
1814 3090 1593
2225 3029 2196
2371 3068 2379
2409 3178 2460
2038 4070 1713
2171 4055 1921
2488 4016 2425
2526 4062 2526
2782 4090 2801
2953 484 0
3049 324 271
3062 627 675
2588 1368 1463
2301 1752 2023
3072 1023 0
3021 1086 957
3071 1164 1176
2696 1611 1690
2456 1925 2193
3071 2048 0
3071 2048 1023
3053 2059 2022
2902 2232 2272
2824 2404 2649
2856 3115 1132
2878 3111 1485
2948 3096 2216
3071 3071 3071
2956 3225 3079
2677 4095 2375
2716 4095 2438
2807 4095 2593
3233 4051 3205
3378 4092 3387
3940 703 0
4032 520 332
4095 580 580
4054 1044 1155
3461 1863 1987
4058 1084 0
4016 1156 902
4095 1158 1156
4067 1412 1479
3541 2035 2147
4095 2047 0
4095 2047 1024
4052 2084 1990
4091 2169 2185
3729 2516 2597
4095 3071 0
4095 3071 1024
4095 3071 2048
4079 3081 3046
3933 3239 3279
3842 4095 2304
3857 4095 2463
3894 4095 2755
3974 4095 3346
4095 4095 4095
