Creative/Contrast - Hue twist.3dl
#25pt 3DLUT created by 3D LUT Creator Pro (c) Oleg Sharonov
#Copyright Oleg Sharonov
#IMAGEPROFILE sRGB IEC61966-2.1 v.2.10
#INPUTGAMMA sRGB IEC61966-2.1 v.2.10
#OUTPUTGAMMA sRGB IEC61966-2.1 v.2.10
0 128 256 384 512 640 768 896 1023
0 0 0
6 10 488
0 6 1025
0 3 1597
0 0 2165
0 0 2694
0 0 3188
0 0 3655
0 116 4093
6 486 6
10 489 493
0 462 1039
0 425 1615
0 398 2180
0 376 2706
0 351 3197
0 356 3661
6 475 4095
6 1004 6
6 1010 484
3 986 1044
0 933 1638
0 895 2206
0 884 2726
0 888 3210
0 909 3668
23 979 4095
0 1554 0
0 1565 452
0 1562 1013
0 1518 1632
0 1478 2215
0 1470 2735
0 1486 3213
0 1517 3665
0 1576 4090
0 2131 0
0 2143 416
0 2153 967
0 2132 1595
0 2105 2194
0 2106 2719
0 2132 3195
0 2172 3642
0 2228 4064
0 2707 0
0 2718 360
0 2732 924
0 2726 1558
0 2713 2168
0 2724 2698
0 2759 3173
0 2806 3619
0 2860 4039
0 3261 0
0 3270 214
0 3282 874
0 3282 1530
0 3278 2154
0 3294 2692
0 3333 3169
0 3382 3614
0 3433 4033
0 3785 0
0 3792 0
0 3801 805
0 3802 1507
0 3801 2152
0 3820 2699
0 3859 3181
0 3905 3627
0 3948 4046
0 4095 0
10 4095 465
0 4095 1030
0 4075 1680
0 4050 2308
0 4043 2840
0 4054 3300
0 4075 3716
0 4095 4095
471 74 3
482 78 482
462 71 1031
423 55 1611
394 29 2178
367 0 2704
336 0 3196
339 0 3660
462 87 4095
499 479 10
497 479 497
472 455 1050
431 417 1631
399 389 2195
369 367 2717
337 336 3205
343 343 3665
471 471 4095
475 1023 3
478 1029 478
468 1011 1041
436 961 1642
401 924 2213
365 912 2732
328 914 3214
334 936 3670
471 1006 4095
443 1581 0
448 1591 448
448 1590 1008
427 1550 1629
389 1511 2215
336 1504 2735
273 1519 3213
267 1550 3663
431 1608 4087
409 2155 0
412 2168 412
412 2178 963
391 2159 1592
330 2133 2192
209 2134 2718
29 2160 3193
0 2200 3640
203 2255 4061
352 2726 0
352 2737 352
345 2751 921
291 2745 1556
113 2732 2167
0 2743 2698
0 2778 3173
0 2824 3619
0 2878 4038
203 3274 0
198 3283 198
158 3295 871
0 3295 1530
0 3290 2155
0 3307 2692
0 3344 3170
0 3392 3615
0 3443 4034
0 3792 0
0 3798 0
0 3807 803
0 3807 1508
0 3806 2154
0 3825 2702
0 3862 3183
0 3907 3629
0 3949 4048
465 4095 10
471 4095 471
465 4095 1032
386 4077 1682
65 4052 2309
0 4045 2842
0 4056 3301
0 4076 3717
484 4095 4095
1024 16 0
1036 19 465
1025 19 1025
977 13 1624
941 0 2196
931 0 2718
936 0 3203
959 0 3662
1028 65 4093
1070 318 6
1074 316 488
1050 306 1050
994 280 1649
953 250 2218
940 209 2735
942 145 3217
966 155 3672
1037 352 4095
1027 1025 0
1033 1032 464
1026 1026 1026
988 986 1641
951 950 2220
935 936 2738
935 934 3217
956 954 3669
1029 1025 4094
985 1612 0
992 1622 437
994 1625 994
971 1596 1619
940 1561 2211
918 1554 2733
908 1567 3209
922 1597 3657
998 1654 4079
944 2192 0
950 2203 401
954 2214 954
939 2199 1583
905 2177 2187
866 2179 2713
832 2203 3189
826 2241 3635
901 2295 4055
910 2754 0
913 2764 332
914 2777 914
891 2772 1551
835 2761 2165
751 2771 2697
655 2803 3172
591 2847 3617
660 2900 4036
866 3292 0
867 3300 145
859 3311 859
815 3310 1525
705 3305 2154
510 3321 2694
161 3356 3172
0 3402 3617
0 3450 4036
800 3804 0
799 3811 0
782 3819 782
700 3820 1498
474 3819 2149
0 3836 2699
0 3872 3183
0 3914 3630
0 3955 4049
1030 4095 0
1032 4095 465
1028 4094 1028
991 4076 1678
893 4053 2307
755 4046 2840
648 4057 3300
707 4076 3717
1027 4095 4095
1597 3 0
1614 3 425
1624 3 977
1597 0 1597
1566 0 2186
1565 0 2711
1586 0 3193
1621 0 3647
1680 0 4075
1640 192 0
1652 198 440
1655 198 997
1619 180 1619
1582 123 2206
1577 23 2728
1595 0 3206
1629 0 3658
1688 119 4082
1637 939 0
1647 946 437
1650 946 994
1619 925 1619
1585 894 2212
1577 868 2734
1592 854 3210
1624 864 3658
1684 935 4080
1597 1597 0
1606 1606 414
1613 1613 967
1596 1596 1596
1569 1569 2196
1560 1559 2722
1568 1567 3197
1595 1592 3643
1652 1646 4063
1563 2193 0
1570 2202 374
1577 2213 934
1567 2203 1567
1542 2186 2175
1525 2186 2704
1520 2205 3179
1534 2239 3624
1585 2290 4044
1545 2749 0
1549 2758 278
1553 2769 894
1540 2766 1540
1506 2755 2159
1469 2763 2693
1439 2790 3170
1429 2829 3614
1470 2877 4033
1534 3276 0
1537 3283 23
1536 3293 832
1513 3292 1513
1459 3287 2149
1388 3299 2692
1317 3329 3172
1270 3369 3618
1294 3413 4038
1522 3783 0
1523 3789 0
1517 3797 738
1479 3797 1479
1393 3796 2138
1271 3812 2694
1136 3844 3181
1025 3883 3630
1034 3920 4052
1678 4078 0
1680 4080 379
1677 4079 988
1649 4065 1649
1585 4048 2282
1508 4045 2820
1454 4057 3285
1468 4076 3707
1620 4094 4090
2166 0 0
2181 0 394
2197 0 942
2187 0 1567
2168 0 2168
2176 0 2696
2207 0 3175
2251 0 3625
2308 0 4050
2198 132 0
2210 136 406
2223 129 955
2207 90 1582
2184 0 2184
2188 0 2710
2217 0 3187
2259 0 3635
2316 0 4057
2212 868 0
2222 872 406
2232 875 959
2216 861 1588
2192 827 2192
2193 784 2717
2218 742 3192
2257 731 3637
2313 807 4057
2183 1578 0
2192 1585 374
2203 1592 934
2194 1581 1567
2175 1557 2175
2176 1540 2704
2195 1535 3179
2230 1548 3624
2282 1596 4044
2168 2168 0
2175 2175 308
2184 2184 903
2178 2178 1545
2161 2161 2161
2155 2154 2694
2165 2164 3170
2189 2187 3615
2235 2231 4034
2169 2711 0
2174 2718 139
2180 2727 855
2171 2723 1520
2148 2712 2148
2130 2713 2688
2123 2730 3167
2131 2759 3613
2167 2801 4033
2181 3225 0
2185 3231 0
2187 3238 779
2173 3236 1491
2138 3229 2138
2100 3235 2688
2071 3257 3172
2057 3287 3621
2080 3325 4042
2196 3724 0
2198 3729 0
2196 3735 664
2173 3735 1450
2122 3732 2122
2059 3744 2685
1998 3768 3177
1957 3799 3631
1968 3830 4057
2307 4052 0
2308 4055 45
2305 4055 888
2282 4047 1585
2232 4037 2232
2175 4038 2780
2132 4052 3256
2128 4071 3689
2208 4088 4085
2683 264 0
2694 264 360
2707 255 925
2701 192 1558
2688 0 2169
2699 0 2699
2733 0 3174
2779 0 3619
2835 0 4039
2698 494 0
2708 496 363
2720 492 931
2712 458 1565
2697 360 2176
2705 136 2705
2738 0 3180
2783 0 3624
2837 0 4042
2691 1100 0
2701 1104 339
2713 1106 919
2707 1088 1557
2693 1044 2170
2702 986 2702
2732 927 3177
2774 894 3621
2827 946 4039
2683 1673 0
2692 1677 280
2702 1683 894
2699 1670 1540
2687 1642 2159
2693 1612 2693
2718 1590 3170
2756 1586 3615
2804 1625 4034
2688 2200 0
2694 2205 136
2703 2211 854
2699 2203 1520
2687 2182 2148
2688 2165 2688
2704 2159 3167
2733 2168 3613
2775 2203 4033
2705 2705 0
2710 2710 0
2717 2716 792
2710 2710 1493
2694 2694 2137
2685 2685 2685
2689 2688 3168
2704 2704 3617
2737 2736 4039
2733 3193 0
2737 3197 0
2740 3203 698
2729 3199 1459
2705 3187 2124
2683 3184 2683
2670 3194 3172
2670 3213 3625
2692 3241 4051
2766 3669 0
2768 3673 0
2768 3678 578
2752 3675 1421
2717 3669 2108
2679 3672 2679
2647 3687 3176
2628 3707 3635
2641 3730 4064
2844 4033 0
2846 4035 0
2844 4037 776
2825 4031 1523
2786 4025 2185
2743 4028 2743
2709 4040 3229
2700 4056 3675
2746 4071 4083
3134 861 0
3142 862 262
3152 859 895
3148 827 1548
3138 742 2171
3149 602 2706
3181 414 3181
3225 220 3624
3275 337 4040
3130 1077 0
3138 1077 235
3148 1077 885
3145 1048 1542
3135 982 2166
3147 883 2703
3179 769 3179
3222 685 3622
3271 735 4038
3118 1481 0
3126 1484 136
3137 1484 856
3135 1464 1523
3129 1415 2152
3140 1352 2692
3170 1289 3170
3211 1249 3616
3258 1276 4035
3130 1869 0
3136 1872 13
3146 1875 828
3144 1859 1511
3136 1822 2147
3145 1778 2690
3171 1740 3171
3206 1721 3617
3249 1747 4037
3147 2307 0
3152 2311 0
3160 2314 777
3157 2302 1489
3148 2272 2136
3152 2242 2686
3171 2220 3171
3199 2213 3620
3236 2237 4042
3174 2757 0
3179 2760 0
3184 2764 696
3179 2754 1459
3167 2731 2123
3163 2710 2682
3172 2699 3172
3190 2699 3625
3219 2722 4051
3209 3208 0
3212 3211 0
3215 3214 591
3208 3206 1423
3190 3189 2108
3177 3177 2677
3174 3174 3174
3180 3179 3632
3199 3199 4061
3248 3655 0
3250 3658 0
3251 3660 489
3239 3655 1394
3215 3645 2094
3192 3641 2672
3175 3645 3175
3167 3655 3638
3179 3671 4072
3305 4038 0
3307 4039 0
3306 4041 698
3292 4036 1481
3263 4031 2150
3232 4033 2714
3208 4041 3208
3199 4052 3664
3228 4063 4084
3530 1512 0
3536 1514 0
3545 1511 793
3544 1481 1500
3540 1414 2146
3554 1319 2695
3585 1220 3177
3625 1144 3625
3666 1162 4044
3533 1598 0
3539 1600 0
3548 1597 787
3547 1570 1497
3543 1505 2145
3557 1419 2695
3587 1329 3178
3625 1264 3625
3666 1281 4045
3540 1804 0
3546 1806 0
3554 1804 765
3553 1780 1488
3550 1724 2140
3562 1652 2692
3590 1580 3177
3626 1531 3626
3664 1547 4047
3555 2100 0
3560 2103 0
3568 2102 725
3566 2082 1472
3562 2035 2133
3572 1977 2689
3596 1925 3177
3628 1890 3628
3663 1906 4051
3578 2460 0
3582 2463 0
3588 2463 663
3586 2446 1449
3580 2407 2121
3586 2363 2685
3605 2325 3177
3631 2303 3631
3660 2317 4057
3607 2853 0
3611 2856 0
3615 2856 577
3612 2842 1420
3604 2811 2108
3605 2778 2679
3617 2753 3176
3635 2738 3635
3657 2752 4064
3642 3263 0
3645 3265 0
3647 3266 488
3642 3255 1394
3631 3232 2094
3626 3210 2671
3629 3194 3174
3638 3187 3638
3654 3199 4072
3679 3678 0
3681 3679 0
3681 3680 477
3674 3673 1392
3659 3658 2090
3648 3647 2668
3642 3641 3173
3641 3641 3641
3651 3651 4078
3720 4058 0
3721 4059 0
3720 4060 763
3711 4055 1501
3694 4050 2150
3676 4050 2705
3663 4054 3199
3659 4059 3659
3679 4067 4085
3943 1894 0
3948 1895 0
3954 1890 666
3954 1858 1455
3954 1786 2128
3969 1688 2692
3998 1588 3184
4031 1512 3637
4061 1523 4061
3947 1954 0
3951 1955 0
3957 1951 658
3957 1920 1452
3957 1850 2127
3972 1758 2692
4000 1663 3184
4033 1593 3638
4062 1604 4062
3956 2102 0
3960 2103 0
3966 2099 636
3965 2071 1444
3965 2007 2124
3979 1924 2690
4005 1842 3184
4036 1782 3639
4064 1793 4064
3970 2336 0
3974 2338 0
3979 2335 595
3979 2310 1430
3978 2254 2116
3990 2184 2686
4014 2117 3182
4042 2070 3640
4067 2080 4067
3992 2635 0
3995 2636 0
3999 2634 541
3998 2613 1412
3997 2566 2106
4007 2510 2680
4027 2457 3180
4051 2421 3641
4071 2432 4071
4018 2977 0
4021 2979 0
4024 2977 494
4022 2960 1398
4020 2923 2097
4027 2878 2674
4043 2839 3178
4060 2813 3642
4075 2824 4075
4047 3346 0
4049 3348 0
4050 3346 512
4048 3333 1403
4044 3306 2096
4048 3274 2672
4058 3247 3176
4070 3230 3643
4079 3242 4079
4074 3725 0
4075 3725 0
4075 3725 679
4072 3716 1461
4067 3699 2122
4067 3681 2683
4072 3668 3181
4077 3661 3647
4083 3674 4083
4095 4091 55
4095 4092 506
4095 4091 1037
4091 4087 1632
4085 4082 2216
4083 4080 2737
4083 4081 3213
4084 4083 3668
4095 4095 4095
