Creative/Contrast - Hue twist.3dl
#25pt 3DLUT created by 3D LUT Creator Pro (c) Oleg Sharonov
#Copyright Oleg Sharonov
#IMAGEPROFILE sRGB IEC61966-2.1 v.2.10
#INPUTGAMMA sRGB IEC61966-2.1 v.2.10
#OUTPUTGAMMA sRGB IEC61966-2.1 v.2.10
0 256 512 768 1023
0 0 0
0 6 1025
0 0 2165
0 0 3188
0 116 4093
6 1004 6
3 986 1044
0 895 2206
0 888 3210
23 979 4095
0 2131 0
0 2153 967
0 2105 2194
0 2132 3195
0 2228 4064
0 3261 0
0 3282 874
0 3278 2154
0 3333 3169
0 3433 4033
0 4095 0
0 4095 1030
0 4050 2308
0 4054 3300
0 4095 4095
1024 16 0
1025 19 1025
941 0 2196
936 0 3203
1028 65 4093
1027 1025 0
1026 1026 1026
951 950 2220
935 934 3217
1029 1025 4094
944 2192 0
954 2214 954
905 2177 2187
832 2203 3189
901 2295 4055
866 3292 0
859 3311 859
705 3305 2154
161 3356 3172
0 3450 4036
1030 4095 0
1028 4094 1028
893 4053 2307
648 4057 3300
1027 4095 4095
2166 0 0
2197 0 942
2168 0 2168
2207 0 3175
2308 0 4050
2212 868 0
2232 875 959
2192 827 2192
2218 742 3192
2313 807 4057
2168 2168 0
2184 2184 903
2161 2161 2161
2165 2164 3170
2235 2231 4034
2181 3225 0
2187 3238 779
2138 3229 2138
2071 3257 3172
2080 3325 4042
2307 4052 0
2305 4055 888
2232 4037 2232
2132 4052 3256
2208 4088 4085
3134 861 0
3152 859 895
3138 742 2171
3181 414 3181
3275 337 4040
3118 1481 0
3137 1484 856
3129 1415 2152
3170 1289 3170
3258 1276 4035
3147 2307 0
3160 2314 777
3148 2272 2136
3171 2220 3171
3236 2237 4042
3209 3208 0
3215 3214 591
3190 3189 2108
3174 3174 3174
3199 3199 4061
3305 4038 0
3306 4041 698
3263 4031 2150
3208 4041 3208
3228 4063 4084
3943 1894 0
3954 1890 666
3954 1786 2128
3998 1588 3184
4061 1523 4061
3956 2102 0
3966 2099 636
3965 2007 2124
4005 1842 3184
4064 1793 4064
3992 2635 0
3999 2634 541
3997 2566 2106
4027 2457 3180
4071 2432 4071
4047 3346 0
4050 3346 512
4044 3306 2096
4058 3247 3176
4079 3242 4079
4095 4091 55
4095 4091 1037
4085 4082 2216
4083 4081 3213
4095 4095 4095
