Creative/Contrast - Hue twist.3dl
#25pt 3DLUT created by 3D LUT Creator Pro (c) Oleg Sharonov
#Copyright Oleg Sharonov
#IMAGEPROFILE sRGB IEC61966-2.1 v.2.10
#INPUTGAMMA sRGB IEC61966-2.1 v.2.10
#OUTPUTGAMMA sRGB IEC61966-2.1 v.2.10
0 43 86 128 171 214 256 299 341 384 427 469 512 555 597 640 682 725 768 810 853 896 938 981 1023 
0 0 0
3 3 155
6 6 318
6 10 488
6 10 663
3 6 842
0 6 1025
0 6 1213
0 3 1405
0 3 1597
0 3 1789
0 0 1979
0 0 2165
0 0 2346
0 0 2522
0 0 2694
0 0 2862
0 0 3027
0 0 3188
0 0 3347
0 0 3502
0 0 3655
0 0 3804
0 0 3954
0 116 4093
10 132 10
10 136 168
10 136 328
10 136 496
6 132 670
3 126 849
0 116 1033
0 110 1220
0 100 1411
0 94 1604
0 90 1796
0 81 1985
0 71 2170
0 55 2351
0 42 2527
0 23 2699
0 0 2867
0 0 3031
0 0 3192
0 0 3350
0 0 3506
0 0 3658
0 0 3807
0 23 3956
3 152 4095
6 322 6
6 324 161
6 326 322
6 326 492
6 324 667
3 316 847
0 308 1033
0 293 1222
0 282 1414
0 273 1607
0 264 1799
0 257 1988
0 245 2174
0 238 2354
0 228 2529
0 212 2701
0 192 2868
0 174 3032
0 149 3194
0 136 3352
0 132 3507
0 142 3659
0 171 3808
0 222 3957
3 314 4095
6 486 6
6 488 165
10 490 326
10 489 493
6 482 671
3 474 852
0 462 1039
0 448 1230
0 436 1422
0 425 1615
0 414 1807
0 404 1996
0 398 2180
0 391 2360
0 384 2535
0 376 2706
0 367 2873
0 358 3037
0 351 3197
0 343 3355
0 347 3509
0 356 3661
0 381 3809
0 412 3958
6 475 4095
6 655 6
10 656 168
10 657 326
10 656 493
6 651 672
6 643 855
3 629 1044
0 613 1237
0 597 1430
0 583 1624
0 571 1816
0 560 2005
0 554 2189
0 548 2368
0 542 2543
0 537 2713
0 532 2879
0 528 3042
0 525 3202
0 525 3359
0 528 3512
0 537 3664
0 558 3812
0 583 3960
16 631 4095
6 827 6
6 828 165
6 830 322
6 831 490
6 827 669
6 818 855
3 804 1046
0 788 1241
0 770 1437
0 753 1632
0 738 1825
0 727 2014
0 720 2198
0 713 2377
0 710 2550
0 707 2720
0 704 2885
0 703 3047
0 703 3206
0 705 3362
0 711 3516
0 722 3666
0 738 3814
0 759 3961
19 802 4095
6 1004 6
6 1005 158
6 1008 316
6 1010 484
6 1007 662
3 999 850
3 986 1044
0 970 1242
0 950 1440
0 933 1638
0 916 1833
0 904 2023
0 895 2206
0 889 2385
0 886 2558
0 884 2726
0 884 2891
0 885 3052
0 888 3210
0 891 3366
0 899 3518
0 909 3668
0 926 3815
0 944 3962
23 979 4095
3 1184 3
3 1186 152
3 1189 308
3 1191 475
3 1190 654
3 1185 841
0 1175 1037
0 1159 1238
0 1140 1440
0 1120 1641
0 1103 1837
0 1090 2028
0 1081 2212
0 1074 2391
0 1072 2564
0 1071 2732
0 1072 2896
0 1075 3056
0 1079 3213
0 1085 3368
0 1093 3520
0 1104 3669
0 1120 3815
0 1138 3961
16 1169 4095
0 1367 0
0 1369 142
0 1373 299
0 1376 464
0 1378 642
0 1375 829
0 1367 1027
0 1353 1230
0 1336 1434
0 1317 1638
0 1300 1838
0 1285 2030
0 1275 2216
0 1269 2395
0 1266 2567
0 1267 2735
0 1269 2898
0 1273 3058
0 1279 3215
0 1286 3368
0 1295 3520
0 1307 3668
0 1322 3814
0 1340 3959
0 1369 4095
0 1554 0
0 1557 136
0 1561 289
0 1565 452
0 1568 629
0 1567 815
0 1562 1013
0 1551 1217
0 1535 1425
0 1518 1632
0 1501 1834
0 1487 2028
0 1478 2215
0 1472 2395
0 1470 2567
0 1470 2735
0 1474 2898
0 1479 3057
0 1486 3213
0 1494 3367
0 1505 3517
0 1517 3665
0 1533 3810
0 1549 3955
0 1576 4090
0 1745 0
0 1748 126
0 1752 278
0 1757 440
0 1761 615
0 1762 801
0 1759 998
0 1751 1203
0 1738 1412
0 1722 1621
0 1707 1825
0 1694 2022
0 1685 2211
0 1680 2391
0 1678 2564
0 1680 2732
0 1685 2895
0 1691 3053
0 1699 3209
0 1709 3362
0 1720 3512
0 1733 3659
0 1750 3803
0 1765 3948
0 1790 4083
0 1937 0
0 1940 116
0 1944 267
0 1949 428
0 1954 602
0 1957 786
0 1956 982
0 1951 1187
0 1941 1397
0 1928 1608
0 1914 1814
0 1903 2013
0 1895 2203
0 1890 2385
0 1890 2559
0 1893 2726
0 1899 2889
0 1906 3047
0 1916 3203
0 1926 3355
0 1939 3504
0 1953 3651
0 1969 3795
0 1985 3940
0 2009 4074
0 2131 0
0 2134 103
0 2138 255
0 2143 416
0 2148 588
0 2152 771
0 2153 967
0 2150 1172
0 2143 1382
0 2132 1595
0 2121 1802
0 2111 2003
0 2105 2194
0 2101 2376
0 2103 2551
0 2106 2719
0 2113 2881
0 2122 3040
0 2132 3195
0 2144 3347
0 2157 3496
0 2172 3642
0 2188 3786
0 2205 3931
0 2228 4064
0 2324 0
0 2327 84
0 2331 238
0 2336 401
0 2342 575
0 2347 757
0 2349 953
0 2347 1157
0 2342 1368
0 2334 1581
0 2325 1790
0 2317 1991
0 2312 2184
0 2310 2368
0 2312 2543
0 2317 2711
0 2325 2874
0 2334 3032
0 2346 3187
0 2359 3338
0 2373 3487
0 2389 3633
0 2406 3777
0 2422 3921
0 2445 4054
0 2516 0
0 2519 58
0 2523 212
0 2528 383
0 2534 559
0 2539 743
0 2542 938
0 2542 1143
0 2538 1355
0 2532 1568
0 2525 1779
0 2519 1982
0 2515 2175
0 2514 2359
0 2517 2535
0 2523 2703
0 2532 2866
0 2543 3025
0 2556 3179
0 2570 3331
0 2584 3479
0 2601 3625
0 2618 3768
0 2633 3913
0 2656 4045
0 2707 0
0 2709 16
0 2713 177
0 2718 360
0 2723 541
0 2729 727
0 2732 924
0 2733 1130
0 2731 1342
0 2726 1558
0 2720 1769
0 2715 1973
0 2713 2168
0 2713 2353
0 2717 2529
0 2724 2698
0 2734 2861
0 2745 3019
0 2759 3173
0 2773 3325
0 2789 3473
0 2806 3619
0 2823 3762
0 2839 3907
0 2860 4039
0 2894 0
0 2897 0
0 2900 123
0 2905 326
0 2910 518
0 2915 709
0 2919 909
0 2920 1118
0 2919 1331
0 2915 1548
0 2911 1761
0 2907 1966
0 2906 2162
0 2907 2348
0 2912 2525
0 2920 2694
0 2930 2857
0 2942 3015
0 2956 3170
0 2971 3321
0 2987 3469
0 3004 3615
0 3021 3758
0 3037 3903
0 3058 4035
0 3079 0
0 3081 0
0 3084 48
0 3089 280
0 3094 488
0 3099 688
0 3102 893
0 3104 1105
0 3103 1320
0 3100 1539
0 3097 1754
0 3094 1960
0 3094 2157
0 3096 2345
0 3101 2522
0 3109 2692
0 3120 2855
0 3133 3014
0 3147 3168
0 3163 3320
0 3179 3468
0 3196 3613
0 3213 3756
0 3229 3901
0 3249 4033
0 3261 0
0 3263 0
0 3266 0
0 3270 214
0 3275 449
0 3279 662
0 3282 874
0 3284 1090
0 3284 1310
0 3282 1530
0 3279 1747
0 3277 1956
0 3278 2154
0 3280 2343
0 3286 2521
0 3294 2692
0 3305 2856
0 3318 3014
0 3333 3169
0 3349 3320
0 3365 3468
0 3382 3614
0 3399 3757
0 3414 3902
0 3433 4033
0 3440 0
0 3442 0
0 3444 0
0 3448 113
0 3452 401
0 3457 630
0 3460 852
0 3461 1074
0 3461 1298
0 3460 1522
0 3458 1741
0 3456 1952
0 3457 2152
0 3460 2342
0 3466 2521
0 3475 2693
0 3486 2857
0 3500 3016
0 3514 3171
0 3530 3323
0 3546 3471
0 3562 3617
0 3579 3760
0 3594 3905
0 3612 4036
0 3618 0
0 3620 0
0 3623 0
0 3626 0
0 3630 332
0 3634 588
0 3637 823
0 3639 1053
0 3639 1283
0 3638 1510
0 3636 1733
0 3635 1946
0 3637 2148
0 3640 2340
0 3647 2521
0 3657 2693
0 3668 2858
0 3681 3018
0 3696 3173
0 3711 3325
0 3727 3474
0 3743 3620
0 3759 3763
0 3774 3908
0 3790 4039
0 3785 0
0 3786 0
0 3789 0
0 3792 0
0 3795 269
0 3799 557
0 3801 805
0 3803 1041
0 3803 1276
0 3802 1507
0 3800 1732
0 3799 1948
0 3801 2152
0 3805 2344
0 3811 2527
0 3820 2699
0 3832 2865
0 3844 3026
0 3859 3181
0 3874 3333
0 3889 3482
0 3905 3627
0 3920 3770
0 3934 3915
0 3948 4046
0 3918 0
0 3919 0
0 3921 0
0 3923 0
0 3926 320
0 3928 593
0 3930 835
0 3930 1071
0 3929 1305
0 3926 1536
0 3923 1761
0 3921 1977
0 3921 2181
0 3923 2374
0 3928 2556
0 3935 2728
0 3944 2893
0 3955 3052
0 3967 3207
0 3980 3357
0 3994 3504
0 4007 3648
0 4020 3788
0 4032 3931
0 4044 4059
0 4016 0
0 4017 0
0 4018 0
0 4019 217
0 4021 474
0 4022 698
0 4022 920
0 4020 1144
0 4016 1372
0 4011 1599
0 4005 1821
0 4000 2035
0 3997 2238
0 3996 2429
0 3997 2608
0 4001 2779
0 4007 2941
0 4015 3098
0 4024 3249
0 4034 3396
0 4044 3539
0 4055 3679
0 4065 3816
0 4074 3954
0 4084 4076
0 4095 0
3 4095 145
6 4095 302
10 4095 465
13 4095 642
10 4095 829
0 4095 1030
0 4090 1240
0 4084 1459
0 4075 1680
0 4066 1898
0 4057 2108
0 4050 2308
0 4045 2496
0 4042 2673
0 4043 2840
0 4045 3000
0 4049 3152
0 4054 3300
0 4061 3443
0 4068 3581
0 4075 3716
0 4082 3847
0 4088 3979
0 4095 4095
136 52 0
145 52 145
152 58 308
155 61 479
155 61 656
149 58 837
142 55 1023
132 45 1213
123 42 1406
113 36 1599
103 29 1792
94 19 1982
84 6 2167
68 0 2349
48 0 2525
29 0 2697
3 0 2865
0 0 3029
0 0 3191
0 0 3349
0 0 3505
0 0 3657
0 0 3807
16 0 3956
145 23 4095
155 168 3
158 171 158
161 177 320
165 177 488
158 177 664
152 168 845
145 161 1031
136 152 1220
126 139 1412
116 132 1605
107 126 1797
97 116 1987
84 107 2172
68 90 2352
48 74 2528
29 52 2700
3 29 2868
0 3 3032
0 0 3193
0 0 3351
0 0 3506
0 0 3659
0 0 3808
19 29 3957
149 149 4095
165 316 10
168 316 168
168 318 326
168 318 494
165 314 670
155 304 852
145 295 1037
136 284 1227
126 273 1419
116 264 1612
107 257 1803
97 252 1992
84 243 2177
68 233 2357
48 220 2532
26 206 2703
3 189 2871
0 171 3035
0 155 3195
0 142 3353
0 136 3508
0 152 3660
0 189 3808
19 238 3957
149 328 4095
165 486 10
168 488 168
168 490 326
168 489 493
165 485 671
158 478 853
149 464 1041
139 451 1232
129 439 1425
119 425 1619
110 416 1810
97 406 1999
84 399 2184
68 391 2363
48 383 2538
26 376 2708
0 363 2875
0 356 3038
0 349 3199
0 343 3356
0 343 3510
0 354 3662
0 377 3810
23 412 3959
155 477 4095
165 657 6
165 657 165
168 659 324
168 659 493
165 655 671
158 647 855
152 633 1045
142 618 1238
129 602 1432
119 587 1627
110 575 1819
100 565 2008
87 558 2192
68 552 2371
48 546 2545
26 541 2715
0 535 2881
0 531 3043
0 528 3203
0 528 3360
0 531 3513
0 542 3664
0 560 3812
26 585 3960
161 636 4095
161 831 6
161 832 161
165 833 322
165 834 489
161 831 668
158 823 854
152 810 1046
142 793 1242
132 776 1438
123 758 1634
113 744 1827
100 733 2016
84 724 2200
68 720 2379
45 715 2552
23 713 2721
0 710 2887
0 708 3049
0 708 3207
0 710 3363
0 716 3516
0 726 3667
0 744 3814
26 765 3961
165 806 4095
155 1008 3
158 1009 158
158 1011 314
158 1013 482
158 1011 662
155 1004 849
149 992 1043
142 975 1242
132 957 1441
123 939 1639
113 923 1834
100 911 2024
84 901 2208
65 895 2387
42 893 2559
16 890 2728
0 891 2892
0 891 3053
0 894 3211
0 898 3367
0 904 3519
0 916 3669
0 931 3815
23 951 3962
168 986 4095
149 1188 3
152 1190 152
152 1193 308
152 1196 474
152 1196 652
152 1190 840
145 1180 1036
139 1166 1237
132 1146 1440
123 1128 1641
110 1110 1838
97 1097 2029
81 1088 2214
61 1081 2392
36 1079 2565
6 1079 2733
0 1080 2897
0 1081 3057
0 1086 3214
0 1092 3368
0 1099 3520
0 1111 3669
0 1127 3815
10 1145 3961
158 1176 4095
142 1373 0
142 1375 142
142 1379 297
145 1382 462
145 1383 641
145 1381 828
142 1373 1025
136 1359 1229
129 1342 1434
119 1324 1638
107 1307 1838
94 1293 2030
74 1283 2216
52 1277 2395
23 1274 2568
0 1274 2735
0 1276 2899
0 1281 3058
0 1286 3215
0 1293 3369
0 1303 3519
0 1315 3668
0 1330 3813
0 1347 3959
139 1375 4094
132 1560 0
136 1563 136
136 1567 289
136 1571 451
139 1574 628
136 1574 814
136 1568 1012
132 1558 1216
123 1543 1424
113 1525 1631
100 1508 1833
84 1495 2028
61 1485 2215
36 1480 2395
3 1477 2567
0 1478 2735
0 1482 2898
0 1486 3057
0 1493 3213
0 1502 3366
0 1513 3516
0 1525 3664
0 1540 3809
0 1557 3954
97 1583 4089
126 1751 0
126 1754 126
126 1757 278
126 1762 440
129 1766 614
129 1768 799
126 1765 997
123 1757 1202
116 1745 1411
107 1730 1620
90 1715 1825
71 1702 2022
42 1692 2210
13 1687 2391
0 1685 2564
0 1687 2732
0 1692 2895
0 1698 3053
0 1707 3209
0 1716 3362
0 1728 3511
0 1741 3659
0 1756 3803
0 1772 3948
26 1798 4082
