Creative/cool_neutral.3dl
#25pt 3DLUT created by 3D LUT Creator Pro (c) Oleg Sharonov
#Copyright Oleg Sharonov
0 256 512 768 1023
0 0 0
0 0 1024
0 0 2048
0 0 3071
0 0 4095
0 1024 0
0 1023 1024
0 1007 2048
0 1013 3071
0 1024 4095
0 2048 0
0 2048 1059
0 2047 2048
0 2033 3071
0 2047 4095
0 3071 0
0 3071 1059
0 3071 2071
0 3071 3071
0 3071 4095
0 4095 1
0 4095 1060
0 4095 2095
0 4095 3083
0 4095 4095
1024 0 0
1023 0 1024
974 0 2048
993 0 3071
1024 0 4095
1007 1024 9
751 933 1024
829 958 2048
920 989 3071
1024 1024 4095
957 2048 33
841 2048 1115
841 1987 2048
908 2009 3071
1024 2047 4095
907 3071 58
841 3071 1115
855 3071 2132
932 3041 3071
1024 3071 4095
870 4095 75
840 4095 1115
855 4095 2133
939 4095 3114
1024 4095 4095
2048 0 0
2048 71 1131
2046 0 2048
2004 0 3071
2047 0 4095
2048 1046 34
2048 1086 1117
1865 963 2048
1932 985 3071
2047 1024 4095
2014 2048 18
1853 2048 1121
1684 1926 2048
1859 1984 3071
2047 2047 4095
1964 3071 42
1815 3071 1140
1805 3071 2169
1865 3010 3071
2047 3071 4095
1914 4095 67
1779 4095 1158
1804 4095 2169
1903 4095 3144
2047 4095 4095
3071 0 1
3071 54 1104
3071 48 2119
3070 0 3071
3071 0 4095
3071 1035 17
3071 1085 1117
3071 1192 2301
2980 993 3071
3071 1024 4095
3071 2095 72
3071 2126 1142
3071 2130 2171
2889 1987 3071
3071 2047 4095
3020 3071 27
2863 3071 1128
2821 3071 2174
2798 2980 3071
3071 3071 4095
2971 4095 51
2826 4095 1146
2796 4095 2185
2889 4095 3162
3071 4095 4095
4095 0 1
4095 46 1093
4095 95 2190
4095 24 3107
4095 0 4095
4095 1028 7
4095 1085 1117
4095 1150 2237
4095 1108 3198
4095 1024 4095
4095 2093 69
4095 2073 1062
4095 2130 2172
4095 2192 3288
4095 2047 4095
4095 3139 103
4095 3211 1233
4095 3165 2188
4095 3133 3164
4095 3071 4095
4027 4095 36
3873 4095 1133
3836 4095 2177
3909 4095 3165
4095 4095 4095
