Creative/cool_neutral.3dl
#25pt 3DLUT created by 3D LUT Creator Pro (c) Oleg Sharonov
#Copyright Oleg Sharonov
0 128 256 384 512 640 768 896 1023
0 0 0
0 0 512
0 0 1024
0 0 1536
0 0 2048
0 0 2559
0 0 3071
0 0 3583
0 0 4095
0 512 0
0 512 512
0 500 1024
0 499 1536
0 499 2048
0 501 2559
0 503 3071
0 507 3583
0 512 4095
0 1024 0
0 1024 533
0 1023 1024
0 1006 1536
0 1007 2048
0 1010 2559
0 1013 3071
0 1018 3583
0 1024 4095
0 1536 0
0 1536 533
0 1536 1041
0 1535 1536
0 1517 2048
0 1519 2559
0 1523 3071
0 1529 3583
0 1536 4095
0 2048 0
0 2048 533
0 2048 1059
0 2048 1550
0 2047 2048
0 2034 2559
0 2033 3071
0 2040 3583
0 2047 4095
0 2559 0
0 2559 533
0 2559 1059
0 2559 1565
0 2559 2059
0 2559 2559
0 2550 3071
0 2551 3583
0 2559 4095
0 3071 0
0 3071 533
0 3071 1059
0 3071 1580
0 3071 2071
0 3071 2568
0 3071 3071
0 3067 3583
0 3071 4095
0 3583 1
0 3583 533
0 3583 1059
0 3583 1580
0 3583 2083
0 3583 2577
0 3583 3077
0 3583 3583
0 3583 4095
0 4095 1
0 4095 533
0 4095 1060
0 4095 1580
0 4095 2095
0 4095 2586
0 4095 3083
0 4095 3586
0 4095 4095
512 0 0
511 0 512
475 0 1024
473 0 1536
474 0 2048
479 0 2559
487 0 3071
498 0 3583
512 0 4095
503 512 4
353 459 512
366 463 1024
382 469 1536
402 476 2048
424 483 2559
450 492 3071
480 501 3583
512 512 4095
479 1024 17
406 1024 565
375 978 1024
367 976 1536
390 983 2048
416 992 2559
444 1001 3071
477 1012 3583
512 1024 4095
454 1536 29
405 1536 565
385 1536 1087
398 1498 1536
378 1491 2048
407 1501 2559
438 1511 3071
474 1523 3583
512 1536 4095
435 2048 38
405 2048 565
385 2048 1088
406 2048 1589
420 2017 2048
401 2011 2559
433 2021 3071
471 2034 3583
512 2047 4095
435 2559 38
404 2559 565
385 2559 1088
377 2559 1604
427 2559 2090
443 2536 2559
438 2535 3071
468 2545 3583
512 2559 4095
434 3071 38
403 3071 566
384 3071 1088
377 3071 1604
404 3071 2102
448 3071 2591
466 3056 3071
475 3059 3583
512 3071 4095
434 3583 38
402 3583 566
384 3583 1088
377 3583 1604
380 3583 2114
431 3583 2600
469 3583 3092
489 3576 3583
512 3583 4095
433 4095 38
402 4095 566
383 4095 1088
376 4095 1604
380 4095 2114
413 4095 2609
458 4095 3098
490 4095 3594
512 4095 4095
1024 0 0
1024 41 574
1023 0 1024
970 0 1536
974 0 2048
982 0 2559
993 0 3071
1007 0 3583
1024 0 4095
1024 523 17
1024 548 566
887 466 1024
879 464 1536
902 471 2048
927 480 2559
956 490 3071
988 500 3583
1024 512 4095
1007 1024 9
910 1024 569
751 933 1024
788 945 1536
829 958 2048
873 974 2559
920 989 3071
970 1006 3583
1024 1024 4095
982 1536 21
888 1536 580
842 1536 1115
796 1459 1536
817 1466 2048
864 1482 2559
914 1499 3071
967 1517 3583
1024 1536 4095
957 2048 33
867 2048 590
841 2048 1115
843 2048 1626
841 1987 2048
855 1991 2559
908 2009 3071
964 2028 3583
1024 2047 4095
932 2559 46
851 2559 598
841 2559 1115
842 2559 1627
879 2559 2120
887 2514 2559
905 2520 3071
961 2539 3583
1024 2559 4095
907 3071 58
851 3071 598
841 3071 1115
842 3071 1627
855 3071 2132
915 3071 2614
932 3041 3071
964 3051 3583
1024 3071 4095
882 3583 70
850 3583 598
841 3583 1115
842 3583 1627
855 3583 2132
897 3583 2623
951 3583 3108
978 3568 3583
1024 3583 4095
870 4095 75
850 4095 598
840 4095 1115
842 4095 1627
855 4095 2133
879 4095 2632
939 4095 3114
987 4095 3601
1024 4095 4095
1536 0 0
1536 31 559
1536 36 1077
1535 0 1536
1479 0 2048
1485 0 2559
1499 0 3071
1515 0 3583
1536 0 4095
1536 518 9
1536 548 566
1536 638 1214
1421 474 1536
1402 467 2048
1430 477 2559
1462 488 3071
1497 499 3583
1536 512 4095
1536 1047 36
1536 1070 581
1536 1085 1116
1308 948 1536
1329 954 2048
1376 971 2559
1426 987 3071
1479 1005 3583
1536 1024 4095
1510 1536 13
1414 1536 573
1348 1536 1118
1195 1422 1536
1256 1442 2048
1321 1464 2559
1389 1487 3071
1461 1511 3583
1536 1536 4095
1485 2048 26
1393 2048 583
1329 2048 1127
1308 2048 1649
1262 1956 2048
1312 1973 2559
1383 1996 3071
1458 2022 3583
1536 2047 4095
1461 2559 38
1371 2559 593
1311 2559 1136
1308 2559 1649
1330 2559 2150
1331 2491 2559
1377 2506 3071
1455 2532 3583
1536 2559 4095
1436 3071 50
1350 3071 604
1296 3071 1143
1308 3071 1650
1330 3071 2150
1382 3071 2637
1399 3026 3071
1453 3044 3583
1536 3071 4095
1411 3583 62
1329 3583 615
1296 3583 1143
1307 3583 1650
1330 3583 2151
1364 3583 2645
1433 3583 3123
1467 3560 3583
1536 3583 4095
1386 4095 74
1307 4095 625
1297 4095 1143
1307 4095 1650
1329 4095 2151
1363 4095 2646
1421 4095 3129
1484 4095 3609
1536 4095 4095
2048 0 0
2048 27 552
2048 71 1131
2048 30 1581
2046 0 2048
2005 0 2559
2004 0 3071
2024 0 3583
2047 0 4095
2048 514 3
2048 548 566
2048 606 1166
2048 617 1694
1956 481 2048
1937 475 2559
1968 486 3071
2006 498 3583
2047 512 4095
2048 1046 34
2048 1039 534
2048 1086 1117
2048 1205 1807
1865 963 2048
1879 967 2559
1932 985 3071
1988 1004 3583
2047 1024 4095
2048 1570 52
2048 1617 634
2048 1606 1129
2048 1613 1651
1774 1444 2048
1824 1461 2559
1895 1485 3071
1970 1510 3583
2047 1536 4095
2014 2048 18
1918 2048 576
1853 2048 1121
1815 2048 1652
1684 1926 2048
1770 1955 2559
1859 1984 3071
1952 2015 3583
2047 2047 4095
1989 2559 30
1897 2559 586
1834 2559 1131
1800 2559 1660
1805 2559 2169
1774 2468 2559
1853 2494 3071
1949 2526 3583
2047 2559 4095
1964 3071 42
1876 3071 597
1815 3071 1140
1785 3071 1667
1805 3071 2169
1848 3071 2659
1865 3010 3071
1946 3037 3583
2047 3071 4095
1939 3583 55
1854 3583 608
1797 3583 1149
1773 3583 1673
1805 3583 2169
1848 3583 2659
1915 3583 3138
1956 3553 3583
2047 3583 4095
1914 4095 67
1833 4095 619
1779 4095 1158
1772 4095 1673
1804 4095 2169
1848 4095 2659
1903 4095 3144
1981 4095 3617
2047 4095 4095
2559 0 0
2559 24 548
2559 60 1114
2559 59 1625
2559 24 2084
2558 0 2559
2531 0 3071
2533 0 3583
2559 0 4095
2559 520 12
2559 548 567
2559 592 1145
2559 647 1739
2559 596 2175
2490 489 2559
2486 487 3071
2515 497 3583
2559 512 4095
2559 1042 27
2559 1027 517
2559 1086 1117
2559 1159 1739
2559 1169 2265
2422 978 2559
2440 984 3071
2497 1003 3583
2559 1024 4095
2559 1571 54
2559 1591 595
2559 1558 1057
2559 1613 1652
2507 1689 2303
2354 1467 2559
2401 1482 3071
2479 1509 3583
2559 1536 4095
2559 2091 66
2559 2150 665
2559 2169 1206
2559 2131 1662
2559 2130 2171
2286 1956 2559
2365 1982 3071
2460 2014 3583
2559 2047 4095
2517 2559 22
2423 2559 580
2358 2559 1125
2322 2559 1655
2313 2559 2171
2218 2445 2559
2329 2482 3071
2442 2520 3583
2559 2559 4095
2492 3071 35
2401 3071 590
2339 3071 1134
2306 3071 1662
2301 3071 2177
2332 3071 2673
2332 2995 3071
2439 3031 3583
2559 3071 4095
2468 3583 47
2380 3583 601
2321 3583 1143
2291 3583 1670
2288 3583 2183
2332 3583 2673
2396 3583 3153
2445 3545 3583
2559 3583 4095
2443 4095 59
2358 4095 612
2303 4095 1152
2275 4095 1678
2280 4095 2187
2332 4095 2673
2396 4095 3153
2478 4095 3624
2559 4095 4095
3071 0 1
3071 23 546
3071 54 1104
3071 89 1669
3071 48 2119
3071 18 2587
3070 0 3071
3057 0 3583
3071 0 4095
3071 523 17
3071 549 567
3071 584 1133
3071 626 1707
3071 620 2210
3071 575 2655
3025 496 3071
3034 500 3583
3071 512 4095
3071 1035 17
3071 1039 536
3071 1085 1117
3071 1139 1709
3071 1192 2301
3071 1133 2723
2980 993 3071
3012 1004 3583
3071 1024 4095
3071 1569 51
3071 1571 565
3071 1542 1033
3071 1613 1652
3071 1689 2278
3032 1651 2751
2934 1490 3071
2989 1508 3583
3071 1536 4095
3071 2095 72
3071 2130 635
3071 2126 1142
3071 2073 1575
3071 2130 2171
2964 2140 2751
2889 1987 3071
2969 2013 3583
3071 2047 4095
3071 2612 80
3071 2677 689
3071 2709 1249
3071 2704 1753
3071 2647 2179
3071 2637 2675
2844 2483 3071
2951 2519 3583
3071 2559 4095
3020 3071 27
2927 3071 584
2863 3071 1128
2828 3071 1657
2821 3071 2174
2841 3071 2674
2798 2980 3071
2933 3025 3583
3071 3071 4095
2996 3583 39
2906 3583 595
2845 3583 1137
2813 3583 1665
2808 3583 2179
2832 3583 2679
2890 3583 3162
2935 3537 3583
3071 3583 4095
2971 4095 51
2884 4095 605
2826 4095 1146
2797 4095 1673
2796 4095 2185
2822 4095 2684
2889 4095 3162
2975 4095 3632
3071 4095 4095
3583 0 1
3583 21 544
3583 49 1098
3583 79 1654
3583 71 2154
3583 36 2613
3583 12 3090
3583 0 3583
3583 0 4095
3583 525 20
3583 549 568
3583 579 1125
3583 613 1688
3583 643 2245
3583 593 2681
3583 554 3135
3560 504 3583
3583 512 4095
3583 1028 6
3583 1048 548
3583 1085 1116
3583 1127 1691
3583 1166 2262
3583 1150 2750
3583 1096 3180
3537 1008 3583
3583 1024 4095
3583 1565 45
3583 1554 540
3583 1558 1058
3583 1613 1652
3583 1666 2244
3583 1707 2817
3557 1612 3199
3515 1513 3583
3583 1536 4095
3583 2095 72
3583 2113 609
3583 2096 1097
3583 2055 1547
3583 2130 2172
3583 2197 2783
3511 2109 3199
3492 2017 3583
3583 2047 4095
3583 2617 88
3583 2661 665
3583 2673 1195
3583 2651 1673
3583 2586 2087
3583 2636 2675
3466 2606 3199
3469 2521 3583
3583 2559 4095
3583 3133 94
3583 3202 708
3583 3240 1277
3583 3248 1801
3583 3221 2273
3583 3152 2681
3583 3133 3165
3447 3026 3583
3583 3071 4095
3524 3583 31
3432 3583 588
3368 3583 1130
3334 3583 1660
3328 3583 2175
3350 3583 2677
3399 3583 3163
3424 3530 3583
3583 3583 4095
3499 4095 43
3410 4095 599
3350 4095 1139
3319 4095 1668
3316 4095 2181
3341 4095 2681
3393 4095 3166
3477 4095 3636
3583 4095 4095
4095 0 1
4095 21 543
4095 46 1093
4095 72 1644
4095 95 2190
4095 53 2640
4095 24 3107
4095 6 3592
4095 0 4095
4095 527 23
4095 549 568
4095 576 1120
4095 604 1675
4095 629 2223
4095 611 2708
4095 566 3153
4095 533 3615
4095 512 4095
4095 1028 7
4095 1053 557
4095 1085 1117
4095 1120 1680
4095 1150 2237
4095 1168 2776
4095 1108 3198
4095 1060 3638
4095 1024 4095
4095 1560 36
4095 1540 519
4095 1569 1074
4095 1613 1652
4095 1653 2224
4095 1681 2777
4095 1650 3243
4082 1574 3647
4095 1536 4095
4095 2093 69
4095 2098 587
4095 2073 1062
4095 2074 1576
4095 2130 2172
4095 2174 2750
4095 2192 3288
4059 2078 3647
4095 2047 4095
4095 2619 91
4095 2647 644
4095 2646 1154
4095 2615 1619
4095 2567 2059
4095 2637 2675
4095 2681 3254
4036 2582 3647
4095 2559 4095
4095 3139 103
4095 3190 690
4095 3211 1233
4095 3203 1733
4095 3165 2188
4095 3095 2595
4095 3133 3164
4014 3087 3647
4095 3071 4095
4095 3654 108
4095 3725 725
4095 3767 1299
4095 3781 1832
4095 3766 2321
4095 3721 2767
4095 3648 3168
4090 3624 3647
4095 3583 4095
4027 4095 36
3937 4095 592
3873 4095 1133
3841 4095 1663
3836 4095 2177
3859 4095 2678
3909 4095 3165
3988 4095 3637
4095 4095 4095
