Creative/cool_neutral.3dl
#25pt 3DLUT created by 3D LUT Creator Pro (c) Oleg Sharonov
#Copyright Oleg Sharonov
0 43 86 128 171 214 256 299 341 384 427 469 512 555 597 640 682 725 768 810 853 896 938 981 1023 
0 0 0
0 0 171
0 0 341
0 0 512
0 0 683
0 0 853
0 0 1024
0 0 1194
0 0 1365
0 0 1536
0 0 1706
0 0 1877
0 0 2048
0 0 2218
0 0 2389
0 0 2559
0 0 2730
0 0 2901
0 0 3071
0 0 3242
0 0 3412
0 0 3583
0 0 3754
0 0 3924
0 0 4095
0 171 0
0 171 171
0 166 341
0 165 512
0 164 683
0 163 853
0 162 1024
0 162 1194
0 161 1365
0 161 1536
0 161 1706
0 161 1877
0 161 2048
0 161 2218
0 161 2389
0 162 2559
0 162 2730
0 163 2901
0 164 3071
0 164 3242
0 165 3412
0 167 3583
0 168 3754
0 169 3924
0 171 4095
0 341 0
0 341 178
0 341 341
0 333 512
0 332 683
0 331 853
0 331 1024
0 330 1194
0 330 1365
0 330 1536
0 330 1706
0 330 1877
0 330 2048
0 330 2218
0 331 2389
0 331 2559
0 332 2730
0 333 2901
0 333 3071
0 334 3242
0 336 3412
0 337 3583
0 338 3754
0 340 3924
0 341 4095
0 512 0
0 512 178
0 512 348
0 512 512
0 502 683
0 500 853
0 500 1024
0 499 1194
0 499 1365
0 499 1536
0 499 1706
0 499 1877
0 499 2048
0 500 2218
0 500 2389
0 501 2559
0 502 2730
0 502 2901
0 503 3071
0 505 3242
0 506 3412
0 507 3583
0 509 3754
0 510 3924
0 512 4095
0 683 0
0 683 178
0 683 356
0 683 519
0 682 683
0 673 853
0 668 1024
0 668 1194
0 668 1365
0 668 1536
0 668 1706
0 668 1877
0 669 2048
0 669 2218
0 670 2389
0 671 2559
0 671 2730
0 672 2901
0 673 3071
0 675 3242
0 676 3412
0 677 3583
0 679 3754
0 681 3924
0 682 4095
0 853 0
0 853 178
0 853 356
0 853 526
0 853 689
0 853 853
0 844 1024
0 837 1194
0 837 1365
0 837 1536
0 837 1706
0 838 1877
0 838 2048
0 839 2218
0 839 2389
0 840 2559
0 841 2730
0 842 2901
0 843 3071
0 845 3242
0 846 3412
0 848 3583
0 849 3754
0 851 3924
0 853 4095
0 1024 0
0 1024 178
0 1024 356
0 1024 533
0 1024 696
0 1024 859
0 1023 1024
0 1015 1194
0 1007 1365
0 1006 1536
0 1006 1706
0 1007 1877
0 1007 2048
0 1008 2218
0 1009 2389
0 1010 2559
0 1011 2730
0 1012 2901
0 1013 3071
0 1015 3242
0 1016 3412
0 1018 3583
0 1020 3754
0 1022 3924
0 1024 4095
0 1194 0
0 1194 178
0 1194 356
0 1194 533
0 1194 702
0 1194 866
0 1194 1030
0 1194 1194
0 1186 1365
0 1179 1536
0 1175 1706
0 1176 1877
0 1177 2048
0 1178 2218
0 1178 2389
0 1180 2559
0 1181 2730
0 1182 2901
0 1183 3071
0 1185 3242
0 1187 3412
0 1188 3583
0 1190 3754
0 1192 3924
0 1194 4095
0 1365 0
0 1365 178
0 1365 356
0 1365 533
0 1365 709
0 1365 872
0 1365 1036
0 1365 1200
0 1365 1365
0 1357 1536
0 1350 1706
0 1345 1877
0 1346 2048
0 1347 2218
0 1348 2389
0 1349 2559
0 1350 2730
0 1352 2901
0 1353 3071
0 1355 3242
0 1357 3412
0 1359 3583
0 1361 3754
0 1363 3924
0 1365 4095
0 1536 0
0 1536 178
0 1536 356
0 1536 533
0 1536 709
0 1536 878
0 1536 1041
0 1536 1206
0 1536 1370
0 1535 1536
0 1528 1706
0 1522 1877
0 1517 2048
0 1516 2218
0 1518 2389
0 1519 2559
0 1520 2730
0 1522 2901
0 1523 3071
0 1525 3242
0 1527 3412
0 1529 3583
0 1531 3754
0 1533 3924
0 1536 4095
0 1706 0
0 1706 178
0 1706 356
0 1706 533
0 1706 709
0 1706 884
0 1706 1047
0 1706 1211
0 1706 1376
0 1706 1541
0 1706 1706
0 1699 1877
0 1694 2048
0 1689 2218
0 1687 2389
0 1689 2559
0 1690 2730
0 1692 2901
0 1693 3071
0 1695 3242
0 1697 3412
0 1699 3583
0 1701 3754
0 1704 3924
0 1706 4095
0 1877 0
0 1877 178
0 1877 356
0 1877 533
0 1877 709
0 1877 884
0 1877 1053
0 1877 1217
0 1877 1381
0 1877 1546
0 1877 1711
0 1877 1877
0 1870 2048
0 1865 2218
0 1861 2389
0 1858 2559
0 1860 2730
0 1861 2901
0 1863 3071
0 1865 3242
0 1867 3412
0 1870 3583
0 1872 3754
0 1874 3924
0 1877 4095
0 2048 0
0 2048 178
0 2048 356
0 2048 533
0 2048 709
0 2048 884
0 2048 1059
0 2048 1222
0 2048 1386
0 2048 1550
0 2048 1716
0 2048 1881
0 2047 2048
0 2042 2218
0 2037 2389
0 2034 2559
0 2031 2730
0 2031 2901
0 2033 3071
0 2035 3242
0 2038 3412
0 2040 3583
0 2042 3754
0 2045 3924
0 2047 4095
0 2218 0
0 2218 179
0 2218 356
0 2218 533
0 2218 709
0 2218 884
0 2218 1059
0 2218 1228
0 2218 1391
0 2218 1555
0 2218 1720
0 2218 1886
0 2218 2052
0 2218 2218
0 2213 2389
0 2209 2559
0 2206 2730
0 2204 2901
0 2203 3071
0 2205 3242
0 2208 3412
0 2210 3583
0 2213 3754
0 2215 3924
0 2218 4095
0 2389 0
0 2389 179
0 2389 356
0 2389 533
0 2389 709
0 2389 884
0 2389 1059
0 2389 1234
0 2389 1397
0 2389 1560
0 2389 1725
0 2389 1890
0 2389 2056
0 2389 2222
0 2388 2389
0 2384 2559
0 2380 2730
0 2378 2901
0 2376 3071
0 2376 3242
0 2378 3412
0 2380 3583
0 2383 3754
0 2386 3924
0 2389 4095
0 2559 0
0 2559 179
0 2559 356
0 2559 533
0 2559 709
0 2559 884
0 2559 1059
0 2559 1234
0 2559 1402
0 2559 1565
0 2559 1729
0 2559 1894
0 2559 2059
0 2559 2226
0 2559 2392
0 2559 2559
0 2555 2730
0 2552 2901
0 2550 3071
0 2549 3242
0 2549 3412
0 2551 3583
0 2554 3754
0 2556 3924
0 2559 4095
0 2730 0
0 2730 179
0 2730 356
0 2730 533
0 2730 709
0 2730 884
0 2730 1059
0 2730 1234
0 2730 1407
0 2730 1570
0 2730 1734
0 2730 1898
0 2730 2063
0 2730 2229
0 2730 2396
0 2730 2563
0 2730 2730
0 2726 2901
0 2724 3071
0 2722 3242
0 2722 3412
0 2722 3583
0 2724 3754
0 2727 3924
0 2730 4095
0 2901 0
0 2901 179
0 2901 356
0 2901 533
0 2901 709
0 2901 885
0 2901 1059
0 2901 1234
0 2901 1407
0 2901 1575
0 2901 1738
0 2901 1902
0 2901 2067
0 2901 2233
0 2901 2399
0 2901 2566
0 2901 2733
0 2900 2901
0 2897 3071
0 2895 3242
0 2894 3412
0 2894 3583
0 2895 3754
0 2898 3924
0 2901 4095
0 3071 0
0 3071 179
0 3071 356
0 3071 533
0 3071 709
0 3071 885
0 3071 1059
0 3071 1234
0 3071 1407
0 3071 1580
0 3071 1743
0 3071 1907
0 3071 2071
0 3071 2236
0 3071 2402
0 3071 2568
0 3071 2735
0 3071 2903
0 3071 3071
0 3068 3242
0 3067 3412
0 3067 3583
0 3067 3754
0 3069 3924
0 3071 4095
0 3242 1
0 3242 179
0 3242 356
0 3242 533
0 3242 709
0 3242 885
0 3242 1059
0 3242 1234
0 3242 1407
0 3242 1580
0 3242 1748
0 3242 1911
0 3242 2075
0 3242 2240
0 3242 2405
0 3242 2571
0 3242 2738
0 3242 2905
0 3242 3073
0 3242 3242
0 3240 3412
0 3239 3583
0 3239 3754
0 3240 3924
0 3242 4095
0 3412 1
0 3412 179
0 3412 356
0 3412 533
0 3412 709
0 3412 885
0 3412 1059
0 3412 1234
0 3412 1407
0 3412 1580
0 3412 1752
0 3412 1915
0 3412 2079
0 3412 2243
0 3412 2408
0 3412 2574
0 3412 2741
0 3412 2908
0 3412 3075
0 3412 3244
0 3412 3412
0 3411 3583
0 3410 3754
0 3411 3924
0 3412 4095
0 3583 1
0 3583 179
0 3583 356
0 3583 533
0 3583 709
0 3583 885
0 3583 1059
0 3583 1234
0 3583 1407
0 3583 1580
0 3583 1752
0 3583 1920
0 3583 2083
0 3583 2247
0 3583 2412
0 3583 2577
0 3583 2743
0 3583 2910
0 3583 3077
0 3583 3245
0 3583 3414
0 3583 3583
0 3582 3754
0 3582 3924
0 3583 4095
0 3754 1
0 3754 179
0 3754 356
0 3754 533
0 3754 709
0 3754 885
0 3754 1059
0 3754 1234
0 3754 1407
0 3754 1580
0 3754 1752
0 3754 1924
0 3754 2087
0 3754 2251
0 3754 2415
0 3754 2580
0 3754 2746
0 3754 2912
0 3754 3079
0 3754 3247
0 3754 3415
0 3754 3584
0 3754 3754
0 3753 3924
0 3754 4095
0 3924 1
0 3924 179
0 3924 356
0 3924 533
0 3924 709
0 3924 885
0 3924 1060
0 3924 1234
0 3924 1407
0 3924 1580
0 3924 1752
0 3924 1924
0 3924 2091
0 3924 2254
0 3924 2418
0 3924 2583
0 3924 2748
0 3924 2914
0 3924 3081
0 3924 3249
0 3924 3417
0 3924 3585
0 3924 3755
0 3924 3924
0 3924 4095
0 4095 1
0 4095 179
0 4095 356
0 4095 533
0 4095 709
0 4095 885
0 4095 1060
0 4095 1234
0 4095 1407
0 4095 1580
0 4095 1752
0 4095 1924
0 4095 2095
0 4095 2258
0 4095 2422
0 4095 2586
0 4095 2751
0 4095 2917
0 4095 3083
0 4095 3250
0 4095 3418
0 4095 3586
0 4095 3755
0 4095 3925
0 4095 4095
171 0 0
170 0 171
156 0 341
152 0 512
150 0 683
147 0 853
146 0 1024
144 0 1194
143 0 1365
142 0 1536
141 0 1706
141 0 1877
141 0 2048
142 0 2218
142 0 2389
144 0 2559
145 0 2730
147 0 2901
149 0 3071
152 0 3242
155 0 3412
158 0 3583
162 0 3754
166 0 3924
171 0 4095
168 171 1
113 151 171
111 151 341
110 151 512
109 150 683
109 150 853
109 150 1024
110 150 1194
110 151 1365
112 151 1536
113 151 1706
115 152 1877
117 153 2048
120 153 2218
122 154 2389
126 156 2559
129 157 2730
133 158 2901
137 159 3071
142 161 3242
147 163 3412
152 165 3583
158 166 3754
164 168 3924
171 171 4095
160 341 6
132 341 190
115 323 341
103 319 512
103 319 683
103 319 853
103 319 1024
104 319 1194
105 320 1365
106 320 1536
108 321 1706
110 321 1877
113 322 2048
116 323 2218
119 324 2389
123 325 2559
127 326 2730
131 328 2901
135 329 3071
140 331 3242
146 333 3412
151 335 3583
157 337 3754
164 339 3924
171 341 4095
151 512 10
132 512 190
119 512 367
117 494 512
96 487 683
97 487 853
97 488 1024
98 488 1194
100 488 1365
101 489 1536
104 490 1706
106 490 1877
109 491 2048
112 492 2218
116 494 2389
120 495 2559
124 496 2730
128 498 2901
133 499 3071
139 501 3242
144 503 3412
150 505 3583
157 507 3754
164 510 3924
171 512 4095
145 683 13
132 683 190
119 683 367
121 683 537
120 666 683
93 657 853
91 656 1024
93 657 1194
94 657 1365
96 658 1536
99 659 1706
102 660 1877
105 661 2048
108 662 2218
112 663 2389
117 665 2559
121 666 2730
126 668 2901
131 669 3071
137 671 3242
143 673 3412
149 675 3583
156 678 3754
164 680 3924
171 682 4095
145 853 13
131 853 190
119 853 367
108 853 544
124 853 706
122 837 853
97 829 1024
87 825 1194
89 826 1365
91 827 1536
94 828 1706
97 829 1877
101 830 2048
105 831 2218
109 833 2389
114 834 2559
118 836 2730
124 838 2901
129 839 3071
135 841 3242
142 843 3412
149 846 3583
156 848 3754
164 851 3924
171 853 4095
145 1024 13
131 1024 190
119 1024 367
108 1024 544
111 1024 713
126 1024 876
124 1009 1024
101 1001 1194
84 995 1365
86 996 1536
90 997 1706
93 998 1877
97 999 2048
101 1001 2218
106 1002 2389
111 1004 2559
116 1006 2730
121 1007 2901
128 1009 3071
135 1011 3242
142 1014 3412
149 1016 3583
156 1018 3754
164 1021 3924
171 1024 4095
145 1194 13
131 1194 190
118 1194 367
107 1194 544
98 1194 719
114 1194 882
128 1194 1045
127 1180 1194
105 1173 1365
86 1166 1536
85 1166 1706
89 1167 1877
93 1169 2048
97 1170 2218
102 1172 2389
107 1174 2559
114 1175 2730
121 1177 2901
128 1179 3071
135 1182 3242
142 1184 3412
149 1186 3583
156 1189 3754
164 1192 3924
171 1194 4095
144 1365 13
130 1365 190
118 1365 367
107 1365 544
98 1365 719
101 1365 888
116 1365 1051
130 1365 1214
129 1351 1365
109 1345 1536
91 1339 1706
84 1336 1877
89 1338 2048
94 1340 2218
100 1341 2389
107 1343 2559
114 1345 2730
121 1347 2901
128 1349 3071
135 1352 3242
142 1354 3412
149 1357 3583
156 1359 3754
164 1362 3924
171 1365 4095
144 1536 13
130 1536 190
118 1536 367
107 1536 544
97 1536 719
89 1536 895
105 1536 1057
119 1536 1220
132 1536 1384
132 1523 1536
112 1517 1706
97 1511 1877
85 1507 2048
92 1509 2218
100 1511 2389
107 1513 2559
114 1515 2730
121 1517 2901
128 1519 3071
135 1522 3242
142 1524 3412
149 1527 3583
156 1530 3754
164 1533 3924
171 1536 4095
144 1706 13
130 1706 190
118 1706 367
107 1706 544
97 1706 719
89 1706 895
93 1706 1063
108 1706 1226
122 1706 1389
134 1706 1553
134 1694 1706
116 1689 1877
102 1684 2048
92 1680 2218
100 1680 2389
107 1682 2559
114 1685 2730
121 1687 2901
128 1689 3071
135 1692 3242
142 1694 3412
149 1697 3583
156 1700 3754
164 1703 3924
171 1706 4095
