Creative/Increase skin variation.3dl
#25pt 3DLUT created by 3D LUT Creator Pro (c) Oleg Sharonov
#Copyright Oleg Sharonov
#INPUTGAMMA sRGB IEC61966-2.1 v.2.10
#IMAGEPROFILE sRGB IEC61966-2.1 v.2.10
#OUTPUTGAMMA sRGB IEC61966-2.1 v.2.10
0 43 86 128 171 214 256 299 341 384 427 469 512 555 597 640 682 725 768 810 853 896 938 981 1023 
47 139 166
51 151 187
54 166 215
63 196 265
72 231 327
85 279 399
101 336 485
120 398 573
158 468 667
233 541 757
306 617 843
379 692 931
452 767 1019
522 839 1106
593 912 1194
659 983 1281
724 1055 1369
785 1127 1455
847 1199 1542
907 1270 1627
966 1341 1712
1024 1411 1796
1076 1474 1871
1076 1474 1871
1076 1474 1871
66 347 166
51 292 292
63 223 292
62 193 260
71 228 323
85 277 397
101 334 481
119 396 570
154 466 664
230 539 755
304 616 842
376 691 929
450 766 1018
522 837 1105
591 911 1193
659 982 1280
723 1055 1368
785 1126 1454
846 1198 1541
907 1270 1626
965 1340 1711
1024 1411 1796
1076 1474 1871
1076 1474 1871
1076 1474 1871
94 576 166
77 532 246
55 472 449
78 380 470
80 274 383
83 274 393
99 329 474
119 393 566
149 462 658
227 536 750
304 614 840
376 690 928
448 763 1015
520 836 1103
590 909 1191
658 981 1279
723 1054 1367
784 1125 1453
845 1197 1539
906 1269 1625
965 1339 1710
1023 1410 1794
1076 1474 1871
1076 1474 1871
1076 1474 1871
135 819 166
119 792 180
97 754 391
64 685 636
93 588 675
119 468 618
98 325 468
118 389 561
145 458 653
224 532 746
298 611 836
374 687 924
446 761 1011
518 834 1101
588 907 1188
656 979 1276
722 1052 1364
783 1124 1451
844 1195 1537
905 1267 1624
964 1338 1709
1022 1409 1793
1076 1474 1871
1076 1474 1871
1076 1474 1871
290 1057 166
249 1036 166
191 1007 304
121 961 574
74 893 822
107 802 871
217 687 837
194 550 740
140 454 649
217 527 740
295 604 830
369 683 919
441 757 1006
514 831 1096
586 905 1185
653 976 1273
719 1049 1362
780 1121 1448
843 1194 1535
903 1265 1621
962 1336 1706
1020 1407 1791
1076 1474 1871
1076 1474 1871
1076 1474 1871
441 1298 166
410 1281 166
369 1259 180
295 1224 485
177 1172 766
88 1102 1005
119 1012 1065
312 902 1042
356 779 972
290 625 839
287 598 823
364 677 912
437 754 1002
510 826 1091
583 900 1181
650 973 1268
716 1046 1357
778 1118 1444
839 1191 1532
900 1262 1618
960 1333 1703
1018 1404 1787
1076 1474 1871
1076 1474 1871
1076 1474 1871
590 1539 166
567 1527 166
533 1508 166
478 1479 355
393 1439 687
261 1383 950
106 1311 1189
130 1221 1260
391 1116 1245
500 996 1194
471 863 1091
374 694 929
430 747 994
506 822 1085
577 894 1174
647 969 1264
712 1042 1351
776 1115 1440
837 1187 1527
897 1258 1613
957 1330 1699
1017 1402 1785
1074 1473 1869
1076 1474 1871
1076 1474 1871
730 1782 166
712 1771 166
687 1756 166
645 1732 173
581 1699 573
488 1654 878
346 1595 1135
127 1522 1373
145 1433 1455
461 1329 1445
615 1211 1406
626 1086 1325
574 940 1200
498 815 1077
570 888 1166
641 963 1256
707 1036 1345
771 1109 1434
833 1182 1521
894 1255 1609
954 1327 1695
1013 1398 1780
1071 1470 1865
1076 1474 1871
1076 1474 1871
861 2024 166
846 2015 166
826 2001 166
793 1982 166
745 1954 403
677 1916 784
577 1868 1067
428 1808 1321
184 1733 1559
173 1645 1648
520 1543 1644
701 1429 1613
758 1306 1551
734 1173 1448
661 1013 1300
634 956 1248
703 1030 1339
766 1104 1427
829 1177 1516
890 1250 1603
950 1322 1689
1009 1393 1775
1068 1465 1860
1076 1474 1871
1076 1474 1871
991 2260 166
978 2253 166
960 2242 166
933 2225 166
894 2202 166
838 2171 650
764 2131 981
662 2082 1255
510 2020 1506
264 1944 1744
194 1857 1841
572 1757 1841
773 1646 1817
876 1524 1769
871 1399 1683
827 1255 1562
739 1085 1397
761 1097 1419
823 1171 1508
885 1244 1596
945 1316 1683
1006 1388 1769
1064 1460 1854
1076 1474 1871
1076 1474 1871
1118 2490 166
1107 2483 166
1092 2474 166
1068 2460 166
1035 2440 166
989 2414 445
928 2380 870
848 2338 1174
741 2287 1443
588 2226 1692
338 2153 1927
224 2069 2034
617 1971 2038
836 1863 2018
965 1744 1978
996 1622 1910
973 1489 1809
914 1338 1673
818 1164 1500
879 1237 1588
940 1310 1675
1001 1383 1762
1060 1455 1848
1076 1474 1871
1076 1474 1871
1243 2714 166
1233 2708 166
1220 2700 166
1200 2688 166
1171 2671 166
1132 2648 166
1081 2619 719
1015 2584 1075
929 2541 1366
818 2489 1630
664 2428 1876
416 2356 2114
275 2274 2230
656 2181 2238
893 2078 2222
1040 1964 2188
1113 1843 2133
1104 1718 2044
1067 1579 1929
997 1421 1783
934 1303 1667
995 1376 1754
1055 1448 1840
1076 1474 1871
1076 1474 1871
1367 2931 166
1359 2926 166
1347 2919 166
1329 2908 166
1304 2893 166
1270 2874 166
1226 2849 481
1169 2819 947
1098 2782 1274
1007 2738 1557
892 2687 1816
735 2625 2062
494 2555 2301
330 2475 2425
689 2386 2435
942 2287 2424
1108 2180 2395
1213 2063 2350
1227 1944 2276
1206 1815 2177
1158 1671 2050
1078 1506 1892
1050 1442 1832
1076 1474 1871
1076 1474 1871
1489 3139 166
1482 3135 166
1472 3129 166
1456 3120 166
1433 3107 166
1403 3090 166
1365 3069 166
1316 3043 778
1255 3011 1161
1179 2974 1471
1084 2929 1746
964 2878 2001
806 2818 2249
570 2749 2486
388 2672 2618
715 2586 2630
987 2492 2623
1168 2390 2599
1289 2279 2561
1342 2165 2502
1334 2046 2416
1302 1913 2308
1245 1763 2171
1132 1561 1963
1076 1474 1871
1610 3340 168
1604 3336 168
1594 3331 168
1580 3323 168
1560 3312 168
1533 3297 168
1499 3279 166
1456 3256 508
1403 3229 1019
1338 3196 1367
1258 3158 1664
1159 3114 1933
1036 3063 2189
875 3005 2435
645 2937 2668
443 2864 2808
736 2782 2822
1025 2692 2818
1221 2595 2799
1358 2490 2766
1448 2378 2720
1453 2267 2647
1435 2146 2552
1378 1991 2412
1260 1771 2187
1730 3525 168
1724 3522 168
1715 3518 168
1702 3512 168
1684 3503 168
1660 3491 168
1630 3476 168
1592 3457 168
1545 3434 830
1488 3407 1241
1419 3374 1568
1335 3336 1855
1233 3292 2121
1107 3243 2376
943 3186 2617
718 3121 2847
502 3050 2994
750 2972 3011
1057 2887 3010
1269 2795 2995
1419 2696 2967
1524 2590 2927
1566 2481 2868
1548 2359 2773
1473 2187 2606
1848 3680 168
1842 3678 168
1834 3675 168
1823 3670 168
1806 3663 168
1785 3654 168
1758 3643 168
1723 3628 168
1681 3611 529
1631 3590 1084
1570 3566 1453
1498 3537 1765
1411 3502 2045
1306 3462 2310
1178 3415 2560
1013 3360 2797
790 3298 3022
561 3230 3177
759 3157 3194
1083 3076 3197
1309 2989 3185
1474 2896 3162
1592 2795 3127
1667 2685 3076
1620 2544 2947
1965 3813 168
1960 3811 168
1953 3808 168
1941 3805 168
1927 3799 168
1907 3792 168
1882 3783 168
1852 3771 168
1814 3758 168
1769 3742 875
1715 3723 1316
1651 3701 1659
1576 3675 1958
1486 3644 2236
1379 3609 2496
1248 3569 2742
1082 3522 2973
862 3467 3192
620 3404 3354
762 3335 3373
1103 3259 3377
1344 3176 3369
1522 3088 3350
1655 2993 3321
1671 2870 3226
2080 3931 168
2075 3930 168
2069 3928 168
2059 3924 168
2045 3919 168
2027 3913 168
2005 3906 168
1977 3896 168
1943 3885 168
1902 3872 543
1854 3856 1144
1797 3838 1535
1730 3818 1859
1652 3794 2152
1560 3767 2424
1451 3736 2679
1318 3701 2919
1152 3660 3144
935 3614 3357
680 3561 3514
758 3502 3532
1118 3434 3537
1375 3356 3533
1567 3273 3519
1626 3171 3458
2193 4044 168
2189 4042 168
2183 4040 168
2174 4037 168
2161 4033 168
2145 4027 168
2124 4020 168
2099 4012 168
2068 4002 168
2031 3990 168
1988 3977 916
1937 3961 1385
1877 3943 1745
1808 3924 2056
1727 3901 2344
1633 3876 2610
1521 3848 2858
1388 3816 3091
1223 3780 3310
1010 3740 3505
737 3695 3652
785 3645 3670
1129 3588 3676
1402 3523 3674
1518 3443 3637
2305 4095 173
2302 4095 182
2297 4095 180
2288 4095 178
2277 4095 180
2262 4095 175
2242 4095 175
2219 4095 178
2191 4095 175
2157 4095 175
2118 4094 551
2072 4079 1199
2018 4063 1610
1956 4044 1949
1883 4024 2252
1800 4002 2531
1705 3978 2791
1593 3951 3033
1459 3921 3259
1295 3888 3464
1086 3852 3634
797 3811 3775
826 3769 3792
1137 3720 3799
1339 3662 3780
2417 4095 178
2413 4095 175
2408 4095 173
2401 4095 180
2389 4095 173
2376 4095 180
2359 4095 180
2337 4095 178
2311 4095 178
2280 4095 178
2244 4095 178
2202 4095 955
2153 4095 1450
2098 4095 1826
2034 4095 2150
1961 4095 2446
1876 4095 2717
1778 4077 2968
1663 4050 3202
1529 4021 3418
1367 3989 3597
1162 3955 3748
879 3917 3880
868 3878 3905
1071 3834 3902
2526 4095 178
2523 4095 175
2519 4095 182
2512 4095 180
2502 4095 182
2488 4095 178
2472 4095 180
2452 4095 178
2428 4095 178
2400 4095 178
2367 4095 178
2328 4095 545
2284 4095 1250
2233 4095 1683
2175 4095 2034
2109 4095 2348
2034 4095 2634
1949 4095 2896
1850 4095 3139
1735 4095 3365
1603 4095 3557
1441 4089 3715
1239 4055 3852
963 4018 3979
661 3983 4015
2635 4095 180
2632 4095 178
2628 4095 178
2621 4095 178
2612 4095 178
2600 4095 182
2584 4095 175
2566 4095 185
2544 4095 182
2517 4095 182
2487 4095 182
2451 4095 178
2410 4095 983
2364 4095 1509
2311 4095 1900
2252 4095 2238
2184 4095 2541
2107 4095 2816
2021 4095 3070
1922 4095 3305
1809 4095 3511
1674 4095 3679
1516 4095 3822
1316 4095 3952
1045 4095 4079
2743 4095 180
2740 4095 180
2736 4095 175
2729 4095 178
2721 4095 178
2710 4095 182
2695 4095 175
2678 4095 185
2658 4095 185
2633 4095 185
2604 4095 175
2571 4095 178
2534 4095 526
2491 4095 1294
2443 4095 1747
2389 4095 2114
2327 4095 2437
2258 4095 2728
2181 4095 2994
2093 4095 3239
1994 4095 3459
1880 4095 3639
1746 4095 3789
1586 4095 3923
1387 4095 4052
103 139 168
66 164 220
59 176 237
63 196 265
72 231 327
85 279 399
101 336 485
120 398 573
158 468 667
233 541 757
306 617 843
379 692 931
452 767 1019
522 839 1106
593 912 1194
661 984 1282
724 1055 1369
787 1128 1456
847 1199 1542
907 1270 1627
966 1341 1712
1025 1412 1797
1076 1474 1871
1076 1474 1871
1076 1474 1871
125 327 166
108 269 295
75 216 297
63 196 265
71 228 323
85 277 397
101 334 481
119 396 570
154 466 664
230 539 755
304 616 842
376 691 929
450 766 1018
522 837 1105
591 911 1193
659 983 1281
723 1055 1368
785 1127 1455
846 1198 1541
907 1270 1626
965 1340 1711
1024 1411 1796
1076 1474 1871
1076 1474 1871
1076 1474 1871
184 562 166
134 517 251
114 456 453
99 367 464
77 256 362
83 274 393
99 329 474
119 393 566
154 464 661
227 536 750
304 614 840
376 690 928
448 763 1015
520 836 1103
591 910 1192
658 981 1279
723 1054 1367
784 1125 1453
846 1197 1540
906 1269 1625
965 1339 1710
1023 1410 1794
1076 1474 1871
1076 1474 1871
1076 1474 1871
290 810 166
252 781 185
194 742 395
121 672 639
113 576 668
116 450 601
98 325 468
118 389 561
149 460 656
224 532 746
298 611 836
374 687 924
446 761 1011
518 834 1101
588 907 1188
656 979 1276
722 1052 1364
783 1124 1451
844 1195 1537
905 1267 1624
964 1338 1709
1022 1409 1793
1076 1474 1871
1076 1474 1871
1076 1474 1871
410 1050 166
379 1029 166
333 1000 309
255 953 578
132 885 824
126 794 867
214 675 829
184 536 726
140 454 649
221 528 742
295 604 830
369 683 919
443 759 1008
514 831 1096
586 905 1185
653 976 1273
719 1049 1362
780 1121 1448
843 1194 1535
903 1265 1621
962 1336 1706
1020 1407 1791
1076 1474 1871
1076 1474 1871
1076 1474 1871
537 1291 166
512 1275 166
476 1253 185
414 1217 488
320 1165 768
166 1095 1006
140 1005 1062
312 893 1036
351 771 963
284 614 829
287 598 823
364 677 912
437 754 1002
510 826 1091
583 900 1181
650 973 1268
716 1046 1357
778 1118 1444
839 1191 1532
900 1262 1618
960 1333 1703
1018 1405 1788
1076 1474 1871
1076 1474 1871
1076 1474 1871
665 1534 166
645 1521 166
617 1503 166
570 1475 360
496 1434 690
388 1378 952
217 1305 1190
184 1216 1256
393 1109 1240
496 987 1187
467 856 1084
369 685 920
430 747 994
506 822 1085
577 894 1174
647 969 1264
712 1042 1351
776 1115 1440
837 1187 1527
897 1258 1613
957 1331 1700
1017 1402 1785
1075 1473 1869
1076 1474 1871
1076 1474 1871
789 1778 166
773 1767 166
750 1752 166
714 1728 178
659 1695 576
577 1649 880
457 1591 1136
270 1517 1375
224 1429 1452
463 1324 1441
617 1205 1402
623 1080 1320
569 932 1192
498 815 1077
572 889 1168
641 963 1256
708 1036 1346
771 1109 1434
834 1183 1522
894 1255 1609
954 1327 1695
1013 1398 1780
1071 1470 1865
1076 1474 1871
1076 1474 1871
912 2021 166
897 2011 166
878 1998 166
848 1978 166
803 1950 407
741 1913 786
655 1865 1068
526 1804 1321
328 1729 1560
264 1642 1647
524 1539 1641
701 1424 1610
757 1301 1546
731 1167 1443
656 1007 1294
634 956 1248
703 1030 1339
766 1104 1427
829 1177 1516
890 1250 1603
950 1322 1689
1009 1393 1775
1068 1465 1860
1076 1474 1871
1076 1474 1871
1034 2257 166
1022 2249 166
1006 2239 166
979 2222 166
942 2199 166
891 2168 653
821 2128 982
730 2078 1256
597 2016 1508
388 1941 1745
304 1854 1840
576 1754 1839
774 1642 1814
875 1520 1766
868 1395 1679
825 1251 1557
735 1080 1391
761 1098 1420
823 1171 1508
885 1244 1596
946 1317 1683
1006 1389 1769
1064 1460 1854
1076 1474 1871
1076 1474 1871
1156 2488 166
1145 2481 166
1130 2471 166
1108 2457 166
1076 2437 166
1033 2411 449
975 2377 871
899 2335 1175
800 2285 1444
664 2223 1692
452 2150 1929
349 2066 2033
620 1968 2036
837 1859 2016
965 1741 1975
994 1618 1906
970 1485 1804
911 1333 1669
818 1164 1500
879 1237 1588
941 1311 1676
1001 1383 1762
1060 1455 1848
1076 1474 1871
1076 1474 1871
