Creative/Increase skin variation.3dl
#25pt 3DLUT created by 3D LUT Creator Pro (c) Oleg Sharonov
#Copyright Oleg Sharonov
#INPUTGAMMA sRGB IEC61966-2.1 v.2.10
#IMAGEPROFILE sRGB IEC61966-2.1 v.2.10
#OUTPUTGAMMA sRGB IEC61966-2.1 v.2.10
0 256 512 768 1023
47 139 166
101 336 485
452 767 1019
847 1199 1542
1076 1474 1871
590 1539 166
106 1311 1189
430 747 994
837 1187 1527
1076 1474 1871
1367 2931 166
1226 2849 481
494 2555 2301
1227 1944 2276
1076 1474 1871
2080 3931 168
2005 3906 168
1730 3818 1859
935 3614 3357
1626 3171 3458
2743 4095 180
2695 4095 175
2534 4095 526
2181 4095 2994
1387 4095 4052
1119 149 220
579 497 804
454 769 1022
848 1200 1543
1076 1474 1871
1316 1461 166
1161 1219 1193
486 779 1048
838 1188 1529
1076 1474 1871
1760 2902 168
1663 2819 535
1281 2517 2310
1209 1897 2233
1076 1474 1871
2317 3922 168
2255 3896 168
2033 3807 1870
1483 3599 3362
1632 3148 3441
2902 4095 185
2859 4095 178
2713 4095 578
2404 4095 3000
1775 4095 4054
2229 186 389
1987 574 1187
1354 1091 1594
1068 1336 1787
1076 1474 1871
2323 1167 166
2199 903 1166
1472 1083 1620
1115 1353 1834
1076 1474 1871
2547 2804 166
2493 2715 682
2298 2395 2310
1620 1878 2344
1121 1506 1923
2899 3892 168
2856 3865 168
2710 3771 1907
2402 3547 3377
1883 3126 3520
3330 4095 187
3297 4095 180
3186 4095 717
2959 4095 3019
2555 4095 4061
3242 256 639
3123 608 1302
2691 1185 2191
2096 1682 2396
1696 1788 2575
3299 176 342
3185 543 1203
2762 1164 2154
2161 1678 2412
1740 1801 2625
3430 2595 166
3400 2492 888
3249 2152 2290
2449 1775 2571
1893 1848 2702
3620 3829 168
3597 3800 168
3520 3695 1974
3340 3438 3384
2610 3040 3796
3840 4095 178
3823 4095 185
3767 4095 917
3651 4095 3056
3434 4095 4074
4000 363 897
3951 668 1437
3772 1232 2327
3395 1772 3072
2958 2070 3087
4024 287 725
3977 614 1347
3803 1204 2287
3433 1759 3079
2998 2071 3109
4093 2183 168
4078 2044 1133
3998 1609 2230
3543 1720 3082
3123 2072 3180
4095 3714 166
4095 3679 166
4095 3547 2080
4031 3241 3364
3802 2707 3818
4095 4095 194
4095 4095 194
4095 4095 1160
4095 4095 3114
4095 4095 4095
