Creative/Increase skin variation.3dl
#25pt 3DLUT created by 3D LUT Creator Pro (c) Oleg Sharonov
#Copyright Oleg Sharonov
#INPUTGAMMA sRGB IEC61966-2.1 v.2.10
#IMAGEPROFILE sRGB IEC61966-2.1 v.2.10
#OUTPUTGAMMA sRGB IEC61966-2.1 v.2.10
0 128 256 384 512 640 768 896 1023
47 139 166
63 196 265
101 336 485
233 541 757
452 767 1019
659 983 1281
847 1199 1542
1024 1411 1796
1076 1474 1871
135 819 166
64 685 636
98 325 468
224 532 746
446 761 1011
656 979 1276
844 1195 1537
1022 1409 1793
1076 1474 1871
590 1539 166
478 1479 355
106 1311 1189
500 996 1194
430 747 994
647 969 1264
837 1187 1527
1017 1402 1785
1076 1474 1871
991 2260 166
933 2225 166
764 2131 981
264 1944 1744
773 1646 1817
827 1255 1562
823 1171 1508
1006 1388 1769
1076 1474 1871
1367 2931 166
1329 2908 166
1226 2849 481
1007 2738 1557
494 2555 2301
942 2287 2424
1227 1944 2276
1078 1506 1892
1076 1474 1871
1730 3525 168
1702 3512 168
1630 3476 168
1488 3407 1241
1233 3292 2121
718 3121 2847
1057 2887 3010
1524 2590 2927
1473 2187 2606
2080 3931 168
2059 3924 168
2005 3906 168
1902 3872 543
1730 3818 1859
1451 3736 2679
935 3614 3357
1118 3434 3537
1626 3171 3458
2417 4095 178
2401 4095 180
2359 4095 180
2280 4095 178
2153 4095 1450
1961 4095 2446
1663 4050 3202
1162 3955 3748
1071 3834 3902
2743 4095 180
2729 4095 178
2695 4095 175
2633 4095 185
2534 4095 526
2389 4095 2114
2181 4095 2994
1880 4095 3639
1387 4095 4052
492 141 180
132 248 405
102 338 488
233 541 757
452 767 1019
661 984 1282
847 1199 1542
1025 1412 1797
1076 1474 1871
633 774 166
526 630 639
118 356 540
227 534 748
446 762 1013
658 980 1277
845 1196 1538
1023 1409 1793
1076 1474 1871
871 1518 166
803 1457 374
593 1285 1195
486 964 1166
432 749 996
647 969 1264
837 1188 1528
1017 1402 1785
1076 1474 1871
1169 2247 166
1122 2212 166
992 2117 988
690 1928 1747
777 1628 1804
815 1234 1541
823 1171 1508
1006 1389 1769
1076 1474 1871
1492 2922 166
1459 2900 166
1368 2841 496
1183 2729 1561
812 2544 2303
949 2276 2415
1222 1931 2264
1068 1490 1874
1076 1474 1871
1823 3520 168
1797 3507 168
1730 3471 168
1601 3401 1246
1375 3286 2124
957 3114 2849
1064 2879 3004
1524 2581 2920
1468 2176 2595
2151 3929 168
2131 3921 168
2080 3903 168
1983 3869 556
1823 3815 1862
1567 3733 2681
1125 3609 3358
1125 3428 3534
1628 3165 3453
2474 4095 178
2457 4095 175
2418 4095 182
2342 4095 180
2221 4095 1455
2039 4095 2448
1761 4048 3203
1313 3952 3748
1077 3831 3900
2789 4095 182
2776 4095 180
2743 4095 175
2683 4095 185
2587 4095 545
2446 4095 2116
2247 4095 2996
1962 4095 3639
1509 4095 4052
1119 149 220
940 279 622
579 497 804
395 625 904
454 769 1022
662 986 1285
848 1200 1543
1026 1413 1798
1076 1474 1871
1186 639 166
1109 483 625
668 493 821
432 636 937
448 763 1015
658 981 1279
845 1197 1539
1023 1410 1794
1076 1474 1871
1316 1461 166
1276 1397 417
1161 1219 1193
784 960 1229
486 779 1048
649 971 1266
838 1188 1529
1018 1403 1786
1076 1474 1871
1515 2214 166
1482 2178 166
1393 2081 1006
1215 1886 1756
1071 1603 1807
782 1177 1483
825 1173 1510
1007 1390 1771
1076 1474 1871
1760 2902 168
1733 2878 166
1663 2819 535
1526 2705 1572
1281 2517 2310
1200 2256 2410
1209 1897 2233
1040 1446 1828
1076 1474 1871
2032 3508 168
2011 3494 168
1955 3457 168
1847 3385 1260
1668 3270 2132
1370 3095 2854
1301 2864 2998
1525 2557 2902
1455 2148 2568
2317 3922 168
2300 3915 168
2255 3896 168
2170 3862 592
2033 3807 1870
1819 3724 2686
1483 3599 3362
1386 3418 3529
1632 3148 3441
2609 4095 180
2594 4095 175
2557 4095 175
2489 4095 182
2380 4095 1466
2218 4095 2453
1981 4042 3207
1620 3946 3751
1127 3833 3909
2902 4095 185
2890 4095 180
2859 4095 178
2802 4095 185
2713 4095 578
2584 4095 2123
2404 4095 3000
2153 4095 3642
1775 4095 4054
1689 164 290
1591 289 682
1322 543 1118
977 799 1198
779 925 1340
741 1036 1369
851 1203 1546
1027 1414 1799
1076 1474 1871
1736 299 185
1643 261 621
1377 532 1098
1027 797 1207
805 929 1365
758 1043 1386
847 1199 1542
1025 1412 1797
1076 1474 1871
1818 1353 166
1792 1283 492
1697 1099 1185
1239 908 1332
874 936 1431
800 1061 1427
839 1191 1532
1018 1405 1788
1076 1474 1871
1951 2154 166
1928 2116 166
1868 2012 1037
1745 1813 1750
1411 1580 1858
959 1188 1592
865 1200 1556
1008 1392 1773
1076 1474 1871
2129 2864 166
2109 2840 166
2057 2778 598
1959 2661 1590
1796 2467 2321
1622 2224 2414
1367 1880 2230
992 1372 1749
1076 1474 1871
2340 3484 168
2323 3470 168
2279 3431 168
2195 3358 1284
2062 3240 2145
1854 3062 2862
1713 2840 2992
1657 2533 2892
1430 2097 2516
2575 3910 168
2560 3903 168
2523 3884 168
2452 3849 650
2340 3793 1885
2175 3707 2696
1929 3579 3368
1793 3400 3524
1685 3131 3447
2827 4095 185
2814 4095 182
2781 4095 180
2722 4095 178
2629 4095 1487
2492 4095 2465
2298 4031 3214
2026 3934 3754
1222 3837 3927
3085 4095 180
3075 4095 185
3047 4095 185
2997 4095 182
2918 4095 643
2805 4095 2136
2648 4095 3008
2437 4095 3646
2139 4095 4057
2229 186 389
2167 306 742
1987 574 1187
1700 845 1528
1354 1091 1594
1139 1215 1793
1068 1336 1787
1063 1441 1842
1076 1474 1871
2259 164 285
2200 282 686
2025 555 1161
1735 836 1533
1386 1090 1599
1159 1216 1813
1082 1341 1800
1073 1446 1852
1076 1474 1871
2323 1167 166
2305 1082 592
2199 903 1166
1819 814 1547
1472 1083 1620
1215 1223 1847
1115 1353 1834
1098 1460 1880
1076 1474 1871
2416 2056 166
2400 2015 166
2358 1904 1081
2253 1701 1745
1870 1507 1950
1326 1240 1841
1178 1371 1897
1145 1483 1928
1076 1474 1871
2547 2804 166
2532 2779 166
2493 2715 682
2422 2593 1617
2298 2395 2310
1995 2188 2457
1620 1878 2344
1218 1514 2002
1121 1506 1923
2710 3448 168
2696 3432 168
2661 3392 168
2597 3316 1319
2497 3194 2164
2348 3010 2874
2161 2801 2990
1939 2525 2902
1515 2080 2567
2899 3892 168
2887 3884 168
2856 3865 168
2799 3829 726
2710 3771 1907
2582 3682 2710
2402 3547 3377
2231 3372 3516
1883 3126 3520
3108 4095 185
3097 4095 180
3070 4095 187
3021 4095 187
2943 4095 1518
2831 4091 2480
2677 4014 3224
2470 3916 3759
1386 3840 3956
3330 4095 187
3321 4095 180
3297 4095 180
3253 4095 178
3186 4095 717
3090 4095 2155
2959 4095 3019
2787 4095 3652
2555 4095 4061
2745 216 507
2701 332 811
2579 588 1244
2343 887 1688
2062 1142 1939
1724 1387 1990
1505 1505 2243
1400 1635 2223
1267 1597 2088
2766 193 419
2724 308 763
2604 569 1217
2371 877 1673
2086 1136 1943
1748 1386 1995
1524 1509 2243
1411 1638 2234
1279 1604 2102
2819 834 168
2806 705 705
2668 536 1146
2439 850 1635
2151 1121 1954
1810 1381 2010
1570 1517 2239
1440 1646 2264
1308 1620 2135
2888 1907 166
2876 1862 192
2845 1738 1140
2735 1539 1726
2373 1355 2094
1921 1369 2042
1652 1529 2235
1492 1658 2319
1360 1649 2195
2986 2717 166
2975 2691 166
2946 2623 779
2892 2493 1654
2783 2292 2309
2448 2106 2548
1968 1847 2525
1577 1671 2407
1439 1688 2285
3113 3393 168
3102 3377 166
3075 3334 166
3025 3255 1366
2948 3128 2190
2827 2940 2863
2549 2758 3028
2216 2509 3016
1753 2081 2760
3264 3865 168
3254 3858 168
3229 3837 168
3184 3800 817
3113 3739 1937
3013 3646 2729
2877 3501 3389
2585 3344 3556
2134 3112 3632
3432 4095 190
3424 4095 182
3402 4095 180
3363 4095 187
3299 4095 1556
3209 4068 2501
3087 3991 3237
2930 3891 3766
1887 3831 3987
3595 4095 180
3589 4095 187
3572 4095 182
3541 4095 178
3491 4095 811
3418 4095 2182
3313 4095 3036
3174 4095 3661
2993 4095 4066
3242 256 639
3211 365 892
3123 608 1302
2950 906 1754
2691 1185 2191
2426 1434 2358
2096 1682 2396
1882 1805 2631
1696 1788 2575
3258 233 566
3227 345 848
3141 590 1275
2970 894 1738
2711 1179 2180
2444 1431 2363
2115 1681 2401
1897 1808 2631
1709 1792 2589
3299 176 342
3269 287 720
3185 543 1203
3019 865 1696
2762 1164 2154
2488 1423 2371
2161 1678 2412
1933 1813 2629
1740 1801 2625
3357 1686 168
3348 1631 431
3325 1484 1212
3195 1305 1707
2857 1150 2109
2571 1403 2387
2245 1669 2436
1996 1823 2625
1799 1817 2681
3430 2595 166
3422 2567 166
3400 2492 888
3361 2350 1699
3249 2152 2290
2926 1968 2672
2449 1775 2571
2091 1836 2620
1893 1848 2702
3519 3317 166
3512 3300 166
3493 3255 166
3458 3171 1424
3402 3035 2223
3294 2845 2862
3001 2672 3115
2580 2464 3163
2127 2049 2959
3620 3829 168
3614 3821 168
3597 3800 168
3567 3760 920
3520 3695 1974
3449 3593 2753
3340 3438 3384
3024 3283 3645
2610 3040 3796
3728 4095 192
3722 4095 180
3708 4095 180
3683 4095 180
3643 4095 1609
3584 4039 2528
3502 3960 3257
3388 3856 3776
2884 3773 3959
3840 4095 178
3835 4095 190
3823 4095 185
3801 4095 178
3767 4095 917
3719 4095 2216
3651 4095 3056
3560 4095 3671
3434 4095 4074
3675 306 769
3656 408 984
3604 635 1366
3495 919 1813
3300 1217 2262
3046 1477 2662
2788 1731 2768
2472 1976 2800
2289 1974 2792
3685 284 715
3666 389 945
3615 617 1340
3508 908 1797
3315 1210 2252
3059 1473 2664
2805 1726 2775
2486 1975 2803
2301 1978 2795
3709 226 541
3691 334 834
3642 574 1271
3540 879 1753
3355 1190 2224
3094 1463 2666
2842 1716 2787
2523 1972 2813
2331 1987 2803
3747 1336 168
3742 1264 660
3716 1097 1235
3605 931 1686
3422 1153 2171
3162 1446 2630
2903 1705 2800
2590 1964 2832
2383 2001 2816
3790 2423 168
3785 2391 168
3773 2308 1007
3749 2145 1756
3655 1957 2270
3391 1790 2688
2999 1681 2818
2690 1950 2864
2462 2021 2841
3846 3213 166
3841 3195 166
3829 3146 211
3807 3056 1496
3773 2909 2264
3692 2720 2845
3449 2550 3222
3069 2371 3205
2578 2038 2893
3913 3780 166
3909 3771 166
3897 3748 166
3877 3705 1034
3846 3633 2022
3802 3519 2784
3728 3351 3380
3565 3169 3663
3256 2930 3758
3992 4095 171
3988 4095 168
3977 4095 187
3958 4095 175
3929 4061 1665
3888 4000 2562
3835 3919 3281
3762 3810 3780
3555 3701 3939
4084 4095 173
4080 4095 166
4069 4095 166
4051 4095 178
4023 4095 1027
3985 4095 2256
3935 4095 3083
3873 4095 3685
3793 4095 4083
4000 363 897
3987 460 1084
3951 668 1437
3884 935 1871
3772 1232 2327
3603 1525 2761
3395 1772 3072
3142 2025 3161
2958 2070 3087
4007 343 853
3994 440 1049
3959 653 1412
3892 925 1855
3781 1224 2316
3613 1520 2754
3406 1768 3074
3155 2020 3167
2969 2071 3093
4024 287 725
4011 389 952
3977 614 1347
3911 897 1812
3803 1204 2287
3639 1506 2734
3433 1759 3079
3190 2009 3181
2998 2071 3109
4059 644 441
4047 532 779
4009 538 1222
3945 846 1731
3840 1167 2232
3683 1481 2698
3478 1742 3087
3243 1996 3198
3048 2072 3137
4093 2183 168
4089 2145 171
4078 2044 1133
4059 1850 1804
3998 1609 2230
3765 1539 2666
3543 1720 3082
3315 1981 3213
3123 2072 3180
4095 3076 168
4095 3056 168
4095 3002 553
4095 2902 1577
4079 2738 2313
4011 2540 2820
3882 2300 3283
3521 2220 3360
3224 2071 3238
4095 3714 166
4095 3705 166
4095 3679 166
4095 3630 1157
4095 3547 2080
4095 3415 2820
4031 3241 3364
3876 3064 3703
3802 2707 3818
4095 4095 194
4095 4095 194
4095 4088 190
4095 4059 190
4095 4014 1737
4095 3952 2605
4095 3866 3307
4059 3754 3774
3942 3616 3950
4095 4095 194
4095 4095 194
4095 4095 194
4095 4095 194
4095 4095 1160
4095 4095 2306
4095 4095 3114
4095 4095 3702
4095 4095 4095
