Creative/magenta-blu_to_warm.3dl
#25pt 3DLUT created by 3D LUT Creator Pro (c) Oleg Sharonov
#Copyright Oleg Sharonov
0 128 256 384 512 640 768 896 1023
0 0 0
0 20 200
0 72 495
0 164 790
0 278 1085
0 391 1379
0 504 1674
0 618 1969
0 731 2264
0 410 95
0 477 519
0 528 724
0 563 947
0 612 1200
0 673 1468
0 745 1745
0 825 2028
0 911 2314
0 851 300
0 885 607
0 965 1035
0 1034 1254
0 1060 1446
0 1095 1669
0 1138 1912
0 1189 2168
0 1247 2433
0 1292 515
0 1313 739
0 1365 1114
0 1453 1552
0 1541 1791
0 1564 1967
0 1592 2170
0 1627 2392
0 1668 2629
0 1733 730
0 1748 900
0 1785 1221
0 1849 1626
0 1941 2068
0 2050 2331
0 2070 2497
0 2095 2686
0 2125 2893
0 2174 945
0 2185 1078
0 2213 1352
0 2263 1721
0 2334 2140
0 2429 2585
0 2544 2873
0 2577 3032
0 2600 3211
0 2615 1160
0 2624 1268
0 2646 1503
0 2686 1836
0 2743 2228
0 2820 2654
0 2917 3102
0 3030 3415
0 3085 3570
0 3056 1375
0 3063 1465
0 3082 1667
0 3114 1967
0 3162 2332
0 3226 2738
0 3307 3170
0 3405 3618
0 3517 3958
0 3497 1590
0 3503 1666
0 3518 1842
0 3546 2112
0 3586 2451
0 3641 2836
0 3710 3251
0 3794 3685
0 3893 4095
481 0 1
512 0 82
512 73 441
512 176 758
512 285 1062
511 397 1363
511 508 1661
511 621 1959
511 734 2256
512 458 87
512 512 512
512 533 689
512 568 921
512 616 1180
511 676 1453
511 748 1733
511 827 2018
511 913 2305
501 870 283
512 903 602
512 982 1032
512 1036 1235
512 1061 1431
512 1096 1656
512 1139 1901
511 1190 2158
511 1249 2425
512 1304 508
512 1325 735
512 1377 1111
512 1463 1550
512 1542 1779
512 1565 1957
512 1593 2160
512 1628 2384
512 1669 2622
512 1741 725
512 1756 896
512 1793 1219
512 1857 1624
512 1948 2067
512 2050 2323
512 2071 2490
512 2096 2679
512 2126 2887
511 2180 941
511 2192 1075
511 2220 1350
511 2269 1719
511 2340 2138
512 2435 2584
512 2550 2866
512 2578 3026
512 2601 3206
511 2620 1157
511 2629 1265
511 2651 1500
511 2690 1834
511 2748 2227
511 2825 2653
512 2922 3101
512 3036 3410
512 3086 3565
510 3060 1373
510 3067 1462
510 3086 1665
510 3118 1965
510 3166 2331
510 3230 2737
510 3311 3168
512 3410 3617
512 3522 3954
510 3500 1588
510 3506 1664
510 3522 1840
510 3549 2110
510 3590 2449
510 3644 2834
510 3713 3249
510 3797 3683
512 3897 4095
971 19 4
996 0 4
1024 0 269
1024 147 669
1024 302 1004
1024 412 1320
1023 520 1628
1023 631 1931
1023 742 2233
1024 461 47
1024 454 373
1024 477 590
1024 551 851
1024 626 1129
1024 686 1413
1024 756 1701
1023 834 1991
1023 919 2283
1024 934 275
1024 955 596
1024 1024 1024
1024 1042 1186
1024 1068 1390
1024 1102 1622
1024 1145 1872
1024 1196 2134
1023 1253 2404
997 1334 477
1009 1355 715
1024 1405 1103
1024 1490 1545
1024 1546 1748
1024 1569 1929
1024 1597 2136
1024 1631 2362
1023 1671 2603
1008 1763 705
1017 1777 883
1023 1814 1212
1023 1877 1619
1024 1967 2063
1024 2052 2301
1023 2073 2469
1023 2097 2661
1023 2127 2870
1019 2197 930
1024 2208 1068
1024 2236 1344
1024 2284 1715
1024 2355 2135
1023 2448 2581
1023 2559 2849
1023 2578 3011
1023 2601 3191
1024 2633 1150
1024 2642 1259
1024 2664 1496
1024 2703 1831
1024 2760 2225
1024 2837 2652
1023 2931 3099
1023 3044 3397
1023 3086 3552
1024 3071 1367
1024 3078 1457
1024 3096 1661
1024 3128 1962
1024 3176 2329
1024 3240 2736
1024 3320 3168
1023 3417 3616
1023 3529 3943
1023 3509 1584
1023 3515 1660
1023 3531 1836
1023 3558 2107
1023 3598 2447
1023 3653 2833
1023 3721 3249
1023 3805 3684
1024 3903 4095
1462 123 8
1477 108 8
1516 44 7
1536 80 471
1536 237 888
1536 391 1239
1535 541 1565
1535 648 1881
1535 756 2191
1514 441 15
1529 429 14
1536 423 357
1536 468 709
1536 564 1030
1536 671 1339
1536 770 1642
1536 847 1943
1535 931 2242
1536 953 218
1536 968 571
1536 963 914
1536 983 1093
1536 1043 1314
1535 1111 1560
1536 1154 1820
1536 1204 2090
1536 1262 2367
1536 1410 480
1536 1421 718
1536 1459 1099
1536 1536 1536
1536 1552 1691
1536 1575 1879
1536 1603 2092
1536 1638 2324
1536 1678 2569
1493 1800 669
1503 1815 853
1519 1850 1192
1536 1911 1611
1535 1999 2057
1536 2057 2261
1536 2078 2433
1536 2103 2628
1536 2133 2840
1505 2225 900
1512 2236 1042
1525 2263 1329
1536 2311 1707
1536 2381 2129
1536 2474 2576
1536 2564 2819
1536 2583 2982
1536 2605 3165
1516 2656 1127
1521 2664 1240
1533 2686 1485
1535 2725 1823
1535 2782 2218
1535 2857 2646
1536 2952 3095
1535 3063 3373
1535 3088 3530
1527 3089 1352
1531 3096 1445
1535 3115 1652
1535 3146 1955
1535 3194 2323
1535 3257 2731
1535 3337 3164
1535 3432 3613
1535 3543 3923
1535 3525 1575
1535 3531 1651
1536 3546 1829
1536 3573 2101
1536 3613 2442
1536 3667 2829
1536 3736 3246
1536 3819 3682
1535 3915 4095
1952 227 12
1963 217 12
1989 184 11
2039 84 9
2048 169 674
2048 326 1103
2048 481 1466
2048 635 1803
2047 778 2127
1989 477 17
2000 469 17
2026 441 16
2048 414 409
2048 483 856
2048 595 1217
2048 714 1549
2048 838 1868
2047 948 2180
2048 926 109
2048 909 528
2048 911 713
2048 921 936
2048 959 1189
2048 1034 1459
2048 1119 1738
2048 1212 2021
2048 1274 2308
2048 1423 428
2048 1432 686
2048 1466 1080
2048 1473 1436
2048 1493 1601
2048 1546 1801
2048 1609 2025
2047 1646 2264
2048 1686 2517
2048 1885 685
2048 1892 867
2048 1916 1199
2048 1967 1607
2048 2048 2048
2048 2063 2199
2048 2084 2377
2048 2109 2577
2048 2139 2795
1990 2267 861
1997 2278 1007
2012 2305 1300
2031 2352 1687
2048 2420 2120
2047 2509 2569
2047 2567 2773
2048 2587 2940
2048 2610 3126
2001 2689 1094
2007 2698 1209
2019 2720 1458
2036 2758 1806
2048 2813 2210
2048 2888 2641
2047 2981 3089
2048 3075 3336
2048 3093 3495
2012 3117 1323
2017 3124 1418
2027 3142 1630
2042 3174 1943
2047 3220 2315
2047 3283 2725
2047 3362 3158
2048 3458 3608
2048 3568 3893
2023 3548 1549
2027 3554 1629
2036 3569 1813
2046 3596 2092
2046 3636 2435
2046 3690 2822
2047 3758 3239
2047 3840 3676
2047 3937 4095
2442 331 16
2450 324 16
2470 303 15
2507 248 15
2559 125 101
2559 257 876
2559 416 1314
2559 570 1688
2559 724 2035
2471 533 20
2478 526 20
2498 507 20
2535 461 19
2559 422 522
2559 515 1020
2559 640 1408
2559 767 1759
2559 898 2091
2539 903 28
2547 897 28
2559 882 214
2559 880 651
2559 892 989
2559 950 1307
2559 1039 1618
2559 1135 1923
2559 1238 2225
2559 1441 344
2559 1429 638
2559 1415 1053
2559 1417 1284
2559 1428 1469
2559 1462 1685
2559 1526 1925
2559 1599 2179
2559 1680 2443
2559 1895 636
2559 1901 831
2559 1922 1175
2559 1970 1591
2559 1984 1953
2559 2003 2111
2559 2053 2298
2559 2110 2507
2558 2146 2730
2559 2360 890
2559 2365 1034
2559 2381 1321
2559 2417 1697
2559 2476 2117
2559 2559 2559
2559 2575 2708
2560 2594 2879
2560 2617 3070
2486 2735 1052
2492 2743 1171
2505 2764 1425
2522 2802 1779
2542 2856 2189
2560 2929 2630
2559 3019 3081
2559 3078 3285
2559 3097 3448
2498 3155 1287
2503 3162 1384
2513 3179 1600
2529 3210 1916
2547 3256 2298
2561 3318 2715
2560 3396 3152
2559 3489 3602
2559 3585 3852
2509 3580 1517
2513 3586 1598
2522 3601 1784
2535 3627 2068
2553 3667 2421
2560 3720 2814
2560 3787 3233
2559 3869 3671
2559 3965 4095
2933 436 20
2939 430 20
2955 414 20
2983 379 19
3027 303 18
3071 193 413
3071 346 1079
3071 505 1523
3071 660 1907
2955 601 23
2961 596 23
2977 582 23
3006 550 22
3049 483 21
3071 445 673
3071 561 1195
3071 694 1603
3071 828 1968
3010 929 30
3016 924 30
3032 911 30
3060 883 29
3071 861 627
3071 877 1072
3071 955 1443
3071 1056 1786
3071 1162 2113
3071 1390 188
3071 1373 567
3071 1366 852
3071 1369 1045
3071 1377 1273
3071 1391 1523
3071 1442 1788
3071 1517 2063
3071 1600 2343
3071 1925 566
3071 1929 781
3071 1937 1144
3071 1925 1569
3071 1926 1821
3071 1937 1991
3071 1968 2189
3071 2027 2409
3071 2092 2645
3071 2368 843
3071 2372 995
3071 2387 1293
3071 2420 1677
3071 2476 2102
3071 2496 2468
3071 2514 2621
3071 2561 2800
3071 2614 2997
3071 2836 1095
3071 2840 1212
3071 2851 1460
3071 2876 1803
3071 2921 2200
3071 2986 2627
3071 3071 3071
3071 3087 3218
3071 3105 3385
2982 3202 1243
2988 3209 1343
2999 3227 1564
3015 3257 1886
3034 3302 2271
3054 3363 2695
3072 3440 3141
3071 3531 3593
3071 3590 3798
2994 3621 1479
2998 3627 1562
3008 3641 1751
3022 3667 2039
3039 3706 2395
3059 3759 2796
3073 3825 3223
3073 3905 3664
3071 3998 4095
3423 540 24
3428 536 24
3441 523 24
3464 497 23
3500 447 22
3549 349 20
3583 265 659
3583 435 1282
3583 594 1731
3441 679 27
3446 675 27
3459 663 26
3483 639 26
3518 593 25
3567 505 24
3583 479 844
3583 617 1378
3583 756 1800
3487 969 33
3492 965 32
3505 954 32
3528 932 32
3563 892 31
3583 854 654
3583 873 1182
3583 972 1593
3583 1083 1961
3565 1367 41
3570 1363 41
3583 1353 41
3583 1337 596
3583 1337 961
3583 1346 1287
3583 1364 1597
3583 1432 1906
3583 1518 2211
3583 1903 459
3583 1892 711
3583 1877 1100
3583 1867 1478
3583 1873 1638
3583 1883 1830
3583 1897 2045
3583 1942 2281
3583 2010 2532
3583 2393 779
3583 2396 944
3583 2409 1257
3583 2440 1652
3583 2435 2083
3583 2436 2348
3583 2447 2509
3583 2477 2695
3583 2531 2902
3583 2842 1049
3583 2845 1172
3583 2856 1429
3583 2880 1780
3583 2922 2183
3583 2985 2614
3583 3007 2982
3583 3026 3132
3583 3071 3304
3583 3311 1300
3583 3314 1397
3583 3323 1612
3583 3342 1925
3583 3376 2298
3583 3428 2707
3583 3496 3138
3583 3583 3583
3583 3598 3729
3479 3670 1434
3483 3676 1519
3493 3691 1712
3508 3716 2005
3526 3754 2365
3545 3806 2770
3566 3871 3202
3584 3950 3652
3583 4042 4095
3914 645 28
3918 641 28
3929 631 28
3948 610 27
3978 573 27
4018 507 25
4072 388 23
4095 347 885
4095 523 1484
3929 763 30
3933 759 30
3944 750 30
3963 730 30
3993 696 29
4034 634 28
4087 526 26
4095 526 1027
4095 680 1566
3967 1020 35
3971 1017 35
3982 1008 35
4002 990 35
4031 959 34
4072 905 34
4095 856 734
4095 881 1313
4095 1001 1754
4034 1387 43
4038 1384 43
4049 1376 43
4068 1359 43
4095 1329 139
4095 1315 898
4095 1325 1326
4095 1346 1691
4095 1433 2037
4095 1854 277
4095 1839 612
4095 1824 1000
4095 1824 1167
4095 1827 1374
4095 1834 1607
4095 1846 1856
4095 1863 2115
4095 1924 2387
4095 2419 692
4095 2411 877
4095 2398 1211
4095 2384 1619
4095 2374 2041
4095 2381 2191
4095 2391 2366
4095 2404 2564
4095 2447 2781
4095 2863 990
4095 2866 1121
4095 2875 1390
4095 2898 1751
4095 2937 2162
4095 2946 2596
4095 2947 2869
4095 2957 3025
4095 2987 3203
4095 3316 1255
4095 3319 1356
4095 3328 1579
4095 3346 1899
4095 3378 2277
4095 3427 2691
4095 3494 3125
4095 3519 3495
4095 3537 3643
4095 3787 1504
4095 3789 1587
4095 3796 1776
4095 3811 2059
4095 3837 2408
4095 3879 2798
4095 3935 3215
4095 4007 3649
4095 4095 4095
