Creative/magenta-blu_to_warm.3dl
#25pt 3DLUT created by 3D LUT Creator Pro (c) Oleg Sharonov
#Copyright Oleg Sharonov
0 256 512 768 1023
0 0 0
0 72 495
0 278 1085
0 504 1674
0 731 2264
0 851 300
0 965 1035
0 1060 1446
0 1138 1912
0 1247 2433
0 1733 730
0 1785 1221
0 1941 2068
0 2070 2497
0 2125 2893
0 2615 1160
0 2646 1503
0 2743 2228
0 2917 3102
0 3085 3570
0 3497 1590
0 3518 1842
0 3586 2451
0 3710 3251
0 3893 4095
971 19 4
1024 0 269
1024 302 1004
1023 520 1628
1023 742 2233
1024 934 275
1024 1024 1024
1024 1068 1390
1024 1145 1872
1023 1253 2404
1008 1763 705
1023 1814 1212
1024 1967 2063
1023 2073 2469
1023 2127 2870
1024 2633 1150
1024 2664 1496
1024 2760 2225
1023 2931 3099
1023 3086 3552
1023 3509 1584
1023 3531 1836
1023 3598 2447
1023 3721 3249
1024 3903 4095
1952 227 12
1989 184 11
2048 169 674
2048 481 1466
2047 778 2127
2048 926 109
2048 911 713
2048 959 1189
2048 1119 1738
2048 1274 2308
2048 1885 685
2048 1916 1199
2048 2048 2048
2048 2084 2377
2048 2139 2795
2001 2689 1094
2019 2720 1458
2048 2813 2210
2047 2981 3089
2048 3093 3495
2023 3548 1549
2036 3569 1813
2046 3636 2435
2047 3758 3239
2047 3937 4095
2933 436 20
2955 414 20
3027 303 18
3071 346 1079
3071 660 1907
3010 929 30
3032 911 30
3071 861 627
3071 955 1443
3071 1162 2113
3071 1925 566
3071 1937 1144
3071 1926 1821
3071 1968 2189
3071 2092 2645
3071 2836 1095
3071 2851 1460
3071 2921 2200
3071 3071 3071
3071 3105 3385
2994 3621 1479
3008 3641 1751
3039 3706 2395
3073 3825 3223
3071 3998 4095
3914 645 28
3929 631 28
3978 573 27
4072 388 23
4095 523 1484
3967 1020 35
3982 1008 35
4031 959 34
4095 856 734
4095 1001 1754
4095 1854 277
4095 1824 1000
4095 1827 1374
4095 1846 1856
4095 1924 2387
4095 2863 990
4095 2875 1390
4095 2937 2162
4095 2947 2869
4095 2987 3203
4095 3787 1504
4095 3796 1776
4095 3837 2408
4095 3935 3215
4095 4095 4095
