Creative/magenta-blu_to_warm.3dl
#25pt 3DLUT created by 3D LUT Creator Pro (c) Oleg Sharonov
#Copyright Oleg Sharonov
0 43 86 128 171 214 256 299 341 384 427 469 512 555 597 640 682 725 768 810 853 896 938 981 1023 
0 0 0
0 5 45
0 11 108
0 20 200
0 34 298
0 51 396
0 72 495
0 98 593
0 129 691
0 164 790
0 202 888
0 240 986
0 278 1085
0 315 1183
0 353 1281
0 391 1379
0 429 1478
0 467 1576
0 504 1674
0 542 1773
0 580 1871
0 618 1969
0 655 2068
0 693 2166
0 731 2264
0 119 21
0 152 174
0 174 246
0 183 312
0 195 387
0 210 469
0 228 555
0 248 644
0 270 735
0 294 828
0 320 922
0 348 1016
0 377 1112
0 407 1207
0 437 1304
0 469 1400
0 501 1497
0 534 1594
0 568 1691
0 601 1788
0 636 1885
0 670 1983
0 705 2080
0 740 2178
0 775 2276
0 263 50
0 286 201
0 315 346
0 343 425
0 351 485
0 361 553
0 372 628
0 386 707
0 402 791
0 420 877
0 439 966
0 460 1056
0 483 1148
0 507 1240
0 532 1333
0 559 1428
0 586 1522
0 615 1617
0 644 1713
0 674 1808
0 704 1904
0 736 2001
0 767 2097
0 799 2194
0 832 2291
0 410 95
0 426 237
0 447 371
0 477 519
0 513 605
0 520 661
0 528 724
0 538 794
0 550 869
0 563 947
0 578 1029
0 594 1113
0 612 1200
0 631 1288
0 652 1378
0 673 1468
0 696 1560
0 720 1652
0 745 1745
0 771 1839
0 797 1933
0 825 2028
0 853 2123
0 882 2218
0 911 2314
0 557 156
0 569 282
0 585 403
0 609 542
0 640 691
0 678 786
0 689 839
0 696 899
0 705 965
0 716 1035
0 727 1110
0 740 1188
0 754 1268
0 770 1351
0 787 1436
0 804 1522
0 823 1610
0 843 1699
0 864 1790
0 886 1881
0 909 1972
0 933 2065
0 958 2158
0 983 2251
0 1009 2345
0 704 228
0 713 333
0 726 442
0 745 572
0 771 714
0 803 863
0 840 967
0 858 1018
0 865 1076
0 873 1138
0 883 1206
0 893 1277
0 905 1351
0 917 1428
0 931 1508
0 946 1590
0 962 1673
0 979 1759
0 997 1845
0 1016 1933
0 1035 2022
0 1056 2111
0 1077 2202
0 1099 2293
0 1122 2385
0 851 300
0 859 389
0 869 487
0 885 607
0 906 742
0 933 886
0 965 1035
0 1003 1148
0 1027 1198
0 1034 1254
0 1042 1314
0 1050 1378
0 1060 1446
0 1071 1518
0 1082 1592
0 1095 1669
0 1108 1748
0 1123 1829
0 1138 1912
0 1154 1996
0 1171 2081
0 1189 2168
0 1208 2255
0 1227 2344
0 1247 2433
0 998 371
0 1004 448
0 1013 535
0 1026 647
0 1044 775
0 1067 913
0 1095 1058
0 1128 1207
0 1165 1329
0 1196 1378
0 1203 1432
0 1210 1490
0 1219 1553
0 1228 1619
0 1237 1687
0 1248 1759
0 1260 1833
0 1272 1910
0 1285 1988
0 1299 2069
0 1314 2150
0 1330 2234
0 1346 2318
0 1363 2404
0 1381 2490
0 1145 443
0 1150 509
0 1158 588
0 1169 691
0 1185 812
0 1205 944
0 1229 1084
0 1257 1230
0 1290 1380
0 1327 1510
0 1366 1558
0 1372 1611
0 1379 1668
0 1387 1729
0 1396 1792
0 1405 1859
0 1415 1929
0 1426 2001
0 1437 2075
0 1450 2151
0 1463 2229
0 1476 2309
0 1491 2390
0 1506 2472
0 1522 2556
0 1292 515
0 1297 573
0 1303 644
0 1313 739
0 1327 852
0 1344 978
0 1365 1114
0 1390 1255
0 1420 1402
0 1453 1552
0 1490 1691
0 1530 1739
0 1541 1791
0 1548 1846
0 1556 1905
0 1564 1967
0 1573 2032
0 1582 2100
0 1592 2170
0 1603 2242
0 1615 2316
0 1627 2392
0 1640 2470
0 1653 2549
0 1668 2629
0 1439 586
0 1443 638
0 1449 703
0 1458 790
0 1469 896
0 1485 1016
0 1504 1146
0 1526 1284
0 1552 1427
0 1582 1574
0 1616 1724
0 1652 1872
0 1692 1920
0 1711 1971
0 1717 2025
0 1725 2083
0 1732 2143
0 1741 2207
0 1750 2272
0 1760 2341
0 1770 2411
0 1781 2483
0 1792 2557
0 1804 2633
0 1817 2710
0 1586 658
0 1590 704
0 1595 763
0 1602 844
0 1613 943
0 1627 1057
0 1644 1182
0 1664 1315
0 1688 1455
0 1714 1598
0 1745 1746
0 1778 1896
0 1815 2048
0 1854 2100
0 1880 2151
0 1887 2204
0 1894 2261
0 1901 2320
0 1909 2382
0 1918 2446
0 1927 2513
0 1937 2581
0 1947 2652
0 1958 2725
0 1970 2799
0 1733 730
0 1736 772
0 1741 825
0 1748 900
0 1757 993
0 1770 1101
0 1785 1221
0 1803 1350
0 1825 1485
0 1849 1626
0 1876 1770
0 1908 1918
0 1941 2068
0 1977 2220
0 2017 2281
0 2050 2331
0 2056 2384
0 2063 2439
0 2070 2497
0 2078 2558
0 2086 2621
0 2095 2686
0 2105 2753
0 2114 2822
0 2125 2893
0 1880 802
0 1883 839
0 1887 888
0 1893 958
0 1902 1045
0 1913 1148
0 1927 1262
0 1944 1387
0 1963 1518
0 1985 1655
0 2011 1797
0 2039 1942
0 2070 2090
0 2104 2241
0 2140 2393
0 2179 2462
0 2219 2512
0 2225 2563
0 2232 2618
0 2239 2675
0 2247 2735
0 2255 2797
0 2263 2860
0 2272 2926
0 2282 2994
0 2027 873
0 2030 908
0 2033 953
0 2039 1017
0 2047 1099
0 2057 1197
0 2070 1306
0 2085 1426
0 2103 1553
0 2123 1687
0 2147 1826
0 2172 1968
0 2201 2114
0 2233 2263
0 2266 2413
0 2302 2565
0 2341 2643
0 2382 2692
0 2395 2743
0 2401 2797
0 2408 2854
0 2415 2912
0 2423 2973
0 2432 3035
0 2440 3100
0 2174 945
0 2176 977
0 2180 1018
0 2185 1078
0 2192 1155
0 2202 1248
0 2213 1352
0 2227 1468
0 2244 1591
0 2263 1721
0 2284 1857
0 2308 1996
0 2334 2140
0 2363 2286
0 2395 2435
0 2429 2585
0 2465 2737
0 2503 2824
0 2544 2873
0 2564 2924
0 2570 2977
0 2577 3032
0 2584 3090
0 2592 3150
0 2600 3211
0 2321 1017
0 2323 1046
0 2326 1085
0 2331 1141
0 2338 1213
0 2347 1300
0 2357 1401
0 2370 1511
0 2385 1631
0 2403 1757
0 2423 1890
0 2445 2027
0 2469 2167
0 2496 2311
0 2525 2457
0 2558 2607
0 2592 2757
0 2628 2909
0 2666 3006
0 2706 3053
0 2733 3104
0 2740 3156
0 2746 3211
0 2753 3268
0 2761 3327
0 2468 1088
0 2470 1115
0 2473 1151
0 2477 1204
0 2484 1272
0 2492 1355
0 2502 1451
0 2514 1557
0 2528 1673
0 2544 1796
0 2562 1925
0 2583 2059
0 2606 2197
0 2631 2338
0 2658 2483
0 2688 2629
0 2720 2779
0 2754 2929
0 2790 3081
0 2828 3187
0 2868 3234
0 2903 3284
0 2909 3336
0 2915 3390
0 2922 3446
0 2615 1160
0 2617 1185
0 2620 1219
0 2624 1268
0 2630 1332
0 2637 1411
0 2646 1503
0 2657 1605
0 2670 1716
0 2686 1836
0 2703 1961
0 2722 2093
0 2743 2228
0 2767 2367
0 2793 2510
0 2820 2654
0 2850 2801
0 2883 2951
0 2917 3102
0 2953 3253
0 2991 3368
0 3030 3415
0 3072 3465
0 3078 3516
0 3085 3570
0 2762 1232
0 2764 1255
0 2766 1287
0 2770 1333
0 2776 1394
0 2782 1469
0 2791 1556
0 2801 1654
0 2814 1762
0 2828 1878
0 2844 2000
0 2862 2128
0 2882 2261
0 2904 2398
0 2928 2538
0 2954 2681
0 2982 2826
0 3013 2973
0 3046 3123
0 3080 3274
0 3115 3426
0 3153 3549
0 3193 3596
0 3234 3645
0 3248 3696
0 2909 1303
0 2911 1325
0 2913 1355
0 2917 1398
0 2922 1456
0 2928 1527
0 2936 1611
0 2946 1705
0 2957 1809
0 2971 1921
0 2986 2041
0 3003 2166
0 3022 2296
0 3042 2430
0 3065 2568
0 3090 2709
0 3116 2852
0 3145 2998
0 3175 3145
0 3208 3295
0 3242 3446
0 3278 3598
0 3316 3730
0 3355 3777
0 3396 3826
0 3056 1375
0 3058 1396
0 3060 1424
0 3063 1465
0 3068 1519
0 3074 1587
0 3082 1667
0 3091 1758
0 3101 1858
0 3114 1967
0 3128 2083
0 3144 2205
0 3162 2332
0 3181 2464
0 3203 2600
0 3226 2738
0 3251 2880
0 3278 3024
0 3307 3170
0 3337 3317
0 3371 3468
0 3405 3618
0 3441 3770
0 3478 3912
0 3517 3958
0 3203 1447
0 3204 1466
0 3207 1492
0 3210 1531
0 3214 1583
0 3220 1648
0 3227 1724
0 3236 1811
0 3246 1908
0 3258 2014
0 3271 2127
0 3286 2246
0 3303 2370
0 3321 2500
0 3342 2633
0 3364 2769
0 3387 2909
0 3413 3051
0 3440 3195
0 3469 3342
0 3500 3489
0 3533 3640
0 3567 3790
0 3603 3942
0 3641 4093
0 3350 1518
0 3351 1537
0 3353 1562
0 3356 1598
0 3361 1648
0 3366 1709
0 3373 1782
0 3381 1866
0 3390 1960
0 3401 2062
0 3414 2172
0 3428 2288
0 3444 2410
0 3462 2536
0 3481 2667
0 3502 2802
0 3524 2939
0 3549 3080
0 3575 3222
0 3602 3367
0 3631 3513
0 3663 3662
0 3696 3812
0 3730 3963
0 3766 4095
0 3497 1590
0 3498 1608
0 3500 1631
0 3503 1666
0 3507 1713
0 3512 1772
0 3518 1842
0 3526 1922
0 3535 2013
0 3546 2112
0 3558 2218
0 3571 2332
0 3586 2451
0 3603 2575
0 3621 2703
0 3641 2836
0 3662 2971
0 3685 3110
0 3710 3251
0 3736 3394
0 3764 3539
0 3794 3685
0 3826 3835
0 3859 3984
0 3893 4095
154 0 0
171 0 19
171 0 80
171 23 175
171 36 280
171 53 382
171 75 483
171 101 583
170 131 683
170 167 782
170 204 882
170 242 981
170 279 1080
170 317 1178
170 355 1277
170 392 1376
170 430 1474
170 468 1573
170 505 1672
170 543 1770
170 581 1869
170 618 1967
170 656 2066
170 694 2164
170 732 2262
171 139 21
171 171 171
171 177 225
171 186 294
171 197 372
170 212 456
170 229 544
170 249 635
170 272 728
170 296 821
170 322 916
170 349 1011
170 378 1107
170 408 1203
170 439 1300
170 470 1396
170 502 1493
170 535 1591
170 568 1688
170 602 1785
170 636 1883
170 671 1980
170 706 2078
170 741 2176
170 776 2274
164 276 44
171 298 197
171 326 344
171 345 412
171 352 473
171 362 542
170 374 619
170 387 699
170 403 784
170 421 871
170 440 960
170 462 1051
170 484 1143
170 508 1236
170 534 1330
170 560 1424
170 587 1519
170 616 1614
170 645 1710
170 675 1806
170 705 1902
170 736 1998
170 768 2095
170 800 2192
170 833 2289
167 419 89
171 435 234
171 455 369
171 485 517
171 514 596
171 520 652
171 529 717
171 539 787
171 551 862
171 564 941
171 579 1024
171 595 1109
171 613 1195
171 632 1284
171 653 1374
171 674 1465
171 697 1557
170 721 1649
170 746 1743
170 772 1837
170 798 1931
170 825 2026
170 854 2121
170 882 2216
170 912 2312
170 564 152
171 576 279
171 591 402
171 615 541
171 646 690
171 683 779
171 689 833
171 697 893
171 706 959
171 716 1030
171 728 1105
171 741 1183
171 755 1264
171 771 1347
171 787 1432
171 805 1519
171 824 1607
171 844 1697
171 865 1787
170 887 1878
170 910 1970
170 934 2062
170 958 2155
170 984 2249
170 1010 2343
170 709 225
170 719 331
170 731 440
170 750 571
170 775 713
171 807 862
171 845 961
171 859 1013
171 866 1071
171 874 1134
171 883 1201
171 894 1273
171 906 1347
171 918 1425
171 932 1505
171 947 1587
171 963 1670
171 980 1756
171 997 1842
171 1016 1930
171 1036 2019
171 1056 2109
170 1078 2200
170 1100 2291
170 1123 2383
170 855 297
170 863 387
170 873 485
170 889 606
170 910 741
170 937 885
171 969 1035
171 1007 1143
171 1028 1194
171 1035 1249
171 1042 1310
171 1051 1375
171 1061 1443
171 1071 1515
171 1083 1589
171 1095 1666
171 1109 1745
171 1123 1826
171 1139 1909
171 1155 1993
171 1172 2079
171 1190 2166
171 1208 2253
171 1228 2342
170 1248 2431
170 1002 369
170 1008 446
170 1017 534
170 1030 646
170 1048 774
170 1071 912
170 1098 1057
171 1131 1207
171 1169 1325
171 1197 1374
171 1204 1429
171 1211 1487
171 1219 1550
171 1228 1616
171 1238 1685
171 1249 1756
171 1260 1831
171 1273 1907
171 1286 1986
171 1300 2066
171 1315 2148
171 1330 2232
171 1347 2316
171 1364 2402
171 1382 2489
170 1148 441
170 1154 508
170 1161 587
170 1172 690
170 1188 811
170 1207 943
170 1232 1083
170 1260 1229
171 1294 1379
171 1331 1506
171 1367 1555
171 1373 1608
171 1380 1665
171 1388 1726
171 1396 1790
171 1406 1857
171 1416 1926
171 1426 1998
171 1438 2073
171 1450 2149
171 1463 2227
171 1477 2307
171 1491 2388
171 1507 2470
171 1522 2554
170 1295 513
170 1299 572
170 1306 643
170 1316 738
170 1329 851
170 1347 977
170 1368 1113
170 1393 1254
170 1422 1401
171 1456 1551
171 1493 1688
171 1533 1736
171 1542 1788
171 1549 1844
171 1556 1903
171 1565 1965
171 1573 2030
171 1583 2098
171 1593 2168
171 1604 2240
171 1615 2314
171 1628 2390
171 1640 2468
171 1654 2547
171 1668 2628
170 1441 585
170 1445 637
170 1451 701
170 1460 789
170 1472 895
170 1487 1015
170 1506 1145
170 1528 1283
170 1555 1426
170 1584 1573
171 1618 1724
171 1655 1870
171 1695 1917
171 1711 1968
171 1718 2023
171 1725 2080
171 1733 2141
171 1741 2205
171 1751 2270
171 1760 2339
171 1770 2409
171 1781 2481
171 1793 2556
171 1805 2632
171 1818 2709
