Creative/pastel_complimentary.3dl
#25pt 3DLUT created by 3D LUT Creator Pro (c) Oleg Sharonov
#Copyright Oleg Sharonov
0 128 256 384 512 640 768 896 1023
0 0 0
0 45 306
78 145 610
177 336 808
291 500 1108
409 662 1408
525 826 1708
642 989 2009
758 1152 2309
220 467 334
32 504 552
97 535 842
240 602 1079
352 702 1327
461 823 1586
570 956 1856
680 1097 2133
791 1244 2415
481 956 706
381 976 815
97 1011 1092
107 1037 1412
365 1077 1654
516 1145 1891
635 1233 2133
746 1337 2383
854 1454 2640
783 1438 1091
704 1454 1152
557 1481 1328
214 1518 1631
71 1544 1968
427 1573 2230
640 1622 2467
789 1689 2703
914 1771 2943
1076 1921 1473
1015 1934 1514
904 1956 1634
716 1987 1853
343 2024 2171
32 2052 2517
436 2076 2800
720 2113 3044
912 2166 3280
1368 2405 1856
1320 2415 1885
1227 2434 1973
1090 2460 2137
867 2493 2384
470 2531 2711
26 2560 3062
406 2583 3362
761 2612 3618
1661 2888 2238
1622 2897 2261
1541 2913 2327
1426 2936 2456
1265 2965 2652
1010 3000 2918
599 3038 3251
68 3068 3605
351 3090 3919
1954 3372 2621
1921 3379 2639
1851 3393 2691
1749 3414 2794
1616 3439 2954
1431 3471 3173
1150 3507 3454
725 3544 3790
250 3577 4095
2247 3855 3003
2219 3861 3018
2157 3874 3061
2065 3893 3145
1948 3916 3277
1797 3944 3461
1590 3977 3699
1287 4014 3991
1525 4030 4095
457 39 0
406 110 318
376 250 572
409 394 845
475 542 1136
557 695 1430
647 852 1726
744 1010 2023
845 1170 2321
526 494 291
512 512 512
500 556 793
514 630 1062
556 729 1325
619 847 1592
697 977 1864
785 1115 2141
880 1260 2424
738 955 725
693 973 813
545 1014 1072
558 1041 1381
634 1087 1631
705 1157 1878
780 1247 2128
862 1351 2382
950 1466 2641
972 1434 1103
915 1451 1157
809 1479 1319
592 1519 1619
547 1546 1953
697 1577 2212
822 1628 2453
926 1696 2694
1022 1780 2938
1219 1918 1482
1168 1931 1519
1076 1954 1633
922 1986 1845
655 2025 2163
528 2053 2508
713 2078 2787
899 2116 3032
1044 2170 3270
1480 2402 1862
1438 2412 1890
1354 2432 1973
1233 2458 2134
1038 2493 2377
730 2532 2704
523 2561 3055
698 2583 3353
940 2614 3608
1752 2886 2243
1716 2894 2265
1641 2911 2329
1535 2934 2455
1386 2964 2648
1157 3000 2912
818 3038 3246
536 3068 3600
666 3091 3912
2029 3370 2625
1998 3377 2642
1931 3392 2693
1835 3412 2794
1710 3438 2952
1536 3470 3169
1277 3507 3449
914 3545 3786
596 3578 4095
2311 3854 3007
2284 3860 3021
2224 3872 3063
2136 3891 3145
2024 3915 3277
1880 3943 3460
1683 3976 3695
1399 4014 3987
1612 4030 4095
873 212 0
888 233 248
755 399 642
751 512 911
782 634 1190
828 770 1476
887 913 1765
957 1061 2056
1034 1214 2350
1014 518 0
999 536 406
868 630 786
857 704 1054
870 795 1330
899 905 1606
944 1028 1882
1003 1160 2161
1073 1299 2443
1052 992 665
1043 1001 781
1024 1024 1024
1008 1062 1306
1004 1118 1584
1018 1191 1853
1049 1280 2117
1094 1383 2380
1153 1496 2645
1258 1444 1129
1236 1456 1174
1196 1478 1313
1055 1524 1589
1050 1550 1907
1098 1588 2166
1142 1644 2420
1190 1716 2673
1247 1800 2926
1483 1918 1506
1451 1929 1535
1392 1951 1636
1286 1984 1828
1093 2029 2141
1039 2056 2482
1134 2083 2753
1226 2125 3002
1307 2182 3247
1712 2399 1880
1678 2409 1903
1615 2428 1979
1522 2455 2128
1368 2492 2361
1139 2534 2688
1030 2563 3038
1133 2586 3329
1273 2619 3583
1951 2883 2257
1920 2891 2276
1858 2908 2335
1769 2931 2454
1645 2961 2640
1454 3000 2899
1195 3040 3233
1033 3070 3587
1115 3092 3895
2200 3367 2635
2173 3373 2652
2114 3388 2699
2030 3409 2796
1921 3436 2949
1769 3468 3161
1546 3507 3438
1259 3546 3775
1061 3579 4095
2459 3851 3015
2435 3856 3029
2381 3869 3069
2301 3889 3148
2199 3912 3276
2070 3941 3455
1892 3975 3687
1643 4014 3977
1781 4034 4095
1331 377 0
1390 352 0
1266 508 672
1156 656 997
1145 768 1265
1166 884 1540
1202 1011 1822
1248 1145 2107
1303 1286 2395
1446 593 0
1500 570 123
1361 691 768
1238 811 1096
1221 902 1362
1234 1001 1637
1260 1113 1914
1297 1235 2194
1345 1365 2476
1526 1021 337
1532 1023 559
1508 1045 937
1378 1126 1287
1362 1185 1553
1364 1255 1832
1375 1341 2108
1399 1440 2381
1434 1550 2653
1574 1490 1038
1570 1496 1101
1555 1511 1280
1536 1536 1536
1518 1571 1817
1508 1619 2099
1509 1680 2374
1523 1753 2644
1548 1838 2908
1772 1939 1521
1759 1947 1550
1739 1962 1649
1704 1987 1820
1566 2035 2104
1554 2061 2426
1589 2095 2691
1617 2144 2952
1649 2204 3210
2000 2405 1909
1980 2413 1928
1943 2430 1995
1889 2454 2129
1784 2491 2338
1600 2539 2659
1545 2566 3005
1612 2591 3283
1682 2628 3539
2224 2882 2282
2202 2890 2298
2157 2906 2350
2093 2928 2459
2002 2959 2630
1848 2999 2876
1641 3043 3210
1541 3073 3563
1606 3095 3862
2452 3364 2656
2430 3371 2670
2383 3385 2713
2316 3406 2802
2228 3432 2946
2104 3466 3148
1917 3507 3418
1686 3549 3757
1551 3580 4095
2687 3847 3032
2667 3853 3044
2621 3866 3081
2553 3885 3155
2467 3909 3276
2357 3938 3448
2205 3973 3674
1991 4014 3960
2097 4033 4095
1802 532 0
1838 518 0
1833 566 541
1653 773 1048
1558 912 1353
1541 1025 1620
1556 1138 1892
1584 1258 2170
1622 1387 2453
1880 705 0
1916 694 0
1896 736 623
1722 901 1120
1619 1025 1425
1599 1124 1691
1608 1227 1963
1631 1338 2239
1663 1458 2519
2005 1052 0
2041 1039 198
1999 1075 793
1858 1173 1271
1739 1274 1579
1717 1351 1843
1720 1431 2117
1733 1524 2393
1755 1628 2670
2033 1524 740
2039 1526 849
2044 1533 1093
2020 1555 1455
1889 1630 1794
1871 1682 2057
1869 1741 2337
1872 1813 2617
1882 1896 2892
2097 1988 1405
2094 1993 1446
2084 2004 1573
2067 2022 1785
2048 2048 2048
2029 2082 2328
2016 2125 2612
2011 2179 2891
2015 2242 3165
2287 2437 1905
2279 2442 1926
2264 2454 2000
2246 2470 2141
2214 2496 2328
2078 2547 2617
2063 2572 2943
2090 2604 3212
2109 2648 3476
2515 2896 2309
2502 2903 2323
2477 2915 2372
2443 2934 2474
2393 2960 2630
2288 3000 2849
2110 3049 3176
2054 3077 3524
2105 3101 3809
2740 3368 2686
2725 3374 2697
2692 3387 2735
2646 3406 2817
2586 3431 2950
2496 3464 3135
2343 3507 3390
2147 3553 3729
2053 3584 4085
2965 3847 3059
2948 3853 3069
2913 3865 3101
2861 3883 3169
2795 3906 3282
2709 3935 3443
2583 3971 3657
2400 4015 3935
2357 4050 4095
2255 706 0
2302 673 0
2398 597 142
2210 848 992
2044 1035 1413
1960 1169 1708
1939 1282 1975
1947 1393 2245
1971 1510 2521
2316 841 3
2359 816 0
2433 773 295
2265 962 1047
2096 1130 1470
2007 1255 1764
1983 1359 2030
1990 1463 2300
2009 1574 2575
2435 1128 0
2464 1119 0
2500 1109 550
2378 1213 1168
2208 1347 1596
2108 1455 1890
2082 1543 2154
2084 1631 2424
2097 1728 2699
2549 1539 186
2552 1540 486
2550 1549 888
2507 1582 1340
2363 1669 1778
2247 1760 2076
2221 1827 2337
2221 1897 2611
2226 1976 2888
2545 2026 1123
2549 2027 1188
2552 2033 1355
2556 2043 1615
2532 2066 1971
2400 2138 2303
2381 2186 2563
2377 2238 2843
2375 2301 3125
2620 2487 1772
2618 2491 1801
2611 2499 1893
2597 2513 2063
2579 2533 2294
2559 2559 2559
2541 2593 2840
2526 2634 3123
2517 2683 3405
2803 2934 2285
2797 2939 2301
2786 2948 2357
2770 2962 2472
2755 2979 2640
2726 3006 2838
2589 3058 3130
2572 3083 3458
2595 3113 3729
3029 3390 2705
3020 3395 2716
3002 3405 2753
2977 3420 2835
2947 3439 2964
2900 3467 3135
2795 3509 3360
2621 3560 3692
2564 3588 4042
3257 3857 3088
3246 3862 3097
3221 3873 3126
3187 3889 3190
3144 3909 3297
3087 3935 3447
2997 3970 3642
2844 4016 3904
2787 4053 4095
2708 880 16
2749 850 0
2801 831 0
2779 898 812
2589 1122 1398
2439 1294 1774
2361 1425 2063
2337 1538 2331
2341 1649 2599
2759 986 10
2801 959 0
2852 942 0
2818 1009 866
2634 1207 1441
2480 1369 1820
2399 1494 2108
2373 1601 2375
2376 1707 2643
2865 1228 0
2894 1216 0
3007 1143 0
2901 1254 988
2734 1403 1542
2573 1546 1925
2485 1658 2212
2457 1753 2478
2456 1847 2745
2997 1587 0
3019 1582 0
3051 1570 582
3000 1614 1177
2875 1704 1691
2708 1822 2087
2610 1919 2374
2580 1997 2637
2577 2076 2906
3053 2045 714
3058 2045 839
3064 2048 1097
3062 2058 1448
3018 2090 1868
2871 2173 2287
2756 2256 2578
2729 2318 2838
2726 2380 3110
3059 2526 1501
3062 2528 1545
3065 2533 1663
3065 2542 1865
3068 2554 2133
3043 2577 2485
2911 2647 2813
2892 2693 3070
2887 2740 3350
3143 2985 2139
3142 2988 2161
3137 2995 2230
3126 3007 2365
3110 3023 2563
3091 3044 2804
3071 3071 3071
3053 3104 3351
3037 3143 3634
3321 3433 2661
3317 3436 2674
3307 3444 2718
3294 3456 2811
3279 3470 2957
3265 3489 3143
3237 3516 3348
3101 3570 3643
3083 3595 3972
3543 3885 3096
3537 3889 3105
3522 3898 3135
3503 3910 3201
3480 3926 3311
3454 3946 3460
3409 3975 3641
3304 4019 3871
3187 4068 4095
3164 1052 19
3202 1021 0
3250 999 0
3344 930 446
3157 1184 1289
2973 1390 1784
2836 1553 2133
2763 1682 2419
2737 1795 2686
3206 1140 16
3254 1102 0
3286 1099 0
3370 1044 526
3192 1264 1327
3009 1457 1820
2870 1614 2171
2794 1738 2455
2767 1847 2723
3299 1345 0
3333 1325 0
3364 1323 0
3426 1293 697
3273 1451 1415
3094 1617 1906
2948 1760 2259
2868 1875 2543
2837 1975 2809
3427 1662 0
3453 1652 0
3522 1619 0
3500 1649 939
3389 1743 1554
3222 1871 2042
3067 1998 2402
2979 2100 2684
2947 2187 2948
3557 2064 0
3576 2057 165
3574 2063 757
3560 2080 1246
3507 2120 1735
3378 2204 2209
3214 2311 2586
3116 2400 2867
3085 2472 3128
3559 2549 1136
3563 2549 1208
3570 2551 1381
3576 2557 1647
3574 2568 1984
3529 2600 2390
3381 2679 2797
3267 2758 3083
3238 2816 3340
3576 3027 1876
3577 3028 1907
3580 3032 1995
3579 3040 2154
3577 3052 2377
3580 3065 2648
3555 3089 2998
3423 3157 3324
3403 3201 3579
3667 3484 2506
3665 3486 2523
3661 3492 2577
3653 3502 2685
3639 3516 2851
3622 3534 3067
3603 3556 3315
3583 3583 3583
3564 3615 3862
3839 3931 3035
3836 3934 3046
3829 3941 3082
3817 3951 3158
3803 3964 3282
3789 3980 3451
3775 3999 3649
3748 4027 3859
3619 4084 4095
3619 1223 29
3660 1188 0
3705 1164 0
3772 1136 0
3725 1229 1081
3534 1462 1718
3359 1656 2158
3234 1810 2491
3165 1938 2774
3655 1298 23
3700 1260 0
3725 1261 0
3792 1233 0
3752 1309 1120
3565 1524 1749
3390 1711 2189
3263 1861 2522
3191 1985 2805
3737 1475 10
3765 1457 0
3807 1441 0
3957 1321 0
3814 1494 1212
3639 1674 1822
3462 1844 2264
3329 1986 2598
3254 2102 2880
3856 1756 0
3878 1747 0
3912 1738 0
4008 1681 535
3905 1782 1361
3751 1916 1939
3575 2062 2385
3434 2191 2723
3354 2297 3003
3989 2122 0
4011 2114 0
4081 2080 0
4059 2105 963
4002 2153 1559
3887 2238 2092
3721 2355 2544
3568 2470 2890
3481 2564 3168
4078 2563 577
4080 2563 735
4084 2565 1031
4084 2572 1403
4071 2588 1819
4017 2628 2272
3884 2707 2725
3722 2807 3089
3625 2891 3366
4067 3053 1533
4071 3053 1581
4077 3054 1703
4083 3058 1908
4088 3066 2180
4087 3079 2511
4040 3111 2908
3891 3187 3307
3778 3263 3590
4093 3526 2249
4095 3527 2273
4095 3531 2340
4095 3538 2466
4092 3548 2654
4089 3562 2889
4091 3577 3163
4067 3600 3511
3934 3667 3834
4095 3976 3159
4095 3978 3161
4095 3983 3236
4095 3991 3308
4095 4006 3325
4095 4023 3413
4095 4043 3613
4095 4068 3825
4095 4095 4095
