Creative/pastel_complimentary.3dl
#25pt 3DLUT created by 3D LUT Creator Pro (c) Oleg Sharonov
#Copyright Oleg Sharonov
0 43 86 128 171 214 256 299 341 384 427 469 512 555 597 640 682 725 768 810 853 896 938 981 1023 
0 0 0
0 10 90
0 23 206
0 45 306
0 71 451
13 103 542
78 145 610
119 212 660
152 276 724
177 336 808
214 391 908
252 445 1008
291 500 1108
332 554 1208
370 609 1308
409 662 1408
448 717 1508
486 771 1608
525 826 1708
564 880 1808
603 935 1909
642 989 2009
681 1043 2109
719 1098 2209
758 1152 2309
55 145 90
10 165 192
3 177 302
0 192 409
13 214 504
52 240 585
100 273 648
136 316 715
165 362 798
201 406 888
235 454 979
273 501 1073
310 550 1167
347 600 1261
384 650 1357
423 701 1453
461 752 1550
499 804 1647
536 856 1744
575 909 1842
613 961 1940
651 1014 2039
689 1067 2137
727 1120 2235
766 1174 2334
129 306 206
94 316 273
23 334 370
3 345 484
26 356 575
74 370 651
113 394 728
149 422 808
186 455 891
222 490 975
257 530 1060
293 571 1148
330 614 1236
367 658 1326
403 704 1417
439 751 1509
477 799 1603
513 848 1696
551 897 1790
588 946 1886
625 997 1981
663 1047 2077
700 1099 2173
738 1150 2270
777 1201 2367
220 467 334
192 475 379
126 488 446
32 504 552
3 513 667
42 522 760
97 535 842
149 552 920
198 576 999
240 602 1079
280 633 1160
316 666 1243
352 702 1327
389 741 1412
425 781 1498
461 823 1586
497 866 1675
533 910 1765
570 956 1856
606 1002 1948
643 1049 2040
680 1097 2133
716 1145 2227
753 1194 2321
791 1244 2415
255 639 440
243 643 486
206 650 542
136 661 624
45 673 732
3 683 849
39 691 948
110 700 1033
180 715 1113
240 734 1191
289 757 1270
332 783 1350
372 812 1430
411 844 1512
448 878 1595
484 914 1679
521 952 1764
556 992 1850
592 1033 1937
628 1075 2026
664 1118 2114
700 1162 2204
736 1208 2295
773 1253 2386
810 1300 2478
370 797 573
352 802 606
318 808 649
264 818 713
180 830 801
68 842 912
3 852 1030
32 859 1134
110 868 1223
203 880 1304
273 896 1383
332 916 1461
381 938 1540
425 964 1620
465 992 1700
504 1022 1781
542 1055 1863
578 1090 1947
615 1126 2031
651 1163 2116
687 1202 2202
723 1243 2289
759 1285 2376
795 1327 2464
831 1370 2553
481 956 706
458 961 729
425 968 762
381 976 815
320 986 886
228 999 980
97 1011 1092
10 1022 1210
23 1029 1318
107 1037 1412
214 1047 1496
297 1061 1576
365 1077 1654
422 1097 1733
471 1120 1811
516 1145 1891
558 1173 1971
597 1202 2052
635 1233 2133
673 1266 2216
710 1301 2299
746 1337 2383
782 1375 2468
818 1414 2553
854 1454 2640
586 1116 835
560 1121 853
530 1127 880
492 1135 923
442 1144 983
374 1155 1062
273 1168 1159
132 1180 1272
23 1190 1390
16 1198 1501
97 1206 1599
217 1215 1686
314 1227 1768
393 1241 1847
457 1259 1926
513 1279 2003
562 1301 2083
606 1326 2162
649 1353 2242
690 1382 2322
728 1412 2403
766 1444 2485
804 1478 2568
840 1513 2651
877 1549 2735
685 1277 963
660 1282 977
633 1287 1000
599 1295 1036
556 1303 1087
500 1312 1154
425 1324 1238
318 1336 1338
171 1349 1451
39 1359 1570
10 1368 1683
84 1375 1784
212 1383 1874
324 1393 1958
412 1406 2039
486 1422 2118
548 1440 2196
603 1460 2274
653 1483 2353
698 1507 2432
741 1534 2512
783 1562 2592
822 1592 2673
860 1623 2755
898 1655 2837
783 1438 1091
761 1442 1103
736 1447 1122
704 1454 1152
665 1462 1197
617 1471 1255
557 1481 1328
475 1493 1415
363 1505 1517
214 1518 1631
61 1528 1751
10 1537 1865
71 1544 1968
203 1552 2062
326 1561 2148
427 1573 2230
509 1587 2310
579 1603 2389
640 1622 2467
694 1642 2545
744 1665 2624
789 1689 2703
833 1715 2783
874 1742 2863
914 1771 2943
880 1599 1218
862 1603 1229
838 1608 1245
809 1614 1272
772 1621 1310
730 1629 1361
678 1639 1425
612 1650 1502
525 1662 1593
408 1674 1697
257 1687 1811
87 1697 1930
13 1706 2046
55 1714 2152
189 1721 2249
324 1730 2337
436 1740 2421
526 1753 2502
604 1768 2581
671 1784 2659
731 1803 2738
784 1824 2816
835 1846 2895
880 1870 2974
924 1896 3054
978 1760 1346
961 1764 1355
940 1768 1369
912 1774 1392
878 1780 1426
839 1788 1470
793 1797 1527
735 1807 1596
665 1818 1677
572 1830 1770
451 1843 1876
299 1855 1991
119 1866 2110
19 1875 2227
42 1883 2335
171 1890 2434
316 1898 2525
437 1908 2611
538 1919 2693
624 1933 2773
698 1948 2852
763 1965 2930
822 1984 3009
875 2005 3087
925 2027 3166
1076 1921 1473
1060 1925 1482
1041 1928 1494
1015 1934 1514
984 1940 1544
947 1948 1584
904 1956 1634
854 1965 1696
793 1976 1769
716 1987 1853
619 1999 1949
496 2012 2056
343 2024 2171
161 2035 2290
32 2045 2407
32 2052 2517
149 2060 2619
304 2067 2712
436 2076 2800
546 2087 2883
640 2099 2964
720 2113 3044
792 2129 3123
855 2147 3201
912 2166 3280
1173 2083 1601
1159 2085 1608
1142 2089 1619
1118 2094 1637
1088 2100 1663
1053 2107 1699
1013 2115 1745
967 2124 1801
914 2134 1866
849 2144 1943
767 2156 2030
666 2168 2127
540 2181 2235
386 2193 2351
203 2204 2470
48 2214 2588
26 2222 2699
126 2229 2803
289 2237 2898
430 2245 2988
547 2255 3073
650 2266 3156
738 2279 3236
815 2294 3315
884 2310 3394
1271 2244 1728
1258 2246 1735
1242 2250 1745
1219 2254 1761
1191 2260 1784
1158 2267 1816
1120 2274 1858
1078 2283 1908
1029 2292 1968
971 2302 2038
902 2313 2117
817 2325 2207
712 2337 2306
583 2350 2415
428 2362 2531
248 2373 2650
74 2383 2768
23 2391 2881
107 2398 2986
271 2406 3084
419 2413 3176
546 2423 3262
656 2433 3346
751 2445 3427
835 2459 3507
1368 2405 1856
1356 2407 1862
1341 2410 1871
1320 2415 1885
1294 2420 1906
1262 2427 1935
1227 2434 1973
1187 2442 2019
1142 2451 2074
1090 2460 2137
1029 2470 2210
956 2481 2292
867 2493 2384
758 2506 2485
626 2519 2594
470 2531 2711
291 2542 2830
103 2552 2948
26 2560 3062
87 2568 3169
250 2575 3269
406 2583 3362
541 2591 3451
658 2601 3536
761 2612 3618
1466 2566 1983
1456 2568 1989
1441 2571 1997
1421 2575 2010
1396 2581 2029
1366 2587 2056
1332 2594 2090
1295 2601 2132
1252 2609 2182
1205 2618 2241
1149 2628 2308
1085 2639 2384
1008 2650 2468
915 2663 2562
803 2675 2664
670 2688 2774
513 2700 2891
334 2711 3010
142 2721 3128
36 2729 3243
71 2737 3351
225 2744 3453
389 2752 3549
532 2760 3639
657 2769 3725
1564 2727 2111
1553 2729 2116
1541 2732 2124
1522 2736 2135
1498 2741 2153
1469 2747 2177
1437 2753 2208
1401 2760 2246
1361 2768 2293
1316 2777 2347
1266 2786 2409
1208 2796 2479
1140 2807 2558
1059 2819 2645
963 2831 2740
848 2844 2843
713 2857 2954
556 2869 3070
377 2880 3190
183 2890 3308
45 2898 3424
58 2906 3533
201 2913 3637
370 2921 3734
521 2929 3826
1661 2888 2238
1652 2890 2243
1640 2893 2250
1622 2897 2261
1600 2901 2277
1572 2907 2299
1541 2913 2327
1506 2920 2363
1468 2928 2406
1426 2936 2456
1379 2945 2514
1326 2954 2579
1265 2965 2652
1194 2976 2732
1110 2988 2821
1010 3000 2918
893 3013 3022
756 3026 3134
599 3038 3251
420 3049 3370
228 3059 3489
68 3068 3605
52 3076 3715
177 3083 3820
351 3090 3919
1759 3049 2366
1750 3051 2370
1739 3054 2377
1722 3057 2387
1700 3062 2402
1675 3067 2422
1645 3073 2448
1612 3080 2481
1575 3087 2520
1535 3095 2567
1491 3104 2620
1441 3113 2681
1385 3123 2749
1321 3133 2825
1247 3145 2908
1160 3157 2998
1058 3169 3096
938 3182 3202
799 3194 3314
641 3207 3430
464 3218 3549
271 3228 3669
94 3237 3785
48 3245 3897
152 3252 4003
1857 3211 2493
1848 3212 2497
1838 3214 2503
1822 3218 2513
1801 3222 2526
1777 3227 2545
1748 3233 2569
1716 3239 2599
1681 3247 2636
1642 3254 2679
1600 3263 2730
1554 3271 2786
1502 3281 2850
1443 3291 2921
1376 3302 2998
1299 3313 3083
1209 3325 3175
1103 3338 3275
982 3351 3381
842 3363 3494
683 3375 3610
506 3386 3729
314 3397 3848
123 3406 3965
48 3414 4078
1954 3372 2621
1947 3373 2625
1936 3375 2630
1921 3379 2639
1902 3383 2652
1878 3387 2669
1851 3393 2691
1820 3399 2719
1786 3406 2753
1749 3414 2794
1709 3422 2841
1665 3430 2894
1616 3439 2954
1562 3449 3020
1501 3459 3093
1431 3471 3173
1351 3482 3260
1258 3494 3353
1150 3507 3454
1027 3520 3561
885 3532 3673
725 3544 3790
550 3556 3909
358 3566 4028
250 3577 4095
2052 3533 2748
2045 3535 2752
2035 3536 2757
2021 3539 2765
2002 3543 2777
1980 3548 2793
1953 3553 2814
1923 3560 2840
1891 3566 2872
1855 3573 2910
1816 3581 2954
1774 3589 3004
1728 3598 3060
1677 3607 3122
1621 3617 3191
1557 3628 3266
1484 3639 3348
1402 3651 3436
1306 3663 3531
1196 3676 3633
1071 3689 3740
928 3701 3853
769 3713 3970
593 3724 4089
674 3736 4095
2149 3694 2875
2143 3695 2879
2134 3697 2884
2120 3700 2892
2103 3704 2903
2081 3708 2918
2055 3714 2937
2026 3719 2962
1995 3726 2991
1960 3733 3026
1923 3740 3068
1882 3748 3115
1838 3757 3168
1790 3766 3226
1738 3775 3291
1679 3786 3362
1613 3796 3440
1537 3808 3523
1452 3820 3613
1354 3832 3709
1242 3845 3811
1115 3857 3920
971 3870 4033
1131 3868 4095
1113 3887 4095
2247 3855 3003
2241 3857 3007
2232 3858 3011
2219 3861 3018
2202 3865 3029
2182 3869 3043
2157 3874 3061
2129 3880 3084
2099 3886 3111
2065 3893 3145
2029 3900 3183
1990 3908 3227
1948 3916 3277
1903 3925 3333
1853 3934 3395
1797 3944 3461
1736 3954 3535
1668 3965 3614
1590 3977 3699
1502 3989 3790
1402 4001 3887
1287 4014 3991
1159 4026 4095
1393 4022 4095
1525 4030 4095
142 10 0
116 26 81
107 39 189
100 58 328
113 84 440
145 116 528
183 168 595
203 233 653
217 295 726
240 351 817
273 403 917
306 457 1015
339 509 1115
374 563 1214
409 616 1313
445 670 1413
482 724 1513
518 777 1613
554 831 1712
592 885 1812
628 940 1912
666 994 2012
703 1048 2112
741 1102 2211
778 1156 2311
177 161 81
171 171 171
161 183 273
149 201 388
158 222 485
186 250 568
206 289 636
220 332 713
243 374 801
269 417 891
297 464 984
328 510 1077
360 559 1171
393 607 1266
425 657 1361
461 708 1457
496 759 1554
531 811 1650
566 862 1748
603 914 1845
639 966 1943
675 1019 2042
713 1071 2139
749 1124 2238
787 1177 2337
243 314 209
235 320 271
183 337 358
177 347 465
195 360 553
212 377 635
230 403 719
250 431 803
271 464 888
295 500 974
324 538 1061
351 578 1149
381 622 1239
412 665 1329
445 711 1420
478 758 1512
512 805 1605
546 853 1699
580 902 1793
616 952 1888
652 1001 1984
688 1052 2079
724 1103 2176
760 1154 2272
797 1206 2369
306 474 332
295 479 376
262 490 439
195 505 543
177 514 656
209 523 746
240 538 829
269 557 910
295 582 992
322 609 1074
351 640 1157
379 672 1241
408 709 1326
439 747 1412
470 787 1499
501 828 1588
533 871 1677
566 915 1767
601 961 1858
635 1006 1949
669 1053 2042
705 1101 2135
740 1149 2228
776 1198 2322
812 1248 2417
370 637 443
363 641 488
339 648 540
287 660 616
209 674 725
174 684 842
209 692 938
257 702 1023
299 718 1103
336 738 1184
369 761 1264
401 788 1346
431 817 1427
462 849 1510
494 883 1594
526 919 1678
558 957 1764
591 996 1850
625 1037 1938
658 1079 2026
692 1122 2116
726 1166 2205
761 1211 2296
796 1257 2387
831 1304 2480
462 795 578
449 799 610
422 807 648
381 817 710
316 829 795
230 842 907
174 852 1025
203 860 1127
264 869 1214
320 882 1296
367 899 1376
409 919 1456
446 942 1536
481 967 1616
516 995 1697
550 1026 1780
583 1059 1862
615 1093 1946
649 1129 2030
682 1167 2116
715 1206 2202
750 1246 2289
784 1288 2376
818 1330 2465
853 1373 2554
557 955 710
537 959 732
510 966 763
474 975 813
423 986 883
349 999 975
250 1011 1087
180 1022 1206
195 1030 1313
262 1038 1405
332 1048 1489
391 1062 1569
442 1079 1649
486 1099 1728
526 1122 1808
564 1148 1888
601 1175 1968
636 1205 2050
671 1236 2132
705 1270 2215
740 1304 2298
774 1341 2383
808 1378 2468
842 1417 2553
877 1456 2640
651 1114 839
627 1120 855
601 1126 881
568 1134 922
525 1143 981
465 1155 1058
383 1168 1155
276 1180 1268
189 1191 1387
189 1199 1497
257 1206 1593
336 1216 1680
408 1228 1762
468 1243 1842
520 1260 1921
566 1281 2000
610 1304 2079
649 1328 2159
688 1355 2239
725 1384 2320
760 1415 2402
796 1447 2484
831 1480 2567
865 1515 2651
900 1551 2735
741 1275 966
719 1280 980
695 1286 1001
662 1293 1036
624 1302 1086
575 1312 1152
508 1324 1235
416 1336 1334
304 1349 1449
203 1360 1567
183 1368 1680
245 1375 1780
336 1384 1869
417 1394 1953
488 1408 2034
548 1423 2113
602 1441 2192
650 1462 2271
694 1484 2350
735 1509 2430
775 1536 2510
813 1564 2591
850 1593 2672
886 1625 2753
922 1658 2836
831 1437 1093
812 1441 1105
788 1446 1123
759 1453 1153
724 1461 1196
679 1470 1254
624 1480 1325
550 1493 1412
452 1505 1514
334 1518 1629
220 1529 1748
180 1537 1862
235 1545 1965
328 1553 2058
420 1562 2144
501 1574 2226
571 1588 2306
631 1604 2385
686 1623 2464
735 1643 2542
780 1666 2622
822 1690 2701
863 1716 2781
902 1744 2861
940 1773 2942
924 1598 1220
906 1602 1231
885 1607 1247
857 1613 1273
823 1620 1310
783 1629 1360
735 1638 1423
672 1649 1500
593 1661 1590
489 1674 1694
365 1687 1809
243 1698 1928
183 1707 2043
222 1714 2149
318 1721 2245
419 1730 2333
509 1741 2417
587 1754 2498
656 1769 2577
716 1785 2656
771 1804 2735
820 1825 2814
867 1847 2893
910 1871 2972
951 1897 3052
