Creative/pastel_complimentary.3dl
#25pt 3DLUT created by 3D LUT Creator Pro (c) Oleg Sharonov
#Copyright Oleg Sharonov
0 256 512 768 1023
0 0 0
78 145 610
291 500 1108
525 826 1708
758 1152 2309
481 956 706
97 1011 1092
365 1077 1654
635 1233 2133
854 1454 2640
1076 1921 1473
904 1956 1634
343 2024 2171
436 2076 2800
912 2166 3280
1661 2888 2238
1541 2913 2327
1265 2965 2652
599 3038 3251
351 3090 3919
2247 3855 3003
2157 3874 3061
1948 3916 3277
1590 3977 3699
1525 4030 4095
873 212 0
755 399 642
782 634 1190
887 913 1765
1034 1214 2350
1052 992 665
1024 1024 1024
1004 1118 1584
1049 1280 2117
1153 1496 2645
1483 1918 1506
1392 1951 1636
1093 2029 2141
1134 2083 2753
1307 2182 3247
1951 2883 2257
1858 2908 2335
1645 2961 2640
1195 3040 3233
1115 3092 3895
2459 3851 3015
2381 3869 3069
2199 3912 3276
1892 3975 3687
1781 4034 4095
1802 532 0
1833 566 541
1558 912 1353
1556 1138 1892
1622 1387 2453
2005 1052 0
1999 1075 793
1739 1274 1579
1720 1431 2117
1755 1628 2670
2097 1988 1405
2084 2004 1573
2048 2048 2048
2016 2125 2612
2015 2242 3165
2515 2896 2309
2477 2915 2372
2393 2960 2630
2110 3049 3176
2105 3101 3809
2965 3847 3059
2913 3865 3101
2795 3906 3282
2583 3971 3657
2357 4050 4095
2708 880 16
2801 831 0
2589 1122 1398
2361 1425 2063
2341 1649 2599
2865 1228 0
3007 1143 0
2734 1403 1542
2485 1658 2212
2456 1847 2745
3053 2045 714
3064 2048 1097
3018 2090 1868
2756 2256 2578
2726 2380 3110
3143 2985 2139
3137 2995 2230
3110 3023 2563
3071 3071 3071
3037 3143 3634
3543 3885 3096
3522 3898 3135
3480 3926 3311
3409 3975 3641
3187 4068 4095
3619 1223 29
3705 1164 0
3725 1229 1081
3359 1656 2158
3165 1938 2774
3737 1475 10
3807 1441 0
3814 1494 1212
3462 1844 2264
3254 2102 2880
3989 2122 0
4081 2080 0
4002 2153 1559
3721 2355 2544
3481 2564 3168
4067 3053 1533
4077 3054 1703
4088 3066 2180
4040 3111 2908
3778 3263 3590
4095 3976 3159
4095 3983 3236
4095 4006 3325
4095 4043 3613
4095 4095 4095
