Creative/Red color detail enhancer.3dl
#25pt 3DLUT created by 3D LUT Creator Pro (c) Oleg Sharonov
#Copyright Oleg Sharonov
#IMAGEPROFILE sRGB IEC61966-2.1 v.2.10
#INPUTGAMMA sRGB IEC61966-2.1 v.2.10
#OUTPUTGAMMA sRGB IEC61966-2.1 v.2.10
0 256 512 768 1023
0 0 0
0 0 1024
0 0 2048
0 0 3071
0 0 4095
0 1024 0
0 1024 1024
0 1024 2048
0 1024 3071
0 1024 4095
0 2048 0
0 2048 1024
0 2048 2048
0 2048 3071
0 2048 4095
0 3071 0
0 3071 1024
0 3071 2048
0 3071 3071
0 3071 4095
0 4095 0
0 4095 1024
0 4095 2048
0 4095 3071
0 4095 4095
855 52 0
1024 0 1024
1024 0 2048
1024 0 3071
1024 0 4095
1024 1024 0
1024 1024 1024
1024 1024 2048
1024 1024 3071
1024 1024 4095
1024 2048 0
1024 2048 1024
1024 2048 2048
1024 2048 3071
1024 2048 4095
1024 3071 0
1024 3071 1024
1024 3071 2048
1024 3071 3071
1024 3071 4095
1024 4095 0
1024 4095 1024
1024 4095 2048
1024 4095 3071
1024 4095 4095
1654 81 0
1844 0 909
2048 0 2048
2048 0 3071
2048 0 4095
2048 1024 0
2111 1080 1077
2048 1024 2048
2048 1024 3071
2048 1024 4095
2048 2048 0
2048 2048 1024
2048 2048 2048
2048 2048 3071
2048 2048 4095
2048 3071 0
2048 3071 1024
2048 3071 2048
2048 3071 3071
2048 3071 4095
2048 4095 0
2048 4095 1024
2048 4095 2048
2048 4095 3071
2048 4095 4095
2753 0 0
2857 0 933
3062 0 2040
3071 0 3071
3071 0 4095
3128 1073 55
3368 1289 1248
3199 1148 2159
3071 1024 3071
3071 1024 4095
3071 2048 0
3071 2048 1024
3071 2048 2048
3071 2048 3071
3071 2048 4095
3071 3071 0
3071 3071 1024
3071 3071 2048
3071 3071 3071
3071 3071 4095
3071 4095 0
3071 4095 1024
3071 4095 2048
3071 4095 3071
3071 4095 4095
4095 0 0
4095 304 1070
4095 754 2151
4095 0 3071
4095 0 4095
4095 1399 552
4095 1768 1570
4095 2015 2529
4095 1024 3071
4095 1024 4095
4095 2048 0
4095 2048 1024
4095 2268 2243
4095 2070 3094
4095 2048 4095
4095 3071 0
4095 3071 1024
4095 3071 2048
4095 3071 3071
4095 3071 4095
4095 4094 94
4095 4095 1024
4095 4095 2048
4095 4095 3071
4095 4095 4095
