Creative/Red color detail enhancer.3dl
#25pt 3DLUT created by 3D LUT Creator Pro (c) Oleg Sharonov
#Copyright Oleg Sharonov
#IMAGEPROFILE sRGB IEC61966-2.1 v.2.10
#INPUTGAMMA sRGB IEC61966-2.1 v.2.10
#OUTPUTGAMMA sRGB IEC61966-2.1 v.2.10
0 128 256 384 512 640 768 896 1023
0 0 0
0 0 512
0 0 1024
0 0 1536
0 0 2048
0 0 2559
0 0 3071
0 0 3583
0 0 4095
0 512 0
0 512 512
0 512 1024
0 512 1536
0 512 2048
0 512 2559
0 512 3071
0 512 3583
0 512 4095
0 1024 0
0 1024 512
0 1024 1024
0 1024 1536
0 1024 2048
0 1024 2559
0 1024 3071
0 1024 3583
0 1024 4095
0 1536 0
0 1536 512
0 1536 1024
0 1536 1536
0 1536 2048
0 1536 2559
0 1536 3071
0 1536 3583
0 1536 4095
0 2048 0
0 2048 512
0 2048 1024
0 2048 1536
0 2048 2048
0 2048 2559
0 2048 3071
0 2048 3583
0 2048 4095
0 2559 0
0 2559 512
0 2559 1024
0 2559 1536
0 2559 2048
0 2559 2559
0 2559 3071
0 2559 3583
0 2559 4095
0 3071 0
0 3071 512
0 3071 1024
0 3071 1536
0 3071 2048
0 3071 2559
0 3071 3071
0 3071 3583
0 3071 4095
0 3583 0
0 3583 512
0 3583 1024
0 3583 1536
0 3583 2048
0 3583 2559
0 3583 3071
0 3583 3583
0 3583 4095
0 4095 0
0 4095 512
0 4095 1024
0 4095 1536
0 4095 2048
0 4095 2559
0 4095 3071
0 4095 3583
0 4095 4095
490 0 0
512 0 512
512 0 1024
512 0 1536
512 0 2048
512 0 2559
512 0 3071
512 0 3583
512 0 4095
512 512 0
512 512 512
512 512 1024
512 512 1536
512 512 2048
512 512 2559
512 512 3071
512 512 3583
512 512 4095
512 1024 0
512 1024 512
512 1024 1024
512 1024 1536
512 1024 2048
512 1024 2559
512 1024 3071
512 1024 3583
512 1024 4095
512 1536 0
512 1536 512
512 1536 1024
512 1536 1536
512 1536 2048
512 1536 2559
512 1536 3071
512 1536 3583
512 1536 4095
512 2048 0
512 2048 512
512 2048 1024
512 2048 1536
512 2048 2048
512 2048 2559
512 2048 3071
512 2048 3583
512 2048 4095
512 2559 0
512 2559 512
512 2559 1024
512 2559 1536
512 2559 2048
512 2559 2559
512 2559 3071
512 2559 3583
512 2559 4095
512 3071 0
512 3071 512
512 3071 1024
512 3071 1536
512 3071 2048
512 3071 2559
512 3071 3071
512 3071 3583
512 3071 4095
512 3583 0
512 3583 512
512 3583 1024
512 3583 1536
512 3583 2048
512 3583 2559
512 3583 3071
512 3583 3583
512 3583 4095
512 4095 0
512 4095 512
512 4095 1024
512 4095 1536
512 4095 2048
512 4095 2559
512 4095 3071
512 4095 3583
512 4095 4095
855 52 0
950 0 467
1024 0 1024
1024 0 1536
1024 0 2048
1024 0 2559
1024 0 3071
1024 0 3583
1024 0 4095
1024 512 0
1024 512 512
1024 512 1024
1024 512 1536
1024 512 2048
1024 512 2559
1024 512 3071
1024 512 3583
1024 512 4095
1024 1024 0
1024 1024 512
1024 1024 1024
1024 1024 1536
1024 1024 2048
1024 1024 2559
1024 1024 3071
1024 1024 3583
1024 1024 4095
1024 1536 0
1024 1536 512
1024 1536 1024
1024 1536 1536
1024 1536 2048
1024 1536 2559
1024 1536 3071
1024 1536 3583
1024 1536 4095
1024 2048 0
1024 2048 512
1024 2048 1024
1024 2048 1536
1024 2048 2048
1024 2048 2559
1024 2048 3071
1024 2048 3583
1024 2048 4095
1024 2559 0
1024 2559 512
1024 2559 1024
1024 2559 1536
1024 2559 2048
1024 2559 2559
1024 2559 3071
1024 2559 3583
1024 2559 4095
1024 3071 0
1024 3071 512
1024 3071 1024
1024 3071 1536
1024 3071 2048
1024 3071 2559
1024 3071 3071
1024 3071 3583
1024 3071 4095
1024 3583 0
1024 3583 512
1024 3583 1024
1024 3583 1536
1024 3583 2048
1024 3583 2559
1024 3583 3071
1024 3583 3583
1024 3583 4095
1024 4095 0
1024 4095 512
1024 4095 1024
1024 4095 1536
1024 4095 2048
1024 4095 2559
1024 4095 3071
1024 4095 3583
1024 4095 4095
1230 87 0
1287 0 404
1533 0 1022
1536 0 1536
1536 0 2048
1536 0 2559
1536 0 3071
1536 0 3583
1536 0 4095
1535 512 0
1575 547 542
1553 528 1039
1536 512 1536
1536 512 2048
1536 512 2559
1536 512 3071
1536 512 3583
1536 512 4095
1536 1024 0
1536 1024 512
1536 1024 1024
1536 1024 1536
1536 1024 2048
1536 1024 2559
1536 1024 3071
1536 1024 3583
1536 1024 4095
1536 1536 0
1536 1536 512
1536 1536 1024
1536 1536 1536
1536 1536 2048
1536 1536 2559
1536 1536 3071
1536 1536 3583
1536 1536 4095
1536 2048 0
1536 2048 512
1536 2048 1024
1536 2048 1536
1536 2048 2048
1536 2048 2559
1536 2048 3071
1536 2048 3583
1536 2048 4095
1536 2559 0
1536 2559 512
1536 2559 1024
1536 2559 1536
1536 2559 2048
1536 2559 2559
1536 2559 3071
1536 2559 3583
1536 2559 4095
1536 3071 0
1536 3071 512
1536 3071 1024
1536 3071 1536
1536 3071 2048
1536 3071 2559
1536 3071 3071
1536 3071 3583
1536 3071 4095
1536 3583 0
1536 3583 512
1536 3583 1024
1536 3583 1536
1536 3583 2048
1536 3583 2559
1536 3583 3071
1536 3583 3583
1536 3583 4095
1536 4095 0
1536 4095 512
1536 4095 1024
1536 4095 1536
1536 4095 2048
1536 4095 2559
1536 4095 3071
1536 4095 3583
1536 4095 4095
1654 81 0
1691 0 386
1844 0 909
2048 0 1536
2048 0 2048
2048 0 2559
2048 0 3071
2048 0 3583
2048 0 4095
2029 494 0
2080 543 536
2166 630 1120
2048 512 1536
2048 512 2048
2048 512 2559
2048 512 3071
2048 512 3583
2048 512 4095
2048 1024 0
2048 1024 512
2111 1080 1077
2061 1036 1548
2048 1024 2048
2048 1024 2559
2048 1024 3071
2048 1024 3583
2048 1024 4095
2048 1536 0
2048 1536 512
2048 1536 1024
2048 1536 1536
2048 1536 2048
2048 1536 2559
2048 1536 3071
2048 1536 3583
2048 1536 4095
2048 2048 0
2048 2048 512
2048 2048 1024
2048 2048 1536
2048 2048 2048
2048 2048 2559
2048 2048 3071
2048 2048 3583
2048 2048 4095
2048 2559 0
2048 2559 512
2048 2559 1024
2048 2559 1536
2048 2559 2048
2048 2559 2559
2048 2559 3071
2048 2559 3583
2048 2559 4095
2048 3071 0
2048 3071 512
2048 3071 1024
2048 3071 1536
2048 3071 2048
2048 3071 2559
2048 3071 3071
2048 3071 3583
2048 3071 4095
2048 3583 0
2048 3583 512
2048 3583 1024
2048 3583 1536
2048 3583 2048
2048 3583 2559
2048 3583 3071
2048 3583 3583
2048 3583 4095
2048 4095 0
2048 4095 512
2048 4095 1024
2048 4095 1536
2048 4095 2048
2048 4095 2559
2048 4095 3071
2048 4095 3583
2048 4095 4095
2142 26 0
2152 0 389
2275 0 893
2478 0 1482
2559 0 2048
2559 0 2559
2559 0 3071
2559 0 3583
2559 0 4095
2525 475 0
2565 518 516
2647 610 1091
2609 571 1577
2559 512 2048
2559 512 2559
2559 512 3071
2559 512 3583
2559 512 4095
2559 1024 0
2598 1056 541
2778 1215 1197
2808 1250 1749
2559 1024 2048
2559 1024 2559
2559 1024 3071
2559 1024 3583
2559 1024 4095
2559 1536 0
2559 1536 512
2559 1536 1024
2559 1536 1536
2559 1536 2048
2559 1536 2559
2559 1536 3071
2559 1536 3583
2559 1536 4095
2559 2048 0
2559 2048 512
2559 2048 1024
2559 2048 1536
2559 2048 2048
2559 2048 2559
2559 2048 3071
2559 2048 3583
2559 2048 4095
2559 2559 0
2559 2559 512
2559 2559 1024
2559 2559 1536
2559 2559 2048
2559 2559 2559
2559 2559 3071
2559 2559 3583
2559 2559 4095
2559 3071 0
2559 3071 512
2559 3071 1024
2559 3071 1536
2559 3071 2048
2559 3071 2559
2559 3071 3071
2559 3071 3583
2559 3071 4095
2559 3583 0
2559 3583 512
2559 3583 1024
2559 3583 1536
2559 3583 2048
2559 3583 2559
2559 3583 3071
2559 3583 3583
2559 3583 4095
2559 4095 0
2559 4095 512
2559 4095 1024
2559 4095 1536
2559 4095 2048
2559 4095 2559
2559 4095 3071
2559 4095 3583
2559 4095 4095
2753 0 0
2772 0 414
2857 0 933
2981 0 1485
3062 0 2040
3071 0 2559
3071 0 3071
3071 0 3583
3071 0 4095
3048 484 0
3076 518 516
3144 603 1077
3199 675 1638
3088 536 2062
3071 512 2559
3071 512 3071
3071 512 3583
3071 512 4095
3128 1073 55
3190 1128 601
3368 1289 1248
3465 1387 1858
3199 1148 2159
3071 1024 2559
3071 1024 3071
3071 1024 3583
3071 1024 4095
3071 1536 0
3071 1536 512
3071 1536 1024
3217 1663 1656
3208 1659 2169
3071 1536 2559
3071 1536 3071
3071 1536 3583
3071 1536 4095
3071 2048 0
3071 2048 512
3071 2048 1024
3071 2048 1536
3071 2048 2048
3071 2048 2559
3071 2048 3071
3071 2048 3583
3071 2048 4095
3071 2559 0
3071 2559 512
3071 2559 1024
3071 2559 1536
3071 2559 2048
3071 2559 2559
3071 2559 3071
3071 2559 3583
3071 2559 4095
3071 3071 0
3071 3071 512
3071 3071 1024
3071 3071 1536
3071 3071 2048
3071 3071 2559
3071 3071 3071
3071 3071 3583
3071 3071 4095
3071 3583 0
3071 3583 512
3071 3583 1024
3071 3583 1536
3071 3583 2048
3071 3583 2559
3071 3583 3071
3071 3583 3583
3071 3583 4095
3071 4095 0
3071 4095 512
3071 4095 1024
3071 4095 1536
3071 4095 2048
3071 4095 2559
3071 4095 3071
3071 4095 3583
3071 4095 4095
3410 0 0
3450 0 440
3501 0 982
3583 0 1535
3601 65 2062
3583 0 2559
3583 0 3071
3583 0 3583
3583 0 4095
3607 546 19
3634 583 548
3694 665 1102
3748 741 1662
3696 681 2141
3583 512 2559
3583 512 3071
3583 512 3583
3583 512 4095
3711 1140 145
3765 1190 649
3941 1355 1286
4052 1470 1903
3960 1396 2362
3599 1040 2573
3583 1024 3071
3583 1024 3583
3583 1024 4095
3583 1536 0
3583 1536 512
3725 1656 1132
3922 1832 1806
3992 1902 2394
3683 1628 2649
3583 1536 3071
3583 1536 3583
3583 1536 4095
3583 2048 0
3583 2048 512
3583 2048 1024
3583 2048 1536
3583 2048 2048
3583 2048 2559
3583 2048 3071
3583 2048 3583
3583 2048 4095
3583 2559 0
3583 2559 512
3583 2559 1024
3583 2559 1536
3583 2559 2048
3583 2559 2559
3583 2559 3071
3583 2559 3583
3583 2559 4095
3583 3071 0
3583 3071 512
3583 3071 1024
3583 3071 1536
3583 3071 2048
3583 3071 2559
3583 3071 3071
3583 3071 3583
3583 3071 4095
3583 3583 0
3583 3583 512
3583 3583 1024
3583 3583 1536
3583 3583 2048
3583 3583 2559
3583 3583 3071
3583 3583 3583
3583 3583 4095
3583 4095 0
3583 4095 512
3583 4095 1024
3583 4095 1536
3583 4095 2048
3583 4095 2559
3583 4095 3071
3583 4095 3583
3583 4095 4095
4095 0 0
4095 55 522
4095 304 1070
4095 618 1634
4095 754 2151
4095 318 2597
4095 0 3071
4095 0 3583
4095 0 4095
4095 785 235
4095 894 700
4095 1078 1257
4095 1213 1782
4095 1256 2261
4095 840 2627
4095 512 3071
4095 512 3583
4095 512 4095
4095 1399 552
4095 1503 945
4095 1768 1570
4095 1962 2114
4095 2015 2529
4095 1542 2726
4095 1024 3071
4095 1024 3583
4095 1024 4095
4095 1589 119
4095 1674 693
4095 1957 1456
4095 2279 2170
4095 2444 2664
4095 2192 2874
4095 1536 3071
4095 1536 3583
4095 1536 4095
4095 2048 0
4095 2048 512
4095 2048 1024
4095 2112 1602
4095 2268 2243
4095 2281 2713
4095 2070 3094
4095 2048 3583
4095 2048 4095
4095 2559 0
4095 2559 512
4095 2559 1024
4095 2559 1536
4095 2559 2048
4095 2559 2559
4095 2559 3071
4095 2559 3583
4095 2559 4095
4095 3071 0
4095 3071 512
4095 3071 1024
4095 3071 1536
4095 3071 2048
4095 3071 2559
4095 3071 3071
4095 3071 3583
4095 3071 4095
4095 3583 0
4095 3583 512
4095 3583 1024
4095 3583 1536
4095 3583 2048
4095 3583 2559
4095 3583 3071
4095 3583 3583
4095 3583 4095
4095 4094 94
4095 4095 512
4095 4095 1024
4095 4095 1536
4095 4095 2048
4095 4095 2559
4095 4095 3071
4095 4095 3583
4095 4095 4095
