Creative/Skin Saturation - CMYK.3dl
#25pt 3DLUT created by 3D LUT Creator Pro (c) Oleg Sharonov
#Copyright Oleg Sharonov
#IMAGEPROFILE sRGB IEC61966-2.1 v.2.10
#INPUTGAMMA sRGB IEC61966-2.1 v.2.10
#OUTPUTGAMMA sRGB IEC61966-2.1 v.2.10
0 256 512 768 1023
160 160 160
157 158 1124
153 154 2317
149 150 3408
148 150 4095
157 1125 252
154 1123 1124
150 1076 2296
146 1076 3392
145 1079 4095
152 2315 389
148 2314 1531
145 2314 2316
141 2245 3395
140 2243 4095
148 3405 578
143 3402 1858
140 3401 2622
137 3402 3401
136 3336 4095
146 4095 789
140 4095 2200
138 4095 3099
135 4095 3573
135 4095 4095
1127 157 173
1126 154 1125
1128 151 2319
958 219 3408
623 447 4095
1126 1126 154
1127 1127 1126
1009 1046 2320
1004 1043 3407
993 1035 4095
1384 2319 159
1054 2315 1333
938 2253 2289
825 2145 3365
864 2195 4095
1234 3407 147
985 3403 1544
1126 3400 2702
942 3364 3392
747 3239 4095
1109 4095 168
920 4095 1770
994 4095 3024
1033 4095 3618
938 4078 4095
2319 153 182
2314 150 1119
2319 145 2317
2006 312 3406
1347 919 4095
2346 836 151
2337 988 1059
2315 1124 2310
2166 1301 3405
1803 1612 4095
2319 2319 145
2320 2320 1125
2315 2315 2310
2094 2167 3402
2084 2159 4095
2797 3405 158
2569 3404 1144
2249 3399 2511
1960 3320 3377
1811 3195 4095
2815 4095 158
2429 4095 1142
2185 4095 2729
2326 4095 3672
1969 4053 4095
3408 610 588
3403 899 1600
3401 899 2769
3003 449 3405
2069 1387 4095
3420 1135 494
3411 1586 1455
3399 1776 2616
3143 1458 3400
2529 2113 4095
3415 2577 140
3439 2366 846
3413 2554 2333
3275 2483 3397
2980 2802 4095
3404 3404 137
3403 3403 1123
3399 3399 2313
3396 3396 3388
3116 3211 4095
3729 4095 155
3727 4095 1177
3578 4095 2346
3348 4095 3546
2960 4030 4095
4095 3509 2223
4095 3582 3015
4095 3581 3847
3699 3015 4095
2764 1864 4095
4095 3556 2168
4095 3679 2727
4095 3728 3575
3956 3575 4095
3197 2569 4095
4095 3803 976
4095 3756 2222
4095 3832 3208
4095 3864 3979
3548 3233 4095
4095 3993 336
4095 3966 1110
4095 3926 2105
4095 3978 3623
3826 3721 4095
4095 4095 135
4095 4095 1133
4095 4095 2327
4095 4095 3402
4095 4095 4095
