Creative/skin-red-yellow_volume.3dl
#25pt 3DLUT created by 3D LUT Creator Pro (c) Oleg Sharonov
#Copyright Oleg Sharonov
0 43 86 128 171 214 256 299 341 384 427 469 512 555 597 640 682 725 768 810 853 896 938 981 1023 
0 0 0
0 0 171
0 0 341
0 0 512
0 0 683
0 0 853
0 0 1024
0 0 1194
0 0 1365
0 0 1536
0 0 1706
0 0 1877
0 0 2048
0 0 2218
0 0 2389
0 0 2559
0 0 2730
0 0 2901
0 0 3071
0 0 3242
0 0 3412
0 0 3583
0 0 3754
0 0 3924
0 0 4095
0 171 0
0 171 171
0 171 341
0 171 512
0 171 683
0 171 853
0 171 1024
0 171 1194
0 171 1365
0 171 1536
0 171 1706
0 171 1877
0 171 2048
0 171 2218
0 171 2389
0 171 2559
0 171 2730
0 171 2901
0 171 3071
0 171 3242
0 171 3412
0 171 3583
0 171 3754
0 171 3924
0 171 4095
0 341 0
0 341 171
0 341 341
0 341 512
0 341 683
0 341 853
0 341 1024
0 341 1194
0 341 1365
0 341 1536
0 341 1706
0 341 1877
0 341 2048
0 341 2218
0 341 2389
0 341 2559
0 341 2730
0 341 2901
0 341 3071
0 341 3242
0 341 3412
0 341 3583
0 341 3754
0 341 3924
0 341 4095
0 512 0
0 512 171
0 512 341
0 512 512
0 512 683
0 512 853
0 512 1024
0 512 1194
0 512 1365
0 512 1536
0 512 1706
0 512 1877
0 512 2048
0 512 2218
0 512 2389
0 512 2559
0 512 2730
0 512 2901
0 512 3071
0 512 3242
0 512 3412
0 512 3583
0 512 3754
0 512 3924
0 512 4095
0 683 0
0 683 171
0 683 341
0 683 512
0 683 683
0 683 853
0 683 1024
0 683 1194
0 683 1365
0 683 1536
0 683 1706
0 683 1877
0 683 2048
0 683 2218
0 683 2389
0 683 2559
0 683 2730
0 683 2901
0 683 3071
0 683 3242
0 683 3412
0 683 3583
0 683 3754
0 683 3924
0 683 4095
0 853 0
0 853 171
0 853 341
0 853 512
0 853 683
0 853 853
0 853 1024
0 853 1194
0 853 1365
0 853 1536
0 853 1706
0 853 1877
0 853 2048
0 853 2218
0 853 2389
0 853 2559
0 853 2730
0 853 2901
0 853 3071
0 853 3242
0 853 3412
0 853 3583
0 853 3754
0 853 3924
0 853 4095
0 1024 0
0 1024 171
0 1024 341
0 1024 512
0 1024 683
0 1024 853
0 1024 1024
0 1024 1194
0 1024 1365
0 1024 1536
0 1024 1706
0 1024 1877
0 1024 2048
0 1024 2218
0 1024 2389
0 1024 2559
0 1024 2730
0 1024 2901
0 1024 3071
0 1024 3242
0 1024 3412
0 1024 3583
0 1024 3754
0 1024 3924
0 1024 4095
0 1194 0
0 1194 171
0 1194 341
0 1194 512
0 1194 683
0 1194 853
0 1194 1024
0 1194 1194
0 1194 1365
0 1194 1536
0 1194 1706
0 1194 1877
0 1194 2048
0 1194 2218
0 1194 2389
0 1194 2559
0 1194 2730
0 1194 2901
0 1194 3071
0 1194 3242
0 1194 3412
0 1194 3583
0 1194 3754
0 1194 3924
0 1194 4095
0 1365 0
0 1365 171
0 1365 341
0 1365 512
0 1365 683
0 1365 853
0 1365 1024
0 1365 1194
0 1365 1365
0 1365 1536
0 1365 1706
0 1365 1877
0 1365 2048
0 1365 2218
0 1365 2389
0 1365 2559
0 1365 2730
0 1365 2901
0 1365 3071
0 1365 3242
0 1365 3412
0 1365 3583
0 1365 3754
0 1365 3924
0 1365 4095
0 1536 0
0 1536 171
0 1536 341
0 1536 512
0 1536 683
0 1536 853
0 1536 1024
0 1536 1194
0 1536 1365
0 1536 1536
0 1536 1706
0 1536 1877
0 1536 2048
0 1536 2218
0 1536 2389
0 1536 2559
0 1536 2730
0 1536 2901
0 1536 3071
0 1536 3242
0 1536 3412
0 1536 3583
0 1536 3754
0 1536 3924
0 1536 4095
0 1706 0
0 1706 171
0 1706 341
0 1706 512
0 1706 683
0 1706 853
0 1706 1024
0 1706 1194
0 1706 1365
0 1706 1536
0 1706 1706
0 1706 1877
0 1706 2048
0 1706 2218
0 1706 2389
0 1706 2559
0 1706 2730
0 1706 2901
0 1706 3071
0 1706 3242
0 1706 3412
0 1706 3583
0 1706 3754
0 1706 3924
0 1706 4095
0 1877 0
0 1877 171
0 1877 341
0 1877 512
0 1877 683
0 1877 853
0 1877 1024
0 1877 1194
0 1877 1365
0 1877 1536
0 1877 1706
0 1877 1877
0 1877 2048
0 1877 2218
0 1877 2389
0 1877 2559
0 1877 2730
0 1877 2901
0 1877 3071
0 1877 3242
0 1877 3412
0 1877 3583
0 1877 3754
0 1877 3924
0 1877 4095
0 2048 0
0 2048 171
0 2048 341
0 2048 512
0 2048 683
0 2048 853
0 2048 1024
0 2048 1194
0 2048 1365
0 2048 1536
0 2048 1706
0 2048 1877
0 2048 2048
0 2048 2218
0 2048 2389
0 2048 2559
0 2048 2730
0 2048 2901
0 2048 3071
0 2048 3242
0 2048 3412
0 2048 3583
0 2048 3754
0 2048 3924
0 2048 4095
0 2218 0
0 2218 171
0 2218 341
0 2218 512
0 2218 683
0 2218 853
0 2218 1024
0 2218 1194
0 2218 1365
0 2218 1536
0 2218 1706
0 2218 1877
0 2218 2048
0 2218 2218
0 2218 2389
0 2218 2559
0 2218 2730
0 2218 2901
0 2218 3071
0 2218 3242
0 2218 3412
0 2218 3583
0 2218 3754
0 2218 3924
0 2218 4095
0 2389 0
0 2389 171
0 2389 341
0 2389 512
0 2389 683
0 2389 853
0 2389 1024
0 2389 1194
0 2389 1365
0 2389 1536
0 2389 1706
0 2389 1877
0 2389 2048
0 2389 2218
0 2389 2389
0 2389 2559
0 2389 2730
0 2389 2901
0 2389 3071
0 2389 3242
0 2389 3412
0 2389 3583
0 2389 3754
0 2389 3924
0 2389 4095
0 2559 0
0 2559 171
0 2559 341
0 2559 512
0 2559 683
0 2559 853
0 2559 1024
0 2559 1194
0 2559 1365
0 2559 1536
0 2559 1706
0 2559 1877
0 2559 2048
0 2559 2218
0 2559 2389
0 2559 2559
0 2559 2730
0 2559 2901
0 2559 3071
0 2559 3242
0 2559 3412
0 2559 3583
0 2559 3754
0 2559 3924
0 2559 4095
0 2730 0
0 2730 171
0 2730 341
0 2730 512
0 2730 683
0 2730 853
0 2730 1024
0 2730 1194
0 2730 1365
0 2730 1536
0 2730 1706
0 2730 1877
0 2730 2048
0 2730 2218
0 2730 2389
0 2730 2559
0 2730 2730
0 2730 2901
0 2730 3071
0 2730 3242
0 2730 3412
0 2730 3583
0 2730 3754
0 2730 3924
0 2730 4095
0 2901 0
0 2901 171
0 2901 341
0 2901 512
0 2901 683
0 2901 853
0 2901 1024
0 2901 1194
0 2901 1365
0 2901 1536
0 2901 1706
0 2901 1877
0 2901 2048
0 2901 2218
0 2901 2389
0 2901 2559
0 2901 2730
0 2901 2901
0 2901 3071
0 2901 3242
0 2901 3412
0 2901 3583
0 2901 3754
0 2901 3924
0 2901 4095
0 3071 0
0 3071 171
0 3071 341
0 3071 512
0 3071 683
0 3071 853
0 3071 1024
0 3071 1194
0 3071 1365
0 3071 1536
0 3071 1706
0 3071 1877
0 3071 2048
0 3071 2218
0 3071 2389
0 3071 2559
0 3071 2730
0 3071 2901
0 3071 3071
0 3071 3242
0 3071 3412
0 3071 3583
0 3071 3754
0 3071 3924
0 3071 4095
0 3242 0
0 3242 171
0 3242 341
0 3242 512
0 3242 683
0 3242 853
0 3242 1024
0 3242 1194
0 3242 1365
0 3242 1536
0 3242 1706
0 3242 1877
0 3242 2048
0 3242 2218
0 3242 2389
0 3242 2559
0 3242 2730
0 3242 2901
0 3242 3071
0 3242 3242
0 3242 3412
0 3242 3583
0 3242 3754
0 3242 3924
0 3242 4095
0 3412 0
0 3412 171
0 3412 341
0 3412 512
0 3412 683
0 3412 853
0 3412 1024
0 3412 1194
0 3412 1365
0 3412 1536
0 3412 1706
0 3412 1877
0 3412 2048
0 3412 2218
0 3412 2389
0 3412 2559
0 3412 2730
0 3412 2901
0 3412 3071
0 3412 3242
0 3412 3412
0 3412 3583
0 3412 3754
0 3412 3924
0 3412 4095
0 3583 0
0 3583 171
0 3583 341
0 3583 512
0 3583 683
0 3583 853
0 3583 1024
0 3583 1194
0 3583 1365
0 3583 1536
0 3583 1706
0 3583 1877
0 3583 2048
0 3583 2218
0 3583 2389
0 3583 2559
0 3583 2730
0 3583 2901
0 3583 3071
0 3583 3242
0 3583 3412
0 3583 3583
0 3583 3754
0 3583 3924
0 3583 4095
0 3754 0
0 3754 171
0 3754 341
0 3754 512
0 3754 683
0 3754 853
0 3754 1024
0 3754 1194
0 3754 1365
0 3754 1536
0 3754 1706
0 3754 1877
0 3754 2048
0 3754 2218
0 3754 2389
0 3754 2559
0 3754 2730
0 3754 2901
0 3754 3071
0 3754 3242
0 3754 3412
0 3754 3583
0 3754 3754
0 3754 3924
0 3754 4095
0 3924 0
0 3924 171
0 3924 341
0 3924 512
0 3924 683
0 3924 853
0 3924 1024
0 3924 1194
0 3924 1365
0 3924 1536
0 3924 1706
0 3924 1877
0 3924 2048
0 3924 2218
0 3924 2389
0 3924 2559
0 3924 2730
0 3924 2901
0 3924 3071
0 3924 3242
0 3924 3412
0 3924 3583
0 3924 3754
0 3924 3924
0 3924 4095
0 4095 0
0 4095 171
0 4095 341
0 4095 512
0 4095 683
0 4095 853
0 4095 1024
0 4095 1194
0 4095 1365
0 4095 1536
0 4095 1706
0 4095 1877
0 4095 2048
0 4095 2218
0 4095 2389
0 4095 2559
0 4095 2730
0 4095 2901
0 4095 3071
0 4095 3242
0 4095 3412
0 4095 3583
0 4095 3754
0 4095 3924
0 4095 4095
170 0 0
170 0 170
169 0 339
168 0 505
168 0 670
167 0 835
167 0 999
166 0 1163
166 0 1327
166 0 1491
165 0 1655
165 0 1819
165 0 1983
165 0 2147
165 0 2311
165 0 2475
165 0 2640
165 0 2804
165 0 2968
165 0 3133
165 0 3297
165 0 3462
165 0 3626
165 0 3791
165 0 3956
171 171 0
173 173 173
171 171 343
169 169 514
167 167 685
166 166 856
164 164 1026
164 164 1194
164 164 1355
164 164 1516
164 164 1679
164 164 1841
164 164 2005
164 164 2168
164 164 2331
164 164 2495
164 164 2659
164 164 2823
164 164 2987
164 164 3151
164 164 3315
164 164 3480
164 164 3644
164 164 3809
164 164 3974
169 341 0
170 343 170
170 343 343
168 341 513
167 339 684
165 337 854
164 335 1025
164 332 1195
164 330 1366
164 328 1536
165 327 1698
166 327 1857
166 327 2018
166 327 2181
166 327 2345
166 327 2508
165 327 2672
165 327 2836
165 327 3000
165 327 3164
165 327 3328
165 327 3493
165 327 3657
165 327 3822
165 327 3987
166 510 0
167 512 167
168 513 340
167 512 512
165 510 683
164 508 853
164 505 1023
164 502 1194
164 500 1364
164 497 1534
164 495 1705
164 493 1875
164 491 2045
165 491 2206
166 491 2366
167 491 2526
167 491 2688
168 491 2850
168 491 3013
168 491 3177
168 491 3341
167 491 3506
167 491 3670
167 491 3835
167 491 4000
164 678 0
164 681 164
164 682 337
164 682 509
164 681 681
164 678 852
164 675 1022
164 672 1192
164 670 1362
164 667 1533
164 664 1703
164 662 1873
164 660 2043
164 658 2214
164 656 2384
164 655 2554
165 654 2716
166 654 2876
167 654 3037
167 654 3199
168 654 3361
169 654 3524
169 654 3687
169 654 3850
170 654 4014
164 845 0
164 848 164
164 849 333
164 850 506
164 849 678
164 847 849
164 845 1020
164 842 1191
164 839 1361
164 837 1531
164 834 1701
164 831 1871
164 829 2042
164 827 2212
164 825 2382
164 823 2552
164 822 2722
164 820 2892
164 819 3062
164 818 3228
165 818 3388
166 818 3550
167 818 3712
168 818 3875
168 818 4038
164 1011 0
164 1014 164
164 1016 330
164 1017 503
164 1017 675
164 1016 847
164 1014 1018
164 1011 1189
164 1009 1359
164 1006 1529
164 1004 1700
164 1001 1870
164 999 2040
164 997 2210
164 995 2381
164 993 2551
164 991 2721
164 989 2890
164 987 3060
164 986 3230
164 984 3399
164 983 3569
164 982 3738
164 981 3903
165 981 4065
164 1178 0
164 1181 164
164 1183 327
164 1184 499
164 1184 671
164 1183 843
164 1182 1015
164 1180 1186
164 1178 1357
164 1176 1528
164 1173 1698
164 1171 1868
164 1168 2039
164 1166 2209
164 1164 2379
164 1162 2549
164 1160 2719
164 1159 2889
164 1157 3059
164 1155 3228
164 1154 3398
164 1152 3567
164 1151 3737
164 1149 3905
164 1148 4074
164 1344 0
164 1347 164
164 1350 327
164 1351 496
164 1351 668
164 1351 840
164 1350 1012
164 1349 1184
164 1347 1355
164 1345 1526
164 1343 1696
164 1340 1867
164 1338 2037
164 1336 2207
164 1334 2378
164 1332 2548
164 1330 2718
164 1328 2888
164 1326 3058
164 1325 3227
164 1323 3397
164 1322 3566
164 1320 3735
164 1319 3904
164 1317 4073
164 1511 0
164 1514 164
164 1516 327
164 1518 492
164 1519 665
164 1518 837
164 1518 1009
164 1517 1181
164 1516 1353
164 1514 1524
164 1512 1694
164 1510 1865
164 1508 2036
164 1506 2206
164 1504 2376
164 1502 2547
164 1500 2717
164 1498 2887
164 1496 3056
164 1495 3226
164 1493 3396
164 1491 3565
164 1490 3734
164 1488 3904
164 1487 4072
164 1678 0
164 1681 164
164 1683 327
164 1686 491
164 1686 662
164 1686 834
164 1686 1006
164 1685 1178
164 1684 1350
164 1683 1521
164 1682 1693
164 1680 1863
164 1678 2034
164 1676 2205
164 1674 2375
164 1672 2545
164 1670 2715
164 1668 2885
164 1666 3055
164 1665 3225
164 1663 3395
164 1661 3564
164 1660 3734
164 1658 3903
164 1657 4071
