Creative/skin-red-yellow_volume.3dl
#25pt 3DLUT created by 3D LUT Creator Pro (c) Oleg Sharonov
#Copyright Oleg Sharonov
0 256 512 768 1023
0 0 0
0 0 1024
0 0 2048
0 0 3071
0 0 4095
0 1024 0
0 1024 1024
0 1024 2048
0 1024 3071
0 1024 4095
0 2048 0
0 2048 1024
0 2048 2048
0 2048 3071
0 2048 4095
0 3071 0
0 3071 1024
0 3071 2048
0 3071 3071
0 3071 4095
0 4095 0
0 4095 1024
0 4095 2048
0 4095 3071
0 4095 4095
887 0 0
902 0 902
866 0 1731
847 0 2541
839 0 3357
968 944 0
1085 1085 1085
947 947 2024
872 872 3000
826 826 3966
876 1918 0
930 2007 930
930 2008 2008
866 1930 2995
818 1865 3960
820 2911 0
851 2982 851
870 2999 1934
862 2991 2991
836 2927 3972
816 3926 0
840 3976 840
862 3990 1905
874 3998 2957
879 4001 4001
1394 0 0
1476 0 738
1476 0 1476
1437 0 2155
1409 0 2818
1895 687 0
1980 849 849
1972 841 1972
1819 714 2924
1688 618 3829
1827 1740 0
1979 1979 848
2232 2232 2232
1935 1935 3032
1744 1744 3872
1757 2780 0
1846 2950 743
1956 3051 1956
1968 3063 3063
1824 2877 3931
1752 3819 0
1801 3915 744
1857 3956 1857
1893 3982 2938
1903 3989 3989
1591 0 0
1734 0 578
1813 0 1209
1829 0 1829
1810 0 2413
2749 305 0
2803 504 504
2829 535 1682
2789 490 2789
2586 396 3681
2729 1433 0
2858 1713 568
3014 1880 1880
3021 1888 3021
2734 1660 3809
2777 2647 0
2912 2912 630
3095 3095 1968
3317 3317 3317
2922 2922 3968
2785 3777 0
2842 3902 722
2922 3969 1875
2992 4028 2992
3013 4045 4045
1596 0 0
1790 0 448
1945 0 973
2047 0 1535
2116 0 2116
3262 0 107
3511 136 136
3540 179 1300
3542 186 2423
3517 154 3517
3512 1072 0
3600 1376 264
3686 1492 1492
3735 1558 2647
3724 1547 3724
3645 2390 0
3743 2655 480
3850 2782 1713
3951 2902 2902
3968 2923 3968
3864 3785 0
3940 3940 782
4012 4012 1934
4071 4071 3043
4095 4095 4095
