Creative/Skin - Film look.3dl
#32pt 3DLUT created by 3D LUT Creator Pro (c) Oleg Sharonov
#Copyright Oleg Sharonov
#IMAGEPROFILE sRGB IEC61966-2.1 v.2.10
#INPUTGAMMA sRGB IEC61966-2.1 v.2.10
#OUTPUTGAMMA sRGB IEC61966-2.1 v.2.10
0 33 66 99 132 165 198 231 264 297 330 363 396 429 462 495 528 561 594 627 660 693 726 759 792 825 858 891 924 957 990 1023 
0 0 0
0 0 0
0 0 0
0 0 0
0 0 79
0 9 191
0 39 292
0 82 404
0 136 519
3 203 635
66 287 757
152 358 890
217 407 1022
253 448 1131
289 484 1230
325 522 1333
361 560 1434
395 597 1531
431 636 1625
466 673 1718
501 711 1810
537 749 1903
573 786 1995
608 824 2088
644 862 2182
679 899 2273
715 937 2366
751 975 2460
786 1012 2552
821 1050 2645
857 1088 2738
892 1126 2830
0 33 0
0 21 0
0 9 158
0 3 238
0 9 320
0 39 424
0 70 529
0 118 641
0 173 756
0 239 879
0 320 1004
0 373 1135
53 421 1275
128 459 1372
197 493 1464
233 529 1548
272 563 1633
310 600 1721
347 637 1807
383 673 1894
420 709 1981
457 746 2070
493 783 2159
529 820 2248
565 856 2337
602 894 2427
637 931 2517
674 968 2606
710 1004 2696
746 1042 2787
782 1079 2877
818 1116 2968
169 142 0
53 142 43
0 124 150
0 100 313
0 100 402
0 136 507
0 179 628
0 215 765
0 257 913
0 303 1066
0 358 1186
0 402 1318
0 450 1461
0 486 1546
66 517 1618
152 551 1696
214 584 1773
256 618 1852
295 653 1935
335 688 2017
374 722 2099
413 759 2184
450 793 2268
488 829 2353
525 866 2440
562 902 2526
599 937 2613
636 974 2701
673 1011 2789
710 1047 2877
746 1084 2965
783 1120 3054
310 330 139
275 325 171
209 330 227
140 292 323
0 263 477
0 309 563
0 350 672
0 376 795
0 402 934
0 432 1083
0 463 1247
0 491 1417
0 525 1592
0 531 1727
0 554 1809
0 584 1878
47 615 1947
146 645 2019
217 678 2092
265 711 2169
310 744 2246
353 778 2324
394 812 2404
434 847 2485
475 882 2566
514 917 2649
553 952 2733
591 987 2817
629 1022 2902
666 1058 2986
705 1094 3073
742 1130 3159
438 442 261
413 442 281
368 440 325
308 440 383
243 414 542
0 438 634
0 467 726
0 499 837
0 527 963
0 559 1104
0 591 1260
0 626 1426
0 661 1593
0 666 1729
0 666 1861
0 666 1991
0 668 2124
0 684 2215
0 714 2281
97 744 2349
203 775 2421
261 807 2493
313 839 2567
361 872 2642
406 905 2719
450 938 2797
493 972 2875
533 1006 2955
574 1040 3035
614 1076 3117
654 1110 3199
693 1145 3282
568 557 383
545 557 397
527 552 429
458 557 483
413 549 552
289 554 712
47 588 787
0 620 882
0 655 997
0 688 1129
0 723 1274
0 759 1434
0 796 1594
0 802 1729
0 803 1861
0 802 1991
0 803 2124
0 803 2255
0 803 2385
0 803 2516
0 815 2621
0 844 2686
146 874 2754
236 905 2823
297 936 2894
353 968 2967
406 1000 3041
454 1032 3115
500 1065 3191
545 1099 3269
589 1132 3347
632 1166 3426
698 675 510
678 675 520
663 672 540
620 672 591
556 674 646
461 677 798
313 713 855
122 747 935
0 783 1038
0 818 1155
0 855 1292
0 893 1442
0 931 1594
0 937 1729
0 937 1861
0 937 1993
0 937 2124
0 937 2254
0 937 2385
0 937 2518
0 937 2648
0 937 2779
0 938 2910
0 945 3025
9 974 3090
185 1004 3158
265 1034 3226
331 1065 3297
392 1097 3368
447 1128 3440
500 1161 3514
548 1193 3589
829 795 638
811 797 647
799 794 661
781 789 700
707 797 753
609 802 891
461 838 928
315 875 993
146 912 1079
0 949 1186
0 989 1311
0 1027 1451
0 1066 1595
0 1073 1730
0 1073 1861
0 1073 1993
0 1073 2124
0 1073 2254
0 1073 2387
0 1073 2518
0 1073 2648
0 1073 2780
0 1073 2911
0 1073 3042
0 1074 3174
0 1073 3304
0 1076 3431
16 1104 3496
203 1134 3563
291 1165 3631
363 1195 3700
428 1226 3770
960 921 770
942 923 776
935 920 788
920 917 814
862 921 868
748 930 987
593 968 1007
441 1005 1055
295 1043 1126
128 1082 1219
0 1122 1332
0 1161 1462
0 1202 1597
0 1208 1729
0 1208 1861
0 1209 1993
0 1208 2124
0 1208 2255
0 1208 2386
0 1209 2518
0 1209 2649
0 1208 2780
0 1209 2911
0 1209 3043
0 1209 3174
0 1209 3305
0 1209 3436
0 1209 3568
0 1210 3699
0 1209 3829
16 1235 3902
217 1265 3968
1093 1048 904
1077 1050 909
1068 1049 918
1057 1045 938
1018 1045 989
878 1060 1086
713 1098 1088
552 1138 1120
397 1177 1176
253 1216 1255
66 1255 1355
0 1296 1473
0 1337 1598
0 1344 1730
0 1344 1862
0 1344 1993
0 1344 2124
0 1344 2256
0 1344 2387
0 1344 2518
0 1344 2649
0 1344 2781
0 1344 2912
0 1344 3043
0 1344 3174
0 1345 3306
0 1345 3437
0 1344 3568
0 1345 3699
0 1345 3830
0 1345 3961
0 1345 4092
1226 1178 1040
1212 1180 1044
1202 1180 1051
1193 1176 1066
1173 1171 1113
1005 1193 1187
829 1232 1173
654 1271 1187
487 1310 1227
331 1351 1293
185 1391 1379
0 1431 1485
0 1472 1600
0 1480 1730
0 1480 1861
0 1480 1993
0 1480 2124
0 1480 2255
0 1480 2387
0 1480 2518
0 1480 2649
0 1480 2781
0 1480 2912
0 1480 3043
0 1480 3175
0 1480 3305
0 1480 3437
0 1480 3568
0 1480 3699
0 1480 3831
0 1480 3962
0 1480 4093
1360 1311 1178
1347 1312 1182
1335 1313 1188
1328 1310 1199
1310 1306 1231
1130 1328 1290
939 1367 1259
753 1406 1257
571 1446 1281
401 1486 1332
243 1526 1405
28 1567 1499
0 1608 1602
0 1615 1730
0 1615 1861
0 1615 1993
0 1615 2124
0 1615 2256
0 1615 2387
0 1615 2519
0 1615 2650
0 1615 2781
0 1615 2912
0 1615 3044
0 1615 3174
0 1615 3306
0 1615 3437
0 1616 3569
0 1616 3700
0 1615 3831
0 1616 3962
0 1616 4094
1493 1446 1318
1482 1447 1321
1469 1448 1326
1462 1446 1335
1447 1442 1360
1252 1465 1396
1047 1504 1346
847 1543 1328
652 1583 1337
466 1622 1372
291 1661 1432
79 1697 1511
0 1735 1604
0 1741 1730
0 1741 1861
0 1741 1993
0 1741 2124
0 1741 2255
0 1741 2387
0 1741 2518
0 1741 2649
0 1741 2781
0 1741 2912
0 1741 3044
0 1741 3175
0 1741 3306
0 1741 3437
0 1741 3569
0 1741 3700
0 1741 3832
0 1741 3963
0 1741 4094
1620 1583 1460
1611 1584 1463
1601 1585 1466
1592 1584 1473
1579 1580 1493
1373 1605 1500
1154 1643 1436
939 1678 1401
730 1714 1394
527 1750 1414
335 1786 1460
128 1822 1524
0 1859 1605
0 1865 1730
0 1865 1861
0 1865 1993
0 1865 2124
0 1865 2256
0 1865 2387
0 1865 2519
0 1865 2650
0 1865 2781
0 1865 2912
0 1865 3044
0 1865 3175
0 1865 3306
0 1865 3438
0 1865 3569
0 1865 3700
0 1865 3831
0 1865 3963
0 1865 4094
1744 1715 1594
1735 1716 1596
1726 1717 1598
1715 1717 1604
1703 1714 1618
1493 1737 1598
1260 1772 1523
1030 1806 1476
805 1841 1453
588 1876 1457
379 1911 1488
175 1947 1538
0 1983 1607
0 1989 1730
0 1989 1861
0 1989 1993
0 1989 2124
0 1988 2256
0 1988 2387
0 1989 2519
0 1989 2650
0 1989 2781
0 1989 2912
0 1989 3044
0 1988 3175
0 1989 3307
0 1989 3438
0 1989 3569
0 1989 3700
0 1989 3832
0 1989 3963
0 1989 4094
1867 1844 1727
1859 1845 1728
1850 1845 1730
1838 1847 1735
1825 1844 1746
1606 1868 1697
1364 1901 1607
1119 1935 1545
879 1969 1510
645 2003 1500
420 2037 1515
206 2072 1552
0 2107 1609
0 2113 1730
0 2113 1861
0 2113 1993
0 2113 2124
0 2113 2256
0 2112 2387
0 2113 2519
0 2113 2650
0 2113 2781
0 2113 2912
0 2113 3044
0 2113 3175
0 2113 3307
0 2113 3438
0 2113 3569
0 2113 3701
0 2113 3832
0 2113 3963
0 2113 4095
1990 1975 1861
1983 1975 1863
1975 1976 1865
1964 1977 1868
1949 1975 1876
1714 2001 1796
1467 2033 1690
1207 2065 1615
952 2098 1564
702 2131 1541
460 2164 1542
230 2197 1566
0 2231 1611
0 2236 1730
0 2236 1862
0 2236 1993
0 2236 2124
0 2236 2256
0 2236 2387
0 2236 2518
0 2236 2650
0 2236 2781
0 2236 2913
0 2236 3044
0 2236 3175
0 2236 3307
0 2236 3438
0 2236 3569
0 2236 3700
0 2236 3832
0 2236 3963
0 2236 4095
2114 2107 1997
2108 2108 1998
2100 2108 2000
2090 2110 2002
2071 2109 2008
1821 2135 1896
1567 2166 1775
1295 2197 1685
1023 2228 1619
758 2259 1582
500 2291 1569
253 2322 1580
0 2355 1613
0 2360 1730
0 2360 1862
0 2360 1993
0 2360 2124
0 2360 2256
0 2360 2387
0 2360 2518
0 2360 2650
0 2360 2781
0 2360 2913
0 2360 3044
0 2360 3175
0 2360 3307
0 2360 3438
0 2360 3569
0 2360 3701
0 2360 3832
0 2360 3963
0 2360 4095
2238 2241 2134
2232 2242 2136
2225 2243 2137
2215 2244 2139
2194 2244 2142
1928 2270 1996
1660 2300 1860
1382 2329 1755
1095 2359 1675
814 2389 1623
539 2418 1598
275 2448 1595
0 2479 1616
0 2484 1730
0 2484 1862
0 2484 1993
0 2484 2124
0 2484 2256
0 2484 2387
0 2484 2518
0 2484 2650
0 2484 2781
0 2484 2913
0 2484 3044
0 2484 3175
0 2484 3307
0 2484 3438
0 2484 3569
0 2484 3701
0 2484 3832
0 2484 3963
0 2484 4095
2359 2380 2258
2354 2379 2263
2349 2379 2269
2341 2379 2277
2316 2380 2277
2035 2408 2097
1753 2435 1946
1468 2463 1826
1165 2491 1731
868 2518 1666
578 2546 1626
295 2574 1610
0 2603 1617
0 2608 1730
0 2608 1862
0 2608 1993
0 2608 2124
0 2608 2256
0 2608 2387
0 2608 2519
0 2608 2650
0 2608 2781
0 2608 2913
0 2608 3044
0 2608 3175
0 2608 3307
0 2608 3438
0 2608 3570
0 2608 3701
0 2608 3832
0 2608 3964
0 2608 4095
2478 2520 2376
2474 2520 2382
2469 2520 2387
2462 2519 2396
2437 2521 2395
2141 2546 2198
1846 2572 2032
1553 2597 1897
1235 2623 1788
922 2649 1708
615 2675 1655
317 2701 1625
0 2728 1620
0 2732 1730
0 2732 1862
0 2732 1993
0 2732 2124
0 2732 2256
0 2732 2387
0 2732 2519
0 2732 2650
0 2732 2781
0 2732 2912
0 2732 3044
0 2732 3175
0 2732 3307
0 2732 3438
0 2732 3570
0 2732 3701
0 2732 3833
0 2732 3964
0 2732 4095
2597 2662 2495
2593 2662 2500
2589 2662 2506
2582 2662 2513
2557 2663 2511
2247 2686 2299
1937 2709 2119
1630 2733 1968
1305 2756 1845
976 2780 1751
653 2803 1683
337 2828 1641
0 2852 1622
0 2856 1730
0 2856 1862
0 2856 1993
0 2856 2125
0 2856 2256
0 2856 2387
0 2856 2519
0 2856 2650
0 2856 2781
0 2856 2913
0 2856 3044
0 2856 3175
0 2856 3307
0 2856 3438
0 2856 3570
0 2856 3701
0 2856 3832
0 2856 3964
0 2856 4095
2717 2806 2614
2713 2806 2618
2709 2806 2624
2703 2806 2631
2677 2806 2628
2353 2827 2401
2029 2848 2205
1708 2869 2040
1374 2890 1903
1029 2911 1794
690 2933 1713
357 2954 1656
0 2976 1624
0 2980 1731
0 2980 1862
0 2980 1993
0 2980 2125
0 2979 2256
0 2980 2387
0 2980 2519
0 2980 2650
0 2980 2781
0 2980 2912
0 2980 3044
0 2980 3176
0 2980 3307
0 2980 3438
0 2980 3570
0 2980 3701
0 2980 3833
0 2980 3964
0 2980 4095
2836 2951 2733
2833 2951 2737
2829 2951 2742
2823 2951 2749
2797 2951 2744
2459 2970 2503
2121 2988 2292
1786 3006 2112
1443 3025 1960
1082 3044 1838
727 3062 1742
378 3081 1672
0 3100 1627
0 3103 1731
0 3103 1862
0 3104 1994
0 3104 2125
0 3103 2256
0 3103 2387
0 3104 2519
0 3104 2650
0 3103 2781
0 3104 2913
0 3104 3044
0 3104 3175
0 3104 3307
0 3104 3438
0 3104 3570
0 3104 3701
0 3103 3832
0 3104 3964
0 3104 4095
2955 3098 2852
2952 3098 2855
2948 3098 2860
2943 3098 2867
2917 3098 2861
2564 3114 2604
2212 3129 2379
1863 3145 2185
1511 3160 2018
1135 3176 1881
763 3192 1772
397 3208 1688
0 3225 1629
0 3227 1731
0 3227 1862
0 3227 1994
0 3227 2125
0 3227 2256
0 3227 2387
0 3227 2519
0 3227 2650
0 3227 2782
0 3227 2913
0 3227 3044
0 3227 3175
0 3227 3307
0 3227 3438
0 3227 3570
0 3227 3701
0 3227 3833
0 3227 3964
0 3227 4095
3075 3246 2971
3072 3246 2974
3068 3246 2979
3063 3246 2985
3036 3246 2978
2670 3259 2706
2304 3271 2467
1939 3284 2257
1577 3297 2076
1188 3309 1925
800 3323 1801
418 3336 1703
0 3349 1631
0 3351 1731
0 3351 1862
0 3351 1994
0 3351 2125
0 3351 2256
0 3351 2387
0 3351 2519
0 3351 2650
0 3351 2782
0 3351 2913
0 3351 3044
0 3351 3175
0 3351 3307
0 3351 3438
0 3351 3570
0 3351 3701
0 3351 3833
0 3351 3964
0 3351 4095
3194 3395 3089
3191 3395 3093
3188 3395 3097
3183 3395 3103
3156 3395 3094
2775 3405 2808
2395 3414 2554
2016 3424 2330
1639 3434 2134
1240 3443 1969
836 3453 1831
438 3463 1719
0 3474 1633
0 3475 1731
0 3475 1862
0 3475 1994
0 3475 2125
0 3475 2256
0 3475 2387
0 3475 2519
0 3475 2650
0 3475 2782
0 3475 2913
0 3475 3044
0 3475 3176
0 3475 3307
0 3475 3438
0 3475 3570
0 3475 3701
0 3475 3833
0 3475 3964
0 3475 4095
3314 3546 3208
3311 3546 3212
3307 3546 3215
3303 3545 3221
3275 3546 3212
2880 3552 2911
2486 3558 2642
2093 3564 2403
1701 3571 2193
1292 3577 2013
872 3584 1861
457 3591 1735
0 3598 1636
0 3599 1731
0 3599 1862
0 3599 1994
0 3599 2125
0 3599 2256
0 3599 2388
0 3599 2519
0 3599 2650
0 3599 2782
0 3599 2913
0 3599 3044
0 3599 3176
0 3599 3307
0 3599 3438
0 3599 3570
0 3599 3701
0 3599 3833
0 3599 3964
0 3599 4095
3433 3698 3327
3430 3698 3330
3427 3698 3334
3422 3697 3339
