Creative/Skin Saturation - CMYK.3dl
#25pt 3DLUT created by 3D LUT Creator Pro (c) Oleg Sharonov
#Copyright Oleg Sharonov
#IMAGEPROFILE sRGB IEC61966-2.1 v.2.10
#INPUTGAMMA sRGB IEC61966-2.1 v.2.10
#OUTPUTGAMMA sRGB IEC61966-2.1 v.2.10
0 128 256 384 512 640 768 896 1023
160 160 160
159 160 550
157 158 1124
155 156 1724
153 154 2317
151 152 2888
149 150 3408
148 150 3792
148 150 4095
160 550 206
159 549 550
157 526 1111
154 523 1706
152 525 2305
150 523 2879
148 522 3403
147 520 3790
147 519 4095
157 1125 252
156 1126 743
154 1123 1124
152 1081 1710
150 1076 2296
148 1073 2861
146 1076 3392
145 1077 3785
145 1079 4095
155 1720 310
153 1721 897
151 1721 1282
150 1717 1718
148 1672 2306
146 1661 2870
144 1658 3391
143 1657 3780
142 1662 4095
152 2315 389
150 2314 1057
148 2314 1531
147 2315 1841
145 2314 2316
143 2272 2875
141 2245 3395
141 2240 3780
140 2243 4095
150 2884 482
147 2884 1219
145 2884 1696
144 2884 2086
143 2884 2386
141 2881 2880
139 2850 3398
138 2803 3780
138 2804 4095
148 3405 578
145 3403 1380
143 3402 1858
142 3402 2328
140 3401 2622
139 3402 2915
137 3402 3401
136 3373 3779
136 3336 4095
147 3789 682
143 3786 1550
141 3785 2026
140 3783 2487
138 3782 2858
137 3781 3140
136 3781 3393
136 3778 3780
135 3762 4095
146 4095 789
142 4095 1672
140 4095 2200
139 4095 2656
138 4095 3099
136 4095 3357
135 4095 3573
135 4095 3780
135 4095 4095
551 159 167
551 159 551
551 156 1125
547 154 1725
540 152 2319
533 150 2889
453 177 3408
374 211 3792
308 250 4095
551 551 159
552 552 552
497 514 1127
492 510 1726
489 509 2320
485 506 2890
481 504 3409
477 501 3792
475 501 4095
671 1126 161
519 1127 650
463 1090 1110
403 1018 1670
420 1040 2272
432 1052 2860
436 1056 3394
435 1055 3785
437 1057 4095
600 1724 155
485 1722 747
550 1722 1325
461 1690 1709
367 1590 2276
376 1607 2841
378 1622 3374
383 1632 3777
390 1640 4095
540 2319 163
452 2315 848
486 2315 1490
503 2314 1877
459 2289 2308
352 2182 2852
345 2187 3380
343 2199 3773
343 2216 4095
507 2886 207
420 2885 948
423 2885 1654
549 2885 2128
477 2885 2421
458 2860 2877
364 2784 3389
317 2746 3774
316 2763 4095
476 3409 256
389 3404 1052
362 3403 1815
485 3402 2287
514 3401 2659
459 3402 2946
456 3385 3399
368 3329 3776
293 3281 4095
445 3789 325
359 3787 1162
308 3785 1984
423 3783 2447
549 3782 2898
489 3781 3172
446 3781 3418
452 3766 3779
370 3735 4095
415 4095 420
331 4095 1275
264 4095 2159
364 4095 2616
488 4095 3062
521 4095 3387
472 4095 3595
436 4095 3776
447 4088 4095
1127 157 173
1125 157 550
1126 154 1125
1125 152 1724
1128 151 2319
1129 149 2889
958 219 3408
786 310 3791
623 447 4095
1150 420 157
1146 491 525
1127 552 1126
1126 552 1722
1116 544 2320
1096 531 2889
1002 598 3408
910 665 3790
827 738 4095
1126 1126 154
1127 1127 552
1127 1127 1126
1010 1046 1722
1009 1046 2320
1004 1044 2888
1004 1043 3407
997 1037 3788
993 1035 4095
1376 1726 161
1254 1723 559
1089 1722 1226
937 1657 1694
843 1540 2239
887 1580 2823
916 1604 3379
928 1612 3777
936 1617 4095
1384 2319 159
1182 2320 554
1054 2315 1333
1125 2315 1925
938 2253 2289
794 2108 2833
825 2145 3365
842 2172 3764
864 2195 4095
1308 2888 153
1117 2885 575
1020 2885 1437
1057 2885 2088
1041 2878 2454
940 2830 2864
778 2689 3377
782 2699 3767
799 2732 4095
1234 3407 147
1084 3407 671
985 3403 1544
990 3401 2245
1126 3400 2702
999 3395 2975
942 3364 3392
803 3266 3769
747 3239 4095
1160 3789 145
1048 3786 775
952 3784 1655
924 3782 2409
1059 3780 2859
1070 3779 3207
973 3778 3441
941 3754 3775
818 3700 4095
1109 4095 168
1016 4095 884
920 4095 1770
859 4095 2577
994 4095 3024
1131 4095 3419
1033 4095 3618
955 4095 3794
938 4078 4095
1722 155 177
1721 154 547
1721 152 1119
1721 150 1720
1728 148 2319
1729 146 2888
1485 262 3407
1235 457 3789
986 690 4095
1747 216 172
1741 424 536
1722 550 1120
1722 549 1719
1729 553 2320
1730 554 2887
1565 711 3407
1376 857 3788
1196 1008 4095
1749 1082 152
1800 924 324
1754 1065 1050
1722 1124 1719
1729 1129 2318
1709 1116 2885
1595 1175 3406
1489 1236 3785
1396 1304 4095
1726 1726 150
1725 1725 550
1722 1722 1123
1722 1722 1719
1552 1607 2316
1550 1605 2885
1550 1607 3405
1540 1600 3784
1537 1598 4095
1977 2319 156
1979 2320 570
1855 2318 1135
1688 2315 1826
1441 2227 2281
1313 2072 2796
1389 2135 3353
1429 2159 3767
1450 2172 4095
2187 2888 161
1986 2887 570
1779 2885 1126
1653 2885 1931
1726 2884 2507
1444 2802 2854
1251 2617 3358
1307 2670 3758
1345 2719 4095
2114 3406 155
1914 3406 561
1718 3404 1148
1618 3401 2035
1657 3400 2661
1607 3395 3012
1448 3339 3382
1232 3175 3763
1254 3204 4095
2041 3787 153
1839 3786 559
1683 3783 1258
1584 3781 2144
1590 3779 2821
1729 3777 3247
1550 3774 3465
1453 3738 3770
1272 3651 4095
1968 4095 149
1768 4095 559
1651 4095 1373
1552 4095 2258
1524 4095 2985
1663 4095 3388
1655 4095 3643
1519 4095 3812
1451 4065 4095
2319 153 182
2314 152 547
2314 150 1119
2314 148 1718
2319 145 2317
2320 144 2886
2006 312 3406
1676 601 3787
1347 919 4095
2339 153 200
2331 362 549
2315 549 1121
2315 549 1718
2317 550 2314
2322 556 2885
2087 789 3406
1836 1026 3785
1585 1276 4095
2346 836 151
2376 663 430
2337 988 1059
2315 1125 1719
2315 1124 2310
2322 1131 2885
2166 1301 3405
1994 1466 3782
1803 1612 4095
2332 1687 147
2379 1600 279
2421 1453 669
2344 1663 1622
2315 1723 2310
2322 1731 2884
2217 1796 3402
2089 1838 3780
1984 1894 4095
2319 2319 145
2320 2320 550
2320 2320 1125
2315 2315 1721
2315 2315 2310
2094 2165 2884
2094 2167 3402
2088 2161 3779
2084 2159 4095
2558 2888 152
2559 2889 570
2556 2885 1145
2440 2884 1731
2281 2884 2412
1953 2779 2849
1804 2600 3334
1904 2676 3752
1959 2706 4095
2797 3405 158
2764 3405 584
2569 3404 1144
2370 3401 1723
2249 3399 2511
2319 3398 3065
1960 3320 3377
1725 3119 3754
1811 3195 4095
2885 3785 161
2693 3784 582
2496 3781 1141
2309 3780 1751
2216 3777 2616
2254 3776 3213
2173 3773 3494
1968 3724 3766
1706 3582 4095
2815 4095 158
2624 4095 580
2429 4095 1142
2280 4095 1866
2185 4095 2729
2191 4095 3356
2326 4095 3672
2106 4095 3831
1969 4053 4095
2886 151 188
2884 150 544
2884 148 1118
2884 146 1718
2884 143 2310
2884 141 2879
2511 376 3405
2115 750 3785
1709 1151 4095
2898 151 215
2896 320 570
2885 549 1118
2885 549 1718
2885 549 2310
2885 550 2880
2589 867 3405
2272 1185 3782
1948 1515 4095
2908 566 152
2925 492 534
2901 935 1079
2885 1125 1718
2885 1125 2311
2885 1126 2880
2663 1380 3402
2424 1626 3780
2181 1877 4095
2913 1603 146
2938 1395 298
2942 1265 846
2907 1603 1611
2884 1726 2311
2884 1725 2880
2736 1899 3400
2574 2067 3778
2415 2231 4095
2896 2287 143
2921 2234 333
2955 2130 623
2980 2044 1071
2904 2261 2214
2884 2316 2878
2813 2404 3398
2702 2457 3776
2571 2484 4095
2888 2888 141
2889 2889 549
2886 2886 1124
2884 2884 1721
2884 2884 2309
2884 2884 2878
2666 2736 3398
2615 2703 3776
2609 2696 4095
3118 3404 148
3119 3404 567
3119 3403 1145
3116 3401 1744
3005 3398 2322
2851 3397 2974
2527 3319 3377
2302 3126 3744
2421 3210 4095
3330 3784 156
3331 3783 592
3300 3780 1168
3123 3777 1747
2937 3776 2318
2821 3774 3075
2888 3773 3534
2467 3711 3764
2206 3547 4095
3513 4095 165
3402 4095 602
3241 4095 1166
3062 4095 1748
2882 4095 2349
2792 4095 3178
2830 4095 3646
2723 4095 3854
2472 4042 4095
3408 610 588
3405 899 1004
3403 899 1600
3402 899 2194
3401 899 2769
3401 899 3308
3003 449 3405
2540 903 3782
2069 1387 4095
3413 744 626
3410 1092 1014
3402 1333 1521
3401 1333 2117
3400 1333 2692
3399 1334 3241
3073 942 3403
2692 1343 3780
2304 1755 4095
3420 1135 494
3422 1248 982
3411 1586 1455
3400 1776 2040
3399 1776 2616
3399 1776 3172
3143 1458 3400
2843 1787 3778
2529 2113 4095
3419 1914 222
3431 1791 694
3428 1741 1295
3411 2073 1896
3399 2213 2542
3398 2213 3100
3209 1978 3398
2990 2223 3776
2755 2462 4095
3415 2577 140
3435 2503 320
3439 2366 846
3441 2317 1502
3413 2554 2333
3397 2635 3029
3275 2483 3397
3132 2644 3775
2980 2802 4095
3408 3023 145
3417 2996 453
3427 2944 844
3450 2861 1125
3459 2808 1586
3406 3001 2867
3341 2972 3397
3275 3048 3773
3168 3086 4095
3404 3404 137
3404 3404 549
3403 3403 1123
3402 3402 1722
3399 3399 2313
3397 3397 2877
3396 3396 3388
3216 3276 3773
3116 3211 4095
3577 3783 146
3577 3783 572
3575 3780 1150
3571 3777 1748
3570 3775 2338
3490 3773 2894
3371 3772 3467
3097 3722 3765
2797 3568 4095
3729 4095 155
3728 4095 595
3727 4095 1177
3704 4095 1775
3578 4095 2346
3439 4095 2895
3348 4095 3546
3401 4095 3885
2960 4030 4095
3783 1956 1304
3780 2180 1650
3778 2180 2244
3777 2181 2813
3775 2181 3339
3775 2182 3731
3455 1661 3777
2956 1059 3780
2420 1625 4095
3784 2045 1323
3782 2271 1661
3778 2452 2089
3776 2451 2663
3775 2451 3210
3774 2452 3638
3560 2102 3775
3101 1502 3778
2647 1989 4095
3786 2188 1236
3785 2363 1615
3781 2572 2013
3776 2720 2515
3775 2720 3073
3774 2721 3538
3658 2528 3774
3239 1945 3776
2873 2344 4095
3788 2667 749
3789 2594 1345
3787 2665 1877
3780 2871 2357
3774 2984 2930
3773 2985 3430
3748 2945 3773
3364 2377 3775
3088 2688 4095
3790 3128 295
3792 3039 822
3791 2975 1430
3788 2965 2083
3779 3156 2693
3773 3234 3312
3772 3234 3709
3478 2796 3773
3289 3025 4095
3787 3429 210
3792 3403 516
3796 3350 859
3796 3291 1468
3793 3280 2160
3779 3410 3026
3772 3449 3615
3581 3196 3772
3468 3328 4095
3784 3622 184
3786 3611 568
3787 3592 1018
3790 3565 1416
3797 3517 1667
3795 3510 2303
3775 3603 3449
3682 3520 3772
3630 3571 4095
3783 3783 136
3783 3783 554
3781 3781 1129
3777 3777 1727
3775 3775 2317
3773 3773 2886
3772 3772 3392
3771 3771 3767
3637 3680 4095
3919 4095 145
3918 4095 576
3916 4095 1155
3915 4095 1757
3912 4095 2348
3911 4095 2917
3846 4095 3410
3754 4095 3832
3559 4049 4095
4095 3509 2223
4095 3574 2486
4095 3582 3015
4095 3581 3494
4095 3581 3847
4022 3495 4095
3699 3015 4095
3298 2449 4095
2764 1864 4095
4095 3533 2219
4095 3597 2476
4095 3658 2794
4095 3657 3323
4095 3656 3716
4095 3657 4039
3830 3323 4095
3473 2794 4095
2986 2222 4095
4095 3556 2168
4095 3619 2417
4095 3679 2727
4095 3729 3127
4095 3728 3575
4095 3728 3913
3956 3575 4095
3626 3126 4095
3197 2569 4095
4095 3677 1613
4095 3653 2240
4095 3699 2597
4095 3757 2974
4095 3798 3416
4095 3797 3786
4083 3786 4095
3762 3416 4095
3385 2911 4095
4095 3803 976
4095 3776 1588
4095 3756 2222
4095 3775 2744
4095 3832 3208
4095 3864 3651
4095 3864 3979
3890 3651 4095
3548 3233 4095
4095 3919 418
4095 3892 930
4095 3865 1541
4095 3847 2183
4095 3848 2831
4095 3905 3412
4095 3930 3853
4016 3853 4095
3691 3502 4095
4095 3993 336
4095 3983 741
4095 3966 1110
4095 3944 1460
4095 3926 2105
4095 3928 2792
4095 3978 3623
4095 3991 4043
3826 3721 4095
4095 4049 229
4095 4044 676
4095 4037 1164
4095 4028 1625
4095 4015 2009
4095 3994 2228
4095 3999 2998
4095 4036 3865
3960 3910 4095
4095 4095 135
4095 4095 558
4095 4095 1133
4095 4095 1735
4095 4095 2327
4095 4095 2896
4095 4095 3402
4095 4095 3774
4095 4095 4095
