Creative/Skin Saturation - CMYK.3dl
#25pt 3DLUT created by 3D LUT Creator Pro (c) Oleg Sharonov
#Copyright Oleg Sharonov
#IMAGEPROFILE sRGB IEC61966-2.1 v.2.10
#INPUTGAMMA sRGB IEC61966-2.1 v.2.10
#OUTPUTGAMMA sRGB IEC61966-2.1 v.2.10
0 43 86 128 171 214 256 299 341 384 427 469 512 555 597 640 682 725 768 810 853 896 938 981 1023 
160 160 160
160 160 249
160 160 372
159 160 550
159 159 736
158 159 928
157 158 1124
157 157 1323
156 156 1523
155 156 1724
154 155 1924
154 154 2122
153 154 2317
152 153 2509
151 152 2699
151 152 2888
150 151 3072
149 151 3248
149 150 3408
149 150 3549
148 150 3676
148 150 3792
148 150 3901
148 150 4007
148 150 4095
160 249 176
160 249 249
160 245 368
160 244 544
159 243 731
158 242 924
157 241 1120
157 240 1319
156 239 1520
155 238 1721
154 237 1921
154 235 2120
153 234 2315
152 233 2507
151 232 2697
151 231 2886
150 230 3071
149 229 3247
149 228 3407
149 227 3549
148 226 3676
148 225 3792
148 225 3901
148 224 4007
148 224 4095
160 372 191
160 372 285
160 371 372
159 360 546
159 358 728
158 356 915
157 356 1111
156 356 1312
156 356 1513
155 355 1715
154 355 1916
153 354 2115
153 353 2311
152 352 2503
151 352 2694
150 351 2883
150 350 3068
149 349 3245
149 348 3406
148 347 3548
148 346 3675
148 346 3791
148 345 3900
148 345 4006
147 344 4095
160 550 206
159 551 318
159 551 419
159 549 550
158 533 732
157 528 920
157 526 1111
156 523 1305
155 522 1502
154 523 1706
154 524 1908
153 525 2108
152 525 2305
151 524 2498
151 524 2689
150 523 2879
149 523 3065
149 522 3242
148 522 3403
148 520 3546
147 520 3673
147 520 3790
147 519 3899
147 519 4006
147 519 4095
159 737 221
159 738 356
158 738 494
158 738 588
157 735 737
157 720 924
156 709 1115
155 706 1310
154 703 1506
154 701 1703
153 700 1899
152 701 2099
151 702 2297
151 703 2491
150 703 2683
149 703 2874
149 703 3060
148 703 3238
147 703 3400
147 702 3543
147 702 3672
147 702 3788
146 702 3898
146 702 4005
146 701 4095
158 929 236
158 930 400
157 930 544
157 930 665
156 930 762
156 927 928
155 912 1119
154 894 1312
154 891 1510
153 889 1707
152 887 1904
151 886 2099
151 885 2292
150 884 2482
149 885 2675
149 886 2867
148 887 3055
147 888 3233
147 888 3397
146 888 3541
146 887 3669
146 888 3787
146 888 3897
146 888 4004
145 889 4095
157 1125 252
157 1125 449
156 1126 594
156 1126 743
155 1126 841
155 1126 941
154 1123 1124
154 1107 1316
153 1087 1512
152 1081 1710
151 1079 1908
151 1077 2103
150 1076 2296
149 1075 2485
149 1074 2673
148 1073 2861
147 1073 3048
147 1075 3228
146 1076 3392
146 1076 3537
145 1076 3667
145 1077 3785
145 1078 3895
145 1079 4003
145 1079 4095
157 1322 270
156 1323 497
155 1323 644
155 1323 794
154 1323 920
154 1323 1020
154 1323 1121
153 1320 1321
152 1304 1515
151 1287 1713
151 1274 1912
150 1272 2107
149 1271 2300
148 1269 2489
148 1268 2677
147 1267 2865
146 1266 3049
146 1266 3225
145 1266 3388
145 1266 3534
145 1267 3664
144 1268 3783
144 1270 3894
144 1271 4002
144 1272 4095
156 1521 289
155 1521 530
154 1521 694
154 1521 845
153 1522 999
153 1522 1099
152 1522 1201
152 1521 1317
151 1518 1519
151 1504 1715
150 1489 1914
149 1470 2110
148 1468 2303
148 1466 2491
147 1465 2680
146 1463 2868
146 1462 3051
145 1462 3228
145 1461 3389
144 1461 3533
144 1460 3662
144 1461 3780
143 1463 3892
143 1465 4001
143 1467 4095
155 1720 310
154 1721 561
153 1721 745
153 1721 897
152 1721 1051
152 1721 1180
151 1721 1282
151 1721 1385
150 1720 1516
150 1717 1718
149 1706 1916
148 1692 2113
148 1672 2306
147 1664 2493
146 1662 2682
146 1661 2870
145 1660 3054
144 1659 3230
144 1658 3391
143 1657 3534
143 1656 3662
143 1657 3780
143 1658 3891
143 1659 4000
142 1662 4095
154 1921 334
153 1921 594
152 1921 797
152 1921 950
151 1921 1105
151 1921 1262
150 1921 1364
150 1921 1467
149 1921 1571
149 1919 1717
148 1918 1920
147 1908 2116
147 1893 2309
146 1874 2496
145 1860 2684
145 1858 2872
144 1857 3056
143 1856 3231
143 1855 3392
143 1854 3535
142 1853 3663
142 1853 3780
142 1854 3891
142 1855 3999
142 1857 4095
153 2120 360
152 2119 627
152 2119 849
151 2119 1003
150 2119 1159
150 2119 1317
149 2119 1447
149 2119 1550
148 2119 1654
148 2119 1757
147 2119 1918
147 2118 2119
146 2107 2312
145 2092 2498
145 2075 2685
144 2055 2873
143 2053 3058
143 2052 3233
142 2051 3393
142 2049 3535
142 2048 3663
141 2047 3780
141 2048 3891
141 2050 3999
141 2051 4095
152 2315 389
151 2314 660
151 2314 902
150 2314 1057
149 2314 1214
149 2314 1372
148 2314 1531
148 2314 1633
147 2314 1737
147 2315 1841
147 2316 1944
146 2315 2118
145 2314 2316
144 2302 2501
144 2288 2687
143 2272 2875
143 2254 3060
142 2246 3235
141 2245 3395
141 2242 3536
141 2241 3663
141 2240 3780
140 2241 3891
140 2242 3998
140 2243 4095
152 2505 420
151 2505 692
150 2505 955
149 2505 1111
148 2505 1268
148 2505 1427
147 2505 1586
147 2505 1717
146 2505 1819
146 2505 1923
145 2506 2026
145 2507 2128
144 2506 2313
144 2504 2505
143 2493 2690
142 2480 2876
142 2466 3061
141 2449 3236
141 2434 3396
140 2432 3536
140 2430 3663
140 2429 3780
140 2429 3891
140 2430 3998
139 2432 4095
151 2695 451
150 2695 724
149 2695 1008
148 2695 1165
148 2695 1323
147 2695 1482
146 2695 1641
146 2695 1800
145 2695 1902
145 2695 2004
144 2696 2107
144 2696 2208
144 2696 2309
143 2694 2502
142 2693 2694
142 2683 2879
141 2672 3062
140 2659 3238
140 2642 3397
140 2621 3537
139 2617 3663
139 2616 3780
139 2616 3890
139 2617 3998
139 2618 4095
150 2884 482
149 2884 758
148 2884 1045
147 2884 1219
147 2884 1378
146 2884 1537
145 2884 1696
145 2884 1855
144 2884 1985
144 2884 2086
143 2884 2187
143 2884 2287
143 2884 2386
142 2883 2495
142 2881 2689
141 2881 2880
140 2874 3064
140 2864 3239
139 2850 3398
139 2832 3537
139 2813 3663
138 2803 3780
138 2803 3890
138 2803 3997
138 2804 4095
149 3069 514
148 3068 791
147 3068 1080
146 3068 1273
146 3068 1431
145 3068 1591
144 3068 1750
144 3068 1908
144 3068 2066
143 3068 2167
142 3068 2267
142 3068 2367
142 3068 2465
141 3067 2562
141 3067 2686
140 3065 2879
139 3066 3066
139 3060 3241
138 3049 3399
138 3034 3538
138 3018 3663
138 3001 3779
138 2986 3890
137 2987 3997
137 2987 4095
148 3245 546
147 3244 825
146 3244 1114
146 3244 1327
145 3243 1485
144 3243 1645
144 3243 1804
143 3243 1962
142 3243 2120
142 3243 2248
142 3243 2347
141 3243 2446
141 3242 2543
140 3242 2641
140 3243 2739
140 3242 2876
139 3242 3064
138 3243 3242
138 3237 3400
137 3224 3538
137 3210 3663
137 3197 3779
137 3182 3889
137 3167 3997
137 3163 4095
148 3405 578
147 3404 858
146 3404 1148
145 3403 1380
144 3403 1539
144 3403 1699
143 3402 1858
142 3402 2017
142 3402 2173
142 3402 2328
141 3402 2426
140 3401 2524
140 3401 2622
140 3402 2720
139 3402 2818
139 3402 2915
138 3402 3061
138 3401 3241
137 3402 3401
137 3394 3540
137 3383 3664
136 3373 3779
136 3362 3889
136 3349 3996
136 3336 4095
147 3546 612
146 3546 894
145 3545 1184
144 3544 1437
144 3544 1596
143 3544 1755
142 3543 1914
142 3543 2072
141 3542 2228
141 3542 2382
140 3542 2506
140 3542 2603
139 3541 2701
139 3542 2798
139 3542 2895
138 3542 2991
138 3542 3084
137 3542 3237
137 3541 3399
136 3541 3541
136 3533 3665
136 3525 3779
136 3517 3889
136 3507 3996
136 3497 4095
147 3673 647
146 3672 930
145 3671 1221
144 3671 1493
143 3670 1652
142 3670 1811
142 3669 1970
141 3669 2128
141 3668 2282
140 3668 2434
140 3668 2585
139 3667 2682
139 3667 2780
138 3667 2876
138 3667 2972
138 3667 3066
137 3667 3157
137 3667 3246
137 3666 3396
136 3666 3539
136 3665 3665
136 3658 3779
136 3652 3889
135 3645 3996
135 3637 4095
147 3789 682
146 3788 966
144 3787 1258
143 3786 1550
143 3786 1709
142 3785 1868
141 3785 2026
141 3784 2182
140 3784 2336
140 3783 2487
139 3783 2637
139 3782 2761
138 3782 2858
138 3782 2954
138 3782 3048
137 3781 3140
137 3781 3229
137 3781 3314
136 3781 3393
136 3780 3536
136 3780 3665
136 3778 3780
135 3774 3889
135 3769 3996
135 3762 4095
146 3898 717
145 3897 1003
144 3896 1296
143 3896 1593
142 3895 1768
142 3894 1927
141 3894 2084
140 3893 2240
140 3893 2393
139 3893 2543
139 3892 2694
139 3892 2844
138 3891 2939
137 3891 3033
137 3891 3125
137 3891 3215
137 3890 3301
136 3890 3381
136 3890 3456
136 3890 3535
136 3889 3665
135 3889 3782
135 3887 3889
135 3883 3996
135 3878 4095
146 4005 753
145 4004 1040
144 4003 1334
143 4002 1633
142 4001 1827
141 4001 1985
141 4000 2142
140 4000 2297
139 3999 2449
139 3999 2600
138 3998 2750
138 3998 2900
137 3998 3020
137 3997 3112
137 3997 3202
136 3997 3288
136 3997 3369
136 3997 3445
136 3996 3516
136 3996 3584
135 3996 3663
135 3996 3782
135 3996 3893
135 3993 3996
135 3989 4095
146 4095 789
145 4095 1078
144 4095 1373
142 4095 1672
142 4095 1886
141 4095 2044
140 4095 2200
140 4095 2354
139 4095 2505
139 4095 2656
138 4095 2807
137 4095 2955
138 4095 3099
137 4095 3189
136 4095 3275
136 4095 3357
136 4095 3433
136 4095 3505
135 4095 3573
135 4095 3637
135 4095 3698
135 4095 3780
135 4095 3892
135 4095 4000
135 4095 4095
249 160 163
249 160 249
249 160 372
248 159 550
246 159 737
244 158 929
242 157 1125
241 157 1324
239 156 1524
238 155 1725
236 154 1925
235 154 2123
234 153 2318
232 152 2509
231 151 2699
229 151 2888
215 154 3072
214 153 3248
213 152 3408
200 163 3550
199 162 3676
198 161 3792
185 172 3901
185 171 4007
184 171 4095
249 249 160
249 249 249
239 242 373
238 241 551
237 240 738
235 239 930
234 238 1125
233 237 1324
231 236 1524
230 235 1725
229 234 1925
227 232 2124
226 231 2319
225 230 2510
223 229 2700
222 228 2889
221 226 3073
220 225 3249
218 224 3409
217 223 3550
216 223 3677
215 222 3792
215 221 3901
214 221 4007
213 220 4095
271 372 162
243 373 267
233 363 368
223 344 533
225 348 718
226 350 914
225 351 1113
225 351 1314
224 350 1516
223 350 1718
223 350 1919
222 349 2118
221 348 2314
219 348 2505
218 347 2696
217 346 2885
216 345 3070
215 344 3246
214 343 3407
212 342 3549
212 341 3676
211 340 3792
210 340 3901
209 339 4007
209 339 4095
257 551 160
237 551 286
248 552 433
232 540 547
215 506 719
216 509 905
215 511 1095
215 514 1297
215 516 1502
215 517 1706
215 517 1909
215 518 2109
214 518 2306
213 518 2499
212 518 2690
211 517 2881
210 517 3066
209 516 3243
208 516 3404
207 514 3546
206 514 3674
205 513 3790
205 513 3900
204 513 4006
203 512 4095
246 737 163
231 738 306
236 738 482
239 738 600
230 727 734
211 688 912
209 686 1101
208 686 1294
207 688 1490
205 689 1690
206 692 1895
206 694 2098
206 695 2296
205 696 2490
205 696 2683
204 696 2874
203 696 3061
202 696 3239
202 696 3401
200 695 3544
200 695 3672
199 695 3789
199 695 3898
198 695 4005
198 695 4095
240 929 178
225 930 329
225 930 531
246 930 679
233 930 774
228 919 926
212 886 1111
203 868 1300
201 869 1495
200 870 1693
199 871 1890
197 872 2086
197 875 2284
197 877 2480
197 878 2674
196 879 2866
196 880 3054
195 880 3233
195 881 3397
194 880 3541
193 880 3669
192 880 3787
192 881 3897
192 881 4004
191 881 4095
233 1125 192
218 1126 353
213 1126 581
234 1126 730
238 1126 854
229 1126 952
227 1115 1122
211 1085 1311
197 1056 1500
195 1057 1697
194 1058 1895
192 1059 2091
191 1060 2284
190 1061 2474
188 1062 2663
188 1064 2857
188 1066 3047
187 1067 3227
187 1069 3392
186 1069 3537
186 1068 3667
185 1069 3785
185 1070 3896
185 1071 4003
185 1072 4095
227 1322 206
212 1323 381
202 1323 631
222 1323 781
243 1324 934
232 1323 1033
225 1323 1133
225 1312 1320
210 1285 1511
194 1254 1702
189 1249 1900
188 1250 2095
187 1251 2288
185 1252 2477
183 1252 2666
182 1253 2855
180 1254 3040
179 1256 3220
179 1258 3386
178 1259 3533
178 1259 3664
178 1261 3782
178 1262 3894
177 1263 4002
177 1264 4095
221 1521 221
206 1522 411
191 1522 681
211 1522 832
231 1522 986
237 1522 1113
228 1522 1214
221 1522 1315
222 1511 1518
209 1487 1712
194 1461 1907
184 1444 2100
183 1445 2293
181 1445 2481
179 1445 2669
178 1446 2858
176 1447 3043
174 1448 3220
172 1450 3384
170 1450 3529
170 1451 3660
169 1453 3780
170 1455 3892
170 1457 4001
170 1459 4095
215 1720 237
200 1721 442
185 1721 715
200 1721 883
219 1721 1037
241 1722 1194
231 1721 1295
223 1721 1397
219 1721 1515
220 1710 1717
207 1691 1915
193 1667 2109
179 1640 2297
177 1640 2484
175 1640 2672
174 1641 2861
172 1642 3046
170 1643 3223
168 1644 3385
166 1645 3530
164 1645 3659
162 1646 3778
161 1649 3890
161 1652 3999
162 1654 4095
209 1922 254
194 1921 474
179 1921 749
189 1921 936
208 1921 1091
229 1921 1249
235 1922 1379
226 1921 1480
219 1921 1583
217 1920 1717
218 1910 1918
206 1894 2115
192 1872 2306
177 1844 2489
172 1835 2675
170 1836 2863
168 1837 3049
166 1838 3225
164 1839 3387
162 1839 3531
160 1840 3660
158 1840 3778
157 1843 3890
155 1846 3998
154 1849 4095
