Creative/skin-red-yellow_volume.3dl
#25pt 3DLUT created by 3D LUT Creator Pro (c) Oleg Sharonov
#Copyright Oleg Sharonov
0 128 256 384 512 640 768 896 1023
0 0 0
0 0 512
0 0 1024
0 0 1536
0 0 2048
0 0 2559
0 0 3071
0 0 3583
0 0 4095
0 512 0
0 512 512
0 512 1024
0 512 1536
0 512 2048
0 512 2559
0 512 3071
0 512 3583
0 512 4095
0 1024 0
0 1024 512
0 1024 1024
0 1024 1536
0 1024 2048
0 1024 2559
0 1024 3071
0 1024 3583
0 1024 4095
0 1536 0
0 1536 512
0 1536 1024
0 1536 1536
0 1536 2048
0 1536 2559
0 1536 3071
0 1536 3583
0 1536 4095
0 2048 0
0 2048 512
0 2048 1024
0 2048 1536
0 2048 2048
0 2048 2559
0 2048 3071
0 2048 3583
0 2048 4095
0 2559 0
0 2559 512
0 2559 1024
0 2559 1536
0 2559 2048
0 2559 2559
0 2559 3071
0 2559 3583
0 2559 4095
0 3071 0
0 3071 512
0 3071 1024
0 3071 1536
0 3071 2048
0 3071 2559
0 3071 3071
0 3071 3583
0 3071 4095
0 3583 0
0 3583 512
0 3583 1024
0 3583 1536
0 3583 2048
0 3583 2559
0 3583 3071
0 3583 3583
0 3583 4095
0 4095 0
0 4095 512
0 4095 1024
0 4095 1536
0 4095 2048
0 4095 2559
0 4095 3071
0 4095 3583
0 4095 4095
490 0 0
493 0 493
481 0 962
472 0 1416
468 0 1870
465 0 2325
463 0 2781
463 0 3238
462 0 3698
504 500 0
529 529 529
500 500 1028
478 478 1531
462 462 2038
451 451 2544
448 448 3001
448 448 3448
448 448 3901
478 996 0
493 1021 493
492 1020 1020
472 998 1525
452 977 2028
448 956 2533
448 937 3036
448 922 3538
448 909 4033
448 1488 0
459 1513 459
464 1517 991
457 1511 1511
448 1490 2019
448 1467 2524
448 1446 3029
448 1428 3530
448 1413 4026
448 1972 0
448 1998 448
448 2008 962
448 2007 1488
448 1997 2007
448 1979 2517
448 1959 3023
448 1941 3525
448 1924 4023
448 2464 0
448 2487 448
448 2500 942
448 2503 1468
448 2500 1991
448 2492 2510
448 2475 3019
448 2459 3524
448 2442 4023
448 2962 0
448 2984 448
448 2999 928
448 3003 1454
448 3004 1978
448 3002 2500
448 2995 3017
448 2980 3524
448 2964 4025
448 3468 0
448 3488 448
448 3503 921
448 3508 1446
448 3512 1970
448 3513 2491
448 3512 3012
448 3507 3528
448 3491 4030
448 3980 0
448 3999 448
448 4012 922
448 4017 1445
448 4021 1966
448 4024 2487
448 4026 3006
448 4027 3524
448 4023 4038
887 0 0
909 0 455
902 0 902
882 0 1323
866 0 1731
855 0 2136
847 0 2541
842 0 2947
839 0 3357
1000 439 0
1025 481 481
1021 478 1021
981 440 1523
943 404 2020
911 384 2491
886 384 2895
870 384 3300
859 384 3711
968 944 0
1016 1016 472
1085 1085 1085
1008 1008 1548
947 947 2024
903 903 2510
872 872 3000
847 847 3488
826 826 3966
921 1431 0
958 1500 417
1000 1541 1000
1000 1541 1541
951 1489 2028
903 1439 2510
867 1399 2996
840 1368 3482
817 1341 3960
876 1918 0
901 1976 384
930 2007 930
943 2020 1482
930 2008 2008
897 1968 2504
866 1930 2995
840 1897 3482
818 1865 3960
842 2412 0
861 2460 384
880 2488 880
893 2501 1429
895 2502 1966
883 2491 2491
863 2460 2993
843 2428 3485
824 2394 3964
820 2911 0
836 2955 384
851 2982 851
864 2993 1396
870 2999 1934
869 2998 2465
862 2991 2991
849 2961 3490
836 2927 3972
811 3417 0
825 3455 384
838 3481 838
850 3491 1378
859 3498 1915
863 3501 2446
864 3501 2974
861 3499 3499
853 3462 3984
816 3926 0
828 3957 384
840 3976 840
852 3984 1374
862 3990 1905
869 3995 2432
874 3998 2957
877 4000 3479
879 4001 4001
1183 0 0
1220 0 407
1233 0 822
1223 0 1223
1204 0 1605
1184 0 1974
1168 0 2337
1157 0 2700
1150 0 3067
1475 324 0
1495 382 382
1502 390 946
1481 368 1481
1433 328 1985
1362 320 2405
1308 320 2790
1269 320 3166
1241 320 3543
1440 837 0
1491 935 378
1548 993 993
1545 990 1545
1469 918 2021
1395 848 2490
1338 796 2965
1292 755 3438
1252 722 3898
1398 1344 0
1459 1459 344
1547 1547 992
1657 1657 1657
1532 1532 2082
1431 1431 2523
1354 1354 2979
1299 1299 3444
1254 1254 3899
1348 1842 0
1394 1942 320
1461 2013 910
1528 2077 1528
1529 2079 2079
1452 1998 2543
1375 1916 2998
1316 1851 3458
1268 1796 3909
1305 2340 0
1340 2423 320
1383 2478 836
1428 2521 1428
1451 2542 1996
1434 2526 2526
1382 2464 3005
1333 2403 3472
1289 2343 3924
1275 2843 0
1304 2916 320
1335 2962 793
1365 2989 1365
1387 3009 1927
1392 3013 2472
1380 3002 3002
1348 2950 3485
1312 2889 3940
1263 3354 0
1287 3416 320
1312 3455 776
1336 3476 1336
1356 3492 1890
1367 3501 2434
1370 3503 2970
1365 3499 3499
1339 3435 3959
1270 3865 0
1288 3913 320
1308 3939 782
1328 3953 1328
1346 3965 1870
1359 3974 2405
1368 3980 2935
1373 3983 3461
1376 3984 3984
1394 0 0
1444 0 361
1476 0 738
1485 0 1114
1476 0 1476
1457 0 1821
1437 0 2155
1420 0 2486
1409 0 2818
1762 256 45
1931 256 256
1955 257 823
1934 256 1374
1870 256 1870
1784 256 2294
1708 256 2677
1647 256 3039
1601 256 3394
1895 687 0
1934 797 256
1980 849 849
2000 870 1435
1972 841 1972
1894 775 2453
1819 714 2924
1751 662 3386
1688 618 3829
1860 1212 0
1920 1346 256
2004 1439 875
2088 1525 1526
2086 1524 2086
1976 1420 2533
1868 1317 2969
1782 1238 3413
1708 1174 3844
1827 1740 0
1888 1874 256
1979 1979 848
2097 2097 1535
2232 2232 2232
2071 2071 2625
1935 1935 3032
1828 1828 3453
1744 1744 3872
1788 2261 0
1837 2379 256
1904 2463 786
1991 2548 1435
2072 2626 2072
2075 2629 2629
1974 2521 3068
1872 2412 3492
1786 2315 3902
1757 2780 0
1798 2882 256
1846 2950 743
1902 3001 1352
1956 3051 1956
1983 3077 2530
1968 3063 3063
1898 2975 3513
1824 2877 3931
1745 3303 0
1777 3390 256
1815 3442 730
1855 3477 1314
1889 3506 1889
1915 3527 2452
1923 3534 2997
1916 3528 3528
1860 3433 3957
1752 3819 0
1773 3883 256
1801 3915 744
1831 3937 1304
1857 3956 1857
1879 3972 2402
1893 3982 2938
1901 3987 3465
1903 3989 3989
1526 0 0
1590 0 318
1639 0 656
1668 0 1001
1677 0 1342
1672 0 1672
1656 0 1987
1639 0 2295
1626 0 2602
1989 192 48
2176 192 192
2221 192 699
2233 192 1212
2208 192 1704
2157 192 2157
2078 192 2549
2005 192 2911
1943 192 3256
2333 507 0
2365 622 192
2396 680 680
2419 704 1276
2415 700 1843
2383 666 2383
2303 613 2867
2220 559 3326
2134 510 3757
2306 1046 0
2358 1186 192
2422 1279 707
2488 1349 1349
2519 1382 1950
2487 1349 2487
2380 1259 2941
2276 1174 3378
2175 1098 3791
2288 1598 0
2351 1751 192
2433 1862 720
2539 1972 1404
2638 2073 2073
2638 2074 2638
2499 1943 3055
2360 1813 3455
2237 1703 3841
2279 2163 0
2343 2315 192
2422 2422 708
2528 2528 1393
2657 2657 2093
2793 2793 2793
2610 2610 3162
2447 2447 3532
2306 2306 3895
2263 2719 0
2311 2849 192
2373 2934 690
2450 3008 1333
2540 3095 1985
2619 3170 2619
2624 3175 3175
2498 3037 3577
2366 2892 3943
2254 3264 0
2292 3374 192
2340 3437 695
2393 3485 1301
2446 3532 1903
2494 3573 2494
2518 3594 3056
2510 3587 3587
2410 3454 3977
2258 3790 0
2279 3869 192
2314 3903 725
2351 3932 1297
2386 3959 1861
2416 3983 2416
2439 4000 2959
2450 4009 3489
2452 4010 4010
1591 0 0
1669 0 278
1734 0 578
1783 0 892
1813 0 1209
1826 0 1522
1829 0 1829
1819 0 2122
1810 0 2413
2158 128 52
2363 128 128
2427 128 588
2465 128 1063
2472 128 1534
2450 128 1986
2412 128 2412
2338 128 2780
2269 128 3125
2749 305 0
2776 428 128
2803 504 504
2823 528 1102
2829 535 1682
2817 521 2243
2789 490 2789
2693 444 3255
2586 396 3681
2731 857 0
2777 1005 128
2827 1106 532
2875 1159 1160
2909 1197 1768
2910 1199 2340
2880 1165 2880
2772 1094 3331
2648 1018 3735
2729 1433 0
2789 1598 128
2858 1713 568
2937 1797 1228
3014 1880 1880
3049 1919 2484
3021 1888 3021
2884 1776 3438
2734 1660 3809
2744 2029 0
2809 2197 128
2884 2313 598
2975 2407 1271
3085 2521 1957
3180 2621 2621
3182 2623 3182
3012 2466 3558
2832 2302 3892
2777 2647 0
2840 2810 128
2912 2912 630
2993 2993 1291
3095 3095 1968
3208 3208 2650
3317 3317 3317
3110 3110 3649
2922 2922 3968
2790 3239 0
2829 3369 128
2883 3437 666
2942 3493 1289
3005 3552 1911
3072 3614 2530
3125 3663 3125
3130 3667 3667
2978 3497 4016
2785 3777 0
2802 3868 137
2842 3902 722
2883 3936 1303
2922 3969 1875
2960 4001 2440
2992 4028 2992
3010 4043 3527
3013 4045 4045
1608 0 0
1698 0 243
1779 0 508
1846 0 791
1897 0 1084
1932 0 1380
1954 0 1675
1970 0 1970
1969 0 2250
2288 64 58
2510 64 64
2588 64 485
2646 64 925
2679 64 1371
2687 64 1812
2675 64 2240
2651 64 2651
2582 64 3002
3065 128 34
3157 224 64
3181 320 320
3201 344 916
3212 359 1500
3211 358 2069
3197 342 2626
3174 315 3174
3046 276 3600
3127 657 0
3167 812 64
3211 927 356
3252 976 976
3284 1014 1581
3298 1031 2164
3292 1024 2725
3269 998 3269
3125 931 3674
3144 1255 0
3198 1427 64
3257 1551 414
3319 1621 1055
3374 1684 1684
3412 1729 2290
3419 1737 2858
3396 1711 3396
3229 1607 3769
3183 1880 0
3243 2059 64
3311 2179 480
3384 2258 1133
3459 2342 1784
3527 2419 2419
3558 2455 3006
3539 2434 3539
3345 2282 3876
3244 2531 0
3304 2707 64
3371 2808 554
3442 2882 1204
3518 2963 1854
3599 3050 2502
3664 3121 3121
3667 3124 3667
3459 2937 3981
3332 3211 0
3387 3376 64
3444 3444 647
3502 3502 1280
3562 3562 1909
3628 3628 2536
3693 3693 3152
3749 3749 3749
3538 3538 4054
3331 3784 0
3343 3876 149
3384 3912 739
3424 3949 1323
3463 3985 1897
3501 4020 2464
3536 4052 3021
3561 4075 3561
3567 4080 4080
1596 0 0
1696 0 212
1790 0 448
1874 0 703
1945 0 973
2002 0 1251
2047 0 1535
2084 0 1823
2116 0 2116
2395 0 65
2634 0 0
2720 0 389
2793 0 798
2847 0 1220
2880 0 1646
2896 0 2068
2898 0 2484
2893 0 2893
3262 0 107
3492 21 0
3511 136 136
3528 161 722
3540 179 1300
3545 188 1867
3542 186 2423
3532 173 2972
3517 154 3517
3479 456 0
3511 616 0
3545 745 185
3577 790 790
3604 828 1383
3622 853 1961
3628 863 2522
3622 857 3069
3609 840 3609
3512 1072 0
3554 1247 0
3600 1376 264
3645 1436 884
3686 1492 1492
3718 1535 2081
3735 1558 2647
3735 1561 3192
3724 1547 3724
3568 1719 0
3615 1900 0
3667 2015 364
3720 2082 990
3771 2148 1606
3816 2205 2205
3848 2246 2780
3857 2258 3324
3847 2246 3847
3645 2390 0
3692 2567 0
3743 2655 480
3796 2718 1101
3850 2782 1713
3904 2845 2316
3951 2902 2902
3975 2930 3452
3968 2923 3968
3743 3081 0
3787 3246 5
3832 3296 616
3879 3347 1221
3925 3398 1817
3973 3450 2405
4021 3502 2983
4056 3541 3541
4061 3546 4061
3864 3785 0
3902 3902 193
3940 3940 782
3977 3977 1363
4012 4012 1934
4044 4044 2494
4071 4071 3043
4089 4089 3577
4095 4095 4095
