Creative/Soft & Pastel.3dl
#25pt 3DLUT created by 3D LUT Creator Pro (c) Oleg Sharonov
#Copyright Oleg Sharonov
#INPUTGAMMA sRGB IEC61966-2.1 v.2.10
#IMAGEPROFILE sRGB IEC61966-2.1 v.2.10
#OUTPUTGAMMA sRGB IEC61966-2.1 v.2.10
0 43 86 128 171 214 256 299 341 384 427 469 512 555 597 640 682 725 768 810 853 896 938 981 1023 
0 0 0
16 15 25
32 29 57
60 55 110
101 91 178
153 139 260
218 197 343
288 261 425
356 323 506
425 388 590
493 448 671
562 513 753
626 575 835
692 637 915
757 700 996
822 763 1078
887 827 1159
951 889 1239
1014 952 1319
1079 1015 1399
1142 1077 1478
1205 1140 1556
1268 1201 1635
1331 1264 1712
1393 1325 1788
101 153 85
109 164 157
141 172 231
174 194 289
222 224 345
268 261 402
322 308 467
380 356 534
437 405 601
495 458 672
555 513 745
615 569 820
675 626 895
736 685 970
797 744 1047
858 803 1123
920 862 1200
982 923 1278
1043 984 1355
1105 1044 1433
1167 1104 1509
1228 1165 1585
1290 1225 1662
1351 1286 1737
1412 1347 1812
240 328 202
240 338 254
251 345 326
295 352 408
334 366 474
378 392 531
425 425 588
472 460 643
521 501 705
573 544 768
626 592 833
679 640 898
735 693 969
791 745 1038
847 800 1109
905 854 1182
963 911 1254
1022 967 1327
1080 1024 1401
1140 1082 1475
1199 1140 1549
1259 1198 1623
1318 1257 1697
1378 1316 1770
1437 1374 1843
398 506 338
393 515 375
406 520 423
411 530 502
453 535 583
495 544 656
533 565 715
576 592 771
621 623 828
666 656 884
714 696 944
762 738 1004
811 781 1065
863 829 1129
915 877 1195
968 927 1261
1024 978 1330
1079 1031 1399
1134 1084 1468
1190 1139 1538
1247 1193 1608
1303 1249 1678
1360 1304 1749
1418 1360 1819
1475 1417 1889
553 684 475
546 691 497
551 695 540
566 703 595
569 712 677
608 719 755
652 725 836
691 741 900
727 764 957
768 791 1011
814 822 1068
857 856 1123
904 893 1180
951 933 1239
999 975 1299
1048 1019 1361
1099 1066 1424
1149 1113 1487
1202 1162 1552
1255 1212 1618
1307 1262 1683
1361 1314 1749
1415 1366 1816
1470 1419 1883
1524 1472 1950
704 861 613
692 869 625
698 872 662
707 877 708
721 885 769
722 895 852
755 902 925
805 906 1013
844 919 1081
879 939 1140
915 963 1195
960 991 1250
1003 1021 1304
1048 1054 1360
1092 1090 1416
1138 1129 1473
1185 1169 1532
1233 1211 1590
1281 1255 1650
1330 1300 1711
1380 1347 1773
1430 1394 1835
1481 1443 1897
1532 1492 1960
1584 1542 2023
853 1039 750
840 1045 756
841 1048 785
848 1052 828
860 1059 876
876 1066 942
874 1077 1026
901 1086 1093
956 1088 1187
996 1098 1259
1033 1115 1322
1068 1137 1377
1104 1161 1431
1148 1188 1485
1190 1219 1539
1234 1251 1592
1279 1286 1647
1323 1323 1702
1368 1362 1759
1415 1402 1816
1461 1444 1873
1508 1487 1931
1556 1531 1989
1604 1577 2048
1653 1622 2107
1001 1215 887
990 1220 893
986 1224 910
991 1228 950
1000 1232 994
1012 1239 1046
1029 1246 1115
1024 1258 1200
1047 1267 1263
1104 1268 1357
1146 1276 1434
1183 1291 1499
1218 1309 1556
1253 1332 1611
1291 1358 1663
1334 1384 1716
1376 1414 1768
1419 1446 1821
1461 1480 1873
1505 1515 1926
1549 1553 1981
1593 1592 2035
1638 1631 2089
1684 1672 2145
1730 1714 2200
1146 1387 1023
1137 1392 1027
1128 1397 1037
1133 1400 1071
1139 1404 1115
1149 1411 1159
1162 1417 1215
1179 1424 1286
1172 1436 1371
1194 1445 1435
1249 1446 1525
1293 1453 1604
1331 1465 1671
1366 1482 1731
1401 1502 1786
1435 1526 1838
1474 1551 1889
1515 1577 1940
1557 1606 1990
1599 1638 2041
1641 1670 2092
1683 1704 2143
1725 1740 2195
1768 1777 2247
1811 1815 2300
1291 1559 1158
1283 1563 1163
1272 1568 1168
1274 1571 1195
1279 1574 1234
1287 1580 1278
1297 1586 1325
1311 1592 1383
1325 1599 1457
1319 1611 1540
1338 1621 1604
1391 1622 1688
1438 1628 1771
1477 1638 1840
1513 1653 1900
1546 1671 1956
1580 1692 2008
1613 1716 2058
1654 1740 2108
1694 1766 2157
1734 1795 2206
1775 1825 2255
1815 1856 2305
1856 1889 2354
1897 1923 2405
1433 1727 1294
1426 1730 1297
1417 1735 1302
1412 1739 1319
1417 1742 1354
1423 1746 1399
1432 1751 1439
1443 1757 1489
1458 1764 1550
1470 1771 1625
1464 1783 1706
1481 1792 1770
1531 1795 1848
1579 1798 1932
1620 1807 2003
1655 1820 2064
1689 1837 2121
1722 1856 2173
1755 1877 2223
1789 1900 2272
1828 1925 2320
1868 1951 2368
1907 1978 2416
1946 2007 2464
1985 2037 2513
1573 1891 1428
1567 1894 1430
1559 1898 1435
1549 1903 1444
1553 1906 1475
1559 1909 1514
1566 1914 1557
1575 1919 1600
1587 1925 1652
1602 1931 1714
1611 1939 1789
1605 1950 1868
1621 1960 1932
1667 1964 2003
1718 1966 2089
1759 1973 2161
1795 1985 2224
1829 1999 2281
1861 2016 2334
1893 2035 2384
1925 2057 2433
1959 2080 2480
1997 2104 2528
2036 2129 2575
2074 2156 2622
1710 2051 1559
1705 2054 1562
1698 2057 1566
1687 2063 1572
1688 2066 1597
1693 2068 1631
1698 2072 1674
1706 2077 1714
1716 2082 1759
1728 2088 1812
1744 2094 1875
1750 2102 1950
1744 2113 2028
1758 2122 2091
1800 2128 2155
1852 2129 2242
1894 2135 2315
1931 2145 2380
1965 2157 2438
1997 2173 2492
2028 2191 2543
2059 2211 2591
2090 2232 2639
2125 2255 2686
2162 2278 2732
1844 2207 1690
1840 2210 1693
1834 2213 1696
1824 2217 1701
1820 2221 1718
1824 2224 1749
1829 2227 1787
1835 2231 1829
1844 2236 1869
1854 2241 1915
1867 2247 1970
1883 2253 2032
1885 2261 2107
1880 2272 2183
1892 2282 2246
1931 2288 2303
1984 2288 2391
2026 2293 2466
2063 2301 2532
2097 2313 2592
2129 2327 2646
2160 2344 2698
2190 2362 2747
2220 2382 2795
2250 2403 2841
1976 2360 1819
1972 2361 1820
1966 2364 1824
1957 2368 1828
1948 2373 1837
1952 2376 1866
1957 2378 1900
1962 2382 1941
1969 2386 1980
1978 2391 2021
1989 2397 2069
2002 2402 2123
2018 2408 2187
2018 2417 2261
2013 2427 2336
2023 2437 2398
2057 2444 2449
2111 2444 2538
2154 2448 2614
2191 2455 2682
2225 2465 2742
2257 2479 2798
2287 2493 2851
2317 2510 2901
2347 2529 2949
2103 2509 1945
2100 2511 1947
2095 2513 1949
2088 2517 1953
2077 2522 1959
2078 2524 1982
2082 2527 2013
2087 2530 2050
2092 2533 2091
2100 2538 2128
2109 2543 2171
2120 2549 2219
2133 2555 2275
2149 2560 2339
2147 2569 2413
2142 2579 2486
2150 2589 2548
2183 2597 2596
2235 2596 2682
2279 2599 2760
2317 2606 2829
2351 2615 2891
2382 2627 2949
2413 2641 3002
2442 2657 3054
2228 2655 2068
2225 2657 2070
2221 2659 2073
2214 2662 2076
2204 2667 2081
2200 2671 2097
2204 2673 2125
2208 2676 2159
2213 2679 2198
2220 2683 2236
2228 2687 2275
2237 2693 2318
2249 2698 2368
2262 2704 2424
2278 2709 2488
2273 2718 2562
2268 2729 2634
2275 2738 2696
2307 2746 2744
2356 2746 2825
2401 2749 2904
2439 2755 2975
2473 2763 3039
2505 2774 3098
2535 2787 3154
2350 2799 2190
2347 2800 2191
2343 2802 2194
2337 2805 2197
2329 2810 2202
2320 2815 2211
2323 2817 2236
2327 2819 2267
2332 2822 2304
2337 2825 2345
2345 2830 2380
2353 2834 2419
2362 2839 2464
2374 2845 2514
2387 2850 2571
2402 2856 2636
2396 2865 2709
2391 2875 2780
2396 2885 2842
2428 2892 2890
2474 2894 2966
2519 2896 3048
2558 2901 3120
2593 2908 3186
2625 2918 3247
2470 2941 2310
2467 2942 2311
2464 2944 2313
2458 2947 2317
2450 2951 2321
2440 2956 2326
2441 2959 2347
2444 2961 2376
2448 2963 2409
2453 2966 2447
2459 2970 2485
2467 2974 2521
2475 2979 2562
2485 2984 2608
2497 2990 2659
2510 2995 2717
2522 3001 2782
2517 3010 2855
2512 3020 2926
2516 3031 2988
2547 3037 3037
2589 3040 3107
2636 3041 3191
2675 3045 3265
2710 3052 3333
2587 3081 2429
2585 3082 2430
2582 3084 2432
2577 3087 2435
2569 3090 2438
2560 3095 2444
2556 3099 2458
2559 3101 2484
2563 3103 2515
2568 3106 2550
2573 3109 2591
2579 3113 2625
2587 3118 2662
2596 3123 2704
2606 3128 2751
2618 3133 2803
2631 3138 2861
2641 3144 2927
2635 3154 3000
2631 3163 3071
2633 3174 3134
2664 3181 3183
2703 3185 3248
2750 3185 3333
2790 3188 3410
2703 3220 2545
2700 3221 2547
2697 3222 2548
2693 3225 2551
2686 3228 2555
2678 3233 2559
2669 3237 2568
2672 3239 2592
2676 3241 2621
2680 3244 2654
2685 3247 2691
2690 3250 2729
2697 3255 2763
2705 3259 2802
2714 3264 2845
2724 3269 2893
2736 3275 2946
2750 3280 3005
2757 3286 3072
2752 3296 3145
2748 3305 3216
2748 3316 3279
2778 3322 3329
2814 3328 3388
2862 3327 3476
2816 3358 2661
2814 3359 2662
2811 3360 2664
2807 3362 2666
2801 3366 2670
2793 3370 2674
2783 3375 2680
2783 3377 2700
2787 3379 2726
2791 3382 2757
2795 3384 2792
2800 3387 2831
2806 3391 2866
2813 3396 2902
2821 3400 2941
2830 3405 2985
2841 3410 3035
2853 3416 3089
2867 3421 3149
2872 3428 3218
2867 3437 3290
2863 3447 3361
2862 3458 3425
2892 3464 3475
2924 3470 3529
2928 3495 2776
2926 3496 2777
2924 3497 2778
2920 3499 2781
2914 3502 2784
2907 3506 2788
2898 3511 2793
2893 3514 2807
2896 3516 2832
2900 3519 2861
2904 3521 2894
2909 3524 2930
2914 3527 2969
2921 3532 3003
2928 3536 3040
2936 3541 3081
2946 3546 3127
2956 3551 3177
2969 3556 3232
2982 3561 3293
2985 3568 3363
2980 3578 3435
2976 3588 3507
2975 3599 3571
3003 3605 3622
3039 3632 2890
3037 3633 2891
3035 3634 2892
3031 3636 2895
3026 3639 2897
3019 3642 2901
3010 3647 2906
3002 3651 2914
3005 3653 2938
3008 3655 2965
3012 3658 2996
3016 3660 3031
3021 3663 3070
3027 3667 3105
3033 3671 3140
3041 3676 3179
3050 3681 3221
3059 3686 3268
3070 3691 3319
3083 3696 3375
3096 3701 3437
3096 3709 3508
3092 3718 3581
3088 3728 3652
3086 3739 3717
3148 3769 3004
3147 3770 3005
3144 3771 3006
3141 3773 3008
3136 3775 3011
3130 3779 3015
3122 3783 3019
3112 3788 3025
3112 3791 3044
3115 3793 3070
3119 3795 3099
3123 3797 3133
3127 3800 3169
3132 3803 3209
3138 3807 3242
3145 3812 3278
3153 3817 3318
3162 3821 3362
3172 3826 3410
3183 3832 3462
3196 3837 3519
3210 3842 3582
3207 3850 3654
3203 3860 3727
3199 3870 3799
149 4 0
88 40 78
92 58 117
117 87 171
157 124 240
210 175 312
265 227 384
328 286 460
393 347 539
457 407 616
521 467 696
583 528 774
646 589 853
712 651 933
773 712 1011
838 775 1093
901 837 1172
964 898 1251
1026 960 1330
1090 1022 1409
1152 1084 1487
1215 1146 1565
1276 1208 1643
1339 1269 1720
1400 1331 1796
210 164 39
214 193 188
222 200 284
244 221 340
278 252 390
316 286 442
365 330 502
415 377 566
468 425 632
523 476 698
578 528 768
637 584 840
693 640 913
753 696 988
812 754 1062
873 813 1138
934 872 1215
994 931 1290
1055 991 1367
1116 1052 1443
1177 1112 1519
1238 1172 1595
1299 1232 1670
1359 1292 1745
1419 1352 1820
316 349 205
319 359 273
328 368 351
348 375 447
380 390 507
420 411 561
459 443 616
503 476 670
549 516 729
597 560 789
648 605 853
699 654 919
752 704 985
806 756 1054
862 810 1125
918 864 1195
976 919 1267
1034 976 1340
1092 1032 1413
1150 1089 1485
1210 1148 1560
1268 1205 1633
1327 1264 1706
1386 1322 1778
1445 1381 1851
448 520 347
448 530 386
450 536 438
459 544 520
491 549 609
529 560 681
564 581 739
603 605 792
646 636 847
689 669 904
735 708 960
780 748 1019
829 793 1081
879 839 1144
931 887 1209
983 936 1275
1036 987 1342
1090 1038 1409
1145 1092 1479
1200 1145 1548
1256 1200 1617
1312 1255 1687
1369 1310 1757
1425 1366 1827
1482 1422 1897
590 694 481
588 703 509
583 709 548
598 715 606
603 723 689
636 729 776
678 737 856
712 753 917
748 776 973
789 802 1028
832 832 1082
875 865 1137
920 902 1195
965 942 1252
1013 984 1312
1062 1027 1373
1110 1073 1435
1161 1121 1498
1213 1169 1562
1264 1218 1626
1316 1269 1692
1370 1320 1757
1423 1371 1824
1477 1424 1890
1531 1477 1957
733 870 617
730 876 638
720 883 662
729 888 714
746 895 778
748 905 863
777 911 940
825 915 1028
862 928 1095
895 948 1153
934 972 1208
975 998 1261
1017 1028 1316
1061 1061 1370
1104 1097 1426
1149 1135 1483
1196 1176 1541
1243 1217 1599
1291 1261 1659
1339 1306 1719
1388 1352 1781
1438 1399 1842
1488 1447 1904
1540 1496 1967
1590 1546 2029
876 1045 753
874 1050 769
859 1058 783
866 1062 831
878 1067 882
896 1074 949
894 1085 1035
920 1093 1106
972 1095 1199
1012 1106 1271
1047 1122 1332
1080 1143 1387
1119 1168 1442
1161 1195 1495
1203 1225 1548
1245 1258 1602
1289 1292 1656
1333 1328 1711
1378 1367 1767
1423 1407 1823
1469 1449 1880
1516 1492 1937
1563 1536 1995
1611 1581 2054
1659 1627 2113
1021 1220 890
1018 1224 903
1003 1231 910
1006 1236 949
1014 1240 997
1027 1246 1050
1046 1253 1120
1041 1264 1206
1061 1274 1270
1117 1274 1367
1159 1282 1443
1195 1297 1507
1229 1316 1564
1263 1338 1618
1303 1363 1671
1344 1389 1723
1386 1419 1776
1428 1451 1828
1470 1485 1880
1513 1520 1933
1557 1557 1987
1601 1596 2041
1645 1635 2095
1690 1676 2150
1736 1718 2206
1163 1393 1026
1161 1396 1037
1149 1402 1044
1146 1407 1070
1152 1411 1116
1162 1417 1162
1176 1423 1218
1194 1429 1291
1186 1441 1376
1205 1451 1440
1261 1452 1533
1305 1458 1612
1341 1470 1679
1376 1487 1738
1409 1507 1793
1443 1530 1844
1484 1555 1895
1524 1582 1946
1565 1611 1997
1606 1642 2047
1648 1674 2098
1690 1708 2149
1732 1744 2201
1775 1780 2252
1818 1819 2305
1305 1563 1162
1303 1566 1171
1293 1571 1177
1284 1577 1194
1290 1581 1233
1297 1585 1279
1308 1591 1327
1323 1597 1387
1338 1604 1460
1331 1615 1544
1348 1625 1609
1402 1627 1695
1448 1632 1777
1486 1642 1846
1521 1656 1906
1554 1675 1962
1587 1696 2013
1621 1719 2064
1661 1744 2113
1701 1770 2162
1742 1799 2211
1782 1828 2260
1822 1860 2310
1862 1893 2360
1903 1927 2410
1445 1731 1296
1444 1733 1305
1434 1738 1309
1422 1745 1318
1427 1747 1353
1433 1751 1397
1441 1756 1441
1453 1762 1491
1468 1768 1553
1481 1775 1628
1473 1786 1710
1490 1797 1774
1540 1799 1854
1588 1802 1938
1627 1811 2008
1663 1824 2070
1696 1840 2126
1729 1859 2178
1761 1881 2228
1795 1904 2276
1835 1928 2325
1874 1954 2373
1913 1981 2421
1952 2010 2469
1991 2040 2517
