Creative/Soft & Pastel.3dl
#25pt 3DLUT created by 3D LUT Creator Pro (c) Oleg Sharonov
#Copyright Oleg Sharonov
#INPUTGAMMA sRGB IEC61966-2.1 v.2.10
#IMAGEPROFILE sRGB IEC61966-2.1 v.2.10
#OUTPUTGAMMA sRGB IEC61966-2.1 v.2.10
0 256 512 768 1023
0 0 0
218 197 343
626 575 835
1014 952 1319
1393 1325 1788
853 1039 750
874 1077 1026
1104 1161 1431
1368 1362 1759
1653 1622 2107
1710 2051 1559
1698 2072 1674
1744 2113 2028
1965 2157 2438
2162 2278 2732
2470 2941 2310
2441 2959 2347
2475 2979 2562
2512 3020 2926
2710 3052 3333
3148 3769 3004
3122 3783 3019
3127 3800 3169
3172 3826 3410
3199 3870 3799
1122 40 0
799 498 724
918 762 1076
1193 1074 1475
1513 1411 1895
1242 1092 485
1233 1167 1134
1320 1253 1588
1509 1442 1878
1754 1687 2199
1850 2093 1585
1848 2115 1704
1879 2155 2076
2050 2199 2502
2236 2315 2788
2546 2964 2324
2535 2977 2380
2534 3006 2580
2576 3044 2952
2760 3074 3372
3197 3784 3013
3189 3793 3049
3163 3820 3165
3209 3844 3420
3238 3886 3816
2146 164 0
2202 0 888
1619 1120 1516
1679 1367 1840
1858 1639 2173
2217 1103 0
2314 1081 1016
1926 1457 1818
1924 1648 2125
2056 1867 2414
2353 2161 1105
2355 2191 1446
2311 2252 2199
2363 2303 2692
2472 2418 2968
2785 3030 2330
2780 3042 2402
2785 3067 2655
2816 3103 3029
2916 3140 3500
3344 3832 3043
3340 3840 3078
3329 3862 3214
3343 3892 3473
3379 3930 3872
3051 365 1
3118 1 861
3005 795 1640
2356 1723 2253
2389 1950 2549
3116 1128 0
3261 946 791
3215 1104 1813
2535 1924 2435
2540 2122 2724
3158 2196 36
3169 2207 1113
3298 2180 2103
2923 2444 2836
2896 2576 3163
3312 3107 1718
3307 3119 1930
3295 3152 2403
3228 3197 3152
3267 3237 3667
3629 3917 3018
3631 3923 3065
3623 3943 3215
3645 3962 3575
3674 3999 3965
3905 570 2
3990 3 774
4004 4 1845
3469 1763 2354
3013 2284 2934
3957 1203 2
4095 643 3
4095 591 1837
3631 1900 2468
3131 2413 3058
4028 2206 3
4076 2179 931
4095 2140 2020
4036 2305 2769
3439 2775 3392
4057 3168 72
4060 3170 1143
4078 3177 2169
4095 3130 3060
3802 3354 3787
4095 4002 2675
4095 4008 2737
4095 4026 2920
4095 4058 3284
4095 4095 4095
