Creative/Soft & Pastel.3dl
#25pt 3DLUT created by 3D LUT Creator Pro (c) Oleg Sharonov
#Copyright Oleg Sharonov
#INPUTGAMMA sRGB IEC61966-2.1 v.2.10
#IMAGEPROFILE sRGB IEC61966-2.1 v.2.10
#OUTPUTGAMMA sRGB IEC61966-2.1 v.2.10
0 128 256 384 512 640 768 896 1023
0 0 0
60 55 110
218 197 343
425 388 590
626 575 835
822 763 1078
1014 952 1319
1205 1140 1556
1393 1325 1788
398 506 338
411 530 502
533 565 715
666 656 884
811 781 1065
968 927 1261
1134 1084 1468
1303 1249 1678
1475 1417 1889
853 1039 750
848 1052 828
874 1077 1026
996 1098 1259
1104 1161 1431
1234 1251 1592
1368 1362 1759
1508 1487 1931
1653 1622 2107
1291 1559 1158
1274 1571 1195
1297 1586 1325
1319 1611 1540
1438 1628 1771
1546 1671 1956
1654 1740 2108
1775 1825 2255
1897 1923 2405
1710 2051 1559
1687 2063 1572
1698 2072 1674
1728 2088 1812
1744 2113 2028
1852 2129 2242
1965 2157 2438
2059 2211 2591
2162 2278 2732
2103 2509 1945
2088 2517 1953
2082 2527 2013
2100 2538 2128
2133 2555 2275
2142 2579 2486
2235 2596 2682
2351 2615 2891
2442 2657 3054
2470 2941 2310
2458 2947 2317
2441 2959 2347
2453 2966 2447
2475 2979 2562
2510 2995 2717
2512 3020 2926
2589 3040 3107
2710 3052 3333
2816 3358 2661
2807 3362 2666
2783 3375 2680
2791 3382 2757
2806 3391 2866
2830 3405 2985
2867 3421 3149
2863 3447 3361
2924 3470 3529
3148 3769 3004
3141 3773 3008
3122 3783 3019
3115 3793 3070
3127 3800 3169
3145 3812 3278
3172 3826 3410
3210 3842 3582
3199 3870 3799
547 11 0
364 186 324
418 315 497
553 469 696
716 635 912
888 810 1138
1067 989 1367
1248 1170 1595
1428 1350 1820
638 536 181
635 583 567
675 621 816
764 709 965
886 827 1133
1028 965 1317
1181 1116 1514
1343 1276 1717
1507 1439 1922
956 1068 763
958 1085 853
975 1108 1061
1062 1129 1309
1165 1190 1475
1283 1277 1632
1409 1386 1793
1542 1508 1961
1682 1641 2133
1352 1577 1169
1346 1589 1215
1348 1608 1341
1373 1631 1561
1481 1646 1802
1581 1689 1982
1687 1757 2132
1803 1840 2277
1922 1937 2425
1751 2063 1567
1745 2071 1596
1730 2088 1673
1762 2102 1822
1779 2126 2041
1882 2141 2262
1989 2170 2456
2080 2223 2608
2183 2289 2748
2133 2517 1950
2128 2523 1971
2103 2538 2010
2122 2549 2133
2157 2564 2282
2166 2588 2495
2256 2605 2697
2369 2624 2905
2458 2665 3066
2492 2947 2314
2488 2951 2329
2458 2967 2346
2469 2975 2445
2491 2987 2565
2528 3002 2722
2530 3027 2933
2605 3046 3118
2724 3059 3344
2833 3363 2664
2831 3366 2676
2807 3378 2690
2803 3388 2755
2818 3398 2867
2843 3411 2988
2881 3426 3153
2876 3452 3367
2937 3475 3538
3162 3773 3007
3160 3776 3017
3141 3786 3027
3125 3798 3068
3137 3806 3168
3155 3817 3280
3182 3831 3412
3221 3846 3586
3210 3874 3803
1122 40 0
1164 0 398
799 498 724
826 622 895
918 762 1076
1047 914 1270
1193 1074 1475
1351 1241 1685
1513 1411 1895
1154 536 3
1228 533 502
1014 720 928
1003 814 1097
1067 925 1257
1172 1051 1426
1298 1190 1607
1440 1339 1797
1589 1495 1990
1242 1092 485
1251 1122 709
1233 1167 1134
1261 1193 1421
1320 1253 1588
1406 1338 1730
1509 1442 1878
1627 1559 2035
1754 1687 2199
1508 1619 1168
1508 1630 1225
1516 1648 1390
1536 1671 1610
1589 1689 1880
1673 1733 2048
1772 1797 2193
1876 1878 2334
1984 1973 2477
1850 2093 1585
1848 2100 1614
1848 2115 1704
1856 2134 1855
1879 2155 2076
1957 2170 2316
2050 2199 2502
2135 2251 2650
2236 2315 2788
2204 2539 1963
2201 2544 1983
2194 2556 2042
2183 2573 2149
2219 2587 2303
2231 2610 2519
2310 2625 2736
2414 2645 2940
2497 2686 3099
2546 2964 2324
2543 2967 2339
2535 2977 2380
2512 2995 2446
2534 3006 2580
2573 3019 2739
2576 3044 2952
2646 3062 3149
2760 3074 3372
2876 3376 2672
2873 3379 2684
2866 3387 2716
2835 3405 2752
2850 3413 2874
2876 3426 2999
2916 3440 3167
2911 3466 3382
2969 3488 3562
3197 3784 3013
3195 3787 3023
3189 3793 3049
3154 3811 3068
3163 3820 3165
3181 3830 3287
3209 3844 3420
3249 3858 3597
3238 3886 3816
1646 87 0
1689 0 404
1568 388 774
1216 809 1123
1233 930 1293
1299 1064 1462
1400 1206 1641
1523 1355 1826
1658 1510 2016
1690 538 0
1782 473 409
1741 563 894
1359 955 1261
1356 1061 1428
1406 1180 1588
1492 1307 1752
1602 1443 1924
1727 1586 2100
1706 1099 6
1727 1115 538
1830 1112 1067
1606 1272 1501
1587 1343 1695
1617 1432 1843
1683 1532 1987
1773 1643 2136
1880 1763 2291
1821 1642 794
1824 1658 948
1830 1693 1233
1797 1729 1683
1818 1751 1971
1860 1794 2171
1925 1859 2304
2004 1940 2434
2093 2031 2567
2026 2140 1564
2030 2146 1603
2030 2161 1701
2048 2176 1917
2065 2197 2129
2096 2214 2403
2159 2248 2582
2244 2296 2724
2330 2359 2858
2334 2573 1968
2330 2579 1996
2321 2591 2062
2332 2604 2188
2342 2622 2346
2362 2642 2561
2409 2658 2804
2494 2680 3002
2567 2722 3155
2636 2992 2342
2635 2996 2357
2631 3005 2397
2627 3018 2484
2621 3035 2611
2661 3047 2770
2668 3070 2985
2721 3088 3203
2823 3101 3423
2948 3399 2686
2947 3402 2698
2942 3409 2729
2935 3421 2793
2915 3439 2880
2940 3450 3023
2982 3463 3189
2980 3488 3408
3028 3509 3607
3257 3803 3025
3255 3806 3035
3251 3812 3060
3242 3822 3110
3212 3843 3167
3230 3851 3306
3260 3864 3440
3302 3877 3616
3291 3905 3838
2146 164 0
2196 0 369
2202 0 888
1863 838 1162
1619 1120 1516
1631 1238 1681
1679 1367 1840
1758 1500 2005
1858 1639 2173
2183 563 0
2316 354 192
2409 0 867
1996 937 1249
1720 1223 1614
1720 1332 1776
1757 1452 1930
1827 1577 2086
1920 1708 2247
2217 1103 0
2247 1096 474
2314 1081 1016
2248 1177 1435
1926 1457 1818
1903 1548 1981
1924 1648 2125
1978 1754 2268
2056 1867 2414
2229 1658 13
2239 1667 548
2269 1686 1090
2379 1675 1616
2142 1820 2034
2137 1868 2256
2147 1941 2400
2189 2022 2532
2252 2111 2665
2353 2161 1105
2354 2170 1218
2355 2191 1446
2354 2223 1742
2311 2252 2199
2329 2271 2475
2363 2303 2692
2410 2354 2845
2472 2418 2968
2501 2626 1947
2505 2629 1974
2510 2639 2042
2516 2653 2176
2535 2664 2411
2553 2684 2614
2570 2702 2889
2614 2730 3093
2688 2769 3241
2785 3030 2330
2784 3033 2350
2780 3042 2402
2767 3057 2504
2785 3067 2655
2798 3084 2817
2816 3103 3029
2847 3121 3278
2916 3140 3500
3061 3431 2697
3057 3434 2713
3050 3442 2750
3047 3453 2811
3057 3463 2924
3049 3482 3061
3088 3494 3225
3094 3516 3445
3125 3537 3671
3344 3832 3043
3343 3835 3053
3340 3840 3078
3335 3850 3126
3329 3862 3214
3314 3882 3320
3343 3892 3473
3387 3904 3649
3379 3930 3872
2611 264 0
2668 0 305
2671 1 882
2716 1 1255
2164 1221 1547
2000 1426 1893
2009 1540 2052
2044 1663 2202
2106 1790 2355
2640 607 0
2768 301 0
2824 1 801
2847 1 1316
2260 1293 1612
2073 1503 1965
2075 1611 2122
2102 1729 2268
2158 1849 2417
2682 1108 0
2754 1045 215
2793 1029 931
2927 821 1445
2470 1462 1756
2231 1683 2125
2218 1778 2280
2233 1882 2421
2278 1989 2561
2698 1665 21
2704 1670 553
2731 1676 1081
2818 1652 1579
2746 1739 1964
2449 1961 2346
2421 2037 2512
2424 2121 2650
2456 2209 2782
2714 2189 21
2719 2194 559
2733 2206 1105
2769 2219 1624
2881 2198 2131
2631 2330 2530
2632 2366 2765
2637 2424 2929
2665 2491 3058
2844 2646 1415
2844 2651 1499
2842 2664 1681
2840 2685 1938
2834 2712 2221
2783 2736 2683
2799 2754 2953
2827 2781 3183
2865 2821 3364
2945 3087 2310
2948 3089 2331
2952 3095 2382
2957 3107 2470
2969 3118 2639
2990 3127 2882
3009 3145 3082
3018 3164 3363
3048 3189 3595
3212 3475 2678
3213 3477 2694
3212 3482 2734
3207 3493 2805
3202 3506 2941
3220 3516 3114
3233 3533 3281
3250 3552 3494
3270 3571 3751
3478 3868 3037
3476 3870 3050
3471 3876 3084
3459 3887 3145
3454 3899 3232
3470 3908 3368
3466 3927 3518
3507 3938 3691
3510 3961 3914
3051 365 1
3116 1 200
3118 1 861
3125 2 1370
3005 795 1640
2448 1579 1927
2356 1723 2253
2364 1832 2406
2389 1950 2549
3075 662 0
3172 394 1
3237 2 738
3238 2 1364
3072 885 1692
2521 1634 1976
2411 1783 2308
2414 1887 2460
2434 2001 2601
3116 1128 0
3197 1025 1
3261 946 791
3407 584 1327
3215 1104 1813
2688 1765 2087
2535 1924 2435
2528 2019 2586
2540 2122 2724
3146 1668 1
3170 1655 411
3202 1645 983
3256 1625 1528
3375 1501 2000
2938 1975 2254
2720 2148 2627
2699 2230 2781
2700 2319 2916
3158 2196 36
3161 2199 567
3169 2207 1113
3196 2213 1638
3298 2180 2103
3218 2258 2462
2923 2444 2836
2905 2503 3024
2896 2576 3163
3174 2687 37
3177 2689 574
3183 2695 1121
3199 2705 1646
3238 2712 2126
3355 2680 2612
3087 2807 3004
3091 2837 3250
3096 2883 3440
3312 3107 1718
3310 3111 1783
3307 3119 1930
3302 3133 2145
3295 3152 2403
3283 3175 2693
3228 3197 3152
3243 3213 3425
3267 3237 3667
3369 3535 2661
3372 3536 2677
3376 3540 2718
3381 3548 2789
3391 3559 2891
3404 3568 3096
3425 3576 3348
3444 3594 3549
3449 3613 3838
3629 3917 3018
3629 3919 3032
3631 3923 3065
3630 3930 3124
3623 3943 3215
3622 3954 3382
3645 3962 3575
3658 3980 3750
3674 3999 3965
3479 466 1
3553 2 23
3554 2 826
3559 3 1367
3589 3 1762
3232 1339 2008
2717 1916 2301
2692 2010 2598
2700 2112 2748
3498 727 1
3576 492 2
3651 3 669
3653 3 1333
3672 3 1801
3288 1392 2049
2774 1959 2339
2735 2056 2642
2740 2156 2791
3537 1161 1
3605 1054 1
3725 815 547
3882 3 1154
3878 4 1858
3418 1526 2146
2909 2063 2426
2835 2169 2746
2832 2262 2895
3575 1675 1
3631 1626 2
3667 1599 819
3705 1578 1450
3846 1387 1923
3609 1759 2300
3123 2232 2561
2991 2353 2910
2978 2436 3061
3590 2203 52
3592 2205 575
3603 2207 1101
3648 2192 1583
3717 2164 2070
3816 2091 2506
3394 2457 2734
3190 2595 3119
3161 2669 3280
3606 2693 52
3608 2694 580
3612 2699 1128
3623 2705 1659
3655 2706 2150
3764 2669 2592
3679 2737 2937
3368 2906 3312
3361 2951 3526
3623 3162 53
3624 3163 587
3627 3166 1135
3634 3171 1665
3651 3177 2148
3691 3178 2597
3819 3136 3075
3524 3262 3474
3528 3289 3731
3770 3557 2010
3768 3559 2062
3765 3564 2181
3758 3574 2364
3750 3587 2593
3738 3605 2847
3718 3625 3161
3661 3645 3622
3676 3661 3898
3787 3982 3003
3789 3983 3017
3793 3986 3051
3798 3992 3110
3804 4001 3196
3816 4011 3325
3834 4017 3557
3855 4024 3816
3874 4043 4021
3905 570 2
3969 204 2
3990 3 774
3995 4 1353
4004 4 1845
4067 4 2099
3469 1763 2354
2973 2228 2680
3013 2284 2934
3921 799 2
3987 591 2
4074 4 581
4076 4 1299
4082 4 1841
4095 33 2130
3516 1802 2387
3019 2263 2709
3048 2321 2970
3957 1203 2
4017 1096 2
4095 643 3
4095 590 1202
4095 591 1837
4095 677 2215
3631 1900 2468
3129 2349 2777
3131 2413 3058
4000 1693 2
4051 1638 2
4095 1533 530
4095 1511 1335
4095 1225 1813
4095 1238 2360
3811 2066 2597
3312 2490 2886
3264 2566 3202
4028 2206 3
4056 2188 251
4076 2179 931
4095 2163 1495
4095 2140 2020
4095 2013 2454
4036 2305 2769
3557 2680 3030
3439 2775 3392
4040 2700 71
4041 2701 590
4043 2704 1135
4050 2708 1669
4095 2692 2122
4095 2658 2566
4095 2614 2982
3846 2913 3205
3637 3034 3606
4057 3168 72
4058 3168 596
4060 3170 1143
4064 3174 1676
4078 3177 2169
4095 3171 2624
4095 3130 3060
4095 3192 3407
3802 3354 3787
4075 3628 76
4075 3628 603
4076 3629 1150
4079 3631 1683
4086 3634 2174
4095 3635 2616
4095 3630 3050
4095 3583 3542
3956 3709 3946
4095 4002 2675
4095 4003 2734
4095 4008 2737
4095 4015 2799
4095 4026 2920
4095 4040 3045
4095 4058 3284
4095 4075 3633
4095 4095 4095
