Creative/Split Oranges and Blues.3dl
#25pt 3DLUT created by 3D LUT Creator Pro (c) Oleg Sharonov
#Copyright Oleg Sharonov
#IMAGEPROFILE sRGB IEC61966-2.1 v.2.10
#INPUTGAMMA sRGB IEC61966-2.1 v.2.10
#OUTPUTGAMMA sRGB IEC61966-2.1 v.2.10
0 43 86 128 171 214 256 299 341 384 427 469 512 555 597 640 682 725 768 810 853 896 938 981 1023 
0 10 47
36 10 207
104 11 333
183 12 464
255 14 583
324 16 693
399 18 808
478 22 927
553 25 1038
631 29 1150
708 33 1260
788 37 1371
866 42 1477
942 46 1581
1011 50 1681
1077 54 1776
1139 58 1865
1196 61 1945
1248 64 2019
1291 66 2083
1329 67 2139
1361 68 2187
1391 69 2231
1420 70 2276
1457 71 2333
0 131 201
0 123 288
27 115 387
128 111 496
209 106 609
289 100 720
371 93 835
449 87 945
528 80 1057
608 71 1170
686 59 1278
766 47 1386
846 43 1490
924 47 1591
994 52 1691
1060 55 1784
1123 59 1874
1179 62 1952
1231 65 2026
1276 67 2091
1314 68 2147
1346 69 2194
1375 70 2238
1405 71 2283
1443 72 2340
0 261 353
0 255 413
0 246 500
0 240 583
69 231 679
189 226 781
285 220 886
377 216 991
466 213 1099
550 208 1204
633 205 1310
716 200 1413
798 196 1516
875 192 1615
947 188 1713
1015 184 1805
1079 179 1892
1138 176 1972
1190 171 2046
1235 167 2111
1274 164 2166
1307 160 2215
1336 156 2257
1366 150 2303
1405 147 2360
0 394 504
0 388 548
0 379 621
0 373 710
0 365 791
0 360 871
112 352 966
246 345 1064
354 342 1164
453 338 1263
549 336 1364
639 333 1463
725 330 1560
805 326 1656
881 324 1748
953 321 1837
1019 318 1918
1079 315 1996
1132 312 2067
1179 311 2130
1219 308 2185
1253 306 2232
1282 304 2273
1313 301 2315
1352 298 2369
0 531 655
0 526 691
0 518 753
0 510 834
0 502 922
0 495 1006
0 488 1081
0 482 1160
156 474 1253
304 468 1344
422 466 1437
528 463 1529
624 461 1622
711 458 1714
792 455 1801
869 453 1886
938 450 1965
1001 448 2039
1057 445 2108
1106 443 2167
1147 441 2219
1182 439 2265
1213 438 2305
1245 435 2349
1285 433 2402
0 673 807
0 669 838
0 663 893
0 654 964
0 646 1046
0 636 1135
0 629 1222
0 622 1295
0 616 1371
6 610 1448
204 603 1532
358 600 1618
479 600 1706
583 596 1790
676 595 1873
761 594 1952
836 591 2028
904 589 2101
964 587 2168
1015 586 2227
1058 585 2277
1094 583 2320
1127 581 2360
1160 579 2401
1202 576 2452
0 819 963
0 816 989
0 810 1038
0 802 1101
0 793 1177
0 783 1259
0 774 1348
0 765 1438
1 758 1508
9 753 1581
17 746 1654
25 740 1728
239 736 1803
394 735 1883
514 736 1960
616 735 2036
704 735 2110
781 734 2178
846 733 2240
901 732 2297
948 730 2346
987 729 2389
1022 728 2427
1057 728 2468
1101 726 2518
0 969 1121
0 966 1145
0 960 1188
0 952 1247
0 943 1316
0 933 1393
0 924 1477
0 914 1565
5 905 1654
12 898 1724
19 892 1793
27 885 1863
35 879 1933
43 874 2001
251 871 2067
405 872 2136
522 874 2207
616 874 2274
693 876 2336
757 876 2390
809 876 2436
853 875 2476
891 874 2512
931 873 2550
979 873 2598
0 1120 1282
0 1116 1303
0 1111 1343
0 1104 1396
0 1096 1460
0 1086 1533
0 1075 1611
0 1066 1695
7 1056 1779
15 1048 1867
22 1039 1937
29 1032 2002
36 1026 2068
43 1020 2136
50 1014 2203
56 1008 2269
211 1006 2329
370 1009 2387
481 1012 2444
564 1014 2495
630 1014 2539
682 1015 2578
728 1016 2612
773 1017 2650
829 1017 2697
0 1271 1443
0 1269 1462
0 1264 1498
0 1257 1548
0 1248 1607
0 1238 1675
0 1228 1749
4 1218 1826
9 1208 1907
16 1198 1989
23 1189 2071
30 1181 2146
36 1174 2211
42 1168 2277
48 1162 2343
54 1156 2407
59 1152 2470
63 1147 2527
67 1143 2580
247 1145 2617
359 1149 2656
437 1153 2693
501 1154 2725
561 1155 2759
631 1156 2802
3 1428 1605
3 1425 1623
2 1420 1655
2 1413 1700
2 1405 1756
3 1395 1819
5 1385 1888
9 1375 1961
13 1364 2037
18 1354 2114
24 1343 2196
31 1334 2281
37 1325 2362
42 1319 2426
46 1311 2490
51 1305 2552
55 1299 2610
58 1294 2666
61 1290 2717
63 1286 2761
64 1283 2800
66 1279 2833
67 1277 2863
192 1280 2885
326 1285 2918
10 1586 1764
10 1584 1781
9 1579 1811
9 1573 1853
9 1564 1905
10 1555 1963
11 1545 2028
13 1534 2096
16 1523 2169
20 1511 2246
25 1501 2327
30 1490 2410
35 1481 2494
40 1472 2578
43 1465 2640
47 1458 2700
49 1452 2757
51 1446 2809
53 1441 2858
54 1437 2901
55 1434 2938
56 1431 2970
56 1427 2999
57 1425 3029
57 1421 3068
17 1745 1919
16 1743 1934
16 1738 1962
15 1732 2000
15 1724 2048
15 1715 2102
16 1705 2162
17 1694 2229
19 1683 2301
22 1672 2377
25 1661 2456
29 1650 2538
33 1640 2619
36 1630 2701
39 1621 2781
41 1614 2847
43 1607 2901
44 1601 2952
44 1596 2998
45 1591 3040
45 1587 3075
45 1584 3106
45 1580 3133
44 1577 3163
43 1572 3199
22 1900 2074
21 1898 2087
21 1894 2112
20 1888 2147
20 1880 2190
20 1871 2243
20 1861 2303
21 1851 2368
22 1840 2437
23 1830 2511
25 1818 2587
28 1807 2665
30 1797 2743
32 1787 2822
33 1777 2900
34 1768 2974
34 1760 3043
34 1754 3092
34 1748 3136
33 1743 3175
32 1739 3209
32 1735 3238
31 1732 3265
30 1728 3292
28 1724 3327
25 2050 2226
25 2048 2239
24 2043 2263
24 2038 2298
23 2031 2341
22 2022 2391
22 2013 2448
22 2004 2511
23 1993 2578
23 1983 2649
24 1972 2722
25 1961 2796
26 1950 2872
26 1940 2947
26 1930 3021
26 1921 3093
25 1912 3161
23 1904 3223
21 1898 3274
19 1893 3311
18 1888 3343
16 1884 3370
15 1881 3395
13 1877 3421
10 1872 3454
26 2195 2382
26 2193 2394
25 2189 2417
25 2184 2449
24 2177 2491
23 2170 2539
23 2161 2594
22 2152 2653
22 2142 2717
22 2131 2785
21 2121 2855
21 2110 2926
21 2100 2998
20 2089 3070
18 2079 3141
16 2069 3210
14 2060 3275
11 2052 3335
7 2044 3389
4 2037 3436
1 2032 3474
0 2029 3499
0 2025 3523
0 2022 3547
0 2018 3577
25 2338 2537
24 2336 2548
24 2332 2570
23 2327 2601
22 2321 2641
21 2313 2686
20 2304 2738
20 2295 2794
19 2286 2855
18 2275 2919
17 2265 2985
15 2254 3054
14 2243 3122
11 2233 3191
9 2222 3258
5 2212 3323
1 2203 3385
0 2195 3441
0 2188 3492
0 2182 3537
0 2177 3575
0 2172 3608
0 2168 3637
0 2165 3665
0 2161 3693
20 2478 2691
20 2476 2702
19 2473 2723
19 2468 2752
18 2462 2789
17 2455 2832
15 2447 2880
14 2438 2933
13 2428 2991
11 2418 3052
9 2407 3114
7 2397 3178
4 2386 3244
1 2375 3308
0 2365 3372
0 2355 3432
0 2347 3490
0 2339 3543
0 2332 3591
0 2325 3633
0 2320 3669
0 2316 3699
0 2311 3726
0 2307 3755
0 2305 3764
12 2614 2842
12 2612 2852
11 2609 2871
11 2604 2898
10 2598 2933
9 2591 2974
7 2584 3019
6 2575 3070
4 2566 3124
2 2556 3181
0 2546 3240
0 2536 3300
0 2526 3360
0 2516 3421
0 2507 3480
0 2498 3537
0 2489 3591
0 2481 3640
0 2474 3685
0 2468 3723
0 2462 3757
0 2458 3785
0 2457 3792
0 2456 3791
0 2455 3791
1 2743 2985
1 2742 2995
0 2739 3013
0 2735 3038
0 2729 3070
0 2723 3108
0 2716 3151
0 2708 3197
0 2700 3248
0 2691 3301
0 2682 3356
0 2673 3413
0 2663 3470
0 2654 3526
0 2645 3582
0 2636 3635
0 2627 3685
0 2619 3731
0 2612 3772
0 2606 3808
0 2604 3816
0 2604 3816
0 2603 3816
0 2603 3816
0 2603 3816
0 2871 3123
0 2869 3132
0 2867 3149
0 2863 3172
0 2858 3202
0 2852 3237
0 2845 3276
0 2838 3320
0 2831 3367
0 2822 3416
0 2814 3467
0 2805 3520
0 2796 3573
0 2786 3625
0 2777 3676
0 2769 3726
0 2761 3772
0 2753 3815
0 2749 3839
0 2748 3839
0 2748 3838
0 2748 3838
0 2747 3838
0 2747 3838
0 2746 3838
0 2992 3257
0 2991 3265
0 2988 3280
0 2985 3302
0 2980 3330
0 2974 3362
0 2968 3398
0 2961 3438
0 2954 3482
0 2946 3527
0 2938 3575
0 2930 3623
0 2921 3671
0 2913 3719
0 2905 3767
0 2897 3812
0 2889 3855
0 2888 3860
0 2887 3860
0 2886 3860
0 2886 3860
0 2886 3860
0 2885 3860
0 2885 3860
0 2884 3860
0 3108 3384
0 3107 3391
0 3105 3405
0 3102 3425
0 3097 3450
0 3092 3480
0 3086 3513
0 3080 3551
0 3073 3590
0 3065 3632
0 3058 3675
0 3050 3720
0 3042 3764
0 3034 3808
0 3027 3851
0 3021 3881
0 3021 3881
0 3020 3881
0 3020 3881
0 3019 3881
0 3019 3881
0 3018 3881
0 3018 3881
0 3018 3881
0 3017 3881
0 3222 3503
0 3221 3510
0 3219 3523
0 3216 3541
0 3212 3564
0 3207 3592
0 3201 3622
0 3196 3656
0 3189 3692
0 3182 3730
0 3175 3770
0 3168 3810
0 3160 3851
0 3153 3891
0 3150 3901
0 3150 3901
0 3149 3901
0 3149 3901
0 3148 3901
0 3148 3901
0 3148 3901
0 3147 3901
0 3147 3901
0 3147 3901
0 3146 3901
407 3308 3529
364 3302 3543
262 3285 3571
0 3253 3636
0 3252 3657
0 3252 3683
0 3252 3712
0 3252 3745
0 3252 3778
0 3253 3815
0 3255 3852
0 3256 3890
0 3258 3914
0 3258 3914
0 3258 3914
0 3258 3914
0 3258 3914
0 3258 3914
0 3258 3914
0 3258 3914
0 3258 3914
0 3258 3914
0 3258 3914
0 3258 3914
0 3258 3914
81 9 47
110 10 198
158 10 332
219 11 455
284 13 575
354 15 692
427 18 809
499 21 922
574 25 1037
650 28 1150
725 32 1259
805 37 1370
883 41 1478
959 45 1582
1027 50 1682
1092 54 1777
1153 57 1865
1209 60 1945
1259 63 2017
1304 65 2083
1340 66 2137
1374 67 2187
1401 69 2229
1431 70 2275
1469 71 2332
0 131 184
14 123 278
101 117 383
176 111 493
248 106 606
320 99 718
397 94 832
473 86 944
550 79 1056
628 70 1168
704 58 1276
785 46 1387
864 43 1491
939 47 1590
1008 51 1690
1074 55 1784
1136 58 1872
1193 62 1952
1245 64 2026
1289 66 2090
1326 67 2146
1358 68 2194
1388 70 2237
1417 71 2282
1455 72 2339
0 261 344
0 253 405
0 246 495
0 241 577
128 232 675
229 227 781
317 221 884
403 216 989
488 213 1096
571 209 1202
652 205 1308
735 201 1412
815 195 1514
892 191 1615
963 188 1713
1030 183 1805
1093 178 1892
1151 175 1972
1203 171 2046
1248 166 2111
1287 163 2166
1319 159 2214
1348 156 2257
1378 152 2301
1416 146 2359
0 394 498
0 388 542
0 380 617
0 373 707
0 366 788
0 360 867
161 351 964
279 345 1062
383 342 1161
478 339 1261
571 336 1362
657 333 1461
744 330 1560
822 327 1654
897 324 1748
967 320 1834
1033 317 1918
1092 314 1995
1146 312 2067
1192 310 2130
1231 307 2184
1265 305 2232
1294 303 2271
1326 302 2314
1364 298 2369
0 530 651
0 526 687
0 519 750
0 511 830
0 502 920
0 495 1002
0 489 1078
0 483 1158
202 474 1248
335 469 1342
447 466 1434
550 463 1528
643 460 1621
729 458 1712
809 455 1800
884 453 1884
953 451 1964
1016 448 2038
1071 446 2107
1120 443 2168
1160 440 2218
1195 439 2264
1225 437 2305
1257 436 2348
1297 433 2400
0 673 803
0 670 835
0 663 890
0 655 961
0 645 1042
0 637 1133
0 629 1218
0 622 1291
0 616 1368
6 610 1446
246 604 1529
386 601 1616
502 599 1703
603 597 1789
694 596 1871
778 594 1951
852 592 2028
920 589 2100
978 588 2166
1029 587 2225
1071 585 2276
1107 583 2319
1140 581 2359
1173 579 2400
1214 576 2451
0 820 959
0 816 986
0 810 1034
0 802 1098
0 793 1174
0 783 1257
0 774 1345
0 766 1436
1 758 1506
8 752 1578
17 746 1652
26 739 1731
277 738 1800
421 736 1880
537 737 1959
636 736 2035
722 735 2108
797 735 2177
861 734 2240
916 733 2296
962 731 2344
1001 730 2387
1035 729 2426
1070 728 2466
1115 726 2517
0 969 1119
0 966 1142
0 960 1186
0 953 1245
0 943 1314
0 933 1392
0 924 1476
0 914 1563
5 905 1653
11 898 1722
19 891 1791
27 885 1861
35 880 1931
43 874 1999
286 872 2063
432 875 2134
544 875 2205
635 875 2272
711 877 2334
774 877 2388
825 876 2434
868 875 2474
907 875 2510
945 873 2548
993 874 2596
0 1120 1279
0 1117 1300
0 1112 1340
0 1105 1393
0 1095 1458
0 1086 1531
0 1076 1609
0 1065 1692
7 1057 1778
14 1047 1865
22 1040 1936
28 1033 2000
36 1026 2066
43 1020 2134
50 1014 2201
56 1009 2268
255 1008 2325
400 1011 2385
504 1013 2441
585 1015 2493
649 1015 2537
700 1016 2576
745 1017 2611
789 1018 2648
844 1018 2695
0 1272 1441
0 1269 1460
0 1264 1496
0 1257 1545
0 1249 1605
0 1239 1673
0 1228 1746
4 1218 1825
9 1208 1906
16 1199 1987
23 1189 2069
30 1182 2145
36 1174 2209
42 1168 2275
48 1162 2342
54 1157 2406
59 1152 2468
63 1147 2525
99 1143 2583
283 1147 2613
387 1151 2654
462 1155 2690
523 1156 2723
581 1156 2757
650 1158 2800
3 1428 1603
3 1425 1620
2 1421 1653
2 1413 1699
2 1405 1754
3 1396 1818
5 1385 1886
8 1374 1959
13 1364 2035
18 1353 2112
24 1344 2195
30 1334 2280
37 1326 2361
42 1318 2424
46 1312 2488
51 1305 2550
54 1299 2609
58 1294 2664
60 1289 2715
63 1286 2760
64 1282 2798
66 1279 2831
73 1275 2870
237 1283 2878
356 1288 2916
