Creative/Split Oranges and Blues.3dl
#25pt 3DLUT created by 3D LUT Creator Pro (c) Oleg Sharonov
#Copyright Oleg Sharonov
#IMAGEPROFILE sRGB IEC61966-2.1 v.2.10
#INPUTGAMMA sRGB IEC61966-2.1 v.2.10
#OUTPUTGAMMA sRGB IEC61966-2.1 v.2.10
0 128 256 384 512 640 768 896 1023
0 10 47
183 12 464
399 18 808
631 29 1150
866 42 1477
1077 54 1776
1248 64 2019
1361 68 2187
1457 71 2333
0 394 504
0 373 710
112 352 966
453 338 1263
725 330 1560
953 321 1837
1132 312 2067
1253 306 2232
1352 298 2369
0 819 963
0 802 1101
0 774 1348
9 753 1581
239 736 1803
616 735 2036
846 733 2240
987 729 2389
1101 726 2518
0 1271 1443
0 1257 1548
0 1228 1749
16 1198 1989
36 1174 2211
54 1156 2407
67 1143 2580
437 1153 2693
631 1156 2802
17 1745 1919
15 1732 2000
16 1705 2162
22 1672 2377
33 1640 2619
41 1614 2847
44 1596 2998
45 1584 3106
43 1572 3199
26 2195 2382
25 2184 2449
23 2161 2594
22 2131 2785
21 2100 2998
16 2069 3210
7 2044 3389
0 2029 3499
0 2018 3577
12 2614 2842
11 2604 2898
7 2584 3019
2 2556 3181
0 2526 3360
0 2498 3537
0 2474 3685
0 2458 3785
0 2455 3791
0 2992 3257
0 2985 3302
0 2968 3398
0 2946 3527
0 2921 3671
0 2897 3812
0 2887 3860
0 2886 3860
0 2884 3860
407 3308 3529
0 3253 3636
0 3252 3712
0 3253 3815
0 3258 3914
0 3258 3914
0 3258 3914
0 3258 3914
0 3258 3914
422 12 52
498 15 398
631 15 792
816 24 1140
1022 36 1471
1216 49 1772
1372 58 2013
1479 63 2182
1570 67 2329
0 399 440
225 373 660
450 354 942
668 340 1246
896 330 1547
1097 320 1827
1263 312 2063
1373 304 2222
1466 296 2364
0 823 929
0 805 1074
0 775 1326
6 753 1556
524 747 1783
796 744 2021
994 739 2230
1121 735 2379
1227 730 2509
0 1275 1420
0 1259 1526
0 1230 1731
15 1199 1975
35 1175 2193
52 1157 2390
438 1164 2544
652 1167 2671
802 1170 2785
17 1747 1901
15 1734 1984
16 1707 2147
22 1673 2364
32 1641 2608
41 1615 2831
44 1596 2984
45 1584 3092
44 1573 3186
27 2197 2367
25 2186 2435
23 2163 2581
22 2133 2773
21 2101 2988
17 2070 3200
8 2045 3380
0 2029 3488
0 2018 3566
13 2616 2829
11 2606 2887
7 2585 3009
2 2557 3171
0 2527 3352
0 2499 3529
0 2475 3678
0 2459 3778
0 2455 3791
0 2993 3247
0 2986 3293
0 2969 3390
0 2947 3519
0 2922 3664
0 2897 3806
0 2887 3860
0 2886 3860
0 2884 3860
448 3314 3515
123 3264 3603
0 3252 3705
0 3252 3808
0 3258 3914
0 3258 3914
0 3258 3914
0 3258 3914
0 3258 3914
954 22 72
1000 23 75
1118 35 658
1257 29 1079
1422 32 1435
1578 41 1745
1696 48 1989
1782 53 2161
1858 57 2309
830 386 77
905 378 482
1005 363 857
1145 347 1199
1311 334 1518
1466 321 1806
1598 309 2042
1687 300 2205
1765 291 2346
166 843 806
342 822 962
597 799 1228
832 785 1475
1025 772 1736
1208 763 1987
1359 756 2201
1461 750 2350
1549 744 2478
0 1282 1348
0 1266 1464
0 1235 1680
12 1203 1934
275 1192 2115
749 1207 2305
956 1205 2496
1088 1207 2632
1197 1205 2748
18 1754 1848
16 1740 1935
15 1713 2106
20 1677 2327
31 1644 2574
40 1618 2788
44 1599 2944
45 1586 3053
477 1617 3102
28 2203 2324
26 2191 2395
23 2167 2543
22 2137 2740
21 2104 2958
17 2073 3174
9 2047 3356
3 2032 3455
0 2021 3535
14 2620 2793
12 2611 2852
8 2590 2977
3 2561 3143
0 2530 3327
0 2501 3507
0 2477 3658
0 2461 3760
0 2455 3791
0 2997 3219
0 2990 3266
0 2973 3364
0 2951 3497
0 2925 3645
0 2900 3788
0 2886 3860
0 2885 3860
0 2884 3860
548 3332 3479
360 3301 3544
0 3252 3686
0 3252 3791
0 3258 3907
0 3258 3914
0 3258 3914
0 3258 3914
0 3258 3914
1512 41 107
1545 42 110
1619 45 115
1774 62 901
1902 51 1328
2028 47 1668
2123 48 1931
2194 49 2106
2260 50 2258
1425 386 135
1460 382 138
1578 370 602
1695 356 1059
1819 337 1428
1937 320 1741
2037 305 1985
2110 295 2153
2177 285 2298
1220 857 574
1266 850 813
1351 840 1096
1471 824 1385
1603 808 1670
1721 788 1931
1831 775 2151
1911 765 2304
1984 759 2440
413 1331 1183
532 1322 1309
749 1307 1540
991 1290 1796
1219 1283 2014
1379 1274 2239
1513 1265 2437
1607 1260 2577
1688 1256 2701
22 1766 1760
18 1751 1854
15 1722 2038
18 1684 2266
28 1648 2521
613 1686 2654
932 1702 2805
1123 1713 2926
1231 1713 3036
30 2213 2255
28 2201 2329
24 2175 2482
22 2143 2686
21 2109 2911
19 2077 3131
12 2052 3308
7 2038 3402
0 2025 3484
16 2629 2736
14 2619 2797
10 2597 2926
5 2568 3097
0 2535 3287
0 2506 3472
0 2481 3626
0 2464 3730
0 2454 3791
0 3004 3174
0 2996 3222
0 2979 3324
0 2956 3461
0 2929 3613
0 2904 3760
0 2886 3860
0 2884 3860
0 2883 3860
663 3355 3428
538 3330 3483
0 3252 3653
0 3252 3762
0 3256 3883
0 3258 3914
0 3258 3914
0 3258 3914
0 3258 3914
2095 64 151
2121 65 152
2178 68 157
2288 90 473
2419 86 1106
2535 70 1514
2623 59 1809
2684 55 1998
2739 52 2159
2027 384 188
2054 381 190
2113 376 194
2245 360 756
2360 342 1235
2468 320 1600
2549 298 1873
2611 277 2049
2666 269 2203
1856 872 154
1902 868 242
1991 865 809
2082 855 1199
2189 837 1535
2285 816 1829
2374 800 2062
2438 788 2224
2497 779 2365
1578 1414 954
1627 1407 1117
1711 1394 1401
1806 1379 1653
1903 1356 1906
2012 1343 2153
2112 1331 2365
2185 1321 2512
2252 1314 2641
729 1872 1547
816 1870 1648
979 1858 1845
1181 1844 2084
1400 1836 2336
1611 1837 2541
1730 1830 2730
1814 1823 2862
1890 1819 2980
35 2227 2155
31 2214 2232
26 2187 2395
22 2153 2609
22 2117 2843
587 2171 2995
915 2200 3140
1109 2219 3242
1263 2234 3338
19 2641 2652
17 2630 2717
12 2607 2853
7 2577 3032
0 2543 3230
0 2512 3422
0 2486 3581
0 2469 3688
0 2455 3774
0 3013 3108
0 3005 3159
0 2987 3266
0 2963 3409
0 2936 3567
0 2909 3721
0 2887 3847
0 2884 3860
0 2882 3859
787 3378 3361
697 3361 3413
356 3300 3545
0 3252 3721
0 3254 3846
0 3258 3914
0 3258 3914
0 3258 3914
0 3258 3914
2723 84 189
2743 85 190
2788 86 192
2853 87 194
2961 104 641
3076 89 1230
3163 71 1590
3222 59 1809
3270 50 1986
2668 355 223
2688 349 224
2734 341 225
2799 333 226
2926 300 858
3026 277 1340
3108 261 1667
3163 253 1872
3209 249 2041
2534 896 208
2556 895 209
2604 891 211
2708 869 783
2800 849 1259
2892 824 1620
2970 800 1888
3023 782 2065
3071 768 2217
2348 1458 493
2382 1455 771
2438 1449 1079
2515 1440 1401
2603 1423 1710
2688 1403 1986
2767 1386 2218
2827 1375 2380
2881 1367 2519
1987 2020 1288
2028 2017 1416
2116 2012 1659
2200 1990 1944
2290 1977 2172
2389 1965 2406
2479 1955 2611
2547 1948 2755
2608 1942 2880
1191 2450 1879
1249 2445 1959
1370 2441 2124
1532 2435 2355
1705 2424 2613
1884 2424 2859
2051 2437 3038
2148 2441 3168
2215 2440 3284
24 2658 2527
21 2647 2598
16 2623 2745
10 2591 2937
423 2639 3075
841 2697 3251
1114 2732 3426
1287 2756 3555
1432 2783 3651
0 3026 3011
0 3018 3065
0 2999 3180
0 2974 3333
0 2945 3501
0 2917 3663
0 2894 3796
0 2882 3859
0 2881 3859
913 3407 3267
846 3391 3319
648 3352 3437
0 3252 3661
0 3252 3794
0 3258 3914
0 3258 3914
0 3258 3914
0 3258 3914
3412 83 194
3427 83 193
3461 82 192
3510 65 190
3571 43 186
3659 41 543
3753 30 1150
3811 20 1446
3852 44 1659
3364 324 215
3380 321 214
3415 314 212
3464 305 208
3525 279 203
3630 222 788
3711 170 1270
3764 134 1531
3807 110 1732
3253 882 205
3269 879 204
3304 872 201
3356 862 198
3444 827 617
3537 782 1203
3611 740 1557
3662 711 1772
3703 687 1942
3095 1490 173
3111 1489 172
3148 1486 171
3234 1463 827
3315 1446 1294
3399 1426 1660
3470 1402 1937
3516 1373 2117
3560 1348 2272
2898 2100 785
2924 2095 980
2971 2087 1290
3038 2081 1573
3119 2067 1861
3198 2051 2135
3271 2038 2372
3324 2029 2539
3369 2022 2683
2558 2669 1528
2593 2668 1637
2660 2663 1855
2749 2651 2127
2833 2639 2418
2923 2634 2653
3006 2629 2860
3068 2627 3007
3125 2625 3136
1858 3085 2128
1897 3085 2206
1985 3085 2376
2108 3087 2602
2256 3094 2864
2415 3109 3135
2548 3117 3357
2642 3120 3491
2720 3122 3612
321 3104 2788
459 3122 2828
693 3152 2929
950 3188 3078
1217 3227 3263
1463 3267 3467
1665 3305 3658
1801 3335 3803
1921 3362 3888
1050 3438 3131
1001 3426 3184
871 3397 3302
553 3333 3476
0 3252 3714
0 3254 3853
0 3258 3914
0 3258 3914
415 3322 3871
3755 804 1063
3755 804 1063
3755 804 1063
3755 804 1063
3755 804 1063
3755 804 1063
3755 804 1063
3760 792 1127
3772 752 1297
3754 861 1068
3754 860 1068
3754 857 1068
3754 853 1067
3754 849 1067
3754 843 1067
3754 839 1066
3764 806 1211
3779 759 1386
3750 1157 1100
3750 1156 1099
3750 1151 1098
3750 1146 1098
3750 1139 1097
3750 1131 1096
3762 1092 1256
3780 1044 1443
3794 997 1608
3745 1659 1172
3745 1657 1171
3745 1654 1171
3745 1648 1170
3745 1641 1168
3768 1604 1375
3795 1552 1615
3813 1508 1786
3824 1463 1931
3689 2100 669
3696 2114 794
3711 2146 995
3742 2187 1315
3782 2188 1597
3817 2152 1834
3842 2110 2044
3857 2074 2198
3870 2040 2338
3533 2755 905
3557 2747 1075
3609 2729 1386
3677 2706 1674
3754 2679 1958
3830 2651 2237
3895 2631 2484
3916 2637 2665
3930 2649 2820
3263 3342 1669
3292 3345 1770
3354 3351 1976
3422 3352 2255
3503 3339 2581
3582 3314 2856
3655 3295 3072
3707 3281 3226
3750 3267 3361
2718 3636 2285
2750 3642 2363
2820 3657 2530
2922 3673 2763
3047 3694 3037
3170 3715 3328
3262 3724 3593
3333 3735 3763
3399 3748 3879
2040 3665 2890
2066 3670 2942
2126 3681 3056
2211 3700 3222
2298 3715 3428
2389 3737 3655
2526 3777 3867
2630 3804 3952
2726 3824 3961
3755 804 1063
3755 804 1063
3755 804 1063
3755 804 1063
3755 804 1063
3755 804 1063
3755 804 1063
3755 804 1063
3755 804 1063
3754 852 1067
3754 852 1067
3754 849 1067
3754 845 1067
3754 840 1066
3754 836 1066
3755 831 1065
3755 828 1065
3755 825 1065
3750 1145 1098
3750 1144 1098
3750 1140 1097
3750 1134 1097
3750 1126 1096
3750 1118 1094
3750 1111 1094
3750 1106 1093
3753 1093 1135
3745 1647 1170
3745 1645 1169
3745 1642 1168
3745 1637 1168
3745 1630 1167
3745 1623 1166
3746 1614 1176
3763 1587 1330
3781 1554 1491
3737 2221 1286
3737 2220 1286
3737 2217 1285
3737 2212 1284
3737 2207 1283
3755 2191 1407
3787 2162 1629
3812 2136 1793
3831 2110 1936
3730 2804 1454
3730 2803 1454
3730 2800 1453
3746 2792 1550
3778 2779 1739
3816 2761 1954
3847 2738 2153
3870 2719 2302
3890 2700 2438
3762 3365 1816
3771 3365 1869
3793 3363 1991
3822 3358 2163
3855 3349 2345
3893 3338 2549
3926 3324 2737
3947 3312 2876
3963 3299 3002
3832 3805 2274
3851 3804 2388
3871 3806 2510
3901 3807 2686
3937 3807 2910
3974 3804 3153
4000 3800 3326
4018 3796 3454
4032 3791 3571
3517 3946 2735
3541 3953 2788
3595 3968 2909
3673 3991 3084
3766 4016 3303
3865 4041 3544
3958 4063 3769
4030 4080 3939
4095 4095 4095
