Creative/Split Oranges and Blues.3dl
#25pt 3DLUT created by 3D LUT Creator Pro (c) Oleg Sharonov
#Copyright Oleg Sharonov
#IMAGEPROFILE sRGB IEC61966-2.1 v.2.10
#INPUTGAMMA sRGB IEC61966-2.1 v.2.10
#OUTPUTGAMMA sRGB IEC61966-2.1 v.2.10
0 256 512 768 1023
0 10 47
399 18 808
866 42 1477
1248 64 2019
1457 71 2333
0 819 963
0 774 1348
239 736 1803
846 733 2240
1101 726 2518
17 1745 1919
16 1705 2162
33 1640 2619
44 1596 2998
43 1572 3199
12 2614 2842
7 2584 3019
0 2526 3360
0 2474 3685
0 2455 3791
407 3308 3529
0 3252 3712
0 3258 3914
0 3258 3914
0 3258 3914
954 22 72
1118 35 658
1422 32 1435
1696 48 1989
1858 57 2309
166 843 806
597 799 1228
1025 772 1736
1359 756 2201
1549 744 2478
18 1754 1848
15 1713 2106
31 1644 2574
44 1599 2944
477 1617 3102
14 2620 2793
8 2590 2977
0 2530 3327
0 2477 3658
0 2455 3791
548 3332 3479
0 3252 3686
0 3258 3907
0 3258 3914
0 3258 3914
2095 64 151
2178 68 157
2419 86 1106
2623 59 1809
2739 52 2159
1856 872 154
1991 865 809
2189 837 1535
2374 800 2062
2497 779 2365
729 1872 1547
979 1858 1845
1400 1836 2336
1730 1830 2730
1890 1819 2980
19 2641 2652
12 2607 2853
0 2543 3230
0 2486 3581
0 2455 3774
787 3378 3361
356 3300 3545
0 3254 3846
0 3258 3914
0 3258 3914
3412 83 194
3461 82 192
3571 43 186
3753 30 1150
3852 44 1659
3253 882 205
3304 872 201
3444 827 617
3611 740 1557
3703 687 1942
2898 2100 785
2971 2087 1290
3119 2067 1861
3271 2038 2372
3369 2022 2683
1858 3085 2128
1985 3085 2376
2256 3094 2864
2548 3117 3357
2720 3122 3612
1050 3438 3131
871 3397 3302
0 3252 3714
0 3258 3914
415 3322 3871
3755 804 1063
3755 804 1063
3755 804 1063
3755 804 1063
3755 804 1063
3750 1145 1098
3750 1140 1097
3750 1126 1096
3750 1111 1094
3753 1093 1135
3737 2221 1286
3737 2217 1285
3737 2207 1283
3787 2162 1629
3831 2110 1936
3762 3365 1816
3793 3363 1991
3855 3349 2345
3926 3324 2737
3963 3299 3002
3517 3946 2735
3595 3968 2909
3766 4016 3303
3958 4063 3769
4095 4095 4095
