Creative/squize_magenta_green_via_AB_rgbw.3dl
#25pt 3DLUT created by 3D LUT Creator Pro (c) Oleg Sharonov
#Copyright Oleg Sharonov
0 256 512 768 1023
0 0 0
0 539 1068
0 1078 2140
0 1490 3194
0 2152 4095
0 881 175
0 974 1086
0 1309 2070
0 1750 3130
0 2341 4095
0 1657 483
0 1755 1388
0 1895 2238
0 2085 3174
0 2276 4095
0 2399 836
0 2535 1693
0 2677 2538
0 2826 3378
0 2958 4095
0 3087 1257
0 3258 2067
0 3434 2877
0 3612 3674
0 3783 4095
1006 180 0
287 0 351
0 252 1133
0 738 2194
1 1279 3264
1024 1024 0
1024 1024 1024
1024 1563 2093
1024 2038 3156
1024 2637 4095
781 1606 0
1024 1887 1220
1024 1989 2120
1024 2305 3107
1024 2814 4095
422 1983 0
1024 2640 1560
1024 2759 2437
1024 2908 3275
1024 3023 4095
21 2288 1
1024 3339 1966
1024 3517 2769
1024 3692 3576
1024 3861 4095
2015 362 0
1114 0 171
575 0 700
71 0 1261
1 405 2252
2047 1024 0
2030 1204 1024
1311 1024 1375
1024 1270 2155
1024 1764 3218
2047 2047 0
2048 2047 1024
2048 2048 2048
2048 2587 3118
2048 3123 4095
1734 2506 0
1759 2549 1024
2048 2876 2289
2048 2995 3167
2048 3185 4095
1323 2792 1
1364 2864 1024
2048 3591 2676
2048 3764 3486
2048 3939 4095
3046 275 0
2054 0 94
1404 0 523
889 0 1074
399 1 1648
3071 1024 0
3049 1271 1024
2139 1024 1195
1612 1024 1735
1122 1024 2310
3071 2047 0
3071 2047 1024
3055 2229 2048
2335 2048 2397
2048 2250 3173
3071 3071 0
3071 3071 1024
3071 3071 2048
3071 3071 3071
3071 3609 4095
2688 3407 1
2695 3419 1024
2709 3443 2048
3071 3843 3385
3071 4017 4095
4052 457 0
2969 79 0
2233 0 344
1694 0 873
1182 1 1427
4087 1106 0
4063 1367 1024
3001 1024 1047
2429 1024 1546
1910 1024 2094
4089 2107 0
4089 2107 1024
4073 2276 2048
3164 2048 2220
2638 2048 2761
4095 3071 0
4095 3071 1024
4092 3101 2048
4084 3186 3071
3367 3071 3428
4095 4095 1
4095 4095 1024
4095 4095 2048
4095 4095 3071
4095 4095 4095
