Creative/squize_magenta_green_via_AB_rgbw.3dl
#25pt 3DLUT created by 3D LUT Creator Pro (c) Oleg Sharonov
#Copyright Oleg Sharonov
0 128 256 384 512 640 768 896 1023
0 0 0
0 270 534
0 539 1068
0 809 1604
0 1078 2140
0 1284 2667
0 1490 3194
0 1821 3736
0 2152 4095
0 452 73
0 487 543
0 683 1038
0 924 1569
0 1173 2102
0 1414 2635
0 1622 3163
0 1915 3699
0 2264 4095
0 881 175
0 905 658
0 974 1086
0 1096 1542
0 1309 2070
0 1537 2600
0 1750 3130
0 1960 3659
0 2341 4095
0 1283 310
0 1318 780
0 1370 1229
0 1439 1656
0 1499 2092
0 1696 2612
0 1829 3100
0 2026 3623
0 2402 4095
0 1657 483
0 1712 928
0 1755 1388
0 1826 1812
0 1895 2238
0 1947 2684
0 2085 3174
0 2137 3622
0 2276 4095
0 2031 656
0 2093 1092
0 2147 1537
0 2214 1966
0 2285 2390
0 2354 2816
0 2406 3262
0 2466 3700
0 2518 4095
0 2399 836
0 2457 1275
0 2535 1693
0 2594 2133
0 2677 2538
0 2750 2959
0 2826 3378
0 2882 3818
0 2958 4095
0 2743 1044
0 2819 1462
0 2897 1879
0 2975 2297
0 3056 2707
0 3139 3113
0 3219 3524
0 3295 3942
0 3372 4095
0 3087 1257
0 3182 1649
0 3258 2067
0 3356 2459
0 3434 2877
0 3529 3268
0 3612 3674
0 3708 4066
0 3783 4095
503 90 0
144 0 176
0 126 566
0 395 1101
0 665 1637
0 903 2167
0 1114 2694
1 1390 3229
1 1716 3771
512 512 0
512 512 512
512 781 1046
512 1051 1580
512 1320 2116
512 1558 2648
512 1764 3175
512 2063 3713
512 2394 4095
425 865 0
512 964 585
512 999 1055
512 1195 1550
512 1422 2079
512 1685 2614
512 1896 3144
512 2146 3675
512 2507 4095
298 1146 0
512 1384 696
512 1417 1170
512 1485 1597
512 1594 2052
512 1806 2580
512 2020 3109
512 2233 3640
512 2572 4095
149 1390 0
512 1775 848
512 1821 1304
512 1873 1753
512 1942 2179
512 1998 2620
512 2195 3140
512 2272 3601
512 2566 4095
0 1616 24
512 2150 1020
512 2203 1466
512 2257 1912
512 2328 2336
512 2394 2766
512 2446 3212
512 2504 3662
512 2556 4095
0 1977 212
512 2521 1195
512 2581 1633
512 2650 2062
512 2718 2488
512 2793 2906
512 2867 3326
512 2921 3770
512 2993 4095
1 2323 418
512 2868 1400
512 2943 1819
512 3020 2238
512 3096 2658
512 3179 3063
512 3260 3473
512 3335 3892
512 3410 4095
1 2668 630
512 3213 1611
512 3306 2007
512 3387 2418
512 3477 2820
512 3565 3224
512 3652 3625
512 3745 4019
512 3822 4095
1006 180 0
557 0 87
287 0 351
18 0 616
0 252 1133
0 522 1667
0 738 2194
1 958 2722
1 1279 3264
1024 512 0
1015 602 512
656 512 688
512 638 1078
512 907 1614
512 1177 2148
512 1384 2675
512 1632 3206
512 1958 3748
1024 1024 0
1024 1024 512
1024 1024 1024
1024 1293 1558
1024 1563 2093
1024 1832 2629
1024 2038 3156
1024 2306 3690
1024 2637 4095
917 1341 0
927 1359 512
1024 1476 1097
1024 1511 1567
1024 1706 2062
1024 1927 2591
1024 2168 3124
1024 2376 3652
1024 2750 4095
781 1606 0
801 1642 512
1024 1887 1220
1024 1920 1693
1024 1989 2120
1024 2092 2579
1024 2305 3107
1024 2481 3618
1024 2814 4095
618 1826 0
641 1868 512
1024 2267 1386
1024 2321 1831
1024 2375 2277
1024 2445 2702
1024 2497 3148
1024 2614 3628
1024 2730 4095
422 1983 0
512 2096 575
1024 2640 1560
1024 2705 1992
1024 2759 2437
1024 2836 2852
1024 2908 3275
1024 2960 3721
1024 3023 4095
224 2140 1
512 2449 772
1024 2994 1755
1024 3066 2178
1024 3144 2596
1024 3221 3013
1024 3301 3422
1024 3377 3840
1024 3449 4095
21 2288 1
512 2795 982
1024 3339 1966
1024 3429 2365
1024 3517 2769
1024 3599 3181
1024 3692 3576
1024 3781 3974
1024 3861 4095
1510 271 0
974 4 0
701 0 261
431 0 526
162 0 791
0 106 1163
0 339 1693
1 561 2221
1 842 2758
1536 512 0
1518 691 512
1069 512 599
799 512 863
530 512 1128
512 764 1644
512 1008 2175
512 1228 2703
512 1521 3241
1536 1024 0
1536 1024 512
1527 1114 1024
1167 1024 1199
1024 1150 1590
1024 1419 2125
1024 1657 2656
1024 1875 3183
1024 2201 3725
1536 1536 0
1536 1536 512
1536 1536 1024
1536 1536 1536
1536 1805 2070
1536 2075 2605
1536 2312 3137
1536 2549 3667
1536 2880 4095
1414 1827 0
1429 1853 512
1429 1853 1024
1536 1984 1613
1536 2022 2078
1536 2204 2572
1536 2439 3103
1536 2651 3633
1536 2987 4095
1253 2048 0
1273 2083 512
1293 2120 1024
1536 2384 1751
1536 2422 2217
1536 2492 2643
1536 2591 3107
1536 2727 3596
1536 3021 4095
1076 2241 0
1090 2266 512
1117 2316 1024
1536 2758 1924
1536 2815 2366
1536 2879 2799
1536 2947 3226
1536 2999 3672
1536 3054 4095
879 2400 1
894 2425 512
1024 2576 1127
1536 3120 2110
1536 3191 2536
1536 3262 2962
1536 3344 3368
1536 3419 3788
1536 3488 4095
668 2532 1
693 2577 512
1024 2923 1334
1536 3465 2321
1536 3553 2723
1536 3643 3125
1536 3730 3529
1536 3817 3929
1536 3900 4095
2015 362 0
1479 96 0
1114 0 171
844 0 435
575 0 700
316 0 975
71 0 1261
1 161 1721
1 405 2252
2045 536 0
2023 783 512
1487 516 512
1213 512 773
943 512 1037
674 512 1302
512 600 1673
512 822 2201
512 1084 2735
2047 1024 0
2048 1024 512
2030 1204 1024
1581 1024 1110
1311 1024 1375
1042 1024 1639
1024 1270 2155
1024 1490 2683
1024 1764 3218
2047 1536 0
2048 1536 512
2048 1536 1024
2039 1625 1536
1679 1536 1711
1536 1661 2102
1536 1931 2637
1536 2145 3164
1536 2444 3702
2047 2047 0
2048 2047 512
2048 2047 1024
2048 2047 1536
2048 2048 2048
2048 2317 2582
2048 2587 3118
2048 2792 3644
2048 3123 4095
1906 2303 0
1906 2303 512
1926 2339 1024
1941 2365 1536
2048 2488 2135
2048 2534 2590
2048 2702 3082
2048 2922 3613
2048 3218 4095
1734 2506 0
1745 2524 512
1759 2549 1024
1786 2598 1536
2048 2876 2289
2048 2925 2741
2048 2995 3167
2048 3090 3634
2048 3185 4095
1543 2675 1
1558 2700 512
1572 2726 1024
1590 2756 1536
2048 3247 2465
2048 3315 2894
2048 3386 3317
2048 3460 3736
2048 3527 4095
1323 2792 1
1338 2817 512
1364 2864 1024
1536 3052 1685
2048 3591 2676
2048 3676 3081
2048 3764 3486
2048 3854 3884
2048 3939 4095
2526 371 0
1986 152 0
1565 0 114
1258 0 346
989 0 611
731 0 886
486 0 1173
241 1 1460
1 4 1751
2549 627 0
2527 874 512
1991 608 512
1626 512 682
1356 512 947
1092 512 1216
846 512 1503
602 512 1791
512 666 2232
2559 1024 0
2557 1048 512
2535 1295 1024
1999 1029 1024
1724 1024 1284
1455 1024 1549
1200 1024 1826
1024 1083 2181
1024 1327 2712
2559 1536 0
2559 1536 512
2559 1536 1024
2543 1716 1536
2093 1536 1622
1823 1536 1886
1554 1536 2151
1536 1751 2663
1536 2007 3196
2559 2047 0
2559 2047 512
2559 2047 1024
2559 2047 1536
2551 2137 2048
2191 2048 2223
2048 2173 2614
2048 2416 3145
2048 2686 3679
2559 2559 0
2559 2559 512
2559 2559 1024
2559 2559 1536
2559 2559 2048
2559 2559 2559
2559 2829 3094
2559 3067 3625
2559 3366 4095
2403 2789 0
2413 2807 512
2418 2815 1024
2418 2815 1536
2438 2851 2048
2559 2991 2658
2559 3042 3107
2559 3200 3601
2559 3455 4095
2204 2945 1
2215 2964 512
2229 2988 1024
2244 3014 1536
2258 3039 2048
2559 3367 2827
2559 3427 3266
2559 3502 3685
2559 3559 4095
2002 3093 1
2009 3105 512
2016 3117 1024
2033 3147 1536
2058 3192 2048
2559 3717 3030
2559 3806 3432
2559 3893 3836
2559 3978 4095
3046 275 0
2498 152 0
2054 0 94
1674 0 258
1404 0 523
1135 0 787
889 0 1074
643 1 1361
399 1 1648
3060 636 0
3048 771 512
2503 612 512
2096 512 645
1771 512 859
1502 512 1123
1250 512 1405
1004 512 1691
761 512 1979
3071 1024 0
3061 1139 512
3049 1271 1024
2507 1071 1024
2139 1024 1195
1869 1024 1460
1612 1024 1735
1366 1024 2022
1122 1024 2310
3069 1556 0
3071 1536 512
3069 1560 1024
3049 1783 1536
2517 1536 1540
2236 1536 1796
1973 1536 2066
1727 1536 2352
1536 1588 2692
3071 2047 0
3071 2047 512
3071 2047 1024
3071 2047 1536
3055 2229 2048
2604 2048 2133
2335 2048 2397
2083 2048 2678
2048 2250 3173
3071 2559 0
3071 2559 512
3071 2559 1024
3071 2559 1536
3071 2559 2048
3063 2649 2559
2703 2559 2735
2559 2682 3125
2559 2929 3656
3071 3071 0
3071 3071 512
3071 3071 1024
3071 3071 1536
3071 3071 2048
3071 3071 2559
3071 3071 3071
3071 3341 3606
3071 3609 4095
2894 3264 1
2894 3264 512
2894 3264 1024
2904 3282 1536
2915 3301 2048
2927 3322 2559
3071 3486 3192
3071 3545 3631
3071 3640 4095
2688 3407 1
2688 3407 512
2695 3419 1024
2702 3431 1536
2709 3443 2048
2730 3480 2559
3071 3843 3385
3071 3930 3790
3071 4017 4095
3562 225 0
3013 102 0
2518 0 50
2137 0 214
1819 0 435
1550 0 699
1292 0 975
1046 1 1262
799 1 1547
3583 512 0
3566 699 512
3017 576 512
2567 512 607
2187 512 771
1917 512 1036
1654 512 1306
1408 512 1592
1162 512 1879
3580 1058 0
3583 1024 512
3567 1194 1024
3019 1071 1024
2610 1024 1158
2284 1024 1372
2015 1024 1636
1769 1024 1923
1524 1024 2210
3579 1576 0
3581 1556 512
3583 1536 1024
3569 1690 1536
3028 1536 1541
2652 1536 1708
2382 1536 1973
2130 1536 2254
1885 1536 2541
3581 2072 0
3580 2082 512
3581 2068 1024
3583 2047 1536
3571 2185 2048
3075 2048 2095
2750 2048 2309
2492 2048 2584
2247 2048 2871
3583 2559 0
3583 2559 512
3582 2569 1024
3581 2579 1536
3583 2559 2048
3572 2683 2559
3117 2559 2645
2853 2559 2915
2609 2559 3202
3583 3071 0
3583 3071 512
3583 3071 1024
3583 3071 1536
3583 3071 2048
3583 3071 2559
3575 3162 3071
3215 3071 3246
3071 3172 3634
3583 3583 1
3583 3583 512
3583 3583 1024
3583 3583 1536
3583 3583 2048
3583 3583 2559
3583 3583 3071
3583 3583 3583
3583 3852 4095
3392 3751 1
3392 3751 512
3392 3751 1024
3392 3751 1536
3392 3751 2048
3395 3757 2559
3402 3769 3071
3583 3969 3740
3583 4056 4095
4052 457 0
3503 334 0
2969 79 0
2510 0 85
2233 0 344
1963 0 609
1694 0 873
1448 1 1160
1182 1 1427
4090 563 0
4057 912 512
3510 780 512
2974 540 512
2600 512 680
2331 512 945
2061 512 1210
1809 512 1491
1546 512 1761
4087 1106 0
4091 1065 512
4063 1367 1024
3517 1216 1024
3001 1024 1047
2698 1024 1282
2429 1024 1546
2171 1024 1822
1910 1024 2094
4088 1610 0
4088 1610 512
4091 1577 1024
4068 1821 1536
3525 1651 1536
3066 1536 1617
2796 1536 1883
2533 1536 2153
2274 1536 2427
4089 2107 0
4089 2109 512
4089 2107 1024
4091 2088 1536
4073 2276 2048
3532 2087 2048
3164 2048 2220
2894 2048 2484
2638 2048 2761
4095 2563 0
4093 2584 512
4091 2604 1024
4091 2604 1536
4091 2600 2048
4079 2731 2559
3548 2559 2571
3262 2559 2821
3003 2559 3094
4095 3071 0
4095 3071 512
4095 3071 1024
4094 3081 1536
4092 3101 2048
4092 3101 2559
4084 3186 3071
3629 3071 3157
3367 3071 3428
4095 3583 1
4095 3583 512
4095 3583 1024
4095 3583 1536
4095 3583 2048
4095 3583 2559
4094 3598 3071
4090 3640 3583
3731 3583 3761
4095 4095 1
4095 4095 512
4095 4095 1024
4095 4095 1536
4095 4095 2048
4095 4095 2559
4095 4095 3071
4095 4095 3583
4095 4095 4095
