Creative/squize_magenta_green_via_AB_rgbw.3dl
#25pt 3DLUT created by 3D LUT Creator Pro (c) Oleg Sharonov
#Copyright Oleg Sharonov
0 43 86 128 171 214 256 299 341 384 427 469 512 555 597 640 682 725 768 810 853 896 938 981 1023 
0 0 0
0 90 178
0 180 356
0 270 534
0 359 712
0 449 890
0 539 1068
0 629 1247
0 719 1425
0 809 1604
0 898 1783
0 988 1961
0 1078 2140
0 1147 2316
0 1215 2491
0 1284 2667
0 1352 2842
0 1421 3018
0 1490 3194
0 1600 3374
0 1710 3555
0 1821 3736
0 1931 3916
0 2041 4095
0 2152 4095
0 151 24
0 162 181
0 228 346
0 317 524
0 407 702
0 497 880
0 587 1058
0 667 1235
0 750 1413
0 840 1591
0 930 1770
0 1020 1949
0 1110 2127
0 1190 2305
0 1259 2481
0 1328 2657
0 1397 2832
0 1465 3008
0 1534 3183
0 1631 3362
0 1748 3543
0 1858 3724
0 1969 3904
0 2079 4085
0 2189 4095
0 302 49
0 302 219
0 325 362
0 365 514
0 455 692
0 545 870
0 635 1048
0 725 1226
0 796 1402
0 872 1579
0 961 1757
0 1051 1936
0 1141 2115
0 1231 2293
0 1302 2470
0 1372 2647
0 1441 2822
0 1509 2998
0 1578 3173
0 1647 3349
0 1773 3530
0 1896 3712
0 2006 3892
0 2117 4073
0 2227 4095
0 452 73
0 452 244
0 464 400
0 487 543
0 510 685
0 593 860
0 683 1038
0 773 1216
0 853 1393
0 924 1569
0 995 1745
0 1083 1923
0 1173 2102
0 1263 2281
0 1343 2458
0 1414 2635
0 1485 2812
0 1554 2988
0 1622 3163
0 1691 3339
0 1788 3517
0 1915 3699
0 2042 3880
0 2154 4061
0 2264 4095
0 603 98
0 603 268
0 603 439
0 626 581
0 649 724
0 672 866
0 731 1028
0 820 1206
0 910 1384
0 981 1560
0 1052 1736
0 1123 1912
0 1204 2089
0 1294 2268
0 1384 2447
0 1455 2623
0 1526 2800
0 1597 2977
0 1666 3153
0 1735 3329
0 1803 3504
0 1930 3686
0 2057 3867
0 2184 4049
0 2302 4095
0 745 133
0 754 293
0 754 463
0 766 620
0 788 762
0 811 905
0 834 1047
0 868 1196
0 958 1374
0 1039 1551
0 1110 1727
0 1180 1903
0 1251 2079
0 1326 2255
0 1415 2434
0 1496 2612
0 1567 2788
0 1638 2965
0 1709 3142
0 1779 3318
0 1848 3494
0 1945 3673
0 2072 3854
0 2199 4036
0 2326 4095
0 881 175
0 892 332
0 903 490
0 905 658
0 928 801
0 951 943
0 974 1086
0 996 1228
0 1019 1371
0 1096 1542
0 1167 1718
0 1238 1894
0 1309 2070
0 1380 2246
0 1451 2422
0 1537 2600
0 1608 2777
0 1679 2953
0 1750 3130
0 1820 3307
0 1891 3484
0 1960 3659
0 2087 3841
0 2214 4023
0 2341 4095
0 1016 217
0 1027 375
0 1038 532
0 1050 690
0 1067 840
0 1089 983
0 1112 1125
0 1135 1267
0 1158 1410
0 1181 1552
0 1224 1710
0 1295 1886
0 1366 2062
0 1437 2238
0 1508 2414
0 1579 2590
0 1647 2765
0 1718 2942
0 1788 3118
0 1859 3295
0 1930 3472
0 2001 3649
0 2103 3828
0 2230 4010
0 2357 4095
0 1151 262
0 1162 420
0 1173 577
0 1184 735
0 1195 893
0 1219 1034
0 1241 1177
0 1264 1319
0 1287 1462
0 1310 1604
0 1333 1747
0 1354 1897
0 1425 2073
0 1496 2249
0 1567 2425
0 1638 2601
0 1709 2777
0 1730 2929
0 1801 3105
0 1872 3282
0 1943 3459
0 2014 3636
0 2084 3812
0 2260 3998
0 2387 4095
0 1283 310
0 1296 464
0 1307 622
0 1318 780
0 1329 938
0 1347 1087
0 1370 1229
0 1393 1371
0 1416 1513
0 1439 1656
0 1462 1798
0 1482 1944
0 1499 2092
0 1555 2260
0 1626 2436
0 1696 2612
0 1767 2788
0 1812 2951
0 1829 3100
0 1884 3269
0 1955 3446
0 2026 3623
0 2097 3799
0 2222 3981
0 2402 4095
0 1408 367
0 1426 516
0 1442 667
0 1453 825
0 1464 982
0 1475 1140
0 1498 1282
0 1522 1423
0 1545 1565
0 1568 1707
0 1591 1850
0 1614 1992
0 1631 2141
0 1649 2290
0 1684 2447
0 1755 2623
0 1826 2800
0 1897 2976
0 1914 3125
0 1932 3274
0 1967 3433
0 2038 3609
0 2109 3786
0 2180 3963
0 2360 4095
0 1533 425
0 1551 573
0 1569 722
0 1587 870
0 1598 1027
0 1609 1185
0 1627 1335
0 1650 1476
0 1674 1618
0 1697 1759
0 1720 1902
0 1743 2044
0 1763 2190
0 1781 2338
0 1798 2487
0 1815 2635
0 1885 2811
0 1956 2987
0 2000 3149
0 2017 3299
0 2035 3448
0 2052 3597
0 2121 3773
0 2192 3950
0 2318 4095
0 1657 483
0 1675 631
0 1694 779
0 1712 928
0 1730 1076
0 1744 1230
0 1755 1388
0 1778 1529
0 1802 1671
0 1826 1812
0 1849 1954
0 1872 2096
0 1895 2238
0 1913 2387
0 1930 2535
0 1947 2684
0 1965 2832
0 2014 2998
0 2085 3174
0 2103 3323
0 2120 3472
0 2137 3622
0 2155 3771
0 2205 3937
0 2276 4095
0 1786 536
0 1800 689
0 1818 837
0 1836 985
0 1854 1134
0 1873 1282
0 1889 1433
0 1906 1582
0 1930 1724
0 1954 1865
0 1977 2007
0 2001 2148
0 2024 2290
0 2044 2435
0 2062 2584
0 2079 2732
0 2096 2881
0 2114 3030
0 2144 3185
0 2188 3348
0 2206 3497
0 2223 3646
0 2240 3795
0 2258 3945
0 2288 4095
0 1907 598
0 1925 747
0 1944 894
0 1962 1042
0 1980 1190
0 1998 1339
0 2016 1487
0 2034 1635
0 2059 1776
0 2082 1917
0 2106 2059
0 2129 2200
0 2153 2342
0 2177 2483
0 2195 2631
0 2212 2779
0 2230 2928
0 2247 3077
0 2264 3225
0 2282 3374
0 2300 3522
0 2317 3671
0 2335 3820
0 2352 3970
0 2369 4095
0 2031 656
0 2049 805
0 2071 948
0 2093 1092
0 2111 1241
0 2129 1389
0 2147 1537
0 2165 1685
0 2188 1827
0 2214 1966
0 2237 2107
0 2261 2249
0 2285 2390
0 2308 2532
0 2333 2672
0 2354 2816
0 2371 2965
0 2389 3113
0 2406 3262
0 2423 3411
0 2445 3555
0 2466 3700
0 2483 3849
0 2500 3998
0 2518 4095
0 2155 715
0 2173 863
0 2191 1011
0 2217 1150
0 2242 1291
0 2260 1439
0 2278 1587
0 2296 1736
0 2314 1884
0 2342 2019
0 2369 2155
0 2392 2297
0 2416 2438
0 2440 2580
0 2463 2721
0 2489 2861
0 2513 3002
0 2530 3150
0 2547 3299
0 2565 3447
0 2582 3596
0 2607 3736
0 2631 3878
0 2649 4027
0 2666 4095
0 2279 773
0 2297 921
0 2315 1069
0 2337 1213
0 2363 1352
0 2389 1491
0 2409 1637
0 2427 1786
0 2445 1934
0 2468 2076
0 2496 2211
0 2523 2346
0 2548 2486
0 2571 2628
0 2595 2769
0 2619 2910
0 2645 3050
0 2670 3189
0 2689 3336
0 2706 3484
0 2724 3633
0 2745 3777
0 2770 3917
0 2795 4058
0 2814 4095
0 2399 836
0 2421 979
0 2439 1127
0 2457 1275
0 2483 1415
0 2509 1554
0 2535 1693
0 2558 1836
0 2576 1984
0 2594 2133
0 2622 2268
0 2649 2403
0 2677 2538
0 2703 2676
0 2726 2818
0 2750 2959
0 2775 3099
0 2801 3238
0 2826 3378
0 2848 3521
0 2865 3670
0 2882 3818
0 2908 3959
0 2933 4095
0 2958 4095
0 2513 906
0 2538 1045
0 2563 1185
0 2581 1333
0 2603 1477
0 2629 1616
0 2655 1756
0 2681 1895
0 2707 2034
0 2725 2183
0 2748 2325
0 2775 2460
0 2803 2595
0 2831 2730
0 2858 2866
0 2882 3007
0 2906 3148
0 2931 3287
0 2956 3427
0 2982 3567
0 3007 3707
0 3024 3855
0 3045 4000
0 3070 4095
0 3096 4095
0 2627 976
0 2652 1115
0 2678 1255
0 2703 1394
0 2723 1540
0 2749 1679
0 2775 1818
0 2801 1957
0 2827 2097
0 2853 2236
0 2874 2381
0 2901 2516
0 2929 2652
0 2957 2787
0 2984 2922
0 3012 3058
0 3037 3197
0 3062 3337
0 3087 3476
0 3112 3616
0 3138 3755
0 3163 3895
0 3183 4041
0 3208 4095
0 3233 4095
0 2743 1044
0 2768 1184
0 2793 1323
0 2819 1462
0 2844 1602
0 2871 1740
0 2897 1879
0 2923 2018
0 2949 2157
0 2975 2297
0 3001 2436
0 3028 2572
0 3056 2707
0 3084 2843
0 3111 2978
0 3139 3113
0 3166 3248
0 3194 3384
0 3219 3524
0 3245 3663
0 3270 3803
0 3295 3942
0 3320 4082
0 3347 4095
0 3372 4095
0 2864 1107
0 2889 1246
0 2915 1385
0 2940 1525
0 2965 1664
0 2990 1804
0 3023 1933
0 3050 2072
0 3076 2211
0 3102 2351
0 3128 2490
0 3154 2629
0 3186 2759
0 3214 2894
0 3241 3030
0 3269 3165
0 3297 3300
0 3324 3435
0 3357 3566
0 3382 3705
0 3407 3844
0 3433 3984
0 3458 4095
0 3483 4095
0 3515 4095
0 2975 1182
0 3008 1312
0 3036 1447
0 3061 1587
0 3086 1726
0 3111 1866
0 3141 2000
0 3174 2130
0 3203 2266
0 3229 2405
0 3255 2544
0 3281 2683
0 3310 2818
0 3342 2948
0 3372 3081
0 3399 3216
0 3427 3352
0 3454 3487
0 3484 3620
0 3517 3750
0 3545 3885
0 3570 4025
0 3595 4095
0 3621 4095
0 3649 4095
0 3087 1257
0 3119 1387
0 3151 1517
0 3182 1649
0 3207 1788
0 3233 1928
0 3258 2067
0 3291 2197
0 3324 2327
0 3356 2459
0 3382 2598
0 3408 2737
0 3434 2877
0 3466 3007
0 3498 3137
0 3529 3268
0 3557 3403
0 3585 3539
0 3612 3674
0 3645 3804
0 3677 3934
0 3708 4066
0 3733 4095
0 3758 4095
0 3783 4095
168 30 0
48 0 59
0 42 189
0 132 367
0 222 545
0 311 723
0 401 901
0 491 1079
0 581 1258
0 671 1437
0 761 1615
0 851 1794
0 941 1972
0 1020 2149
0 1088 2325
0 1157 2500
0 1226 2676
0 1294 2852
0 1365 3027
0 1457 3206
1 1567 3386
1 1677 3567
1 1788 3748
1 1898 3929
1 2007 4095
171 171 0
171 171 171
171 260 349
171 350 527
171 440 705
171 530 883
171 620 1061
171 710 1239
171 800 1418
171 889 1596
171 979 1775
171 1069 1954
171 1159 2132
171 1238 2309
171 1307 2485
171 1375 2661
171 1444 2836
171 1512 3012
171 1581 3187
171 1681 3367
171 1791 3547
171 1902 3728
171 2012 3909
171 2122 4090
171 2233 4095
146 297 0
171 321 195
171 333 352
171 398 517
171 488 695
171 578 873
171 668 1051
171 758 1229
171 833 1405
171 921 1584
171 1011 1762
171 1101 1941
171 1190 2120
171 1280 2298
171 1351 2475
171 1419 2650
171 1488 2826
171 1557 3002
171 1625 3177
171 1708 3354
171 1829 3535
171 1939 3716
171 2050 3897
171 2160 4078
171 2270 4095
122 424 0
171 472 219
171 472 390
171 495 532
171 536 684
171 626 862
171 716 1040
171 805 1218
171 891 1396
171 962 1572
171 1042 1749
171 1132 1928
171 1222 2107
171 1312 2286
171 1392 2463
171 1463 2640
171 1532 2816
171 1601 2991
171 1669 3167
171 1738 3343
171 1850 3523
171 1977 3704
171 2087 3885
171 2197 4066
171 2308 4095
97 550 0
171 623 244
171 623 414
171 635 571
171 657 713
171 680 856
171 764 1030
171 853 1208
171 943 1386
171 1019 1563
171 1090 1739
171 1164 1915
171 1253 2094
171 1343 2273
171 1433 2452
171 1504 2628
171 1575 2805
171 1645 2981
171 1714 3157
171 1782 3332
171 1865 3509
171 1992 3691
171 2119 3872
171 2235 4053
171 2345 4095
67 665 0
171 774 268
171 774 439
171 774 609
171 797 752
171 820 894
171 843 1037
171 901 1198
171 991 1376
171 1076 1554
171 1147 1730
171 1218 1906
171 1289 2082
171 1375 2260
171 1465 2439
171 1545 2617
171 1616 2793
171 1687 2970
171 1758 3147
171 1826 3322
171 1895 3498
171 2007 3678
171 2134 3859
171 2261 4041
171 2383 4095
25 759 0
171 913 307
171 924 464
171 925 634
171 936 790
171 959 933
171 982 1075
171 1005 1218
171 1039 1366
171 1129 1544
171 1205 1721
171 1275 1897
171 1346 2073
171 1417 2249
171 1496 2426
171 1586 2605
171 1657 2782
171 1728 2958
171 1799 3135
171 1870 3312
171 1939 3488
171 2022 3665
171 2149 3846
171 2276 4028
171 2403 4095
0 870 17
171 1049 349
171 1060 506
171 1071 664
171 1076 829
171 1098 971
171 1121 1114
171 1144 1256
171 1167 1399
171 1190 1541
171 1262 1712
171 1333 1888
171 1404 2064
171 1475 2240
171 1546 2416
171 1618 2592
171 1698 2770
171 1769 2947
171 1840 3123
171 1911 3300
171 1982 3477
171 2052 3653
171 2164 3833
171 2291 4015
171 2418 4095
0 1005 59
171 1184 392
171 1195 549
171 1206 707
171 1217 865
171 1234 1015
171 1257 1157
171 1280 1299
171 1303 1442
171 1326 1584
171 1348 1727
171 1391 1886
171 1462 2062
171 1532 2238
171 1603 2414
171 1674 2590
171 1745 2766
171 1799 2934
171 1870 3111
171 1941 3288
171 2012 3465
171 2083 3641
171 2181 3820
171 2311 4002
171 2438 4095
0 1140 104
171 1318 437
171 1329 594
171 1340 752
171 1351 910
171 1362 1067
171 1386 1209
171 1409 1351
171 1432 1494
171 1455 1636
171 1478 1779
171 1499 1923
171 1520 2073
171 1591 2249
171 1662 2425
171 1733 2601
171 1804 2777
171 1848 2940
171 1883 3098
171 1954 3275
171 2025 3452
171 2095 3628
171 2166 3805
171 2319 3989
171 2468 4095
0 1265 161
171 1447 489
171 1464 639
171 1475 797
171 1486 955
171 1497 1112
171 1514 1262
171 1538 1403
171 1561 1545
171 1584 1688
171 1607 1830
171 1630 1973
171 1648 2120
171 1666 2268
171 1721 2436
171 1792 2612
171 1863 2788
171 1934 2964
171 1951 3114
171 1968 3263
171 2037 3438
171 2108 3615
171 2179 3792
171 2277 3971
171 2456 4095
